/* XPM */
static char *_364d99a7d8b4798b7e34b4297a555c6CTvH87dTOzN6xehf[] = {
/* columns rows colors chars-per-pixel */
"384 384 207 2 ",
"   c #00010D",
".  c #030612",
"X  c #060915",
"o  c #0B0C15",
"O  c #060B18",
"+  c #0B0E1A",
"@  c #100F1D",
"#  c #100F16",
"$  c #0E111D",
"%  c #071019",
"&  c #11121E",
"*  c #1A191F",
"=  c #0E1421",
"-  c #0F1923",
";  c #141622",
":  c #181725",
">  c #161A25",
",  c #191A26",
"<  c #161C29",
"1  c #1A1D2A",
"2  c #141528",
"3  c #1E1F32",
"4  c #211D2B",
"5  c #1D212D",
"6  c #192229",
"7  c #1E2331",
"8  c #21232E",
"9  c #23282E",
"0  c #222532",
"q  c #252935",
"w  c #292B37",
"e  c #262B39",
"r  c #2A2D3A",
"t  c #282735",
"y  c #2C3137",
"u  c #2D323D",
"i  c #2E383E",
"p  c #31333E",
"a  c #34393F",
"s  c #2E3441",
"d  c #2F3841",
"f  c #323542",
"g  c #383745",
"h  c #353945",
"j  c #383B46",
"k  c #363C49",
"l  c #3A3E4A",
"z  c #343748",
"x  c #3C3F50",
"c  c #3D424D",
"v  c #3E4451",
"b  c #3F4953",
"n  c #40444E",
"m  c #43484E",
"M  c #424652",
"N  c #454A55",
"B  c #494C56",
"V  c #464C59",
"C  c #494E5A",
"Z  c #444758",
"A  c #4D525D",
"S  c #485058",
"D  c #51545E",
"F  c #54595F",
"G  c #4E5561",
"H  c #4F5862",
"J  c #525662",
"K  c #545A65",
"L  c #595D66",
"P  c #565D69",
"I  c #5A5E6A",
"U  c #5C626D",
"Y  c #586068",
"T  c #5E6571",
"R  c #61646E",
"E  c #64696F",
"W  c #626672",
"Q  c #656A75",
"!  c #696D76",
"~  c #666D79",
"^  c #6A6E7A",
"/  c #677076",
"(  c #6B7176",
")  c #6D727D",
"_  c #677079",
"`  c #71757E",
"'  c #74797F",
"]  c #6B6E80",
"[  c #6F7581",
"{  c #6F7982",
"}  c #727682",
"|  c #757B85",
" . c #797D86",
".. c #777D88",
"X. c #797E8A",
"o. c #74768A",
"O. c #7C7E93",
"+. c #807F8D",
"@. c #7B8085",
"#. c #77818B",
"$. c #7C828D",
"%. c #778087",
"&. c #7F8690",
"*. c #7F8892",
"=. c #81858E",
"-. c #84898F",
";. c #818692",
":. c #848A95",
">. c #898C96",
",. c #878D98",
"<. c #898E9A",
"1. c #8B9197",
"2. c #87919A",
"3. c #8C929D",
"4. c #8D989E",
"5. c #879197",
"6. c #91959E",
"7. c #93999F",
"8. c #8F96A0",
"9. c #8F98A1",
"0. c #9097A1",
"q. c #949AA5",
"w. c #989CA7",
"e. c #979EA8",
"r. c #989FA9",
"t. c #9396A8",
"y. c #97A0A9",
"u. c #9CA3AD",
"i. c #9DA5AB",
"p. c #9FA6B0",
"a. c #9FA8B1",
"s. c #A1A4AE",
"d. c #A4A9AF",
"f. c #A0A7B1",
"g. c #A3AAB4",
"h. c #A9ACB6",
"j. c #A7AEB8",
"k. c #A8AFB9",
"l. c #A4A7B8",
"z. c #ABB1B7",
"x. c #A7B0B9",
"c. c #ACB2BC",
"v. c #AFB8BD",
"b. c #B1B4BE",
"n. c #B3B9BF",
"m. c #B1B2B7",
"M. c #AFB6C0",
"N. c #AFB8C1",
"B. c #B0B7C1",
"V. c #B4BAC4",
"C. c #B9BEC6",
"Z. c #B7BEC8",
"A. c #B9BFC9",
"S. c #B7C0C6",
"D. c #BBC1C6",
"F. c #B7C0C9",
"G. c #BCC3CC",
"H. c #BEC8CE",
"J. c #BFC6D0",
"K. c #BFC8D1",
"L. c #C0C6CE",
"P. c #C2C9CD",
"I. c #C8CDCE",
"U. c #C1C7D1",
"Y. c #C4CBD3",
"T. c #C8CED6",
"R. c #C7CDD8",
"E. c #CACED9",
"W. c #C8C7D5",
"Q. c #C7D0D6",
"!. c #CBD2D5",
"~. c #C7D1DA",
"^. c #CCD3DB",
"/. c #CFD8DE",
"(. c #D1D6D6",
"). c #D1D6DE",
"_. c #D4D9DD",
"`. c #D8DEDF",
"'. c #CED6E0",
"]. c #CFD8E2",
"[. c #D3D7E0",
"{. c #D5DAE2",
"}. c #D9DDE5",
"|. c #D7DDE9",
" X c #DBDFE8",
".X c #DEE2E7",
"XX c #DCE1E6",
"oX c #DFE4E9",
"OX c #DDE2EA",
"+X c #DAE4EA",
"@X c #DEE5F0",
"#X c #E1E2E6",
"$X c #E1E5ED",
"%X c #E4E9EE",
"&X c #EAEBEF",
"*X c #E3E7F0",
"=X c #E5EAF2",
"-X c #E9EDF5",
";X c #E7EDF8",
":X c #EBEEF9",
">X c #ECF1F6",
",X c #EDF2FA",
"<X c #F1F2F6",
"1X c #F2F6FD",
"2X c #F6FAFE",
"3X c #F5F9FE",
"4X c #FAFEFF",
/* pixels */
"_ P ) ~ Q U | { { ) ) ) ) ) ) ) ` ) ) ^ ! ` } ! ) ) ) ` ) ) ) ^ Q | ) R ^ ) ^ } ^ ) Q Q ) } ) ^ ` ` } ` ` ) ` } ) ) $.! } } ` Q | ! ) ^ g.$X^.OX}.}.}.}.}.}.}.`.}.`.}.`.`.`.`.`._.{.=X1.`  .` ` Q ` | ` ) | | ` | } ) } } ) ) } } } } } } } } ' ' ' ' } } ' ' } X.Q 1 1 0 & q X. . . . . . . . .} } } } } } } } } | ) ` ` ) } } | |  . . . . . .$.$.$.X.X. . .$.' ' ' }  . . . . . .$. .) (  . . . .} }  . .` }  . .} } ` ` ` ) ) D.#XXXs.` -.' @.@.@.@.@.@.@.@. . . . .| | | | | | | | | | | .. .............| ..( ..$.#.| %.#... .} } } } } }  . . . .} } } } ` `  .$.@.` )  .}  .` `  . .'  .} } } } } } } } } } } } } } } } } } }  . . . . . . . .| } } } } ..:.` `  .! ! ) ! ` } }  .X.` ..| [ ^ ^ ) } [ ) | ) | } | '.Z.}.L.Y.T.T.T.E.T.I.D.(.Y.L.!.Y.L.(.b.X.' } ` ' X.) ( ( ~ Q | U { T ",
"_ Q Y U | Q P | _ Q Q ^ ^ ^ } } Q ^ ) ) ) ) ) ) ! ! ! ! ! ! Q Q U Q ) } } Q W ) ^ ) } ) ) ) ` ) ) ` ` ` ) ) ) ` | Q ) ) ) U `  .} ) ` ! k.-X).|.oXoXoXoX#X#XoXoXXX`.}.}.}.}.}.}.%X#X$X1.` ' ) ` } ` ` } } } ) ^ ) ` ) ) } | } ) ! ! ( ( ( ( ! ( ( ( ( ( ) ) ( ) ` I 1 < 0 , r } ` ` ' ' ' ' ` ` ) ) ) ) ) ) ) ) } ` } `  .|  . .} } } } } } } } } } } ` ` ` ` ` }  . . . . . . . . . . .$.$.@.} }  .| ..` } `  ...} }  .| ` | -.! P.2X4Xb.E `  .' ' ' ' '  . . .} | | } | } } }  . . . . . . . .} | } } } } } } ) ..:.$...5.%.#... ...} ..| } }  . .} } } } } } $. .' ' }  . . .) ` } ' ` ` ' ' | } } } } } } | | | } } } } } } } } } }  . . . .} } } } } } ` ` W } ) ) ) ! } } =.} | Q ! ) ` } ` [ [ } } } ^ ^ W ^ | } ;.=XE.[.}.XXXX}.}.XX#X}.XX$X}.`.#X}._.#X X .(  .$.) E ` | _ $.T _ | U ( ",
"U U _ ) U { ,.#.8.:.:.<.;.$.:.;.=.:.:.:.:.=.$.:.;.:.:.:.:.;.=.=.3.^ U ) } Q Q ^ W W ` } Q } :.:.>.>.<.>.>.:.>.>.6.$.=.3.>.` <.^ ^ | ` Q V.4X,X2X1X1X1X1X1X1X1X1X2X2X2X2X2X2X2X2X2X=X=Xg.3.3.=.>.:.=.;.:.:.;.$.;.<.3.3.>.<.0.6.>.3.3.6.6.6.6.6.3.3.3.3.6.6.3.3.3.0.X.1 > > > u ;.6.6.6.6.6.6.6.6.6.6.6.6.6.6.6.6.6.=.0.Q R R } 6.0.0.q.q.q.q.q.q.0.0.q.q.q.q.q.q.3.6.6.3.6.6.6.6.>.1.-.:.7.7.1.1.6.6.3.w.;.6.<.<.3.3.3.3.6.>.| Q } (.1X>XP.6.6.7.6.3.1.1.3.3.3.3.3.3.3.3.3.3.3.3.3.3.3.3.3.3.3.3.3.3.3.3.3.3.3.2.q.' E E Y ( P f.6.3.3.1.3.3.3.1.3.3.3.3.1.3.1.1.>.1.1.>.1.3.3.>.1.>.6.6.1.1.3.>.3.3.3.3.<.3.3.3.3.3.3.3.3.3.3.3.3.3.3.6.6.6.6.6.6.3.3.3.3.1.1.1.>.q.q.q.>.<.3.! ) R 0.3.q.6.w.$.^ ) ) } ) ) ) ) | | | Q :.4X1X,X:X>X-X&X&X-X-X-X-X-X-X1X2X<X-X-X}.:.:. .=.3.>.q.3.&.J Q Q Q | ~ ",
") Q T T G &.4X4X4X3X4X4X4X4X4X4X4X4X4X4X4X4X2X4X4X4X4X4X4X4X4X4XR.6...>.3.3.0.3.w.;.=.X...c.,X4X4X4X4X4X4X4X4X4X1X2X1X2X4X1X1X:.Q ..Q K k.4X1X2X4X4X4X4X4X4X4X4X2X2X2X4X4X4X2X2X4X2X4X2X2X4X4X4X4X4X4X4X4X2X4X4X4X4X4X4X2X4X4X4X4X4X4X4X4X4X4X4X4X4X4X4X4X4X2X2X4XE.0 , + 5 n *X2X2X2X2X2X2X2X2X4X2X2X2X2X2X2X2X4X-X4Xi.} ) h.2X1X1X2X2X2X2X2X2X2X2X4X4X4X4X4X4X4X4X4X4X4X4X4X4X4X4X4X4X4X4X4X4X4X4X1X4X1X4X4X2X2X4X4X1X4X4XL.' ) _.2X>X2X4X4X2X4X4X4X4X4X4X4X4X4X4X4X4X4X4X4X4X4X4X4X4X4X4X4X4X4X4X4X4X4X4X4X4X1XY X 5 & > q =X4X4X4X4X4X4X4X4X4X4X4X4X4X4X4X4X4X4X4X4X4X4X4X4X4X3X4X4X4X4X4X4X4X4X4X4X4X4X4X4X4X4X4X4X4X4X4X4X4X4X4X4X4X4X4X4X4X4X4X4X4X4X4X4X4X2X2X4X,X2X|. .} } $X1X4X2X2XT.W Q Q Q W R Q ^ Q Q W I ;.1X4X4X4X4X4X4X4X4X4X4X4X2X4X4X4X4X4X4X4X1X4X4X4X4X4X,X>X4XT _ ,.T G { ",
"U [ K { c.p.,X,X,X4X2X1X2X2X1X1X2X2X,X1X4X2X1X1X2X2X2X2X2X2X2X2X4X1X4X4X2X4X4X4X4X1X4X4X,X1X4X,X2X2X2X2X2X2X2X2X,X4X4X2X4X4X2X} U | ^ Q b.2X2X2X3X3X3X3X3X3X1X1X1X1X1X2X1X1X1X1X2X1X2X4X2X2X;X:X,X2X1X,X,X2X4X1X1X1X1X2X1X,X1X4X2X2X2X4X4X2X2X2X4X4X4X4X4X4X4X4X2X[.; 5 ; > 0 2X4X4X4X4X4X4X4X4X2X2X2X2X2X2X4X4X4X,X4Xq.Q U s.4X2X2X4X4X4X4X4X4X4X4X4X4X4X4X4X4X2X2X2X2X2X2X2X2X1X2X2X1X1X1X1X2X2X4X1X4X,X4X2X2X,X4X4X,X2X2XG.` ) !.,X=X1X4X4X2X2X2X2X2X2X2X2X2X2X2X2X2X2X2X2X2X2X2X2X4X2X2X2X2X2X2X1X1X1X1X1X1X4XK   , ; $ 5 =X4X2X3X3X2X2X2X2X2X2X4X4X4X4X4X4X4X1X,X1X1X1X1X4X4X1X1X4X2X1X2X2X2X2X2X2X2X2X2X2X2X2X2X2X2X2X2X2X3X2X2X2X2X3X3X1X2X2X2X2X2X2X2X3X4X2X4X4X2X4XOXQ ! Q $X1X2X1X4X|.s.g.k.k.g.f.g.h.h.g.c.h.A.1X:X:X1X1X,X1X1X1X1X1X2X1X1X1X-X-X2X4X,X1X,X4X4X2X4X2X4X|.e.;.Y | U | ",
"U _ U *.+X,X1XM.f.{. X'.*XOX/.OX X).}.}.^.}.|.E.}.}.}.}.}.}.}.}.E./.}.}.).}.}.R.[.E.[.}./.}.OX[.|.|.|.|.OXOXOXOX}.}.}.).).^.}.6.) $...=.k.^.^.R.L.L.L.L.L.L.L.L.P.P.I.I.P.P.L.L.L.L.L.).).}.).|.}.[././. X*X XE.}.}. X X X|.}.}.^././.).)./././././.).).).)././.{.C.; q 5 ; 1 }.[.[._.[._._._._.}.}.}.}.}.}.}.}.}.^.$Xu.:.=.h.OX}.}.|.|.|.|.|.|.OX X|.|.|.|.|.|.$X$X$X$X$X$X$X$XOX|.$X,X=X=X-XOX$X,X,X=X:X=X*X,X*X=X=X=X-X*X).G.Y.#X=X-X>X#X_.oX%X%X%X%X%X%X%X%X-X-X-X=X=X=X=X=X=X=X=X=X=X=X=X=X=X=X=X=X=X=X=X=X:X:.N n n L Q {.%X%X#X#X%X%X%X%X#X#X%X%X%X%X%X%X=XOX X=X,X-X$XOX$X-X=X=X-XOX|.-X=X=X*X$X$X*X*X=X$X$X$X*X=X%X=X%X%X%X%X%X%X%X%X%X%X&X=X%X=X%X=X=X=X:X,X-XOX,X[.! ) W }.:X=X=X-XOX}.$X1X4X4X4X4X4X4X4X4X2X:X,X XXX}._.)._.{.{._._._.$X%XOX XXXXX|.>X1X}.%X|.1XL.g.=X3X4X{.K _ { K ",
"U U 2.V.K.R.A   < :.c.g.G.k.:.w.3.;.3.<.$.i.L.B.b.b.b.c.b.b.b.V.E.E.C.B.C.U.C.B.c.V.G.L.L.G.C.B.C.C.C.C.G.L.G.G.^.Y.E.G.G.V.T.L.).E.Y.E.T.Y.L.V.P.P.P.P.P.P.P.P.D.D.L.L.L.D.C.C.D.G.b.G.b.C.c.B.G.C.C.G.c.6.;.:.;.:.;.$.0.V.C.c.V.V.C.C.C.C.C.C.V.V.V.V.V.V.V.V.U.f.l u f u J C.C.C.C.C.C.C.C.C.G.G.G.G.L.L.L.L.Y.Y.T.G.G.C.Y.^.L.L.L.U.U.U.U.U.^.T.T.Y.Y.Y.Y.Y.L.L.L.U.Y.Y.Y.Y.^.Y.}.^.u.q.s.0.3.q.q.3.^.T.T.).^.Y.Y.^.^.R.^.|.XXP.L.!.{._.(.XX(.(.(.(.(.(.(.(.(.(.(.^.^.^.!.!.!.!.!.!.!.!.!.!.^.^.).^.).^.E.^.).).$X=X=X-XT.T.T.I.P.I.I.I.T.I.P.I.P.I.I.I.I.I.P.}.}.C.g.u.w.3.3.w.3.s./.^.G.^.Y.Y.Y.Y.Y.Y.R.R.Y.Y.Y.Y.R.R.T.T.T.I.T.!.!.!.!.!.(.(.(.(.(.(.(.(.#X,X-X|.E.|.Y.! ^ U T.,X-X:X}.|.T.(.OX%X-X-X-X>X=XXXoX_._.}.|.=X%X{.).)._.)._._.).}.L.s.s.d.w.6.6.d.C.XXT.=Xn   V E.3X{...T U _ ",
"Y H 3.].'.c.  u   3.U.M.B...u f h r c c p ` G.C.G.G.G.C.G.G.G.L.G.E.G.V.C.C.B.Y.C.U.A.C.C.A.G.R.U.L.L.Y.T.^.^.T.Y.G.T.b.V.b.G.Y.E.C.C.^.L.A.E.T.G.G.G.G.L.G.D.D.L.L.L.L.L.D.C.C.V.G.B.Y.C.U.C.G.G.C.Y.G.;.h 0 M h n h u W c.E.C.C.C.C.C.C.C.C.C.C.C.C.G.G.C.C.C.G.G.R.R.}.G.^.C.G.G.G.G.G.G.G.G.G.G.G.L.L.L.L.L.G.G.V.L.T.T.T.G.U.Y.Y.Y.Y.Y.Y.Y.[.).E.R.Y.R.T.T.T.T.T.E.^.^.^.^.[.R.}.h.N 0 l h l j h M Y.}.}./.}.}.}.).).}.}.)._.!.XXXX(.(._.XX}.}.}.}.}.}.}.}.}.}.}.{.{.{._._.{.{.{.{.{.{._._.{.{.{.{.{.{.{.{.{.E._.).T.E.}.}._.(.(.(.(._._._.(.(.(._._._._._.P.=X).$.h u c n M N h ! ).;XT.).).).)././.).).)./././.).).).).).!.!.(.(._._._._.`.`.`.`.`.`.`.}.%X1X=X}./.OXL.! ` U G.,X-X,X^.}.}.}._.(.!.!.(._._._.}.^._.XX%X>X:X X).^.).^.(.}.{.E.X.y t a p p l p $.{.).1X0 , > s 3X4XK T ( ~ ",
"U A ,.+XA.k   > P j.c.u.M h h M J L K I U M B :.G.b.C.G.b.C.Y.C.U.U.L.C.C.C.A.C.A.C.C.G.A.G.G.G.L.L.L.U.Y.Y.Y.Y.T.R.Y.G.V.V.G.Y.R.R.R.R.Y.U.U.L.C.D.G.D.L.P.P.L.D.G.G.P.G.G.G.G.G.G.G.V.V.F.A.G.C.E.g.K f l c C K I U J J U ;.B.C.B.G.c.G.C.b.L.C.C.C.C.C.C.C.C.A.A.A.F.G.G.G.G.G.G.G.G.G.G.G.G.G.G.G.L.L.L.L.L.L.L.L.U.U.Y.Y.Y.L.Y.Y.W.W.Y.Y.Y.Y.Y.R.T.T.T.W.Y./.U.).R.E.G./.R.E.A.A M h h I ^ W  .J K L $.{.).}.^.^.^.).|.|.OX}._._._._._._._.`._._._._._._._.{.{.{._._._._._.(.(._._._.(.(.(.[.[._._._._._._._._._._._._.[.).(.(.(.!.!.!.!.!.!.(.(.I.P.I.!.!.T.c.U h h I J K U } U A ^ $.R./.T.L.T.T.E.T.Y.^.^.^./././.^.^.^.T.!.(._.(.(.(._._._.`._._._.XX%X%X-X=X|.}.}.^.L.R.E.^.}.-X-X|.(._._._._._.}.`.`.`._.`.}._.!._.XX,XT.}.$XL.}.T.).C.D w n N A L D D L B F ^.=XL o $ > ~.OX{ U Q ~ ",
"T K 2.~.j.G u c c. Xf.Q 0 K 3.C.C.1X2X1X:X3.M A C.G.C.c.L.L.A.C.U.R.U.G.C.G.G.C.G.G.G.G.G.G.G.G.U.U.U.Y.Y.Y.Y.L.W.R.Y.G.V.C.G.Y.R.R.R.U.U.L.L.L.L.L.L.L.L.P.L.D.G.G.G.G.G.G.G.C.G.D.V.V.G.F.B.B.W.G.) 5 V ..u./.2X:X1X1X$.w c E.C.U.U.C.U.C.b.C.C.C.C.C.C.C.C.C.A.F.A.F.G.G.G.G.G.G.G.U.P.P.Y.Y.G.G.G.L.L.L.L.L.L.L.L.U.U.Y.Y.Y.Y.U.U.U.Y.Y.Y.Y.Y.Y.Y.T.T.W.W.Y.R.G.^./. X[.}.R.=X<.> M :.B.[.$X1X1X4Xc.q c C.|.).}.OX}.^.).).T._._._._._._._._._.`.{.}.}.`._.`.{.{.`._._._._._._._._._._.(.(.).[.[.[.)._.)._.)._._._._._.)._.).(.(.(.(.^.!.!.!.I.I.!.(._.`._.!.|.;.w M  .c.Y.:X2X,X4Xc.q c C. X[.).|.[.E.^.^.T.^.^.^./././.^.^.!.!.(.(.(.(.(._._._.`._._._.XX#X>X1X-X|.).}.}.).}.}.[.|.:X-X|.)._.(.(._._._._.(._.(.(.(.!.!._.XX$X).E._.[.).=XU.D p D <.V.E.1X2X$X2X1.y ! 2X1XX.q M OX;X) U U U ",
"A S 8.].Y.c.A.F.k.f.G h l $.g.C.}.4X2X4X1Xk.! n n 6.G.h.Y.C.C.U.U.R.R.U.L.U.L.A.G.G.G.G.G.G.G.G.U.Y.Y.Y.Y.Y.L.L.W.Y.U.G.C.C.L.U.R.Y.Y.U.L.L.L.L.Y.T.T.P.L.L.L.D.L.G.G.D.D.D.V.C.V.G.C.V.J.A.A.J.c.U p 0 | u.C.E.4X,X1X4Xc.} w B 0.C.B.k.A.G.C.U.A.A.C.C.A.C.A.A.F.F.A.A.G.G.G.G.G.G.G.Y.P.Y.Y.Y.G.G.G.L.L.L.L.L.L.L.L.U.U.Y.Y.Y.Y.U.L.L.L.U.Y.T.Y.Y.R.T.T.T.W.Y.W.U./.R.E.R.E.C.W c f ^ w.c.W.=X4X,X2XC.} N h :.).^.[.}.).).|.}.}._._._._._._._.`.}.}.XXXX}.}.}.{.{.{.{.}.}.}.}.}.}._._.)._.}.}.[.}.[.[.}.).).)._.)._.).).[.).).(.(.(.!.^.!.!.!.(.!.!.!.T.T.I.D.) f 0 ^ r.c.G.=X4X:X1XU.) J U s.^.L.L.^.T.^.).).E.^.^.^.^.^./.^.(.(.(.(.!.!.(.(._._.}.`._._.}.XX=X,X,XOX).).}.}.|.|.[.}.=X=X|._.}.{._.{.}.}._._.{._.(.(._._.XX%X}.|.).W.E.E.r.N r j } i.Y.).1X2X4X>Xd.Q N L }.T.+XOX4X*XU Y U P ",
"K A q.~.c.u.c.u.c.$.h v V W 3.G.}.=X4X4X[.b.i.n , $.^.L.T.V.C.A.U.R.R.Y.U.R.U.G.G.G.G.G.C.C.C.C.U.U.Y.Y.Y.Y.Y.Y.R.Y.Y.G.G.A.L.U.R.Y.U.U.L.L.L.L.T.!.T.P.L.L.L.D.P.G.D.D.C.V.V.D.B.G.U.C.G.B.Y.E.g.; q C } <.G.C.,X4X1X/.i.k.L 1 <.R.U.C.C.C.C.G.A.A.C.C.C.C.A.C.A.A.F.F.F.G.G.G.G.G.G.G.P.P.P.P.L.L.G.L.L.L.L.L.L.L.L.U.L.Y.Y.Y.W.U.L.G.G.L.Y.T.Y.Y.R.T.T.T.W.Y.U.R./.W.U./.}.U.1 w K ^ ;.B.E.,X4X4X|.h.c.I   L -X|.^.}.).R.)._.}._._._.`.{.{.{.}.}.XXXXXX}.}.{.}.}.{.{.{.}.}.}.{.}.}._._.}.}.}.}.[.}.}.[.[.[.[._._.).).).[.).).(.(.(.^.^.^.!.!.!.T.(.!.P.!.}.^.5 r C | 3.g.E.,X4X4X[.C.k.) q $.*X).L.}.).E.T.T.E.E.^.^.^.).).).(.(.(.!.!.!.^.(._._.}.}._._._.{.|.*X:X=XOX X}.[.}.}.).[.*X=XOXOXOX}.{._._.{.{._._._._.XXoX#X#X#X^._. X).W.2XW , a B  .6.U.|.4X4X>XP.C.>.F $ h.=X/.+X{.'.Y T T U ",
"K V 9.].B.g.F.c.j.A ; J :.r.k.C.=X1X4X1XY.Y.}.w.L K 3.C.U.C.L.B.G.U.R.Y.Y.R.U.G.G.G.G.G.G.G.G.G.L.U.Y.Y.R.R.Y.Y.W.Y.Y.L.L.L.L.L.U.U.U.U.L.L.L.L.Y.T.T.L.D.G.L.L.P.G.D.C.V.S.F.G.A.F.J.G.J.M.J.g...> W ;.3.r././.:X4X4X*XY.C.3.J J f.U.C.C.C.C.J.A.C.C.C.C.C.C.C.A.F.F.F.F.F.F.F.G.G.G.G.G.G.G.G.L.L.L.L.L.L.L.L.L.L.L.U.L.U.U.U.Y.U.L.G.G.L.Y.T.Y.Y.Y.W.T.T.T.Y.U.E.E.R.R.[.C.:.u J <.:.r.R./.*X4X1X,X|.V.6.R n g.).}.}.).T.}.).}._.`.`.}.}.}.}.}.}.XXXX}.}._._.}.|.|.}.{.{.}.}.}.}.}.}.}.}.}.}.[.[.[.[.[.[.[.[.[.[.[.).).).)./.(.(.(.^.^.^.^.^.^.Y.^.^.Y.^.L.6.h U :.0.f.C.[. X2X4X:X XB.0.I C g./.R.}.T.E.T.T.E.E.^.^.^.).).).(.(.(.^.!.!.^.(._._.{.{.}._._._.}.OX=X,X,X-X$X}.|.|.}.}.=X,X;X:XOX}._.(.(._.}.}.^._.XX$X=X%XXX}.[.E.[.[.R.W.C h ! $.s.h.W.OX2X4X4X=X|.n.6.F ` i.R.>X:X3X_ K K U ",
"U N 2.^.c.e.j.p.s < h :.f.k.c.3.Q <.6.s.}.,XT.c.| ; l b.G.b.G.A.G.U.R.U.U.R.Y.U.U.U.U.U.U.Y.Y.Y.U.Y.Y.Y.R.R.Y.Y.W.Y.Y.L.L.L.L.L.U.U.U.U.L.L.Y.Y.P.T.T.L.D.D.G.G.G.G.D.S.V.S.G.G.Y.V.G.A.Y.N.A.T 8 w :.r.Y.R.w.} ;...3.[.1X/.f.A + I V.B.A.C.G.G.A.C.C.C.C.C.C.C.C.F.F.F.F.F.F.F.G.G.G.G.G.G.G.G.L.L.L.L.L.L.L.L.L.L.L.U.L.U.U.U.Y.Y.L.L.L.U.Y.T.Y.Y.W.W.T.T.T.R.R.E.U.E.E./...> 0 W B.C.G.w.Q ^ ;.} b.1X^.b.6.5 p C.$X).}.|.*X}.}.`.`.}.}.}.}.}.}.}.}.}.{.{._.}.|.|.|.|.{.{.{.{.}.}.}.|.|.}.}.}.}.}.}.[.[.[.[.[.[.[.[.).).)././.(.(.(.^.^.^.^.^.).P.T.^.!.!.1.8 u ) k.C.U.0.^ W ..;.G.,XE.c.) $ c L.^.E.C.).).^.E.E.^.^.^.).).).^.^.^.^.^.^.^.)._._.}.}.}._._._.|.|.|.$X,X,X=X|.|. X}.}.=X-X=X-X=X#X|.}.}.|.XXOX_.OX=X-X-X$X|.). X{.W.{.W.n 1 r r.c.U.C.<...| } s.).#X=Xh.' o j Y.+X+X=XT K P _ ",
"K b ,.^.V.p.M.c.k > h ..0.k.f.M c n u p i.}.s.h.$., h L.G.V.V.C.G.U.R.U.U.W.R.U.U.U.R.R.W.W.E.E.Y.W.W.W.Y.Y.Y.Y.W.Y.U.U.L.U.L.L.U.U.U.U.L.Y.Y.T.Y.!.T.L.D.D.G.G.G.G.G.D.D.G.G.G.Y.c.F.G.F.V.J.N $ w ) | k.G.U u h n l g.C.s.w.C 5 C /.Z.U.G.C.B.C.C.C.C.C.C.C.C.C.C.F.F.F.F.F.F.G.G.G.G.G.G.G.G.G.G.L.L.L.L.L.L.L.L.L.U.U.Y.U.U.Y.Y.Y.Y.U.Y.Y.Y.Y.Y.W.W.T.T.T.Y.W.E.U./.}.*X$.+ 0 J :.r.C...h f p l :.).V.:.) u 1 Y.-X[.|./.).!.}.`.`.}.}.}.XXXX}.}.{._._.}.}.XX|. X|.|.|.}.}.}.}.}. X X X X}.}.|.{.{.{.{.{.[.[.[.[.[./././././.).).).).).^.^.^.^.L.^.).}.OXq.$ > I w.g.C.W f l u h f./.c.:.A 5 l |.|.).Y.}.W.E.^.^.^./.).).^.^.E.^././.^.^./.).[.[.).).}.}.}.}.|.}.}.OX=X-X$X|.}.}.[.}.=X;X=X=X,X-X=X$X=X=X=X=X$X-X,X=X$XOX}.).E. X/. X).1 < g X.6.h.k.J l h j q h._.C.X.} ; p R.|.,X;X( T P G ",
"A N 2.~.A.p.g.u.h + u ^ ) 3.f.C M p n c =.V.>.0.) q p c.c.T.G.C.L.U.R.U.R.E.E.R.U.U.U.R.W.E.E.E.T.T.T.T.Y.Y.L.L.W.Y.U.U.U.Y.U.L.L.L.U.L.U.Y.T.E.T.^.^.L.D.D.G.G.G.G.G.G.G.G.G.G.G.c.Y.F.M.M.{.J 8 1 Q } $.i.W N c A r g.u.=.>.C r l E.k.A.A.G.C.C.C.C.C.C.C.C.C.C.C.C.F.F.F.F.F.S.G.G.G.G.G.G.G.G.G.G.L.L.L.L.L.L.L.L.U.U.Y.Y.U.L.Y.Y.R.R.Y.Y.Y.Y.Y.R.W.T.T.T.Y.E.}.R.E.W.[...$ 1 U $...r.U l A c M $.g.q.3.) w u Y.).^.=X^./.=X{.`.}.}.|.}.XXXX{._._._.{.}.OX$X|.|.|.|.|.{.{.{.}.}.|.OXOX X}.}.|.{.|.{.{.{.[.[.[.[.[./.)./././.).).).).).^.^.^.[./.}.Y.G.).6.$ 5 K ..:.k.Q f M V u g.f.:.3.I > V /.C.R.).}.G.}.^.^././.).^.^.^.T.E./.)./././.).[.).).).}.}.}.}.|.}.|.=X:X-XOX}.).}.}. X-X,X-X,X:X-X-X-X:X:X-X=X=X,X-XOX[.[.[.).R.$X}.E.A.n 1 n ) | <.g.N l j N C w.C.6.:.! q u V.'.4XOXK P U P ",
"A M ,.|.c.f.k.f.h $ q ^ ) 3.f.N c n D f w.g.;.0.^ 0 r k.b.W.W.C.G.G.U.T.E.U.G.E.L.R.^.}. X[.|.}.T.T.E.).T.U.Y.E.R.Y.L.L.Y.T.Y.G.Y.P.G.G.G.Y.R.^.T.^.E.U.F.G.G.F.G.F.F.G.G.A.C.C.V.U.U.V.G.c.R.K 1 ; ^ | :.f...u V M h 0.r.;...J > M G.B.V.B.F.V.C.C.C.A.A.A.C.C.A.A.C.G.G.F.F.G.G.G.C.G.G.L.U.J.G.G.G.G.G.J.J.J.U.J.J.Y.Y.R.Y.Y.Y.Y.Y.R.Y.Y.Y.Y.Y.Y.Y.R.R.R.R.Y./.W./.[.G.*X) > 1 A $.$.u.) j M C p ;.g.;.6.` 0 9 T.Y.oXOXXX).OX{.}.|.|.|.|.|.}.}.)./.).|.OXOXXX|.|.|.}.{.{.{.{.|.XXOXXX|.}.|.XX}.|.}.|.}.[.[.).[.[.[.).)./.).).^.^.^.^.^.E.^.^.W.[.Y.}.Y.OX$.; q J ) 3.f.W u A M h k.u.$.r.C q c ).C.R.^.).Y.^./.[.|.[./.^.^.^.^.^.^./././././.).).).[.[.[.|.|.}.}.|.=X,X-X$X|.*X|.}.OX=X-X,X,X#X>X-X=X%X-X1X-X*X1X,X X X X/.R./.}.[.}.R.r 1 h ^ ) w.g.C j M j N u.s.3.3.! ; a G.^.3X=XU P P P ",
"A M >.|.c.f.k.f.u ; h ) | 0.r.D n u l l r.A.q.>.| f l A.V.C.C.C.G.E.E.G.C.U.R.G.U.R.U.W. X=XOXR.).^.T.T.T.U.L.U.R.Y.L.L.Y.Y.U.G.P.P.G.G.G.Y.R.R.R.^.R.U.F.J.J.G.G.F.F.F.G.C.C.C.B.G.G.V.Y.V.^.P > 1 U | w.r.} M h c J f.c.3.} M q A /.V.C.F.B.V.C.C.C.C.C.A.C.C.A.A.C.G.G.G.F.F.G.G.C.G.G.U.U.J.G.G.G.G.G.J.J.J.U.J.G.G.Y.Y.R.R.Y.Y.Y.Y.Y.Y.Y.R.Y.Y.Y.R.R.R.R.Y.^.U.E.[.U.=X} ; r C } :.s.} l N c V ;.B.q.$.) h q }.}.OX_.}._.XX|.|.|.|. X X X X|.}.).}.|.OXOXXXXXXXXXXXXX}.}.}.XXXXoXXXXXXXXXXX|.|.|.|.}.}.}.[.[.[.[.[.).).).)./.^.^.^.^.^.^.^.).).L.).U.OX:.5 0 J } 3.u.} l f f M f.B.0.3.K 1 M +X^.^.Y.^.R.^.^./.[.[./.^.^.^.^.^.^./././././.)././.[.[.[.|.|.|.}.|.=X,X:X=X$X=XOX|.OX=X=X=X-X4X>X%X,X2X>X=XOX=X=X*X X|.R.{.=X}.[.E.[.W.u 1 j ) | q.w.K j l l N r.b.6.=.! 6 u G.^.3X=XU K P P ",
"A M :.|.c.g.k.f.p ; q h l Q :.:.3.=.0.:.<.0.^ I J 1 f V.A.C.C.U.c.G.R.U.L.[.$X}.:XOXOX;XOX}.}.,XOX).T.T.T.Y.Y.U.).^.^.^.^.^.T.T.Y.Y.P.P.Y.Y.R.T.E.^.R.J.F.J.U.U.G.G.G.G.A.A.A.G.A.G.V.B.U.B.C.A $ 5 l M ) $.:.:.f.w.0.;.) J C h > v ^.M.B.R.M.G.G.C.G.G.C.C.C.C.A.A.C.C.G.G.G.F.G.G.G.G.G.J.G.G.G.G.G.G.G.J.J.J.U.G.G.G.J.Y.R.R.Y.Y.Y.Y.Y.Y.Y.Y.Y.Y.Y.R.R.R.R.Y.).R.R./.U. X^ + ; 8 h J | q.:.0.<.w.:.:.! c j ; 5 T.XX}.!.}.XX}.|.|. XOXOXOXOXOXOX|.}.|.OXOXOXXXOXXXoXXXXXXXXXXXXXXX#XoXXXXXXXXX|.|.|.|.|.}.}.}.[.[.[.[.).).).)././././.^.^.^.^.^.^.U.}.E.}.| o 1 f l M ^ 3.w.w.w.r.3.} C V c . l /.^.^.G.^./.).^./.)./.^.^.^./.^.^.^./.^./././././.).[.[.[.|.|.|.}.|.*X-X:X-X-X-X=X$X=X:X:X-X>X=X%X%X|.$X-X,X-X,X:X1X*X;X[.[.R. X[.E.}.G.r $ u M J ) ;.0.<.3.w.q.g.0.D n A 9 j G.^.3XOXU K P P ",
"A M :.|.b.g.c.g.r $ 8 0 q M Q f.s.r.B.u.J N p 8 0 ; h k.L.G.G.L.^.L.U.U.C.U.}.$XE.}.|.[./.=XOX*X$X|.).E.T.T.T.T.}.}.[.}.).^.^.).!.!.T.R.R.^.^.^.^.^.R.G.F.J.J.U.F.F.G.G.A.A.A.G.G.U.A.B.G.c.M.P 1 0 0 > g U f.B.u.r.f.U l 0 0 r ; A G.B.V.U.V.A.A.A.C.A.A.A.A.A.A.A.C.C.A.G.G.G.F.G.G.G.F.G.G.G.G.G.G.G.G.J.J.J.Y.G.G.G.J.Y.Y.U.Y.Y.Y.R.R.R.Y.L.Y.Y.Y.R.R.R.R.Y./.R.T./.U.[.| 1 0 w 0 q n r.k.g.g.c.) c j r w q j L.}.}.(.XXXX_.|.|. XOXOXOXOXOX$XOX X XOXOXOXXXoXoXoXoXoXoXoXoXXXXXoXoXXXXXXXXXOXOXOX|.|.}.}.}.}.}.[.[.).).).).).)./././.^.^.^.^.^.W.}.^.).$., 0 r r r J 3.c.g.g.B.) h f f f , A P.R.^.R.^.^./.^.^././.^.^.^./.^.^.^./.^././././.).).[.[.[.|.|.|.}.}.OX=X=X-X,X,X-X-X,X,X,X,X,X2X,X2X$X-X>X-X$X:XOX,X*X;X[. X|.).[.}.}.C.h ; 5 ; 5 u A f.h.f.k.k.} K w 8 p & y Y.^.3XOXY H K K ",
"C n :.|.b.g.c.g.K 0 5 5 r j K g.f.0.u.r.D C l 0 > l ` C.L.C.C.B.V.C.U./.[.}. X X*X;X1X2XOX-X[.$X$XOX}.^.Y.U.Y.T.[.).).).E.Y.Y.^.^.^.!.!.^.^.^.^.^.^.R.J.F.F.J.G.G.G.G.C.C.C.C.G.A.G.C.V.G.G.G.:.V 5 5 q u V :.:.3.3.u.I c r > 1 C 3.G.G.G.B.G.B.A.A.A.A.A.A.A.A.A.A.A.A.C.C.G.G.G.G.F.F.F.F.F.G.G.G.G.J.J.U.J.J.J.J.U.Y.Y.J.F.A.G.G.Y.T.^.^.R.Y.Y.Y.Y.R.R.R.R.Y.R.U.E.).E.}.r.A ; 1 8 w l 3.w.>.0.<.U u p 8 o h 1._.{.XX}.XXXX!.|.|.|. XOX|.|.|.OXOXOXOXOXOXOXXXOXXXXXoX#X#X#X#XoXXXXXoXoXoXXXXXOXOXOXOX X|.}.}.}.}.}.}.[.).).).).).)./././.^.^.[.^.R.E.Y.[.g.U ; ; 5 f A | 3.:.<.w.I r l 5 $ C r./.R.[./.R.R.T.^.^.^.^.^.^.^./.^.^.^.^.^././././././.[.[.[.|.|.|.}.}.|. XOX$X-X-X=X-X-X=X$XOX$X-X}.,X=X4X2X,X,X1X=X4X4X:XR.'.}.E.[.}.}.U.^ u > q p h D g.f.0.r.<.N n g w 8 y ( Q.^.,XOXY G G K ",
"C c :.}.b.g.c.h.$.l $ $ q u c ) Q I I R p f q > $ ! h.R.C.C.L.G.C.U.c.<.3.r.w.3.w.0.0.w.u.OX[.*XOX$X X^.U.L.L.U.)././.).W.G.L.E.R.!.!.!.T.R.R.R.Y.R.R.J.F.F.G.F.G.G.C.C.C.C.G.G.B.F.A.V.G.G.J.f.} ; $ r u u C c h f l 5 0 q 1 0 <.J.A.G.F.j.Y.A.V.V.V.V.A.V.V.V.V.A.A.A.C.C.C.C.A.G.G.G.G.F.F.F.G.G.G.J.J.J.J.J.J.U.Y.R.Y.G.A.B.V.V.G.R./.).^.!.Y.Y.R.R.R.R.R.Y.R.R././.T./.c.} r 1 0 r u N j h c u p w u ; ;  .^.oX(.}.}.XXXX_.|.|.|. X|.|.|.|.OXOXOXOXOXOXOXXXXXXXXXoX#X#X#X#X#X#XoX#X#X#XoXXXOXOXOXOX X|.}.}.}.}.}.}.[.).).).).).).).)./.^./.).^.^.^.Y.).V.$.h 0 5 q u h l f c M r 1 u $ 1 c./.}.Y.^./.Y.!./.^.^.^.^.^.^.^.^.^.^.^.^.^./././._._.).[.[.[.|.|.|.}.}.}.}.}.OX=X:X-X-X=XOX}.).}.XX=X4Xs.6.w.f.i.w.u.f.u.l.}.;XE.}.[././.E.0.N + & 5 q j W I J U W f j p ; o L P.^.^.,XOXY A G H ",
"C c :.}.b.g.b.g.) V 1 5 r 0 8 0 0 u r p 8 1 5 0 8 ;.C.G.C.C.R.U.[.R.} 5 > 0 8 u 1 r 1 $ C 1X4X*X$X*XOX}.).).^.T.}.[.[.[.T.G.L.^.Y.T.!.!.T.R.Y.Y.G.Y.Y.J.F.G.G.F.G.C.C.A.A.C.G.G.V.G.V.V.C.V.V.g.;.q 1 ; 0 q 0 0 q u r q 0 5 $ r g.Y.c.A.G.c.F.G.V.V.V.A.A.A.V.V.V.V.A.A.A.C.C.C.A.G.G.G.F.G.G.F.G.G.G.J.J.J.J.J.J.J.Y.Y.Y.G.A.B.V.V.V.G.!././.^.Y.Y.R.R.R.R.R.Y.T.W././.R.T.V.$.h ; ; ; 0 q 0 u u q 0 0 , o h 3.OX}.^._.`.}.#X}.|.|. XOXOXOXOXOXOXOXOXOXOXOXOXOXOXXXoX#X%X%X%X%X%X%X#X%X%X%X#XoXOXOXOXOX|.|.}.}.}.}.}.}.[.[.).).).).).).)./././.T.W.[.[.^.).C.:.u 1 ; 5 u r 0 5 0 0 q 0 0 ; j g.[.^.Y.T.^.R.)././.^.^.T.T.^.^.^.^.^.^.^./././././._./._._.[.|.|.|.}.|.|.}.}.OX-X,X:X:X=XOX}.}.|.:X:XOXB , 5 q , 5 q ; ; r B.;X[.|.)./.[.E.f.K 0 1 1 1 r q q 5 q 0 1 q 0 , ;  .L./.^.,XOXY A G K ",
"C c :.}.b.g.c.h.$.^ f 5 > > u 0 0 u 0 8 w 5 > 1 D r.C.B.A.C.G.c.D I h 8 c l q l h r h M q U } ).=X=X=X$X$X=X$X|.}.[.}.[.T.G.L./.!.!.!.!.^.R.R.Y.A.G.U.J.G.J.J.G.C.C.A.A.A.C.G.G.A.G.V.A.A.G.V.c.;.I C $ 5 f 5 0 1 r 5 0 > 1 f } c.G.M.A.Y.C.c.C.V.V.V.A.A.A.V.V.V.V.V.A.A.C.C.C.A.G.G.G.F.C.G.F.G.G.G.J.J.J.J.J.J.J.J.U.U.G.G.V.G.V.V.G.Y.!.^.R.Y.Y.Y.R.R.R.R.Y.W.R.E./././.U.3.! V h ; q 8 1 1 ; q > 5 8 j :.b.|.}.}.XX}.}.#X(. XOXOXOXOXOXOXOXOXOX$X$XOXOXOXoXOXoX#X#X%X%X%X%X-X%X%X%X%X%X%X#XOXOXOXOX|.|.}.}.}.}.}.}.}.[.).).).).).).).^././.).W.^.^.^.}.T.i.) C 8 ; 5 0 5 0 1 5 1 > ; M w.R.R.^.).).^.!.[.R./.^.^.R.^.^.^.T.^.^.^././././././././._.[.[.|.|.|.|.|.|.|.|.$X,X=X=X=X=XOX}.|.$Xh.Q R 8 p w r h c l h A 5 C W ..E.T.}. XE.g.) K r > & r 5 u q 8 e r 1 > j K n.Y._.^.>XOXY A G K ",
"V p 0./.c.g.k.c.r...J h 0 , , 5 5 > > 5 < $ 0 c 0.V.G.B.J.V.~.0.r 5 M :.<.6.R.[.).|.R.OX3.f > :.-X2XOXOX*X$X=X$X).[.}.).E.T.T.^.T.Y.Y.P.Y.Y.Y.Y.U.J.U.J.J.G.F.F.G.G.G.A.A.A.A.A.A.V.V.A.A.A.V.V.u.3.^ l < ; 1 1 1 > > 1 1 k ..C.A.V.V.V.V.G.G.G.V.V.V.A.A.C.C.C.A.A.A.C.A.G.G.G.C.G.F.F.F.F.G.G.G.G.G.G.G.G.J.J.J.G.G.G.Y.R.Y.C.c.V.G.Y.R.Y.Y.R.Y.Y.Y.Y.Y.R.R.R.W.W.E.E.^.T.U.G.3.$.K r ; ; , > , q 5 ; h =.L. X}._.}.{.}.}.XXXX|.|.OXOXOXOXOXOX$X XOX$X XOX*X#X,XXX>X>XoX#X!.P.Y.P.!.T.L.!.#X%X X X X X|.|.|.|.[.[.[.[.[.}.}.}.).).).).)./.^.^.^.E.E.E.).^.E.R.w.} n 5 & > , ; & 8 5 > j =.G.[.^.^.^.^.^.^.^.^.^.^.^.^.^.^.^.^././././././././././.).[.[.[.|.|.|.}.}.|.$X-X,X,X,X$X^.$X$XE.-X=XW r w A ..w.c.}. X:XOX}.OX` h h r.2XG.=X|.L.r...R r $ > 5 1 1 5 : 0 < 0 U i.L.|.[.Y.,X=XY J S G ",
"C h 6.[.R.G.B.B.C.u...K h 8 > > ; > > > $ 5 A :.c.c.Y.R.G.G.3.c u u U g.B.C.*X4X4X4X1X4XC.) j V L./.=X$X:X*X}.|.[.[.)./.^.T.^.).!.Y.L.G.L.P.L.G.J.J.J.J.G.F.F.F.G.G.A.A.A.A.A.A.A.A.V.A.V.A.V.V.c.f.;.A q 1 1 5 > 1 1 0 k W w.C.C.A.V.V.A.G.G.G.V.V.V.A.A.A.C.C.A.A.A.C.A.G.G.G.C.G.F.F.G.G.G.G.G.G.G.G.G.G.J.J.J.J.U.Y.R./.~.R.L.Y.R.R.Y.Y.Y.Y.Y.Y.Y.Y.Y.R.R.R.R.R.R.E.E.E.R.U.f.<.U f 5 5 5 1 ; > > u ! c.).).}._.}.{.}.}.XXXX|.|. XOXOXOXOXOX=XOXOX$XOXOX$XXXOXXX%X}.XX}.D.T.L.D.T.P.C.!.%X%XOXOXOX|.|.|.|.}.}.[.}.[.[.}.}.}.).).).).)./.^.^.^.E.E.^.).).E.T.c.3.L u , , 5 , , ; , h ) g.U.Y.^.^.^.^.^.^.^.^.^.^.^.^.^.^.^.^././././././././././.).).[.[.|.|.|.}.}.|.OX*X=X*X=X:X1X=X$X,X}.Y.q r V  .C.R.W.2X,X4X2X,X=Xi.R c I <.*X/.}.}.G.u.;.M > ; ; $ ; > ; ; 0 K w.Y._.{.{.T.>XOXG H V G ",
"C l <.).*X}.C.B.B.g.3.) C r 5 1 > 5 5 > 5 c $.B.G.Y.B.G.R.Y.c ; h c ) u.c.B.R.,X4X4X4X|.<.) L h ; $.1X|.OX-X=X*X/.E.R.Y.Y.T.T.E.!.Y.G.D.G.G.G.G.G.G.G.G.F.F.F.F.G.C.C.A.A.A.A.A.V.V.V.V.V.V.V.V.U.G.g...K V V V V A A J | k.R.U.G.C.A.V.A.A.C.G.A.V.V.V.A.A.A.C.A.A.A.C.A.G.G.G.C.G.G.G.F.F.F.G.G.G.G.G.G.G.J.J.G.G.U.Y.R./././.^.^.^.R.Y.Y.Y.Y.Y.Y.Y.Y.Y.R.R.R.R.U.R.E.^./.E.E.[.C.<.W A A A V K J I ..b. XOXE._._.}.{.}.}.XXXX|.|. XOXOXOX$X$X=XOX$X=X*X-X,X=X=X>X}.D.P.G.z.!.-X%X>X}.C.L.XX_.OXOXOXOX|.|.}.}.}.}.}.[.[.}.}.}.).).).).)././.^.^.E.^.^.).).^.E.}.C.3.Q D A D D R D K :.C.).).E.^.^.^.^.^.^.^.^.^.^.^.^.^.^.^.^.^././././././././././.).[.[.}.}.|.}.}.}.|.OX X|.=X=X,X|.).:XU , r C K Q g.C.V.:X4X4X2X4X_.>.A p u j OX|.|.OX|.C.g.Q h r w q q q q 8 N 0.U.).^.Y._._.3X=XA G V P ",
"V c ;.E.,X*Xb.B.B.B.h.0.| U J D J A A A U :.c.Y.G./.c.G.u.3.5 u f B ) :.g.G./.4X=X4X4XE.6.;.` l , >.4X-X,X X=X X^.Y.G.G.L.R.W.W.^.Y.G.D.G.G.G.G.G.G.A.A.A.F.F.F.C.C.A.A.A.A.V.V.V.V.V.V.V.V.V.V.V.C.k.0.$.| } } ) | } | 0.C.C.k.G.G.A.V.A.V.A.A.V.V.V.V.V.A.A.A.A.A.A.C.A.G.G.G.G.G.C.G.G.F.F.G.G.G.G.G.G.G.J.J.C.J.R.R.R.^./.~.R.R.Y.Y.L.Y.Y.Y.Y.Y.Y.Y.Y.R.R.R.R.R.W.E.E./././.E.C.u.;.......| ` } ;.s.L.}.|.}._._.}.{.}.}.XXXX|.|. XOXOX$X$X*X$X$X=X$X}.|.OX|.|.{.!.D.L.P.L.T.#X%X4X-XL.T.-X%XOXOXOXOX|.}.}.}.}.}.}.[.[.[.}.}.[.[.).).).)././.^.^.^.^.^././.^.T.C.s.>.$.$.=.=. .` $.g.Y.^./.}.^.^.^.^.^.^.^.^.^.^.^.^.^.^.^.^.^.^././.^./././././././.).[.[.}.}.}.}.{.|.|.}.).}.$X=X2X,X4XR , 5 M I ^ l.U.L.*X2X1X,X4XC.>.} E j u <.=X$X). XU.V.:.! Q W U U I Q Q 0.E.{._.{.{.P.^.3XOXA A V U ",
"M c =.R.:XOXk.B.g.k.k.u.<...| | ....| ..,.u.j.x.c.c.B.Y.f 5 5 N ;.f.c.g.B.G.U. X4X4X1X X X).f.^ p h K s.2XE.-X-X[.T.L.L.Y.T.^.T.^.Y.G.D.G.G.G.G.C.C.C.C.C.C.C.C.G.G.A.A.A.V.V.V.V.V.V.V.V.V.V.V.U.U.G.C.C.C.C.B.B.B.B.B.C.U.U.C.G.G.C.A.V.V.V.V.V.V.V.A.A.A.A.A.A.A.A.C.A.C.C.C.G.G.G.A.G.F.F.G.G.G.G.G.G.J.J.J.G.R././.^.^.E.R.G.G.G.L.Y.Y.Y.Y.Y.Y.Y.R.Y.R.R.R.E.E.E.E.E.E.E./.).).E.R.U.R.E.E./.^.[.}.}.)./.[._._.}.{.}.}.XXXX|.|.OXOX$X$X$X*X$X$X=X}.G.C.G.C.b.z.T.%X%X>X>XT.L.(.1X-XL.L.XX%XOXOXOXOX|.|.}.}.}.}.}.}.[.[.[.[.[.[.).).).)././.^.^.^.^.^.^.^./.}.}.).T.Y.Y.T.T.}.}.}._.^.Y.P.P.^.^.^.^.^.^.^.^.^.^.^.^.^.^.^.^.^.^.^./././././././././././.[.[.}.}.}.}.|.|.}.}.OX2X$X1Xw.} 8 5 W ..r.g.B.R.U./.1X4X4X>XG.^._.z.U h h g.}.).}.[.c.w.3.6.<.<.<.<.0.q.C.E.L.L.(.(.%X^.+XP.K G v Z ",
"N c :.R.=X}.k.V.C.A.G.C.b.c.c.c.g.c.N.c.c.B.F.G.Y.K.G.x.u < c ) 0.G.G.A.C.u.u.f.B.B.B.[.1X,XC.r.R w o :.4XOX,X|.[.E.U.L.U.W.T.R.Y.Y.G.G.G.G.G.G.G.C.C.C.A.A.A.A.A.A.A.C.V.V.V.V.V.V.C.C.V.V.V.V.C.V.B.V.C.C.C.B.C.C.C.C.C.V.C.C.C.C.A.A.A.A.V.V.V.V.V.V.V.V.V.V.A.A.A.C.A.C.C.C.G.G.A.A.C.G.F.G.G.G.G.G.G.G.J.J.G.R.~.^.R.R.U.G.G.G.L.Y.R.R.Y.P.Y.Y.Y.R.Y.R.R.R.E.E.E.E.E.E.E.E.R.E.[.[.)./.).[.T.R.E.}. X}.}.|.}.}.}.{.}.}.XXXX|. XOX$X$X$X$X$X$X=X=X}.G.G.Y.P.T.D.}.4X1X4X4XP.P.}.1X>X!.C.L.!.OXOXOXOX X|.}.}.}.}.}.}.[.[.[.[.}.[.[.).).).).).^.).).^.^.T.^.^.T.^.).).)._.(.!.T.!.!.!.^._.).!.^.^.^.^.^.^.^.^.^.^.^.^.^.^.^.^.^.^.^.^././.^./././././././.).[.[.}.}.}.|.|.|.}.}.1X X2XQ ; & M | ,.C.W.C.c.k.c.g.b.z.!.#X,X%XD.:.h 5 l C. X/.}.OX[./.[.E.E.).).[.}.OXOX{. XOX}.,.A Y J c G G G ",
"N c >./.*X}.c.C.c.b.b.c.B.C.C.B.c.B.V.V.N.c.V.G.c.G.g.A 7 7 q Q 3.C.b.G.w.V V M l n } ).[.R.i.<.L w & >.4X1X:X).).E.Y.L.L.L.L.L.G.L.P.G.G.G.G.G.G.G.F.C.A.A.A.A.A.A.C.A.V.V.V.V.V.V.V.V.V.V.V.V.G.C.C.C.A.A.C.C.C.C.C.C.C.C.C.C.V.V.A.A.A.V.V.V.V.V.V.V.V.A.A.V.A.A.A.C.C.G.C.C.G.G.C.C.A.G.F.G.G.G.G.G.G.G.G.G.G.U.Y.J.G.J.J.F.Y.P.L.Y.Y.Y.Y.G.Y.Y.Y.R.R.R.R.R.R.T.E.E.E.W.E.E.E.E.E./.E.R.R.R.}.[./.[.[.).T.Y._._.}.{.}.}.XXXX|.OX$X%X=X*X$XOX$X*X=XOX}.$X,X-X2X>X>X4X1X1X4X!.L._.#X>X%XT.L._.OXOXOXOX X|.|.|.}.}.}.}.}.[.).[.[.[.[.).).).).).).).).^.T.T.T.^.Y.T.!.T.T.!.!.T.(.^.T.!.^.^.T.P.^.^.^.^.^.^.^.^.^.^.^.^.^.^.^.^.^.^.^.^.^././././././././././.).[.}.}.}.}.}.}.|.$X1X=X4X! $ > l } <.C.W.C.;.M l n h n 7.-X_.C.n.3.l q X s.OX/.}.OX}.}.}.).[.}.[.=X:X*X X X{.(.).q.N A v A V A N ",
"N j <.).*X}.B.B.C.C.B.c.B.C.V.k.M.c.N.A.F.V.V.F.G.A.Y.c % q d U ^ 6.3.G.3.r l n V r K G.i.i.3.;.^ 5 & 3.1X-X/.}.[./.T.Y.L.L.U.U.G.G.Y.G.G.V.V.G.G.F.F.F.C.A.A.A.A.A.C.A.V.V.V.V.V.V.V.V.V.V.V.V.C.C.C.C.C.B.C.Z.C.C.C.C.C.J.G.C.V.V.V.A.A.V.V.V.C.V.V.V.V.A.V.V.A.A.A.C.C.G.G.G.G.G.A.A.A.G.F.G.G.G.G.G.G.G.G.G.G.U.J.F.G.Y.Y.Y.Y.L.G.G.L.Y.L.G.Y.Y.Y.R.R.R.R.R.U.R.E.E.E.E.E.E./.E.T.E./.[.[.}./.).).).).[.}.|._._.}.{.|.}.XXXX|.XX#X%X=X%X$XOX$XOX$X|. X,X4X4X1X4X1X4X4X2X2X`.P.(._.%X>X!.n.!.OXOXOXOXOX X|.|.}.}.}.}.}.[.[.).[.[.[.).).).).).).).).E.T.Y.T.E.).).^.!.!.)._.(._.^.!.(.^.!.^.}.^.^.^.^.^.^.^.^.^.^.^.^.^.^.^.^.^.^.^.^.^./././././././.^./././.}.}.}.}.}.}.}.}.OX=X,X4XU & 5 h ^ | &.q.B.;.f l N c h ! T.b.w.i.$.l 0 > f.*X X}. X).}.|.}.|.|.).*X:X*X XOX_.).-X>.h J M K c C A ",
"M N <./.OX:Xu.B.b.b.V.V.B.B.B.V.B.V.V.V.C.C.V.V.G.M.Y.M 5 5 f P ^ ;.3.c.<.r M l c u I B.g.r.:.;.U f $ <.4X}.^.^.T.Y.Y.Y.Y.Y.U.U.G.G.F.G.G.C.A.C.A.G.F.F.C.A.A.A.C.A.A.V.V.V.A.C.V.V.V.V.V.V.V.V.V.V.V.V.C.C.V.V.V.V.C.V.V.V.A.A.V.V.V.V.C.V.V.V.V.V.V.V.A.A.A.A.V.V.V.A.A.A.A.A.G.G.G.F.F.F.F.F.G.G.G.G.G.G.F.F.G.G.G.G.G.L.L.L.L.Y.Y.Y.Y.Y.Y.Y.Y.Y.Y.Y.Y.R.R.R.R.R.R.R.R.T.T.T.^.^.^.^.^.^.^.^./.).).).).).[.}.}.}.}.{.|.|. XXX#XXX#X#X#X}.#X$X$X#X&X-X1X2X2X2X4X4X2X4X4X4X2X1X(.P.C.P..X}.I.L.Y.).$X$X}. X$X|.OX X|.}.}.}.).)._._.[.[.[./././.^.^.^.^.R.R.R.^./.^.^.^.^.^.^.^.^.^.^.^.^.^.^.^.^.^.^.^.^.^.^.^.^.^.^.^.^.^.^.T.^.^././.^.^.^./.^./././././././.[.).).[.}.}.}.OX}.-X|.1X! o 5 l Q ....:.c.;.f c l l c ^ k.c.3.w.;.M q $ g.:XE.|.).}.|.}.{.{._.(.*X=X,X-X=X$XXX}.7.L Q ! C l Z C ",
"A f =./.$X:Xc.B.b.B.B.V.B.B.B.V.V.V.V.C.C.V.V.V.G.c.A.c ; > d Y ^ :.0.k.:.r M l C h I k.u.3.$.;.W 0 + $.2X$X}.T.Y.Y.L.L.U.U.U.G.G.G.F.G.C.C.C.C.C.C.G.C.A.A.A.C.A.A.A.V.V.V.V.V.V.V.V.V.V.V.V.V.V.V.V.V.C.V.V.V.V.V.C.C.V.V.A.A.V.V.V.V.V.V.V.V.V.V.V.V.V.A.A.A.V.V.V.V.V.A.A.A.G.G.G.F.F.F.G.F.G.G.G.G.J.G.G.G.G.G.G.G.G.L.L.L.Y.Y.Y.Y.Y.Y.Y.Y.Y.Y.Y.Y.Y.Y.R.R.R.R.R.R.R.T.T.T.^.^.^.^.^.^.^.^./.).).).).).[.}.}.}.}.}.|.|. XXX}.}.#X$X#X#X&X1X2X2X2X4X4X4X4X4X2X2X1X2X2X2X2X1X<X$XI.C.(.$X#X}.D.G.^.OX$XOXOX|. X|.|.}.}.}.[.[._.[.[.[.[./././.^.^.^.^.R.R.T.^.^.^.^.^.^.^.^.^.^.^.^.^.^.^.^.^.^.^.^.^.^.^.^.^.^.^.^.^.^.^.T.R.^.^.^.^.^.^.^././.^.^./././././.[.).).[.}.}.}.OX}.OX).,XQ + 8 p | | ..3.k...f M M V h ..C.g.0.<.;.h 8 & w.$X[.OX{.|.|.}.}.oX%X=X=X=X-X-X=X$XXX_.OX}.1X/.W v Z J ",
"n r 3.OX$X}.g.k.b.b.V.B.B.B.B.V.A.C.C.A.V.V.C.V.G.B.V.M > 6 f K U ;.w.g.<.j c u f r I g.g.0.;.;.W 5 1 ;.,X$X|.L.Y.P.L.L.U.L.J.A.G.F.G.G.C.C.C.C.C.A.A.A.A.A.A.A.A.A.A.A.A.V.V.C.V.V.V.V.V.V.V.V.V.V.V.V.V.V.V.V.V.V.C.C.V.V.V.V.V.V.V.V.V.V.V.V.V.V.V.V.V.A.V.A.V.C.V.V.V.A.C.C.G.G.G.G.G.F.F.G.G.G.J.J.J.J.J.J.G.G.G.G.G.L.L.L.Y.Y.Y.Y.Y.Y.L.L.Y.Y.Y.Y.Y.Y.R.R.R.R.R.R.R.T.T.T.^.^.^.^.^.^.^.^./.).).).).).[.}.}.}.}.}.|.|. XXX}.}.#X$X}.}.&X<X4X4X4X4X4X4X2X2X4X4X4X4X4X4X4X4X4X<X(.m.L.#X%X$XL.C.L.}.$XOX|. X|.|.}.}.}.}.}.}.[.[.[.[.[.[./././././.^.E.T.^.^.^.^.^.^.^.^.^.^.^.^.^.^.^.^.^.^.^.^.^.^.^.^.^.^.^.^.^.^.^.!.R.R.R.R.R.E.^.^././././././././././.).).).}.}.}.|.OX XOX[.,XW & q u } ^ ..r.k...h h r f 0 | C.r.w.<.:.j q 1 q. X}.}.}.}.}._._.#X>X,X-X=X=X=X=X$X{.(.L.}.1X/.C l l x ",
"M l <.U.:XOXC.C.b.b.V.V.B.B.B.V.G.G.G.G.F.G.A.V.C.G.G.V > 5 u c L | ;.0.0.U W D I I $.u.w.:.} W Z 0 1 <.1X)._.P.P.L.L.L.L.L.J.A.F.G.G.C.A.A.C.C.C.A.V.V.V.A.A.C.V.A.A.A.A.V.V.C.V.V.V.V.V.V.V.V.C.C.C.V.V.V.C.C.V.V.V.C.C.V.V.V.C.C.C.C.V.V.C.C.V.V.V.V.V.A.V.V.C.C.V.V.A.C.G.G.G.G.G.G.F.G.F.F.G.G.J.J.J.U.U.U.G.G.G.L.G.L.L.L.Y.Y.Y.Y.Y.Y.U.G.Y.Y.Y.Y.Y.Y.R.R.R.R.R.R.R.T.T.T.^.^.^.^.^.^.^.^./.).).).).).[.}.}.}.}.}.|.|. XXX}.#X#X#X#X#X-X1X2X2X2X2X4X4X2X2X2X2X2X2X2X2X4X4X2X2X#XI.I.T.T.!.{.).Y.Y.}. X|. X|.|.}.}.}.}.}.}.[.[.[.[.[.[././././././.^.^.^.^.^.^.^.^.T.!.^.^.^.^.^.^.^.^.^.^.^.^.^.^.^.^.^.^.^.^.^.^.^.^.^./.^.^.E.E.^.^.^.^.^.^.^.^.^./././.)./.).}.}.[.|.OX$X$XOX,XU & 0 u Q U } 3.r.>.I J W Q W <.k.0.;...^ l q > i.$X}.^.).}.{._.`.oX%X=X-X=X=X=X%XXX_.(.}.$X,X XC J C Z ",
"f q h A U.}.c.c.b.B.B.B.B.B.B.V.J.U.U.J.G.G.A.V.c.G.V.V $ < 5 5 5 f l I 0.0.c.k.k.k.u.| K M f 1 7 1 . $.4XY.^.!.Y.L.L.L.L.L.J.A.F.G.G.A.A.A.A.C.A.V.V.C.V.A.V.V.C.C.V.V.V.V.C.C.V.V.V.V.V.V.V.V.C.C.C.C.C.C.C.C.V.V.V.V.C.C.C.V.C.V.V.C.C.C.C.C.V.V.V.V.V.V.A.V.V.A.V.A.C.G.G.G.G.G.G.F.F.F.G.G.G.G.J.J.J.U.U.Y.G.G.G.L.L.P.L.L.Y.Y.Y.Y.Y.Y.L.G.Y.Y.Y.Y.Y.Y.Y.Y.R.R.R.R.R.R.R.R.^.^.^.^.^.^.^.^./.).).).).).[.}.}.}.}.}.|.|. XXX}.}.}.$X-X1X4X4X4X4X4X4X4X4X4X4X4X4X2X2X2X4X4X4X4X4X1X-XXXP.C.L. X=X}.L.^.OXOXOX|.|.}.}.}.}.}.}.[.[.[.[.[.[.[.[.)./././././.^.^.^.^.^.^.T.!.!.^.^.^.^.^.^.^.^.^.^.^.^.^.^.^.^.^.^.^.^.^.^./.[.|.[./.^.^.^.^.^.^.^.^.^./././././.).).[.}.[.[.|.$X X$X$X=XK + ; q 0 5 h C } u.g.k.c.g.k.<.) L f u h r > + s.*X}.}._.}.|.{.}.XX%X=X=X=X-X-XoX_.(._.).|.,XOXl l f v ",
"f h u u U.}.C.C.b.B.B.B.B.B.B.V.G.G.G.G.F.C.C.B.V.Y.M.G > > > > r h l K w.w.u.r.3.w.<.K V c c q 7 0 ; ;.,XL.T.Y.Y.L.L.L.L.G.A.C.C.A.A.A.V.V.A.A.A.V.V.V.A.A.C.B.M.M.M.M.B.B.V.C.V.V.V.V.V.V.V.V.V.V.V.V.V.V.V.V.V.V.V.V.V.C.C.C.V.V.V.V.V.V.V.V.C.V.V.V.V.V.V.V.V.A.A.A.A.C.C.C.C.G.G.G.F.F.F.F.G.G.J.J.J.J.J.J.G.G.G.L.L.P.L.L.Y.Y.Y.Y.Y.Y.L.L.Y.Y.Y.Y.Y.Y.Y.Y.R.R.R.R.R.R.R.R.^.^.^.^.^.^.^.^./.).).).).).[.}.}.}.}.}.|.|. XXXXX}.}.#X&X1X1X1X1X1X1X1X2X1X1X<X2X2X2X2X2X2X2X4X1X1X1X2X<X_.T.}.).-XOXL.).=X*XOX X|.|.}.}.}.}.}.[.{.{.[.{.[.[.[.)./././././.^.^.^.^.^.^.R.R.T.T.^.^.^.^.^.^.^.^.^.^.^.^.^.^.^.^.R.^.^.^.^./.|.+X|.[.^.^.^./.^.E.^.^.^.^./././././.).[.}.[.).|.$X|.=X$X%XQ 5 & 8 q u h h I 0.r.r.3.<.f.) A J f l 0 0 5 0 c. X}. X_.{._.)._.XX%X-X=X=X-X-XOX(.!.{.T.^.,X-XZ l l Z ",
"w u l j G.G.c.c.b.B.B.B.B.B.V.C.F.F.G.G.F.A.V.B.G.G.c.} h 5 ; 1 ; r l I w.0.0.w.r.u.0.U C r 5 + e r Q k.}.Y.Y.L.L.L.G.G.G.G.A.C.A.V.V.V.V.V.A.A.A.V.C.V.C.A.B.c.c.k.j.j.c.c.M.B.V.V.V.V.V.V.V.V.V.V.V.V.V.V.V.V.V.V.V.V.V.V.V.V.V.V.V.V.V.V.V.V.V.V.V.V.C.V.V.V.V.V.V.V.V.C.C.C.C.C.G.G.G.F.F.F.G.G.G.G.G.J.G.G.G.G.G.L.L.P.P.L.P.P.Y.Y.Y.Y.Y.Y.Y.Y.Y.Y.Y.R.Y.Y.R.R.R.R.R.T.R.T.^.^.^.^.^.^.^.^./.).).).).).).}.[.[.}.}.|.|.|.XXXX#X#XXXXX$X#X}.%X$X#X$X%X%X#X#X#X$X%X%X#X$X#X$X$X%X#X%X-X%X$X-X[.-X}.G.[.*XOX$XOXOX X|.|.}.}.}.{.{.|.|.{.[.[.[././././././.^.T.^.^.^.^.T.T.E.^.^.^.^.^.^.^.^.^.^.^.^.^.^.^.^.^.R.^.^.^.^./.}.+X|.[.^.^.^./.^.^.^.^.^.^.^././.^.^.).[.}.[.).|.*X X-XoX=X>.N , 5 > q h l Q w.w.w.k.u.f.| C c 0 5 q , M ) R.).}.}._.}.|.{.}.#X=X-X-X=X-X-X#X).^.{.|.).1X=XB c l k ",
"c 0 f c U.G.L.b.b.B.B.B.B.B.V.C.F.G.G.G.G.G.V.B.C.M.c.8.K 0 % 5 1 q w r J M V K A A A u u 1 0 0 > 0 B.}.L.Y.T.Y.L.G.A.A.A.C.C.C.A.V.V.V.V.V.A.A.A.V.C.A.G.A.M.c.g.g.f.f.g.k.c.B.V.V.V.V.V.V.V.V.V.V.V.V.V.V.V.V.V.V.V.V.V.V.V.V.V.V.V.V.V.V.V.V.V.V.V.V.C.V.V.V.V.C.C.V.B.B.B.B.C.C.C.G.G.F.F.F.G.G.G.G.G.G.G.G.G.G.G.L.L.P.L.L.G.P.P.Y.Y.Y.Y.Y.Y.Y.Y.Y.Y.R.R.Y.R.R.R.R.R.T.R.R.^.^.^.^.^.^.^.^./.).).).).).).[.[.[.}.}.|.|.|.|._.XX#XXX}.#X$XXX#XXXXX$X#X%X#X#X#X%X=X&X%X#X#X#X&X&X}._.#X=X#X#X=X,X^.C.^.|.[.OX$X$XOX|.|.}.}.}.{.|.|.|.|.{.[.[././.^./././.^.R.^.^.^.T.T.R.R.^.^.^.^.^.^.^.^.^.^.^.^.^.^.^.^.^.!.^.^.!.R.^.[.+X|./.T.R.^./.^.^.^.^.^.^.^././.^.^.).[.}.[.).|.$XOX-X}.=Xg.Q 8 , 5 0 0 5 c K C J A C V V f r q 1 5 . I c.$X^.OX[.}.#X=X=X=X-X-X=X:X=X=X-X%X}.(._.^.^.2X Xl f Z x ",
"r p r l G.Y.B.b.B.c.B.C.C.C.C.C.G.F.G.G.G.A.V.V.A.G.B.,.A e > % > > 0 r q 0 r q r 0 q 5 0 0 ; > X A r.U.^.^.T.L.L.L.G.G.G.G.A.C.A.V.V.V.V.V.V.V.V.V.V.C.A.C.B.g.j.c.c.k.g.k.c.k.B.C.C.G.C.V.C.V.B.V.V.C.C.V.V.B.V.V.V.V.V.V.V.V.B.B.B.B.B.V.V.V.V.V.V.C.C.V.V.V.C.A.G.V.M.c.c.M.V.A.G.G.A.A.G.G.F.J.J.J.G.F.G.U.G.G.G.G.G.G.L.L.G.G.G.P.U.U.Y.G.Y.Y.Y.Y.Y.Y.R.R.R.R.R.T.T.!.^.^.^.^.^.^.^./././.).).).).).[.}.}.).}.}.}.}.|.|.|.}.XXOXoX#X#X#X#XOXoX$X$X$X#XOXXX%X%X=X%X$X$X$X%XoXoX#X$X$X$X$X$X$X$XOX^.G.C.T.}.=X-X*X|.}.|. X|.|.{.[.[.[.{.{.[./././././.^.^.^.^.^.^.!.T.T.^.^.^.^.^.^.^.^.^.^.^.^.^.^.^.^.^.^.^.^.^.^.^.^.^.^././.^.^.^.^.^.^.T.^././././.^./.^.^.).}.}.).}.OX$X=X}.,Xg.) 5 ; $ 5 0 0 q h f 0 0 r q 5 0 0 5 5 ; 1 K k.).^./.|.{.=X-X$X%X=X%X-X-X:X-X-X>XXX!._.^.).2XOXM r k x ",
"r f r l C.Y.B.B.V.V.C.C.C.C.C.C.G.G.J.G.C.V.V.V.B.B.M.r.} K h > 1 > 0 u r r u r u r u q q 5 ; 0 f } b.E.E.T.T.P.L.G.G.G.G.G.A.C.C.C.A.A.V.V.V.V.V.V.V.C.A.C.B.g.g.c.V.A.V.V.c.k.c.c.c.B.V.A.C.G.B.V.V.C.C.V.V.B.V.V.V.V.V.V.V.V.B.B.B.B.B.V.V.V.V.V.V.C.C.V.V.V.V.V.A.C.c.c.c.M.V.A.G.G.A.A.C.G.F.G.J.J.G.F.G.J.G.G.G.G.G.L.L.L.G.G.G.Y.Y.Y.Y.G.Y.Y.Y.Y.Y.Y.Y.R.R.R.R.T.T.!.^.^.^.^.^.^././././.).).).).[.[.}.}.}.}.}.}.}.|.|.|.}.XXOX#X#X#X#X#XoXoX$X%X%X$X#XoX%X%X=X%X%X$X$X%X$X$X$X$X%X%X%X%X$XOX}.^.U.L.Y.T.^.}.OX$X$X$X X}.|.|.[.[.[.[._./././././././.^.^.^.^.^.^.^.^.^.^.^.^.^.^.^.^.^.^.^.^.^.^.^.^.^.^.^.^.E.^.^.^.^.^./.^.^.^.^.^.^.^.^.^./././.^.^./.^.).).}.}.).}.OXOX=X X,Xc.=.c u 5 1 1 0 r r q 0 r u r r r 0 1 1 5 V ;.C.}.|.[.}._.%X=X=X-X%XXXOXOX*XOX$X%X|.(._.}.}.4X*XC k k s ",
"u f r l C.R.C.C.C.C.C.C.A.A.C.C.G.F.G.F.A.C.B.B.C.V.V.c.0...A q > $ > 5 5 0 0 5 0 5 0 1 > ; $ u } u.R./.Y.Y.T.Y.L.G.G.G.G.A.C.C.F.G.G.C.A.A.V.C.C.V.C.C.A.G.B.g.g.c.A.G.G.C.V.c.c.j.g.c.B.V.C.C.B.B.V.V.V.V.B.B.V.V.V.V.V.V.V.V.B.B.B.B.B.V.V.V.V.V.V.C.C.V.V.V.B.V.V.V.M.c.c.M.V.A.G.G.A.A.C.G.F.F.J.G.G.G.G.J.G.G.G.G.G.G.L.L.G.G.L.Y.Y.Y.P.P.Y.Y.Y.Y.Y.Y.Y.R.R.R.R.T.T.!.^.^.^.^.^.^././././.).).).).[.[.}.}.}.}.}.{.}.|.|.|.|.XXXXOXoX$X#X#X$X$X$X%X%X%X%X%X%X=X=X=X%X%X%X%X%X%X%X%X=X=X=X=X=X$X X|.}.}.).^.L.T.).}.|.OXOX}.|.|.{.}.{.{.[.[././././././.^.^.^.^.^.^.^.^.^.^.^.^.^.^.^.^.^.^.^.^.^.^.^.^.^.^.^.^.T.^.^.^.^.^.^.^.^.^.^.^.^.^.^./././.^.^.^./.).).[.}.}.[.|.$X X=XOX:XG.f.^ L f 1 ; 0 r 0 0 r 5 0 5 0 0 ; $ 1 l ;.C.W.}.|.).^.).$X=X=X-X%X_._.).}.).).{.).!._.Y._.4X Xv f l k ",
"u f w h C.R.C.C.A.C.C.C.A.A.C.C.M.V.C.G.C.V.V.B.C.F.Y.C.p.,.^ V f 5 > 5 5 5 5 1 5 1 0 1 < 5 f W l.C./.^.Y.Y.P.L.L.G.G.G.A.A.C.C.F.G.G.A.A.V.C.C.V.V.C.C.A.G.B.j.g.c.c.c.c.B.V.V.V.c.k.k.c.V.V.B.B.B.V.V.V.V.B.B.B.B.B.B.B.B.B.B.B.B.B.B.B.V.V.V.V.V.V.V.C.V.V.V.C.V.V.C.B.M.M.B.V.A.G.G.A.A.C.G.A.F.F.F.G.G.G.J.G.G.G.G.G.G.L.L.G.G.Y.Y.Y.Y.L.L.Y.Y.Y.Y.Y.Y.Y.R.R.R.R.T.T.!.^.^.^.^.^.^././././.).).).).[.[.}.}.}.}.}.{.}.|.|.|.|.|.XXOXoXoX#X#X$X#XoXoX$X%X=X=X%X=X=X=X%X%X%X=X=X=X=X=X=X=X=X=X-X=X=X=X-X-X*XOX).T.L.G.L./.OX$X|.}.}.|.|.|.|.{././././././.^.^.^.^.^.^.^.^.^.^.^.^.^.^.^.^.^.^.^.^.^.^.^.^.^.^.^.^.!.^.^.^.^.^.^.^.^.^.^.^.^.^././.^.^.^.^.^./.).).).}.}.[.|.*XOX=XOX=X^.Y.w.=.J u > 1 1 ; ; 5 1 5 1 5 1 > 0 c ) C.|./.}.|.^.}.XX%X%X%X-X#X_._.[.}./.E.).).^.{.).XX4X[.f w f s ",
"u p q h C.Y.C.G.C.C.C.C.C.C.C.C.g.c.V.G.G.F.G.A.G.F.Y.G.B.g.3._ C r 1 1 > > > ; > ; > ; 5 h K 0.U.R.E.T.Y.T.P.D.L.G.A.A.A.A.A.C.F.G.C.A.V.V.V.V.V.V.C.C.A.C.B.g.f.g.j.g.c.B.C.G.F.C.c.c.M.B.B.c.B.B.B.V.V.B.B.B.B.V.V.B.V.B.B.B.B.B.B.B.B.V.V.V.V.V.V.V.C.V.V.V.V.A.A.V.C.C.V.V.V.A.G.G.A.A.G.G.A.C.A.F.G.G.G.G.G.G.G.G.G.G.G.L.G.L.Y.Y.Y.Y.Y.P.Y.Y.Y.Y.Y.Y.Y.R.R.R.R.T.R.^.^.^.^.^.^./././././.).).).).[.[.[.}.}.{.{.|.|.|.|.|.|. X+X+X+XOXOXOXOXOXOXOXOX=X=X=X=X=X=X=X=X=X=X=X=X=X=X=X=X=X=X=X*X=X=X=X=X=X=X=X$X}.Y.C.G.R.}.OX{.}.[.}.|.}.[./././././././././.^.^.^.^.^.^.T.^.^.^.^.^.^.^.^.^.^.^.^.^.^.^.^.^.T.T.T.^.^.^.^.^.^.^././././.^.^./././.^.E.^.^./.[.).[.}.}.[.|.$X$X=X XOX|.OXG.s.;.U h 0 1 1 > > ; > > ; ; 1 c ) f.}.OX/.}.}.}.=X%X=XXX|.XXXX(.}.OX$X|.).}.}._.}.|.|.2X}.v h l f ",
"w r 0 p V.U.C.G.A.C.C.C.C.C.C.C.k.M.A.G.Y.J.G.G.J.C.C.G.G.G.u...W c r 0 5 1 1 1 5 1 5 1 u K ..c.E.E.R.R.T.^.Y.G.L.G.A.C.A.A.A.C.C.C.A.V.V.V.V.V.V.V.C.C.A.C.B.g.p.j.c.B.V.C.G.A.A.V.B.B.B.C.V.B.B.B.B.B.B.B.B.B.B.B.B.B.B.B.B.B.B.B.B.B.B.V.V.V.V.V.V.V.C.V.V.V.A.A.A.A.A.A.A.A.V.A.G.C.A.A.G.G.C.A.A.C.F.G.G.G.G.G.G.G.G.G.L.L.L.L.Y.Y.Y.Y.Y.Y.Y.Y.Y.Y.Y.Y.R.R.R.R.R.T.T.^.^.^.^.^.^.^./././.).).).).).[.}.}.}.{.|.|.|.|.|.|.|.|. X X+X+XOXOXOXOXOXOXOXOX=X=X=X=X=X=X=X=X=X=X=X=X=X=X=X=X=X=X=X=X=X=X=X$XOXOX$X=XOX}.).).^.T.W.+X+XXX|.|.|.[./././././././././.^.^.^.^.^.^.T.^.^.^.^.^.^.^.^.^.^.^.^.^.^.^.^.^.T.T.T.^.^.^.^.^.^.^./././././.^.^.^.^.^.^.^.^./.).).[.}.}.[.|.$X$X*X XOX$X=X}.G.:.Q c 5 > 1 1 > 1 0 5 1 5 f W w.L.[.[.E.).).}.,X=X$X).^._._.(.}.|.$X|.)._._.(._.Y.).4X}.r ; 1 7 ",
"0 q 5 u B.U.C.A.C.C.C.C.G.C.C.C.B.C.C.G.G.G.F.G.G.V.A.G.G.G.c.3.3.^ K J C V C A C A J A ^ 0.k./.E.E.R.U.Y.T.Y.L.L.G.A.C.A.A.A.C.A.V.V.V.C.C.V.V.V.V.C.C.A.C.B.g.g.c.V.A.C.G.V.B.c.c.M.B.V.C.C.V.B.B.B.B.B.B.B.B.B.B.B.B.B.B.B.B.B.B.B.B.B.V.V.V.V.V.V.C.C.V.V.V.A.V.V.V.A.C.A.A.A.A.C.C.V.V.G.G.C.A.C.A.F.G.G.G.G.G.G.G.G.G.G.G.L.Y.Y.Y.Y.Y.Y.Y.Y.Y.Y.Y.Y.Y.Y.R.R.R.R.R.T.^.^.^.^.^.^.^././.).).).).).).[.}.}.}.|.|.|.|.|.|.|.|.|.|.+X+X+X+XOXOXOXOX$X$X=X=X=X=X=X=X=X=X=X=X=X=X=X=X=X=X=X=X=X=X-X-X-X=X*X$X$X$X*XOXOX*X$X}.Y.G.|.|.|.XX+X|.}.[.).)././././././.^.^.^.^.!.T.T.^.^.^.^.^.^.^.^.^.^.^.^.^.^.^.^.^.^.T.^.^.^.^.^.^.^.^././.)./.^.^.R.E.^.^.^.^./././.).).}.}.[.}.OXOX$X$XOX$X=XOX}.B.r.| I K K I K A J A A I | r.U./.[.[.[.).).|.*X%XXX^.!._._.!._.). X}.^.)._.(._.=X%X4X*Xk > 7 r ",
"5 0 1 r B.U.C.G.G.G.C.G.F.F.G.A.C.C.V.V.B.B.V.C.B.V.G.F.A.J.Y.A.f.;.} } ^ Q ^ ) ^ ) } ) 3.C.U.[.R.R.R.U.L.L.L.L.L.G.A.A.A.A.C.C.C.C.C.C.C.C.V.V.V.V.C.C.A.C.B.g.c.B.V.C.V.V.B.c.g.c.M.B.V.B.B.B.B.B.B.B.B.B.B.B.B.B.B.B.B.B.B.B.B.B.B.B.B.V.V.V.V.V.V.C.C.V.V.V.V.V.V.V.A.A.A.A.V.A.C.C.A.V.G.G.C.Z.Z.A.F.G.G.G.G.G.G.G.G.G.G.G.L.Y.Y.Y.Y.Y.Y.Y.Y.Y.Y.Y.Y.Y.R.R.R.R.R.R.R.^.^.^.^.^././././.).).).).).[.[.}.}.}.|.|.|.|.|.|.|.|.|.|.+X+X+X+XOXOX=X=X=X=X=X=X=X=X=X=X=X=X=X=X=X=X>X-X-X=X=X=X=X=X-X=X=X-X-X-X=X$X=XOXOX$X$X).Y.L.T.^.^./.}.|.}.[.).).)./././././.^.^.^.^.T.T.T.^.^.^.^.^.^.^.^.^.^.^.^.^.^.^.^.^.^.^.^.^.^.^.^.^.T.^.^./././.^.^.Y.R.^.^././././.^.^.).}.}.[.}.OX|.OX=X$X$X$X=X*X/.B.0.=.| ) ) ) ) | } ` :.u.C.). X X$X$X|.|.OXXX$X|.^.(.XX{.^._.^.|.}.).}.|.{.}.s. .:.:.> 1 7 1 ",
"q $ q u M.G.G.V.A.V.V.V.V.V.V.V.V.C.C.V.V.B.c.c.V.A.A.V.G.U.Y.G.B.p.8.3.3.2.,.,.3.<.2.u.V.^.^.R.^.E.Y.J.G.F.F.G.G.G.F.G.C.C.A.A.A.A.V.V.V.C.V.V.V.V.V.A.A.V.c.j.g.B.A.V.B.V.M.g.g.c.V.A.V.B.B.C.V.V.V.V.C.V.B.B.B.B.B.B.B.B.B.B.B.B.B.B.V.V.V.V.B.B.B.V.V.V.V.V.C.C.V.V.C.V.V.V.A.A.A.A.A.G.G.G.C.C.G.F.F.F.G.G.J.G.G.G.G.G.J.U.Y.Y.Y.Y.Y.Y.Y.Y.Y.Y.Y.Y.Y.Y.R.R.R.R.R.T.T.!.^.^.^.^.^./././././.[.[.[.}.[.[.[.[.}.}.}.}.}.|.|.|. XOXOXOX$X$X$X$X$X*X=X=X=X=X=X=X=X-X-X-X:X,X,X:X-X:X:X:X-X-X-X-X-X-X-X=X=X=X=X=X=X$X$X$X$X|.^.Y.L.C.V.L.}.OX|.)./././././././.^.^.^.^.^.^.^.^.^.^.^.^.^.^.^.^.^.^.^.^.^.^.^.^.^.^.^.T.!.^.^././.^.^.^.^.^.^.^.^././././././././.).).[.}.}.}.}.[.|.$X=X=X$X$X=X=X,XE.f.3.3.6.0.6.0.6.3.0.s.C.[.=X=X$X$X=X-X%X}.!.(.(.).).).(._._.[.{.[.{.{.^./.=X`   , . 1 1 1 1 ",
"5 > 5 7 B.F.B.B.V.B.N.N.V.V.V.N.B.B.B.B.B.B.B.B.V.A.A.V.G.U.Y.G.Y.A.c.B.V.V.B.V.F.A.V.G.R.^.R.Y.^.R.R.U.G.G.G.G.G.F.F.G.C.C.A.A.A.A.V.V.C.C.V.V.B.V.V.A.V.B.c.g.j.V.G.V.B.B.c.g.g.c.V.V.V.B.B.V.V.V.V.V.V.V.B.B.B.B.B.B.B.B.B.B.B.B.B.V.B.V.V.V.B.B.B.V.V.V.V.V.C.C.V.V.C.V.V.V.A.A.A.C.A.G.G.G.G.C.G.F.F.G.G.G.J.G.G.G.G.J.J.Y.P.Y.Y.Y.Y.Y.Y.Y.Y.Y.Y.Y.Y.Y.Y.R.R.R.R.T.!.!.^.^.^.^.^./././././.[.[.}.}.[.}.[.[.}.}.}.|.|.|.|.|. XOXOXOX$X$X$X$X$X*X=X=X=X=X=X=X=X=X-X-X:X:X:X:X-X:X:X:X-X-X-X-X-X-X-X-X=X=X=X=X=X*X$X$X=X$XOX}.[.E.Y.T.}.|.}.^././././././.^.^.^.^.^.^.^.^.^.^.^.^.^.^.^.^.^.^.^.^.^.^.^.^.^.^.^.^.T.^.^.^.^.^.^.^.^.^.^.^.^.^././././././././.).).[.[.}.}.}.[.}.|.|. XOX=X=X*X$X}.T.Y.T.^.^.T.Y.R.T.^.).|.$X=X-X=X%X%X-X%XXX(.).).).).(.(.(././.'./.'.[.^./.*XW + 1 1 ; 1 & 0 ",
"0 0 1 r Y./.J.V.N.c.c.M.N.N.N.c.c.c.c.M.B.B.V.V.V.A.A.V.G.Y.Y.J.Y.J.J.R.R.R.R.^.E.E.R.R.R.R.R.R.R.R.U.J.G.G.G.G.F.F.F.G.C.A.V.V.V.V.V.V.C.C.V.V.B.V.V.V.B.c.k.g.c.C.G.V.B.B.c.g.g.c.B.V.B.B.B.B.V.V.V.V.V.B.B.B.B.B.B.B.B.B.B.B.B.B.B.B.B.V.V.V.B.B.B.V.V.V.C.V.C.C.C.V.V.V.V.V.A.A.A.C.A.G.G.G.C.C.G.F.F.G.G.G.G.G.G.G.G.J.J.Y.L.P.Y.Y.Y.Y.Y.Y.Y.Y.Y.Y.Y.Y.R.R.R.R.R.T.^.^.^.^.^.^././././././.[.}.}.}.}.[.}.}.}.}.}.|.|.|.|.|. XOXOXOX$X$X$X$X$X*X=X=X=X=X=X=X=X=X-X-X-X-X-X-X-X-X:X:X-X-X-X-X:X-X-X-X-X=X=X=X-X=X$X$X=X=X=X=X*XOX}.).}.}.}.).)./././././.^.^.^.^.^.^.^.^.^.^.^.^.^.^.^.^.^.^.^.^.^.^.^.^.^.^.^.T.T.^././.^.^.^.^.^.^.^.^.^.^././././././././.).).[.}.[.[.[.).[.[.[.}.OX=X=X$XOX$X=X:X,X-X=X=X$X=X:X,X-X=X$XoX-X#XXXXXXXXX_.(._._.(.(.(.(.(.^.^.^.~.^.'.^.~.OX) $ : , 8 0 & > ",
"> 1 ; 5 $.3.V.B.c.c.c.c.N.N.N.c.c.c.c.c.c.B.B.C.V.A.A.V.G.Y.Y.J.G.G.U.Y.Y.Y.Y.Y.Y.Y.Y.Y.Y.Y.R.R.J.G.G.F.G.G.G.G.F.F.G.C.A.V.V.C.V.V.V.C.C.V.V.V.B.V.C.V.M.c.g.g.c.V.A.V.B.B.c.c.c.c.B.V.B.B.B.B.B.V.V.V.V.B.B.B.B.B.B.B.B.B.B.B.B.B.B.B.B.V.V.V.B.B.B.V.V.V.V.V.C.C.C.V.V.V.V.A.A.A.A.C.A.G.G.G.G.G.G.F.G.G.G.G.G.G.G.G.G.J.J.U.P.P.Y.Y.Y.Y.Y.Y.Y.Y.Y.Y.Y.Y.R.R.R.R.T.T.^.^.^.^.^.^././././././.}.}.}.}.}.}.}.}.}.}.|.|.|.|.|.|. XOXOXOX$X$X$X$X$X*X=X=X=X=X=X=X=X=X-X-X-X-X-X-X-X-X:X-X-X:X-X:X,X,X:X-X-X-X=X=X-X=X$X$X$X*X$X$X*X$X X|.}.}.}.[.[.).)././././.^.^.^.^.^.^.^.^.^.^.^.^.^.^.^.^.^.^.^.^.^.^.^.^.^.T.T.^.^././.^.R.^.^.^.^.^.^.^.^.^./././././././.).).[.[.[.[.[.).}.}.).[.OX-X-X$X$X=X-X-X=X$X$X$X$X*X*X*X$X$X$XOX%XXX_._._._.(.!._._.).(.(.^.!.^.^./.^./.[.~./.+XW $ r & 1 X 1 8 ",
"> 1 , + ; p c.G.N.c.c.c.N.N.c.c.M.c.c.c.c.M.B.B.V.A.A.V.G.J.U.G.G.Y.R.Y.Y.Y.Y.Y.^.E.R.R.R.R.Y.Y.G.F.G.F.G.G.G.G.G.G.C.A.A.V.C.V.V.C.C.C.V.V.V.V.B.V.C.B.c.c.j.j.c.B.V.V.B.B.B.c.M.B.B.V.V.B.V.V.B.B.V.C.V.V.B.B.B.B.B.B.B.B.B.B.B.B.B.V.B.V.V.V.V.V.B.V.V.C.C.C.C.C.C.V.V.A.A.A.A.A.A.C.A.G.G.G.F.F.G.G.G.G.G.G.J.G.G.G.G.G.J.U.P.L.L.Y.Y.Y.Y.Y.Y.Y.Y.Y.Y.Y.Y.R.R.R.T.^.^.^.^.^.^.^././././././.[.[.}.}.}.}.}.}.{.}.|.|.|.|. X X XOXOXOX$X$X$X$X$X*X=X=X=X=X=X=X=X=X-X-X-X>X-X-X-X-X>X>X>X>X>X,X,X,X,X:X-X-X-X=X=X=X*X$X$X$XOXOX XOXOX X}.{.}.}.[.[.[./././.^./.^.^.^.^.^.^.^.^.^.^.^.^.^.^.^.^.^.^.^.^.^.^.^.^.^.T.^./.[.[./.T.^.^.^.^.^.^.^.^.^.^././././././.).).).[.[.[.}.[.}.[.).[.OX-X-X*X-X=X=X*X$X=X=X-X*X$XOXOX$X=X=X;X=XoX}._._._._._.).).).(.^.^.^.^.^.]././.[././.+XW X : ; 0 0 r $ ",
"1 > > > X u Y.V.B.M.c.c.N.N.c.c.c.c.c.c.c.c.M.B.V.A.V.V.A.G.G.G.G.Y.R.Y.Y.Y.R.Y.E.Y.J.U.Y.R.U.G.G.G.G.G.G.G.F.F.G.C.C.V.V.C.V.V.C.C.C.V.V.V.V.V.B.C.V.B.c.c.c.c.c.M.B.B.B.B.B.B.V.V.V.V.V.V.V.V.B.B.B.B.V.B.B.B.B.B.B.B.B.B.B.B.B.B.B.B.B.V.V.V.B.V.V.V.V.V.C.C.C.C.C.V.V.A.A.A.A.A.A.C.A.G.G.G.G.G.G.G.G.F.F.F.J.G.G.G.G.G.J.U.P.L.L.Y.Y.Y.Y.Y.Y.Y.Y.Y.Y.Y.Y.R.R.R.R.^.^.^.^.^.^.^././.).)./.).}.}.}.}.}.}.}.}.|.|.|.|.|. X XOX XOXOXOX$X$X$X$X$X*X=X=X=X=X=X=X=X-X-X>X>X>X>X>X>X>X>X,X,X,X,X,X1X,X,X,X:X-X-X-X=X=X=X=X=X$X$XOX XOXOXOX|.}._.).[.[.[.)././.^.^.^.^.^.^.^.^.^.^.^.^.^.^.^.^.^.^.^.^.^.^.^.^.^.^.^.^.^./.|.|.[.^.^.^.^.^.^.^.^.^.^.^././././././.).).).[.[.[.}.[.^.).[.}.|.$X=X=X=X=X=X=X=X=X=X=X=X=X=X=X=X=X*X*X$XOX{.}._._._._.(.(.(.(.^.^.^.!.^.'.^.^././.~.{.U.C.[.A.1 X & 1 ",
"& ; X , > c R.k.B.M.c.c.c.c.c.c.k.c.c.c.M.B.B.B.V.A.V.V.V.G.G.V.G.G.Y.J.Y.R.Y.G.G.A.V.C.F.G.F.G.G.G.G.G.G.G.G.G.C.C.A.V.V.V.V.B.V.V.V.V.V.V.V.V.B.V.V.V.c.c.c.B.M.B.B.V.B.B.B.B.C.V.B.B.B.B.B.V.B.B.B.B.V.B.B.M.B.B.B.B.B.B.B.B.B.B.B.B.B.V.V.V.B.B.B.V.V.C.C.C.C.C.V.V.V.V.A.A.A.A.V.A.A.G.G.G.F.F.G.G.G.G.F.F.J.G.G.G.G.G.J.U.Y.Y.L.Y.Y.Y.Y.Y.Y.Y.Y.Y.Y.Y.Y.R.R.R.^.^.^.^.^.^.^./././././.).).}.[.}.}.}.}.}.}.|.|.|.|.|. XOXOX XOXOXOX$X$X$X$X$X*X=X=X=X*X=X=X-X-X>X>X,X,X,X,X,X,X,X,X1X1X1X1X1X1X,X,X,X-X-X-X=X=X=X=X=X*X$X$X$XOXOX|.|.}.}.}.[.[.[.[././.^.^.^.^.^.^.^.^.^.^.^.^.^.^.^.^.^.^.^.^.^.^.^.^.^.^.^.!.^./.|.|.{./.^.^.^.^.^.^.^.^.^.^.^./././././.).).).[.}.}.}.[.).|.OX|.}.}.OXOX XOX$X=X=X$XOXOX*X$X*X=X=X*XOX|.}.}._.).).).).(.(.(.^.^.^.^.^.^.^.'.~.R./.^.R././.}.2X:X; ; 8 1 ",
"$ r ; ; + r G.G.B.M.c.c.c.c.c.j.g.g.c.c.B.B.B.B.A.C.V.V.C.C.C.C.G.Y.R.R.R.E.Y.G.F.F.G.G.F.G.G.G.F.F.F.F.F.G.C.A.C.C.A.V.C.V.B.B.V.V.V.V.V.V.V.V.B.V.A.C.M.c.B.C.B.B.V.V.B.c.M.B.C.B.B.M.B.B.B.B.B.B.B.B.V.B.B.M.B.B.B.B.B.B.B.B.B.B.B.B.B.V.V.V.B.B.B.V.V.V.C.C.C.C.C.V.V.A.A.V.A.V.V.A.A.G.G.G.F.F.G.G.F.F.F.F.J.G.G.G.G.G.J.U.Y.Y.L.Y.Y.Y.Y.Y.Y.Y.Y.Y.Y.Y.Y.R.R.R.^.^.^.^.^.^.^./././.).[.).).[.[.}.}.}.}.}.}.|.|.|.|.|. XOXOX XOXOXOX$X$X$X$X$X*X=X=X=X=X=X=X-X-X>X,X,X,X,X,X,X,X,X1X1X1X1X3X1X1X1X,X,X:X-X-X:X:X-X=X$X$X$X$X$X$X X}.}.}.|.|.}.[.[.[././.^.^.^.^.^.^.^.^.^.^.^.^.^.^.^.^.^.^.^.^.^.^.^.^.^.^.^.!.T./.|.+X|.[.^.^.^.^.^.^.^.^.^.^././././././.).).).}.}.}.}.[.}.$X-X$X}.).}.}.).|.$X=X$X$X*X=X=X*X$X*X=X=X$XOX_._._.).).).(.(.!.!.^.^.^.^.^.^.^.[./.R.~.~.R.~.[.R.,X}.; > p + ",
"; ; ; , + h C.C.c.M.B.B.M.c.g.p.B.p.c.V.g.c.C.c.V.V.V.V.A.V.V.V.G.G.U.Y.Y.J.G.F.G.G.G.G.C.C.G.G.G.G.G.A.C.C.A.A.G.C.A.V.C.V.V.B.B.B.B.V.V.V.B.B.B.V.G.V.M.c.M.V.V.B.B.B.B.B.B.M.B.B.B.B.B.B.B.B.V.V.V.V.B.B.B.B.B.B.B.B.B.B.B.B.V.V.V.B.B.B.B.V.C.C.V.B.B.B.V.V.V.V.V.B.C.V.A.C.C.A.V.V.A.C.G.C.G.G.G.F.F.G.G.G.G.G.G.J.G.J.U.U.Y.Y.Y.Y.Y.Y.Y.Y.Y.Y.Y.Y.R.R.R.R.R.R.!.!.T.R.^.^.^.[.).^.^.^.).).).}.}.}.}.}.}.}.}.{. XOXOX|.|.|.|.|.OX$X$X$X$X$X=X=X=X=X*X=X-X-X-X-X-X>X>X>X>X>X>X>X>X>X1X1X1X3X1X1X,X,X,X:X-X-X-X-X=X=X*X$X$X$XOXOX X|.|.|.|.|.[.[.[.[././.^.^.^.^.^.^.^.^.^.^.T.T.T.T.E.E.^.!.^.^.^.^.^.^.^.^.^.R.^./.|.+X|.[.|.[.^.T.^././././././././.).).).).).[.}.}.}.}.).}.$X$X}.|.|.[.).}.}.$X=X*X=X=X$X$X=X-X=X=X$X$XOX}.}.[.}.).)./.^.}.T.R.).}.).).[.^.OX'.^.Y.[.R./.[.[.1X/.1 q 1 ; ",
"; ; : , + h C.C.G.G.C.g.u.u.g.c.c.B.V.c.c.V.G.B.B.B.B.B.V.V.C.V.G.F.F.G.F.G.A.A.G.G.G.G.G.C.G.G.G.G.C.A.C.A.A.A.G.C.A.C.V.B.B.B.B.B.B.B.V.V.B.B.M.C.A.V.c.c.M.V.B.B.B.B.B.B.B.B.B.B.B.B.B.B.B.B.B.V.V.V.B.B.B.B.B.B.B.B.B.B.B.B.B.V.V.V.B.B.B.V.C.C.V.B.B.V.V.C.V.V.V.V.C.V.A.C.A.A.V.V.V.A.C.C.G.G.F.G.F.G.G.G.G.G.G.J.G.J.U.U.Y.Y.Y.Y.Y.Y.Y.Y.Y.Y.Y.Y.Y.R.R.R.R.R.!.T.R.R.T.^.^./.^.R.Y.T.).}.[.}.}.}.}.}.}.|.|.|.OXOXOX X X XOXOXOX$X$X$X$X$X=X=X=X*X*X=X=X-X-X-X-X>X>X>X>X>X1X>X>X>X1X1X1X1X1X1X,X,X,X:X-X-X-X-X=X=X=X*X$X$XOXOX X|.|.|.|.|.[.[.[.[././.^.^.^.^.^.^.^.^.^.^.T.T.!.T.^.^.^.^.^.^.^.^.^.^.^.^.^.^.^.[.|.+X+X{.OX|.).^.^.^.^.^./././././.).).).).).[.}.}.}.[.).|.=X-X$X=X$X|.}.}.}.$X=X*X=X=X$X$X=X=X*X$X X}.}.}.}.}.[.).)./.^.).E.}.|.^. X-X|.Y.G.R.+XY./.[.}.G.[.4X[.1 & $ w ",
"; ; : , + h V.V.V.B.b.c.c.c.c.c.u.c.M.c.c.c.c.c.M.M.c.M.M.V.V.C.G.G.G.C.A.V.V.V.G.G.G.G.C.C.C.C.C.C.C.A.A.A.V.V.C.A.V.C.B.B.B.B.B.B.B.B.V.V.V.B.M.B.V.V.B.c.M.M.B.B.B.B.B.B.B.B.B.B.B.B.B.B.B.B.B.B.V.V.B.B.B.B.B.B.B.B.B.B.B.B.B.B.B.B.B.V.V.V.V.V.V.V.V.V.C.C.V.V.V.V.V.V.V.V.A.A.V.V.V.A.C.G.G.F.F.G.F.G.G.G.G.G.G.J.G.J.U.U.L.Y.Y.Y.Y.Y.Y.Y.Y.Y.Y.Y.R.R.R.R.R.T.!.!.T.R.R.^.^./.^.Y.G.Y./.|.}.}.}.}.}.}.}.|.|.|.|.|.|.|.|.OX$X$X$X$X$X$X$X*X=X=X*X$X*X=X=X=X-X-X-X>X>X>X>X>X1X1X,X1X1X1X1X1X1X1X,X,X,X,X:X-X-X-X-X=X=X*X$X$XOXOX X X|.|.|.|.[.[.[.[././.^.^.^.^.^.^.^.^.^.^.!.T.^.^.^.^.^.^.^.^.^.^.^.^.^.^.^.^.^./.|.XX|.}.+X|.[./.^.^.^.^./././././.).).).).).[.}.}.}.}.[.}.=X-X*X=X*X}.).}.}.$X=X*X=X=X$X*X=X=X*XOX}.).).[.[.}.).).)./.^.).U.^.E.C.^.$XT.+X{.~.[.R.^.R.^.}.R.2XOX5 , 1 ; ",
", , : , + h B.B.B.c.c.c.k.g.f.g.A.j.g.c.c.c.A.Y.B.B.c.c.B.V.G.G.G.F.G.C.A.A.A.A.A.A.A.A.A.A.A.A.A.A.A.A.V.V.V.V.V.V.V.B.B.B.B.B.B.B.B.B.B.B.B.B.B.B.B.V.C.B.B.c.M.B.B.B.B.B.B.V.B.B.B.B.B.B.B.B.B.B.B.B.B.B.B.B.B.B.B.B.B.B.B.B.B.B.B.B.B.V.C.C.C.V.V.V.V.C.V.V.C.V.V.V.V.V.V.V.V.V.A.A.A.C.G.G.G.F.F.G.F.G.G.G.G.G.G.J.G.J.U.U.Y.Y.Y.Y.Y.Y.Y.Y.Y.Y.R.R.R.R.R.T.T.!.^.^.^.^.^./.^.)./.Y.G.G.^.|.}.}.}.}.}.}.}.|.}.).^.).).}.|.OX$X$X$X$X$X$X=X=X=X=X*X*X=X=X=X=X-X-X-X-X>X>X>X>X4X2X3X3X2X2X2X3X1X1X1X,X,X,X:X:X-X-X=X=X=X*X$X$XOXOX X X|.|.|.|.[.[.[.[././././././.^.^.^.^.^.^.^.^.^.^.^.^.^.^.^.^.^.^.^.^.^.^.T.R.^.^./._././././.^././././././././././.).).).).).[.}.}.}.}.).).$X=X$X=X$X|.}.}.}.$X=X*X=X=X$X=X=X=X=XOX}.).).[.[.[.).).).)./. X)./.[.}.}.).Y.G.|.~.^.=X;X'.'. XE.1XU.+ $ 5 5 ",
", , , , @ h b.b.C.V.B.c.g.g.V.R.G.g.B.G.c.c.B.u.B.M.M.M.B.V.G.G.G.G.G.G.C.C.C.C.A.A.A.A.A.C.C.C.A.V.V.V.V.V.V.V.C.V.B.B.B.B.B.B.B.B.B.B.B.B.B.B.B.B.B.V.V.V.V.B.M.B.B.B.B.B.B.V.B.B.B.B.B.B.B.B.B.B.B.B.B.B.B.B.B.B.B.B.B.B.B.B.B.B.B.B.B.V.V.V.C.V.V.V.C.V.A.V.C.C.V.C.V.V.V.V.C.V.C.C.A.G.G.J.G.G.G.F.F.G.G.G.G.G.G.G.G.J.U.U.Y.Y.Y.Y.Y.Y.Y.Y.Y.Y.R.R.R.T.T.^.!.^.^./.^.^././.^.)./.Y.G.Y./.{.}.}.}.}.}.}.|.|.).^.T.T.^.}. XOX$XOXOX$X$X=X=X-X-X=X=X=X-X-X-X=X-X&X-X>X>X>X>X>X4X2X1X1X2X2X1X1X1X1X1X,X,X,X,X:X=X=X=X=X$X$X$XOX$XOX X X|.|.|.|.[.[.[.[./././././././.^.^.^.^.^.^.^.^.^.^.^.^.^.^.^.^.^.^.^.^.^.^.E.^.!.^.^.!.R.R.R.^.^././.).)./././././.).).).).).[.}.}.}.[.).}.=X=X$X=X-X$X$X}.}.OX=X$X*X=X$X=X=X=X=X$X}.).}.[.[.[.[.[.[.)./.G.}.)./.*X$X).}./.^./.~./.R.R.~.R.}.1XA.p w , ; ",
", ; ; , & h b.k.c.h.k.C.B.u.:.......:.:.$.p.G.c.M.M.c.M.M.V.V.C.C.C.C.C.A.A.A.V.A.A.A.A.A.A.A.A.V.V.V.V.V.C.C.C.B.B.B.B.M.M.M.B.B.B.B.B.B.B.B.B.V.B.B.V.V.V.V.V.B.B.B.B.B.B.V.B.B.B.B.B.B.B.B.B.B.B.B.B.B.B.B.B.B.V.V.V.B.B.B.B.B.B.B.B.B.B.B.B.C.V.V.V.C.V.A.A.C.C.V.V.A.A.V.V.C.V.C.A.V.V.C.G.G.G.G.F.F.G.G.G.G.G.G.G.J.J.U.Y.Y.Y.Y.Y.Y.Y.Y.Y.Y.Y.R.R.R.T.!.!.^.^.^.^.^.!.^.^.R.^.^.Y.G.Y./.[.}.}.}.}.[.}.}.|.).T.Y.R.^.{.OX$XOXOXOX$X$X=X=X-X-X=X=X=X-X>X-X=X%X-X-X>X>X>X>X>X2X2X1X1X1X1X1X1X1X1X1X,X,X,X,X:X=X=X=X*X$X$XOXOX$XOX X X|.|.|.|.[.[.[.[././././././././.^.^.^.^.^.^.^.^.^.^.^.^.^.^.^.^.^.^.^.^.^.^.^.^.^.E.R.R.R.T.^.^.^.^.^././././././.).).).).).[.}.[.}.[.).}.=X=X$X=X-X=X=X}.}.OX=X$X*X=X$X$X$X=X=XOX)./.}.[.[.[.[.[.[.[.).[.*XG.3.<.3.<.w.c.8.J.=X|.J.|.[.[.U.4XW.< ; 8 . ",
", ; ; , & g b.k.c.h.k.h.3.U p > q u q 5 u A $.F.c.c.c.c.M.B.B.V.C.V.A.C.C.C.A.V.A.A.A.A.A.A.A.A.V.V.V.V.C.C.V.V.B.B.M.M.c.M.M.M.B.B.B.B.B.B.B.B.B.B.B.B.B.V.V.G.B.B.B.B.B.B.B.B.B.B.B.B.B.B.B.B.B.B.B.B.B.B.B.B.B.B.V.V.B.B.B.B.C.C.V.B.B.B.B.B.V.V.V.V.V.A.A.C.V.V.V.A.A.A.V.V.V.A.G.V.B.c.B.C.G.G.G.F.F.G.G.G.G.G.G.J.J.J.Y.U.Y.Y.Y.Y.Y.Y.R.R.Y.Y.R.R.T.!.^.^.^.^.^.R.Y.Y.L.Y.G.Y.P.G.G.Y./.}.}.}.}.).).[.}.|.).^.R.T.).|.OXOXOXOX$X$X*X=X=X=X-X=X*X=X-X>X-X%X%X%X-X>X>X>X>X>X4X2X1X1X2X2X2X3X1X1X1X,X,X,X,X,X=X=X=X=X$X$XOXOX$XOX X|.|.|.|.|.[.[.[.[././.^.^./././././.^.^.^.^.^.^.^.^.^.^.^.^.^.^.^.^.^.^.^.^.^.^.^.^.^.^.^.^.^.^.^.E.E.^././././././.).).).).).[.}.[.[.[.).}.=X=XOX*X=X$X$X}.}.OX=X*X=X=X$X*X$X=X=XOX/.^.}.[.[.[.[.[.[.[.).^.0.K f 5 5 q q 5 q K 2.^././.J.[.E.4XU.,   , w ",
": : ; , & g b.k.k.V.V.w.U l C ) ^ 2.3.0.0.C l q.B.B.B.B.M.B.B.M.C.V.C.G.F.G.G.C.A.A.A.A.A.A.A.A.V.V.C.C.C.V.V.V.B.B.M.c.c.c.M.M.B.B.B.B.B.B.B.B.B.B.B.M.c.B.V.G.V.B.B.B.B.B.B.M.B.B.B.B.B.B.B.B.B.B.B.B.B.B.B.B.B.B.V.V.V.B.B.B.V.V.C.V.B.B.M.M.V.V.V.V.V.V.A.C.V.V.V.A.C.A.V.V.A.C.C.V.c.k.c.c.F.G.G.F.F.G.G.G.G.G.G.G.J.G.U.U.Y.Y.Y.Y.Y.Y.R.R.Y.Y.R.R.T.!.^.^.^.^.R.Y.G.D.V.V.G.G.V.B.V.Y./.|.[.[.[.).).).}.}.[.^.R.R.^.}.|.|.OXOX$X$X*X$X$X$X=X=X$X=X-X-X=X%X%X%X-X-X>X>X>X1X4X4X2X4X4X4X4X4X1X1X1X1X,X,X,X,X-X-X=X=X*X$X$X$X$XOX X|.|.|.|.|.[.[.[.[././.^.^./././././.^.^.^.^.^.^.^.^.^.^.^.^.^.^.^.^.^.^.^.R.E.^.!.!.^.^./.^.^./.^.E.^./.)./././././.).).).).).[.}.[.[.[.).|.=X=X$X=X=X$XOX}.}.OX=X*X=X=X$X=X=X=X-XOX/.^.}.[.[.[.[.[.[.[.[.C.n r Q | $.0.<.,.q.V 5 c.+XR.|.J.,X=X|.*X6.. 8 ",
"; : : , & j V.k.k.c.} M u K c.U. X4X4X4X4Xk.A l X.J.c.B.V.c.c.V.B.V.G.F.G.A.A.C.B.V.C.V.V.A.V.V.B.B.B.B.B.B.V.V.B.B.B.B.B.M.M.c.B.B.B.M.M.B.B.B.c.c.c.c.B.B.B.V.C.A.C.B.c.M.B.V.V.V.B.B.B.V.V.V.M.M.M.B.B.B.B.B.B.B.B.B.B.B.B.B.A.A.V.V.B.M.c.c.V.V.V.V.V.V.V.V.B.B.V.V.C.V.A.A.V.V.C.A.M.c.c.B.G.G.G.G.G.G.G.C.G.G.G.G.G.G.G.P.Y.Y.P.P.P.Y.Y.Y.P.P.Y.Y.R.R.^.^.R.^.^.R.G.V.C.V.G.G.V.V.G.Y.^.[.[.[.[.}.[.}.}.}.).).).).}.|.|.OXOXOXOXOXOX$X$X*X=X$X$X=X-X:X-X=X-X-X-X-X>X>X1X1X4X1X2X4X1X2X4X3X1X1X1X1X,X,X,X,X-X-X=X=X$X$XOXOX$XOX|.|.|.{.}.}.}.}.[.).[.).).)./././.^.^.^.^.^.^.^.^.E.E.E.E.E.^.^.^.^.^.^.^.^.^.^.^.^.^.^.^.^.^././././././.[./././././.).).).).).).).[.}.}.}.}.$X=X$X$X-X=XOX}.[.$X,X=X$X=X$X*X$X=X=X XOXOX}.[. XT.*XOXU.$X:.M l ) c.R.|.2X4X4X4Xg.A S / /.Q.{.^.-X:X4Xh.& 1 ",
"; : : , & j V.k.C.r.l f h P 3.G./.1X1X2X$Xl.} l s ;.F.k.M.A.M.A.C.V.A.A.A.V.V.C.V.V.V.V.V.V.C.V.V.B.B.B.B.B.B.B.B.B.B.B.B.B.M.M.B.B.B.M.M.B.B.B.c.c.c.c.B.B.B.V.V.V.V.B.B.B.B.V.V.V.B.B.B.B.V.V.M.M.M.B.B.B.B.B.B.B.B.B.B.B.B.B.V.V.C.V.B.B.M.M.V.V.V.V.C.V.V.V.B.B.V.C.V.V.A.A.C.V.C.V.c.j.c.A.G.G.F.F.F.F.F.G.G.G.G.G.G.G.G.P.Y.Y.L.Y.P.Y.Y.Y.R.Y.Y.R.R.R.T.T.R.!.^.Y.G.G.G.Y.Y.G.G.G.R./.[.[.[.[.[.}.[.}.}.}.|.}.}.}.|.|.OXOXOXOXOXOX$X$X*X=X=X$X$X=X-X-X-X=X-X-X-X>X>X>X>X-X1X>X2X4X2X2X4X,X1X1X1X1X,X,X,X,X-X-X=X=X$X$XOXOX$XOX|.|.|.|.}.}.}.}.[.[.[.).).)./././.^.^.^.E.^.^.^.^.E.E.E.E.E.^.^.^.^.^.^.^.^.^.^.^.^.^.^.^.^.^.^././.^.^././././././././.).).).).).).[.[.}.}.}.$X=X$X$X=X=XOX}.[.OX-X=X*X=X=X:X=X=X=XOX$X$X}./.OX/.E.E. Xk.h 5 l ^ u.E.=X1X4X3XoXy.E i 5 5.+X[.^.>X-X2Xd.# , ",
": : : , @ g B.k.B.;.1 A { ;.3.G.R.1X4X4X[.V.B.Q k P G.c.B.G.c.A.V.V.B.B.V.V.V.B.A.A.A.V.C.B.B.B.C.V.B.B.B.B.B.B.M.M.M.M.B.B.B.B.B.B.M.M.M.M.B.B.c.c.c.M.M.B.B.B.V.A.V.V.B.B.B.V.B.B.B.B.B.V.V.V.M.M.M.B.B.B.B.B.B.B.B.B.B.B.B.B.V.V.V.B.B.B.B.B.V.V.V.V.C.V.V.V.V.V.V.C.V.V.A.A.V.V.A.V.c.c.B.F.G.G.F.F.F.F.F.G.G.G.G.G.G.G.L.P.Y.Y.Y.Y.Y.Y.Y.Y.T.T.T.T.T.R.R.R.R.^.^.Y.G.G.R.[./.^.R.^.).|.[./.[.[.[.}.}.}.}.}. X X|.|.OXOXOXOXOXOXOXOX$X$X=X=X=X*X*X=X=X-X-X=X>X-X=X-X>X>X>X>X2X>X2X4X1X3X2X1X1X1X1X1X,X,X,X,X-X-X=X=X$X$XOXOXOXOX|.|.|.|.}.}.}.}.}.[.[.).).)././././.^.^.^.^.^.^.^.^.E.E.^.E.^.^.^.^.^.^.^.^.^.^.^.^.^.^.^.^.^.^./.^.^.^.^./././././././././.).).).).[.[.[.}.}.$X=X$XOX*X=X$X}.}.OX=X*X*X-X=X,X=X$X$X$X=X=X}.[.OXOX^.[.,X:.p B  .6.s.U.*X:X4X4X%XD.x.) c / +X_._.1X-X2Xs.o , ",
": : : , @ g B.k.$.A 5 } j.c.g.f.V.E.[. X X;X=Xl...v $.c.V.G.g.F.V.c.c.c.B.V.C.B.A.V.V.V.C.B.B.B.C.V.B.B.M.M.M.M.c.c.c.B.B.B.B.B.B.B.M.c.c.M.B.B.M.M.M.M.M.B.M.M.B.C.V.V.V.B.B.B.B.B.B.B.B.B.B.B.M.M.M.B.B.B.B.B.B.B.B.B.B.B.B.V.B.B.B.B.B.V.V.V.V.V.V.C.C.V.V.V.V.C.C.V.V.V.A.A.F.V.V.C.C.V.V.F.A.F.F.A.A.F.G.G.G.G.G.G.G.G.G.P.Y.Y.Y.Y.Y.Y.Y.Y.R.R.R.R.R.T.T.T.R.^.^.Y.G.G.R.[.[.[.[.).[.}./.^.}.[.[.}.[.}.}.}.|.|.|.|.|. XOXOXOXOXOXOX$X$X$X*X=X*X*X=X=X=X-X-X-X-X-X=X=X-X>X1X4X1X1X3X>X,X2X1X1X1X1X,X,X,X,X,X-X-X=X=X*X$X$XOXOXOX|.|.|.|.}.}.}.}.}.[.[.[.).).).)././.).^.^.^.^.^.^.^.^.E.^.^.^.^.^.^.^.^.^.^.^.^.^.^.^.^.^.^.^.^./.^.^.^.^./.^./././././././.).).).).).[.[.[.}.OX=X$X$X$X*X$X}.[.OX=X*X*X=X$XOX X$X$XOX*X*X}.)./.}././.s.V c $.g.C.G.B.R.}.*XOX,X=XoXi.) h ) /.[.2X>X2Xs.# 4 ",
": : : : @ g B.h.c > q ) p.g.B.Q l l M I B.:XR.B.&.q e g.c.A.c.F.B.c.g.k.B.A.V.B.V.B.V.V.V.V.B.B.V.B.B.B.c.c.c.c.c.c.M.M.M.B.B.B.B.B.c.c.c.c.M.B.B.B.M.M.M.M.c.c.B.V.V.V.C.B.B.B.B.B.B.B.B.B.B.B.M.M.M.B.B.B.B.B.B.B.B.B.B.V.V.C.B.B.B.B.B.V.V.C.V.V.V.C.V.V.V.V.V.V.V.V.V.V.V.A.F.V.c.B.C.G.V.C.A.C.F.F.G.G.G.J.G.G.G.G.G.G.G.P.Y.Y.Y.Y.Y.Y.R.R.Y.R.R.R.R.T.T.^.^.^./.R.G.G.G.R.R.).{.[./././.^.}.}.[.}.}.}.}.}.}.}.}.|.|.OXOXOXOXOXOXOXOXOX$X$X=X=X*X*X*X=X=X-X%X>X<X>X#XXXXX%X%X%X>X1X>X>X3X>X1X1X,X,X,X,X:X-X-X=X=X=X*X$X$X$X$XOX|.|.|.|.|.{.}.}.}.}.[.).).).).).).^.).).^.^.^.^.^.^.^.^.E.E.^.^.^.^.^.^.^.^.^.^.^.^.^.^.^.^.^././././.^././.^.^././././././.).).).).).).[.[.}.OX*X*X$X$X$X$X).[.OX-X=X*X$X}./.}.$X=XOX$X*X|.}./.[./.E.c $ f <.w.C.V.I V M l Q Y.=X/.0...6 i ^./.2X,X2Xg.& 4 ",
": : : : @ g B.h.f + f U $.3.B.V C B N M q.A.;.3.) u < c.c.A.A.c.B.c.g.c.B.A.V.V.M.M.B.B.V.V.V.V.B.B.B.M.c.c.c.c.M.c.M.M.M.M.M.M.B.B.M.c.c.c.M.M.M.M.M.M.M.M.M.M.M.B.V.C.B.B.B.B.B.B.B.B.B.B.B.B.M.M.M.B.B.B.B.B.B.B.B.B.V.V.V.V.B.B.B.B.B.V.C.C.V.V.V.C.V.V.V.V.V.V.V.V.V.V.A.A.V.c.c.B.G.G.B.c.V.A.F.F.F.G.G.G.G.G.G.G.G.G.G.L.Y.L.Y.Y.Y.R.R.R.Y.Y.R.R.R.T.T.!.^.^.^.Y.G.V.V.G.G.^.[./.^./.[.[.[.}.[.}.}.}.}.}.}.}.|. XOXOXOXOXOXOXOXOXOXOXOXOX=X=X=X*X$X*X=X-X%X>X1X-X}.T.P.P.T.(.%X2X1X1X1X-X,X,X,X,X:X-X-X-X-X=X=X=X=X*X$X$X$XOX|.|.|.|.|.|.}.}.}.}.[.).).).).).).).).).).).).^.^.^.^.^.^.^.^.^.^.^.^.^.^.^.^.^.^.^.^.^.^.^././.)././.^././.^./././././././.).).).).).).).).}.|.OX*X*X*XOX X).[.$X=X*X*XOX^.T.).=X-X$X$X=XOX[.}.[.[. Xp , f ^ ` r.c.V l N c f s.G.g.:...q c Y.^.1X-X2Xd.& , ",
": : : : + h b.h.l 1 f I | :.g.G f B N N >.k.<.r.{ l u c.M.V.F.g.B.c.c.c.B.V.C.B.c.M.B.B.V.V.V.V.M.M.M.M.c.M.c.M.M.M.c.c.c.c.c.c.B.M.M.c.c.c.c.M.M.M.M.M.M.M.M.M.c.B.B.B.B.M.M.B.B.B.B.B.B.B.B.B.M.M.M.B.B.B.B.B.B.B.V.B.V.C.V.V.B.B.B.B.B.V.C.C.V.V.C.V.V.V.V.V.V.V.V.V.V.V.V.V.B.c.M.A.F.V.c.c.M.Z.F.J.G.G.G.G.G.G.G.G.G.G.G.L.L.L.Y.Y.Y.Y.R.T.R.R.T.T.T.T.T.T.^.!.R.L.G.V.V.V.Y./.[.^.^.[.}.[.[.}.[.}.}.}.}.}.}.|.|.OXOXOXOXOXOXOXOXOXOXOXOX$X=X=X=X*X$X$X=X-X-X-X%X}.!.P.L.L.L.T.#X1X1X1X1X-X,X,X,X-X-X-X=X=X-X=X=X=X=X*X$X$X$XOX|.|.|. X|.|.}.}.}.[.[.[.).).).).).).)./.)./.).).^.^.^.^.^.^.^.^.^.^.^.^.^.^.^.^.^.^.^.^.^.^././././.^.^.^./.^.^.^./././././.).).).).).).).).).[.}.OX=X$X|.).).[.OX=X$X=XOX^.^.[.*X-X*X=X=X XU./././.[.c 0 h ^ } 3.s.N c M B A h.f.3.:./ 6 u G.~.1X-X2Xh.& : ",
": : : : + h b.h.f 5 0 U ..;.3.K l C h l >.b.w.$.) r e r.M.M.F.V.V.B.c.M.B.V.B.B.M.B.B.B.B.B.B.B.c.c.c.c.c.c.M.M.B.M.M.c.c.c.c.c.M.c.M.c.c.c.c.M.c.c.c.M.M.B.B.B.c.M.B.M.c.c.M.B.B.B.B.B.B.B.B.B.M.M.M.B.B.B.B.B.B.B.V.V.C.C.V.V.B.B.B.B.B.V.V.V.V.C.C.V.V.V.V.V.V.V.V.V.V.V.V.V.c.B.A.J.G.V.M.c.M.C.G.J.G.F.G.G.G.G.G.G.G.G.G.L.L.L.Y.Y.Y.R.R.T.^.^.^.^.^.T.R.R.^.R.P.G.G.C.V.V./.}.[.^./.|.|./.[.[.[.}.}.}.}.}.}.|.|. XOX X|.|.OXOXOXOXOXOX$X$X=X=X=X*X$X$X=X-X1X#X(.P.L.P.!._.!.(.%X>X>X>X1X>X,X:X:X-X-X=X=X=X-X=X=X=X=X*X*X$X$XOX|.|. X X|.|.}.}.}.}.}.[.).).).).).).)./././.).).).^.^.^.^.^.^.^.^.^.^.^.^.^.^.^.^.^.^.^.^.^.^./././.^.^.^.^.^.^.^./././././.).).).).).).).).^.^.[.OX=X$X}.^.).[.OX*X$X=X$X).).[.OX=X$X=X*X}.[. X}.}.U.M ; f I $.3.r.J V p h N h.f.3.3./ 7 h K.^.1X,X4Xk.& : ",
"0 o 1 : , l b.f.l + f D K $.,...Q ` I ^ f.r...;.Q q e A.u.V.V.c.B.B.V.C.C.V.B.B.B.B.B.B.c.c.c.B.c.c.c.c.c.c.c.c.c.c.c.c.c.c.c.c.c.c.c.c.c.c.c.c.M.M.M.M.M.M.M.M.M.M.B.M.c.c.c.c.B.B.B.B.B.M.M.c.B.B.B.B.B.B.V.V.B.B.B.V.V.V.A.G.B.B.B.B.B.V.V.V.C.C.C.V.V.V.V.V.A.V.C.A.F.F.V.B.j.B.G.U.G.C.M.c.V.C.J.J.J.U.U.G.G.G.G.G.L.P.L.L.G.Y.Y.Y.R.^.R.G.C.Y.^.^.R.Y.R.^.^.^.G.c.V.R.^.P./.^.^.^.^././.[.[.}.}.}.[.[.}.}.|.|.|.|.|.|.|.|.OXOXOXOX$X$X$X$X|.). X=XOX X*X-X}._.!.P.P.Y.T.T.P.P.#X>X>X>X-X>X-X,X,X,X-X=X=X=X,X}.^. X*XOXOX-XOXOXOX X X|.|.|.}.}.}.}.}.[.).).[.[.[.).).).).).^.^.^.^.^.^.^.^.^.^.^.^.^.^.^.^.^.^.^.^.^.^.^.^.^.^.^.^.^.^.^.^././././././././.).).).).).).).).).E.). X=X$X}.^./.[.$X=X$X*X$X}.T.|.=X=X*X$XOX|.[./.E./.[.M ; u W R ;.w. .W Q W $.g.0.<.| K q u F.[.=X:X;.W + ; ",
"1 1 0 : < f b.k.c + < r q V | r.h.b.f.u.} I l h c $ 7 g.g.A.A.M.B.B.B.V.V.B.B.B.B.B.B.B.B.c.c.C.B.M.c.c.c.c.M.B.c.c.c.c.c.c.c.c.c.c.c.c.c.c.c.c.M.M.B.B.M.M.M.M.M.M.B.M.c.c.c.c.B.B.B.B.B.B.M.M.B.B.B.B.B.B.B.B.B.B.B.V.V.V.A.A.B.B.B.B.B.V.V.V.C.C.C.V.V.A.V.V.V.V.C.G.C.B.M.c.B.V.G.J.G.V.M.c.V.A.G.F.F.J.G.G.G.G.G.G.L.P.L.P.G.Y.Y.Y.Y.^.R.G.c.V.G.R.^.^.^.^.^.^.Y.G.Y.[.}././.^.^.^.^././.[.).}.}.}.[.[.}.}.}.|.|.|.|.|.|.|.OXOXOXOXOX$X$X$XR.T.}.$X=X X|.$XP.L.L.L.L.P.P.P.Y.P.#X>X>X>X-X>X-X:X,X:X-X=X=X=X,X^.C.T.OX$XOXOXOXOXOX X X|.|.|.}.}.}.}.}.[.).).[.[.[.).).).).).^.^.^.^.^.^.^.^.^.^.^.^.^.^.^.^.^.^.^.^.^.^.^.^.^.^.^.^.^.^.^.^.^./././././././.).).).).).).).).)./.). X*XOX}.).).}.OX*X$X*X=X|.E.|.$X$X$X*XOX}.E.[.}./.R.c ; 0 0 u n ) f.c.h.B.u...J h u u < N R.'.:XU., o . w ",
"+ < , + ; w k.g.B < 1 u r f P 0.<.0.w.u.N M h u 7 0 V j.M.V.V.M.V.B.B.B.B.B.B.B.V.B.B.V.B.M.B.V.M.c.c.c.c.c.c.M.M.c.M.c.c.c.c.c.c.c.c.c.c.c.c.c.c.c.M.B.M.M.B.M.M.M.B.B.c.c.c.c.M.M.B.B.B.B.B.B.B.B.B.B.B.B.B.B.B.V.V.V.V.C.V.V.B.B.B.B.V.V.V.V.V.V.C.V.V.A.A.A.B.G.G.G.c.c.c.B.G.G.G.G.F.V.M.c.C.F.J.J.G.J.J.G.G.G.G.L.L.P.P.P.L.Y.Y.Y.Y.R.R.Y.G.G.V.G.Y.R.Y.G.Y.L.G.Y.^.[._././.^.^.^.^././.[.).[.}.}.[.[.}.}.|.}.|.|.XX X|.|.OXOXOXOXOXOX$X$XT.T.Y.).-X$X^.^.T.T.!.(._._.(.!.T.P.#X>X-X>X-X>X=X-X:X-X-X=X=X=X,XT.C.T.$X=X$XOXOXOXOX|. X|.|.|.}.}.}.}.}.[.[.).[.[.[.).).).).).^.^.^.^.^.^.^.^.^.^.^.^.^.^.^.^.^.^.^.^.^.^.^.^.^.^.^.^.^.^.^.^.^.^.^.^.^.^.^./.).).).).).).).).)./.).|. X}.).).[.).|.OXOX*X=X|.^.}.|.|. X$XOX}.E.}. XE.R.I 0 > 0 h u A u.k.3.i.w.J G k s 5 $ b Y.Y.4XOX: & : , ",
": , < : : h L.s...M 1 5 r s V | >.;.$.$.l l u 1 ; K 8.C.V.g.M.N.V.B.B.B.B.M.M.M.c.c.c.c.c.c.c.B.k.k.c.c.c.c.c.c.B.c.c.c.c.c.c.c.c.c.c.c.c.c.c.c.c.M.M.M.c.M.M.B.M.M.B.B.B.M.M.c.c.M.M.B.B.B.B.B.B.B.B.B.B.B.B.B.V.V.V.V.V.V.V.V.V.B.B.V.V.V.V.V.V.V.V.V.V.A.A.A.V.G.G.V.c.c.B.C.Y.J.F.G.G.V.M.c.C.A.G.G.G.U.Y.J.G.G.G.L.L.P.P.P.Y.Y.Y.L.Y.Y.R.R.[.R.G.B.B.V.V.C.G.V.G.R./.^.R.T.^.^.^.^.^././.[.).[.}.}.[.[.}.}.}.}.|.|.|.|.|.|. XOXOXOXOXOXOXOX$X|.G.Y.-X$XU.L.XXoX#X%X=X%XoXXXT.P.#X-X-X>X%X-X=X=X-X-X-X=X=X=X$X^.Y.}.*X$XOX$XOXOXOX|. X|.|.|.}.}.}.}.}.}.[.[.[.[.[.).).).).).)././././././.^./.^././././././.^.^.^.^.^.^.^.^.^.^.^.^.^.^.^.^.^.^.^.^.^.^./././././././././././.^./.[.).^.^.).}./.).}.}.$X$X}./.).).).}.$XOX}.E.}.[.E.[.:.C ; $ u p C ;.<.$.3...c c 5 = > U V.~.Y.1X}.< 0 0 ; ",
"1 + 1 1 + p L.r.$.J 1 $ 7 q u c r r r r r r 0 1 > ..B.M.c.g.V.N.B.B.B.M.B.M.c.c.f.u.u.f.f.f.f.g.f.g.j.c.c.M.c.c.M.M.c.c.c.c.c.c.c.c.c.c.c.c.c.c.c.c.c.c.c.M.B.B.M.M.M.M.M.M.M.B.c.M.M.B.B.B.B.B.B.B.B.B.B.V.V.B.C.V.V.V.V.B.B.B.V.V.V.V.V.C.V.V.V.V.C.V.V.V.A.A.C.V.B.c.c.V.G.J.Y.G.A.A.G.A.B.c.C.C.G.F.C.G.G.G.G.G.G.L.G.L.P.P.Y.Y.Y.Y.Y.Y.Y.T.).T.G.B.b.B.V.G.V.B.V.T.).^.R.^./.^.^.^.^././.[.).[.}.}.}.}.}.}.{.|.|.|.|.|.|.|. X X|.OXOXOXOXOX=X=X^.E.=XOXL.Y.$X#X%X%X%X%XXX}.T.P.oX-X%X>X%X-X=X=X=X=X-X-X=X=X$X^.Y.).OXOXOXOXOXOXOX|.|.|.|.|.}.}.}.}.}.}.[.[.[.[.[.).).).).).).)././././.^.^././././././././.^.^.^.^.^.^.^.^.^.^.^.^.^.^.^.^.^.^.^.^.^.^././.).).).)./.^.^.^./.^./.).^.T.E.).}./.).[.}.OX$X}.^.).^.^.}.$X$X}./.[./.^.).s.Q 1 ; > q f f u r r u q s u 5 5 ,.G.~.{.1XR.@ ; ; 1 ",
": X 1 ; : g k.g.) U f 0 0 1 5 5 0 p r 0 p 5 ; 5 v q.M.j.M.N.A.c.c.c.M.B.B.B.c.c.f.u.u.p.f.p.p.f.u.f.g.c.c.c.c.c.c.c.c.c.c.c.c.c.c.c.c.c.c.c.c.c.c.c.c.c.c.c.B.B.M.M.M.M.B.B.B.B.M.M.B.B.B.B.B.B.B.B.B.B.B.V.V.B.V.V.V.B.B.B.B.B.V.V.V.V.C.C.V.V.V.V.C.V.V.V.V.V.G.B.c.c.B.C.G.G.G.G.A.A.G.A.B.c.F.U.U.G.F.G.G.G.G.G.G.L.G.L.L.P.Y.Y.Y.Y.Y.P.Y.!.T.T.R.Y.G.D.C.G.V.B.G.R./.^.^././.^.^.^.^././.[.).[.}.}.}.}.}.}.{.{.|.|.|.|.|.|.|.|.|. X XOXOXOX|.=X$XOX$X}.^.}.#XoXoXoX#X#XXXXXT.P.oX-X%X-X%X-X=X=X=X=X=X-X=X=X,X).G.R.OX=X$XOXOXOXOX|.|.|.|.|.|.}.}.}.}.}.}.}.[.[.[.).).).).).).).).).).).).)././././././././.^.^.^.^.^.^.^.^.^.^.^.^.^.^.^.^.^.^.^.^././././.^.^.^.^.^.^.^.^.).).).).).^.^.).|.).}.}.[.OX$X}.^.).^.E.}.$X$X X/.[.[.[.Y.f...l r $ 5 f q r h w u f > < 6 h a.F.R.|.2XE.8 1 @ 1 ",
"1 : 8 1 W +.h.V.q.;.J h 5 ; q q , 8 > 5 < < 0 V &.k.j.c.B.V.M.c.c.c.B.V.B.B.c.c.k.f.f.g.g.g.f.g.p.f.f.g.g.j.c.c.c.c.c.c.c.c.c.c.c.c.c.c.c.c.c.c.c.c.c.c.c.c.M.B.M.M.M.B.B.B.B.B.B.B.B.B.B.B.M.M.B.B.B.B.B.V.B.B.B.B.B.B.B.B.V.V.V.V.V.C.C.V.V.V.C.V.C.V.V.V.V.V.G.C.M.B.A.F.G.G.C.C.C.G.G.V.M.c.A.J.J.G.F.J.J.J.G.G.G.G.G.L.P.P.Y.L.Y.R.Y.G.Y.!.^.^././.T.Y.Y.P.L.L.Y.R.^.^.^.^./.^.^.^.^././.[.[.}.}.}.}.}.}.{.}.{.|.|.|.|.|.|.|.|.|. XOXOXOXOX|.OX X|. XOXOXoX%X#X#X%X%X%X%X#XT.P.XX%X%X-X%X-X=X=X=X=X=X=X=X$X=X).Y.^.$X=X*XOXOXOXOX X X|.|.|.|.|.}.}.}.}.}.}.[.[.[.).).).).).).).).).).).).)././././././././.^.^.^.^.^.^.^.^.^.^.^.^.^.^.^.^.^./.^./././././.^.^.^.^.^.^.^.^.}.)./.).).).).[.}.[.}.[.^.}. X}./.).).^.}.$X*XOX X[./.}.R.V.s.^ L 8 ; q 5 5 q 1 0 0 O e A ,.Y.~.'.^.=XG.; , ; 4 ",
"; ; ; 4 c.L.s.B.f.0.) U c 1 5 $ 0 1 o q + r V | f.M.u.V.M.c.c.A.j.c.M.V.C.B.c.c.j.f.u.f.f.f.p.p.f.u.u.u.u.u.f.g.c.c.c.c.c.c.c.c.c.c.c.c.c.c.c.c.c.c.c.c.c.c.M.B.M.M.M.B.B.B.B.B.B.B.B.B.B.M.M.c.B.B.B.B.B.V.B.B.B.B.B.B.B.V.V.V.V.V.V.C.C.V.V.V.C.C.C.V.V.V.V.V.G.G.G.G.G.G.G.A.V.A.F.G.G.V.M.k.k.B.C.V.Z.F.J.J.G.G.G.G.G.L.P.P.P.G.Y.R.Y.L.Y.!.T.^.^.^./.).[.[.[.[.)./.^./.^.^./.^.^.^.^././.[.[.}.}.}.}.}.}.{.}.{.|.|.|.|.|.|.|.|.|.|. XOXOXOX-X}.R.T.}.-X:XOX%X#X#X#X$X#XOXXXT.P.OX%X%X-X%X-X=X=X=X=X=X=X=X$XE.T.).OX$XOXOXOXOXOXOX X X|.|.|.|.|.}.}.}.}.}.[.[.[.[.).).).).).).).).).).).).)././././././././.^.^.^.^.^.^.^.^.^.^.^.^.^.^.^.^././././././././.^.^.^.^.^.^.^.^.).^.^.).).).).).).).[.).T./.}./.^.[.).^.}.$X=X$X:X/.U.}.[.[.R.0.$.c , 1 , $ ; > > > 5 A $.K.Y.Y.E.U.2X X> ; ; ; ",
"; , ; 8 w.c.k.x.f.f.q.| C r 5 1 ; > 1 > > u ^ g.j.g.g.k.c.B.c.c.g.c.c.B.B.c.c.c.j.u.e.u.f.u.u.u.f.g.c.k.g.f.f.f.c.c.c.c.c.c.c.k.k.c.c.c.c.c.c.c.c.c.c.c.c.c.c.c.c.M.B.B.B.B.B.B.B.B.B.B.B.B.B.B.B.B.B.B.B.B.V.V.B.B.B.V.B.V.V.V.B.B.B.V.V.C.C.C.C.C.C.V.V.A.A.A.C.C.C.G.G.G.G.G.A.V.A.G.F.V.c.g.c.M.c.c.c.B.C.J.G.G.G.G.L.L.L.G.L.Y.Y.Y.Y.Y.Y.R.T.R.!.!.!.^.^.^.!.!.T.^.^.^.^.^.^.^.^./././.[.[.[.).[.[.[.[.[.[.|.|.|.|.|.|.XX|.|.|.OXOXOX#X#X$X=X}.Y.T.|.=X$XOX=X%X=XXX*X-XOX-XG.Y.}.%X-X=X*X$X=X=X-X-X=X-X*X^.G.^. X$X$X$XOXOXOXOX|.|.OXOX|.}.|.|.|.}.}.}.}.[.}.}.[.).)././.^.).).).).).).).)././././././././.^.^.^.^.^.^.^.^./././././.^.^.^.^.^././././.).[./././.^.^.^././././.^.^.^./././.).).).).).)././.).).).^.}.$X*X$XOX).^.).^.^.Y.V.w.Q u , , , ; ; 8 > i #.V.R.Y.R.R.E.,XE.> , : , ",
": , ; 5 w.c.j.g.x.x.a.2.^ G V V V V M N K } q.c.k.g.g.k.c.B.M.c.c.c.M.B.B.B.c.c.k.f.u.u.f.p.f.g.k.c.c.c.c.j.g.g.g.g.g.g.c.c.c.c.c.k.k.c.c.c.c.c.c.c.c.c.c.c.c.c.c.M.B.B.B.B.B.B.B.B.B.B.B.B.B.B.B.B.B.B.B.B.B.B.B.B.B.V.B.V.V.V.B.B.V.V.V.C.C.V.C.C.C.V.V.A.V.V.A.A.A.A.C.C.G.G.A.V.V.A.G.V.c.g.j.k.c.c.c.V.G.U.G.G.G.G.L.L.L.G.L.Y.Y.Y.Y.Y.Y.R.R.R.T.!.!.!.^.^.!.!.T.^.^.^.^.^.^.^.^.^././.[.[./.).[.[.[.[.[.[.|.|.|.|.|.|.|.XX|.|.XX|.OXOXOXOX$X|.[.}.OX*X$X$X$X$X=XOX$X$X).|.Y.^.|.=X=X=X$X$X$X*X-X=XOX=X*X).G.^. X$XOXOXOXOXOXOX|.|.|.|.|.{.|.|.}.}.}.}.}.[.}.}.[.).).).)./.).).).).).).).)././././././././.^.^.^.^.^.^.^.^./././././.^.^.^.^.^././././.)./.}.).^.^./.)./.^././.^.^.^./././.).).).)././.^.^.).).).).}.$X$XOXOX).E.E.^.)./.U.b.>.Q L I L L L D Y $.n./.^.T./.T.E.,XE.> > : > ",
": , ; 5 w.c.g.g.g.g.p.q.:.| } ` ) } { ) ;.u.g.p.c.g.g.k.c.B.B.M.M.c.c.B.B.B.c.c.g.f.u.u.u.p.f.j.c.c.c.c.c.c.c.j.u.u.u.u.g.g.j.j.c.c.c.c.c.c.c.c.c.c.c.c.c.c.c.c.c.c.M.B.B.B.B.B.B.B.B.B.B.B.B.B.B.B.B.B.B.B.B.B.B.B.B.V.B.V.V.V.B.V.V.V.C.C.V.V.C.C.V.V.V.A.V.V.V.V.V.V.A.A.A.A.A.V.V.V.C.A.B.c.k.c.M.M.c.V.C.G.G.G.G.G.G.G.G.G.Y.Y.Y.Y.Y.Y.Y.Y.R.R.R.T.R.^.^.^.^.^.E.^.^.^.^.^.^.^.^.^././.[.[./././.).[.[.}.}.|.|.|.|.|.|.|.|.|.|.|.|.|. X X X|.OXOX$X$X$X$X$XOXOX=XOX$X XL.Y.).|.OX*X=X*X$X$X$X$X=X$X|.$X$X}.C.E.OX$XOX X X XOXOXOX|.}.}.}.|.|.|.|.}.}.}.}.}.[.[.[.).).).).).).).).).).).).)./././././.^.^.^.^.^.^.^.^.^.^.^././././././.^.^.^.^././././././.|.[.^.^.).[./.^./././.^././././.).)./.^.^.^.^.^./.).).).|.$X$XOX*X[.E.E.^.}.OX|.g.0.;.=.=.$.$.=.-.0.v.Q.^.P.G.Y.E.E.,XE.> , : , ",
", 1 ; 5 w.j.g.f.x.x.x.g.f.u.i.r.q.u.p.u.u.g.g.f.c.j.g.j.c.B.B.B.M.c.c.c.B.M.c.g.f.p.u.u.u.u.g.k.c.c.c.c.c.c.c.g.u.u.u.f.g.j.k.j.k.j.k.k.k.c.c.c.c.c.c.c.c.c.c.c.c.c.M.B.B.B.B.M.M.M.M.M.M.M.M.M.B.B.B.B.B.B.B.B.B.B.B.B.B.V.V.V.V.V.V.C.C.C.V.V.C.C.V.V.V.A.V.V.V.V.V.V.A.A.A.C.A.V.V.V.C.G.A.C.Z.A.Z.B.c.M.A.G.G.G.G.G.G.G.G.G.Y.Y.Y.Y.Y.Y.Y.Y.R.R.R.R.R.R.R.R.^.^.^.^.^.^.^.^.^.^.^.^././.).[./././.).[.[.{.{.{.|.|.|.|.|.|.|.|.|.|.|.|.|.|.|.}.|.$X$XOXOXOXOXOXOX=XOX$X|.G.G.|.OX$X$X$X$X*X$X*XOX*X*XOX$X$X}.C.^.OXOX X|.|. X|.OX$XOX|.}.}.|.|.|.|.{.}.}.}.}.).).).[.[.[.[.[.[.[.[.[.[.[.[.[./././././.^.^.^././.^.^././././././././././.^.^.^.^.^./././././.|.[./././././.^.^.^.^.^.^.^.^.^.^.^.^.^.^.E.E.E.^.^.).}.OX$XOXOX$X).E.E.E.}.$XOX|.).^.^.T.Y.Y.R.D.G.Y.!.^.^.!.R.E.E.,XE.> , : , ",
", 1 ; 1 w.j.g.f.x.j.j.x.c.c.k.h.c.k.c.c.k.f.f.c.c.j.g.k.c.B.M.c.M.c.c.c.M.c.j.f.p.p.u.u.u.f.g.c.c.c.k.c.c.c.c.g.c.c.k.c.c.c.c.c.j.j.j.c.c.k.c.c.c.c.c.c.c.c.c.c.c.c.B.B.B.B.M.M.B.B.B.B.M.M.M.M.B.B.B.B.B.V.V.V.B.B.B.B.B.V.V.V.V.V.C.C.C.V.V.V.C.V.V.C.V.V.V.V.V.A.A.A.C.A.C.G.G.C.A.C.F.F.F.F.J.J.A.V.c.M.A.U.G.G.G.G.G.L.G.G.Y.Y.Y.Y.Y.Y.Y.Y.R.R.R.R.R.R.R.R.E.E.E.^.^.^.^.^.^.^.^.^.^./.).[./././.).[.[.[.[.{.{.{.{.|.|.|.|.OXOXOXOX X X X X|.|.OXOXOX|.|.|.OXOX$XOX$XOXL.U.|.$X$X$XOX*X=X$X=XOX$X=X=X=X$X/.L.).OXOX|.|.|.|.|.OX*X=X$X|.|.|.|.|.}.}.}.}.}.}.[.[.[.).[.}.}.}.[.[.[.[.[.[.[.[./././././.^./././.^.^.^.^.^.^.^././././././.^.^.^.^.^././././././.[.[.[./.^.^.^.^.^.^.^.^.^.^.^.^.^.^.^.E.E.^.^.^.^.).}.OX$XOX X|./.^.E.T.).OX|.OXOXOX|.).T.T././._.^.Y.T././.^.E.E.:XE.> , : , ",
", , ; 5 w.j.g.f.a.a.a.f.f.f.g.f.g.u.q.f.j.f.f.k.c.j.g.c.c.c.c.c.c.c.c.M.M.c.g.p.p.f.f.p.f.j.c.c.c.c.c.c.c.c.c.c.c.c.c.c.c.c.k.g.g.j.k.k.c.c.k.k.c.c.c.c.c.c.c.c.c.c.M.B.M.M.M.M.M.M.M.M.c.c.c.c.B.B.B.B.B.V.V.B.B.B.B.B.B.V.V.V.C.C.C.C.V.V.V.A.C.C.V.V.V.A.V.V.A.A.A.A.C.A.G.G.G.G.G.G.G.F.G.G.G.J.F.V.c.M.C.Y.G.G.G.G.L.L.G.G.Y.Y.Y.Y.Y.Y.Y.Y.Y.Y.Y.R.R.R.R.R.E.^.^.^.^.^.^.^.^.^.^.^.^././.).).).).).[.[.[.[.[.[.[.{.{.{.|.|.|.|.|.OXOXOXOXOXOXOX|.|. XOXOXOXOXOX$X X$XOXY.T.}.OX$XOXOX=X=X$X=XOX$X=X$X$X|.T.T.}.OXOX|.|. X|.|.OX$X=X*X$XOX|.}.}.}.}.}.}.}.}.}.}.[.[.}.[.[.[.).).).).).).).)./././././.^././././././././././././././././.^.^.^.^.^.^.^./././.E.).|.|./.^.^.^.^.^.^.^.^.^.^.^.^.^.^.^.^.E.E.^.^.E./.}.OXOXOX XOX}.}.}.).}.OX|.}. X X}.^.Y.Y.^.Y.^.^.R.P.Y.R.Y.E.E.:XE.> , : < ",
": , ; 1 w.j.g.f.j.j.j.x.k.k.h.g.g.f.p.g.c.c.c.c.k.j.j.c.c.c.k.g.c.c.M.B.c.k.f.u.u.f.p.p.g.c.c.j.c.c.c.c.c.c.c.c.k.j.g.g.j.j.g.g.j.j.k.j.k.c.c.c.c.c.c.c.c.c.c.c.c.c.c.B.M.M.M.c.M.c.M.c.c.c.c.c.B.B.B.B.B.V.B.B.B.B.B.B.B.V.V.V.V.V.C.V.V.V.V.V.V.V.V.C.V.A.A.A.V.V.A.A.A.A.A.A.A.C.G.G.G.F.F.G.C.F.F.C.c.c.B.F.G.G.G.G.L.L.L.G.Y.Y.Y.Y.Y.Y.Y.Y.Y.Y.Y.Y.Y.R.R.R.!.!.!.^.^.^.^.^.^.^.^.^.^././.).[.[.[._./._././.[.[.[.[.[.{.{.{.|.|.|.|. X XOXOXOXOXOX|.|. XOX$X$XOX$X X$XOXY.Y.[.OX$XOXOX*X$X XOX X$X$X}./.^.Y.}.|.OX X XOXOX|.|. XOX$X$X$X$XOX}.}.}.}.}.}.}.}.}.}.}.[.}.[.).).).).).).).).).)./././././././././././././././././././././.^.^.^.^.^.^.^.^.^.^.^.T./.|.|.}./.^.^.^.^.^.^.^.^.^.^.).^.^.^.^.^.^.^./.E.^.}.OXOX XOX$X XOX$X|. X$XOX XOXOX}.^.T.T.^.R.^._.^.T.R.^.^.E.E.:XE.> < : , ",
": , ; 1 w.j.g.g.a.a.f.f.f.p.f.f.u.j.c.g.u.f.g.p.j.j.k.c.c.c.g.f.g.c.c.M.c.g.u.r.u.u.u.u.g.c.c.g.g.k.c.k.g.g.k.c.k.j.j.k.c.c.c.c.j.j.j.k.k.c.c.c.c.c.c.c.c.c.c.c.c.c.c.M.M.M.M.c.c.c.M.M.c.c.c.c.B.B.B.B.B.V.B.B.B.B.B.V.B.V.V.V.V.V.C.V.V.V.V.V.V.V.V.C.V.A.A.A.C.C.V.V.V.V.V.V.V.A.C.C.C.C.G.G.A.F.G.C.c.g.k.M.G.G.G.L.L.L.L.G.Y.Y.Y.Y.Y.Y.Y.R.Y.Y.Y.Y.Y.Y.R.R.!.!.!.^.^.^.^.^.^.^.^.^.^.^././.[.[.[./././././.[.[.[.[.[.[.{.{.}.}.}.|.|.|. XOX}.|.OX X|.|.OX$X$XOX$X X$XOXL.G.).OX*XOXOX$X$X}.|.|.OXOXT.G.U.U.OXOXOX|. X$XOX|.OX|.|.|.OX$X$X$X}.}.}.{.}.}.}.}.}.}.}.}.}.[.).).).).).).).).).)././././././././././././././././.^././././.^.^.^.^.^.^.^.^.^.^.^.^./.}.+X|.{.^.T.^.^.^.^.^.^.^.^.).).).^.^.^.^.^.).E.^.}.OXOX XOXOX|.OXOX}.|.$XOXOXOXOX}./.E.T.R.!.Y.H.P.R.T.R.R.E.E.:XE.> < : , ",
"8 , @ 1 r.c.g.f.g.g.g.f.f.f.f.f.g.g.g.g.g.g.g.g.g.g.g.c.c.c.g.f.k.M.c.c.M.g.u.g.f.p.u.p.g.c.j.g.j.j.j.j.j.j.j.j.c.k.k.j.j.k.k.c.k.k.k.c.c.c.c.c.c.c.c.c.c.c.c.c.c.c.c.c.c.c.M.B.B.B.M.c.c.c.M.M.c.B.V.V.M.B.B.B.B.B.B.B.B.B.B.B.V.C.V.B.B.V.C.V.V.V.V.V.V.V.V.V.V.V.V.V.V.A.A.A.A.A.G.G.G.G.G.C.G.F.A.C.C.Z.B.c.V.G.Y.Y.P.G.G.G.G.L.Y.Y.Y.Y.Y.Y.Y.Y.Y.R.R.R.R.R.R.^.^.^.!.R.^.^.^.^.^.^.^.^././.[.[.[./././././.[.[.[.[.[.[.[.[.|.}.}.}.}.|.|.OXOXOXOX XOXOXOXOXOXOX$X$XOX}.T.U.OXOX*X=X=X$XOX XOX|.OX$XY.A.).T. X X X|.|.|.|.|.}.}.}.|.OX$X=X-XOX|.}.}.[.}.}.}.}.}.}.}.).).)./././.).).).).)./././././.^.^.^.^./././././././././.^.^././.R.Y.Y.^.^.^.^.^.^.^.^.^./.}.+X+X}./.^.^.^.^.^.^.^.^.^.^.^.^.).).^.^.^.^.E./.|.OXOXOX$X|. XOX$X$X$XOXOX}.OX$X}.).^.^.T.!.R.Q.!.^.Y.Y.R.E.W.:XE.< < ; > ",
"4 1 ; 8 r.k.g.c.g.g.f.f.f.f.f.f.g.g.g.g.g.g.g.g.g.g.g.k.c.c.j.g.c.M.c.c.c.g.u.g.c.f.u.u.g.c.c.g.j.j.j.j.j.j.j.j.k.k.k.k.k.k.k.k.k.k.k.c.c.c.c.c.c.c.c.c.c.c.c.c.c.c.c.c.c.c.M.c.B.M.M.c.c.M.M.B.c.B.V.B.c.M.B.B.B.B.B.B.B.B.B.V.V.C.C.V.V.C.V.V.V.V.V.V.V.V.V.V.V.V.V.V.V.A.A.A.A.A.G.G.G.G.G.C.G.F.F.F.G.F.C.A.c.n.G.G.G.G.L.P.G.L.Y.Y.Y.Y.Y.Y.Y.Y.Y.R.R.R.R.R.R.^.^.^.^.T.T.^.T.^.^.^.^.^././.[.[.[.[.[.[././.[.[.[.[.[.[.[.[.}.}.}.}.}.|.|.OXOXOXOXOXOXOXOXOX}.|.OX$X*X*X$XOXOXOX$X$X$X$XOX XOX|.|.$XW.L. X|. X X|.|.|.|.|.|.|.|.|.|.|.OX$X$XOX|.}.}.[.}.}.}.}.}.}.}.).).).).)./.).).).).).).).)./././.^.^.^./././././././././.^.^.)./.^.R.R.^.^.^.^.^.^.^.^.^././.[.[././.^.^.^.^.^.^.^.^.^.^.^.^.^.^.^.^.^./.T.E.}.OXOXOXOX$XOX|.|.|. XOX$X$XOX}.[.}.|.).Y.^.^.Q.G.G.R.R.Y.E.W.:XE.< < ; > ",
": 1 , 8 w.f.f.g.f.f.f.f.f.f.f.f.f.f.f.g.g.g.g.g.g.g.g.g.k.c.c.k.c.M.c.c.c.g.u.g.M.g.u.u.g.c.c.j.j.j.j.j.j.j.j.j.g.j.c.c.c.k.j.g.k.k.k.k.k.c.c.c.c.c.c.c.c.c.c.c.c.c.k.c.c.M.M.c.B.M.M.c.c.M.B.B.c.B.V.c.c.c.B.B.B.B.B.B.V.V.V.C.V.V.V.V.V.V.V.V.V.V.V.V.V.V.V.V.V.V.V.V.A.A.A.A.A.A.G.G.G.G.G.G.G.G.G.J.J.J.G.G.g.c.V.G.G.G.L.P.G.G.L.Y.Y.Y.Y.Y.Y.Y.Y.R.Y.R.R.R.T.^.^.^.R.R.R.R.R.T.E.^.^.^./././._.[.[.}.[.[.[.[.[.[.[.[.[.[.[.}.}.}.}.}.|.|. X|.|.|.|. X X X X|. X XOXOX$X$X*XOXOXOXOXOXOXOXOX|.}.}.|.L.G.OXOX|.|.|.|.|.|.|.|.|.|.|.|.|.|.|.|. X|.}.}.}.}.}.}.}.}.}.}.[.[.).).).).).).).).).).[.[.).)././././././././././././.^.T.T.^.^.R.Y.R./.^.^.^.^.^.^.^.^.^.^.^.^.^.^.^.^.^.^.^.^.^.^.^.^.^.^.^.^.^.^.^.).T.T.).OX$XOX|.OXOXOX X X|.|.}.OX|.}.}.|.OX}.T.!.^.Y.C.G.^.^.L.E.W.:XE.< < ; > ",
": , ; 5 0.f.u.u.a.a.f.a.f.f.f.f.f.f.f.f.f.g.g.g.g.g.f.g.g.k.c.c.c.M.c.c.c.g.u.g.c.g.f.f.g.g.j.j.g.g.g.g.g.g.g.g.g.g.c.c.c.k.g.g.j.j.k.k.j.k.c.c.c.c.c.c.c.c.c.c.c.c.j.c.c.B.B.c.M.M.c.c.M.B.B.B.B.C.B.c.c.c.B.B.B.B.V.V.V.C.C.V.V.V.C.V.V.V.V.V.V.V.V.V.V.V.V.V.V.V.V.A.A.A.A.A.A.G.G.G.F.F.G.G.J.J.G.J.J.F.C.V.h.b.G.P.P.L.G.G.G.G.L.Y.Y.Y.Y.L.Y.Y.Y.R.Y.R.R.R.T.^.^.^.T.R.R.R.R.T.T.^.^.^././.^././.).[.[.[.}./.).[.[.[.[.[.[.).).}.}.}.|.|.|.|.|.|.|. X X X XOXOX X|.|.|.|.|.OXOXOXOXOX XOXOXOX|.|.|.G.C.|. X|.|.|.|.|.|.|.{.}.}.|.|.|.|.|.}.|.|.}.}.}.}.}.}.}.}.}.}.[.).).).[.[.[.[.).).[.[.[.[.[.[././././././././././././.T.R.R.^.^.R.R.R./.^.^.^./.^.^.^.^.^.T.T.T.T.^.^.^.^.^.^.^.^.^.^.^.^.^.E.E.E.^.^.^.E.^.}.OX$XOX X|.|.OX$XOX}.T.G.Y./.|. X|.[./.^.P.P.G.S.L.^.^.Y.E.W.:XE.< < ; > ",
": , & 8 s.V.c.g.a.a.a.a.f.f.f.f.f.f.f.f.f.g.g.g.g.g.f.f.g.j.c.c.c.M.c.c.c.g.u.f.f.g.k.g.f.u.f.g.j.j.j.j.g.g.g.g.g.g.k.c.c.c.g.g.j.j.j.k.j.j.k.k.c.c.c.c.c.c.c.c.c.c.c.c.B.B.B.M.c.M.M.M.c.M.B.B.B.C.B.c.c.M.V.V.B.B.V.V.V.V.V.V.V.V.V.V.C.C.V.V.V.V.V.V.V.V.V.V.A.A.C.A.A.A.A.A.C.G.F.G.F.F.F.G.J.J.G.J.G.F.C.V.c.B.G.P.P.G.G.G.G.L.Y.Y.Y.Y.Y.P.Y.Y.Y.Y.Y.R.R.R.R.!.^.^.T.R.R.R.R.R.T.^.^./././.[._././././.[.[././.).[.[.[.[.[.).).}.}.}.|.}.|.|.|.|.|.|.|. X X|.|.|.|.OXOXOXOXOXOXOX|.|.|.|.OXOX|.|.OXL.C.|.|.|.}.}.}.{.{.{.{.[.}.}.|.|.|.}.}.|.}.}.}.}.}.}.}.}.}.}.}.}.[.[.[.}.}.[.).).).[.[.[.[.[.[.[.[.[.[.[.).)././././././.^.^.).)././././././././.^.^.^.^.^.^.^.^.^.^.^.^.^.^.^.^.^.^.^.^.^.T.T.T.T.^.^.T.).}.|.|.OXOXOX X|.}.).^.T.G.V.C.L.).|.}.^.T.Y.C.v.n.H.^.^.R.R.E.W.:XE., , ; > ",
", , ; q b.^.U.B.u.u.u.a.p.p.f.f.f.f.f.f.f.f.g.g.g.g.g.f.f.g.c.c.c.c.c.c.M.g.u.u.u.g.c.k.u.r.u.j.g.g.g.g.g.g.g.g.g.g.j.c.c.j.g.g.g.j.j.j.j.j.j.j.c.c.c.c.c.c.c.c.c.c.c.c.c.M.M.B.c.c.c.c.M.B.B.B.B.B.M.c.c.B.V.B.B.V.B.B.V.V.V.V.B.B.B.B.B.V.V.A.V.V.V.V.V.V.V.V.C.C.A.A.A.A.A.C.G.G.F.G.F.F.F.F.G.G.G.J.J.J.F.G.h.c.G.G.G.G.G.G.G.G.P.Y.Y.Y.Y.Y.Y.Y.Y.Y.Y.R.R.R.Y.R.!.!.R.R.R.T.^.!.^.^.^.^././.}.[.[././././.)././.).).[.[.[.[.).).[.}.}.}.}.}.}.}.|.|.|.|.|. X|.|.|.OXOXOXOX XOXOXOX X|.|. X X}.).}.|.U.G.|.|.}.}.}.}.{.}.}.}.).[.}.}.|.|.}.}.}.}.}.}.}.}.}.}.}.}.}.}.}.}.}.}.}.}.[.).).).).[.[.[.[.[.[.[.[.[.[.[.[.)./././././.^./.).[././.[././././././.^.^.^.^.^.^.^.^.^.^.^.^.^.^.^.^.^.^.^.^.T.T.T.T.^.^.T.[.OXOXOXOXOX|.$X[.L.C.C.G.L.L.G.A.G.E.[.^.L.V.n.x.c.Y./.Y.G.R.E.W.:XE., , ; > ",
", , ; w V.[.R.A.u.u.u.u.u.p.f.f.p.p.f.f.f.f.g.g.g.g.g.g.f.g.c.c.c.c.c.c.B.g.u.u.u.f.c.g.u.u.f.c.g.g.g.g.g.g.g.g.g.g.g.j.j.j.g.g.g.g.j.j.j.k.j.k.c.c.c.c.c.c.c.c.c.M.B.M.c.c.c.B.c.c.c.c.M.B.B.B.c.c.c.k.c.B.B.B.B.B.B.B.B.B.B.V.B.B.c.c.c.B.C.A.V.V.V.V.V.V.V.V.A.A.A.G.C.C.G.G.G.G.G.G.G.G.F.F.G.G.F.F.G.F.G.V.x.c.V.G.G.G.G.P.G.G.Y.Y.Y.Y.Y.L.Y.Y.Y.Y.Y.R.R.R.Y.Y.T.R.T.R.T.^.^.^.^.^.^.^.^.^.R.^.^./.)././././././.).).[.[.[.).[.}.}.}.}.[.).}.}.{.|.|.|.|. X|.|.|.|.}.}.}.|.OXOXOXOXOX X X X).^.E.).L.G.|.}.}.}.}.}.}.}.}.}.}.}.}.}.}.}.}.}.}.}.}.}.}.}.}.}.}.}.}.}.}.}.}.}.}.}.[.).).).).).[.[.[.[.[.[.[.[.[.[.[.)./././././.^.^././.^./.).).)././././.^.^.^.^.^.^.^.^.^.^.^.^.^.^.^.^.^.^.^.E.T.T.W.T.E.^.E.}.OXOXOXOX|.).}.T.C.V.C.Y.T.T.E.L.C.G.Y.L.A.V.G.S.D.Y.^.Y.Y.R.^.R.:XE., , ; , ",
": , ; q c./.Y.B.u.u.u.u.u.p.p.p.u.p.f.f.f.f.g.g.f.g.g.g.f.g.k.c.c.c.c.c.B.j.r.r.u.f.g.f.u.u.f.c.g.g.g.g.g.g.g.g.j.g.g.g.g.j.g.j.g.g.g.j.j.k.k.k.c.c.c.c.c.c.c.c.c.M.B.c.k.g.c.B.c.c.c.c.M.B.B.B.k.c.k.g.c.M.B.c.B.B.B.B.B.B.B.B.B.B.c.c.c.M.C.A.V.V.V.V.V.V.V.V.A.A.A.G.C.G.G.G.G.G.G.G.G.G.G.F.J.F.F.C.C.C.B.c.c.B.G.G.G.G.G.Y.G.L.Y.Y.Y.Y.Y.L.Y.Y.Y.Y.Y.R.R.R.Y.Y.R.R.T.T.^.!.^.^.^.^.^.!.^.^.V.G.Y.^./.[./././././.).).[.[.[.).[.}.}.}.[.).).}.}.{.{.|.|.|.|.}.}.}.}.|.OX$X$XOXOXOXOXOXOX X|.|.).T.).L.L.OX}.}.}.}.}.}.}.}.}.}.}.}.}.}.}.}.}.}.}.}.}.}.}.}.}.}.}.}.}.}.}.}.}.}.}.).)./.).).).[.[.[.[.[.[.[.[.[.[.[.[.)./././.[././._.[././.[.[.)././././.^.^.^.^.^.T.T.^.^.^.^.^.^.^.^.^.^.^.E.E.T.R.R.T.E.^.^.}.|. XOX$X}.E.G.G.L.T.)._.).T.).T.L.D.V.b.C.P.T.!.!.Y.Y.T.!.R.^.R.>XE., , ; , ",
"8 ; ; 1 U.C./.C.f.u.u.u.p.f.f.f.f.p.p.p.p.f.f.f.g.g.g.g.g.g.g.g.g.c.c.c.k.g.f.g.f.u.g.k.u.u.g.g.j.j.g.g.g.f.f.f.g.g.g.g.g.g.g.g.g.g.g.j.j.k.k.k.c.c.c.c.c.c.c.c.c.M.B.c.c.c.c.B.M.c.c.c.c.M.B.B.c.k.c.c.c.M.V.V.B.B.V.C.C.V.V.V.B.B.B.V.V.V.C.C.C.C.V.V.V.V.V.V.A.C.C.C.C.C.C.C.A.A.A.G.G.G.G.G.G.F.C.F.G.M.k.B.G.G.G.G.G.G.U.Y.Y.U.U.U.U.Y.Y.Y.U.Y.Y.R.R.R.R.R.Y.Y.Y.Y.T.!.!.!.^.!.T.!.!.^.^./.G.C.G.)./.^././.[.)././././.[.[.[.[.[.[.[.[.[.[.{.{.{.{.|.|.|.|.}.}.}.|.|.|.|.|.}.|.|. X|.|.}.}.}.[.[.G.Y.Y.|.XX|.|.{.[._.[.}.|.|.{.{.{.{.{.{.{.{.{.{.{.{.{.|.{.}.}.}.}.}.}.}.}.[.[.}.[.[.).).).[.[.[.[.[.[.[.[.}.}.}.[.[.[.[.[.^.Y.R.R.Y.^.[./.[.[.)././.^.^.^.T.^.^.^.^.^.^.T.^.^.^.^.^.T.^.^.^.R.R.Y.Y.R.^.^.R.^.+XOX|.OXOX/.!.!.^.^.^.!.^.!.^.!.Y.P.P.Y.!.!.!.!.Y.Y.Y.I.P.Y.Y.P.,XY.5 & , , ",
"$ > w 8 R.}.OXC.f.u.u.u.p.f.f.a.f.p.p.p.p.f.f.f.g.g.g.g.g.g.g.g.f.g.c.c.c.c.c.c.f.p.k.c.u.e.f.g.g.g.g.g.g.g.g.g.g.g.g.g.g.g.g.g.g.g.g.j.j.j.k.k.c.c.c.c.c.c.c.c.c.M.B.c.c.k.c.c.M.c.c.c.c.M.B.B.c.c.c.c.c.B.V.V.B.B.V.V.V.V.C.C.B.V.V.V.C.V.C.V.C.C.C.V.V.V.V.V.A.A.A.A.C.C.C.C.A.A.A.C.G.G.G.G.G.F.C.F.G.M.k.B.G.G.G.G.J.J.U.Y.U.U.U.U.U.U.Y.Y.Y.Y.Y.Y.Y.P.Y.Y.Y.Y.I.Y.!.!.!.!.!.!.!.!.^.^.!.I.G.V.G././././.^.).)././././.[.[.[.[.[.[.[.[.[.[.{.{.{.{.|.|.|.|.}.{.}.|.|.|.|.|.OXOXOXOX|.}.}.).}.[.}.G.Y.Y.|.|.|.|.{.}.[.[.[.}.|.{.{.{.{.{.{.{.{.{.{.{.{.{.|.|.}.}.}.}.}.}.}.}.[.[.}.[.[.).).).[.[.[.[.[.[.[.[.}.}.[.[.[.[.[.[.R.G.G.G.G.Y././.[.[.)././.^.^.^.^.^.^.^.^.^.^.T.^.^.^.^.^.T.^.^.^.R.Y.Y.Y.R.^.^.T.^./._.[.+X+X^.!.!.!.!.!.!.!.!.!.!.!.Q.Q.!.!.!.!.!.Y.I.I.P.P.P.Q.P.,XY.6 & * , ",
"1 + 1 ; ;.<.<.g.f.u.u.u.p.a.a.p.p.p.p.p.p.f.f.f.f.f.g.g.g.g.g.g.f.g.c.c.c.c.c.c.f.u.g.g.u.q.f.k.g.g.g.g.g.g.g.g.g.g.g.g.g.g.g.g.j.j.g.j.j.j.k.c.c.c.c.c.c.c.c.c.c.c.B.c.c.j.k.c.B.c.c.c.c.M.B.B.c.c.c.c.c.B.V.V.B.B.B.V.V.V.C.C.V.V.C.C.V.V.V.V.V.V.C.V.V.A.A.A.A.A.A.A.G.C.C.C.A.A.A.G.G.G.G.G.G.F.A.G.G.M.k.B.G.G.G.G.G.G.U.U.U.U.U.U.U.U.Y.Y.Y.Y.U.G.G.L.P.P.Y.Y.I.Y.Y.!.!.!.!.!.!.!.^.!.P.D.G.V.G././././.^.)./././././.[.[.[.[.[.[.[.[.[.[.[.[.[.[.[.{.|.|.}.}.{.|.|.|.|.|.OXOXOX|.|.}.}.).}.[.}.G.P.P.{.{.|.|.|.{.{.[.[.[.{.{.{.{.{.{.{.{.{.{.{.{.{.{.{.{.}.}.}.}.}.}.}.}.[.[.[.).[.).).).[.[.[.[.[.[.[.[.}.[.[.[.[.[.[.[.R.G.G.G.C.Y.^.^.).)./././.^.^.^.^.^.^.^.^.^.^.!.^.^.^.^.T.E.^.^.R.R.Y.Y.R.R.!.^.^.T.T.!./.+XOX^.R.!.!.!.!.!.Y.Y.Y.Y.!.!.!.!.Y.Y.T.T.I.I.I.P.P.P.Y.P.,XY.1 & : , ",
"> ; 0 ; > o X :.f.u.u.u.u.p.p.u.p.p.u.p.p.p.f.f.f.f.f.f.g.g.g.g.f.g.g.j.j.j.g.g.u.e.u.f.u.u.g.k.g.g.g.f.g.g.g.g.f.f.g.g.g.g.g.g.g.g.j.j.g.j.k.j.k.k.c.c.k.c.c.c.c.M.B.c.k.g.g.k.M.c.c.c.c.M.B.B.B.B.B.M.B.B.V.V.B.B.B.V.V.V.C.C.V.C.V.V.V.V.V.V.V.V.V.V.V.A.A.A.A.A.A.A.G.C.C.C.A.A.A.G.G.G.G.G.G.F.A.G.F.c.j.V.G.G.G.G.G.G.J.J.U.U.J.J.U.U.Y.Y.Y.Y.G.G.G.G.P.Y.Y.Y.I.Y.Y.!.!.!.!.!.!.!.!.P.G.C.G.C.G./././.).^././././././.[.[.[.[.[.[.[.[.[.[.[.[.[.[.[.[.}.}.}.}.{.|.|.|.|.|.|.|.}.}.}.}.}.}.{.[.}.G.G.G.[.[.|.|.{.[.{.[.[._.[.[.[.[.[.[.[.[.[.[.[.[.[.[.[.[.}.}.}.}.[.}.}.[.[.[.[.).[.).).).[.[.[.[.[.[.[.[.[.[.[.[.[.[.[.[.^.G.G.G.G.L.T.R.)././././.^.^.^.^.^.^.^.^.^.^.^.^.^.^.!.T.^.R.R.R.R.R.Y.R.R.!.^./.R.Y.R.^.+X+XT.Y.Q.Q.!.Y.Y.Y.Y.P.P.Y.Y.Y.Y.P.P.I.I.I.I.P.P.P.P.Q.P.,XY.1 & : , ",
"; , , , + w X ;.f.u.u.u.u.a.u.u.f.p.p.p.u.p.f.f.f.f.f.f.f.f.f.g.f.f.g.g.j.j.j.g.f.q.q.u.u.u.g.f.g.g.f.f.g.g.g.g.f.f.f.g.g.g.g.g.g.g.g.j.j.j.j.j.j.j.k.c.k.c.c.c.c.c.c.c.j.g.g.c.B.M.c.c.c.M.B.B.B.B.B.B.B.B.V.V.B.B.B.V.V.V.V.V.C.C.V.V.V.V.V.V.V.V.V.V.V.V.A.A.C.C.C.C.G.C.C.C.A.A.A.G.G.G.G.G.G.F.C.G.F.c.j.B.G.G.G.G.G.G.G.G.U.J.J.J.J.U.Y.Y.Y.L.G.G.G.P.Y.Y.Y.Y.Y.Y.Y.R.!.!.T.!.^.T.L.D.D.G.G.C.Y./././.[.^././.).).[.[.[.[.[.[.[.[.[.[.[.[.[.[.[.[.[.[.[.}.[.}.}.}.|.{.{.{.}.}.}.}.}.}.}.}.[.[.}.G.G.G.[.[.|.}.[.[.[.[.[./.[.[.[.[.[.[.[.[.[.[.[.[.[.[.[.[.}.}.}.}.[.}.}.}.}.}.}.).[.).).).[.[.[.[.).).).).[.[.).).).).).)./.G.G.P.G.G.G.G././././.^.^.^.^.^.^.^.^.^.^.^.^.^.^.^.!.^.T.T.T.R.R.R.Y.R.R.T.!.^.Y.R.!./.+X|.Y.Y.Y.Y.Y.Y.Y.Y.Y.P.P.Y.Y.Y.Y.P.P.I.I.P.P.P.P.P.P.Y.P.,XY.4 & : : ",
"5 & X , ; r + 3.f.u.u.u.u.u.u.u.p.p.u.u.u.p.f.f.f.f.f.f.f.f.f.f.p.p.f.g.c.c.c.c.c.u.u.p.u.u.p.u.g.g.f.f.g.g.f.g.f.f.f.f.g.g.g.g.g.g.g.g.g.g.g.g.g.j.k.k.k.k.k.k.c.M.c.c.g.g.k.c.B.M.c.c.c.M.B.B.B.B.V.B.B.B.B.B.B.B.B.V.V.C.V.V.V.C.V.C.V.V.V.V.C.V.C.V.V.V.V.V.C.C.C.C.G.C.A.C.A.A.A.G.G.G.G.G.G.F.A.G.F.c.g.B.G.G.G.G.G.G.G.G.J.J.J.J.J.U.Y.Y.L.L.G.G.P.Y.Y.T.Y.Y.Y.Y.Y.R.!.!.!.!.R.P.D.C.D.G.G.G.^.[.^.^.)./././.).[.[.[.[.)._.[._.[./././.).[.[.[.[.[.[.[.[.}.[.}.}.{.}.}.}.|.|.|.}.}.}.}.}.[.[.[.G.G.G.[.[.|.[./././.[.[./.[.[.[.[.[.[.[.[.[.[.[.[.[.[.[.[.}.}.}.[.[.[.[.[.}.}.[.).[.).).).).).).).).).).).).).).).).).).).^.G.G.G.G.C.C.C././././.^.^.^.^.T.^.^.^.^.^.^.^.^.^.^.!.T.T.T.R.R.R.R.R.R.R.T.!.^.^.[.{.}.OX+XR.R.Y.Y.Y.Y.Y.Y.Y.Y.Y.Y.Y.Y.Y.Y.Y.P.P.P.P.P.P.P.P.Y.P.,XY.4 & : : ",
"; > 0 1 ;   X <.f.u.u.u.u.u.u.u.u.u.u.u.u.u.p.f.p.p.f.f.f.f.f.f.f.p.f.g.k.c.c.c.c.f.g.g.u.u.u.u.g.g.g.f.f.f.f.f.f.f.f.f.f.g.g.g.g.g.g.g.g.j.j.j.j.j.k.j.k.c.k.c.c.c.c.c.g.g.c.M.B.M.M.c.c.M.B.B.B.B.B.B.B.V.B.B.B.B.B.V.V.C.V.V.B.V.V.V.C.C.V.V.C.V.C.V.V.V.V.V.C.C.C.C.A.A.A.A.A.A.A.C.G.G.G.G.G.G.A.G.G.c.g.B.G.G.G.F.F.G.G.G.J.J.J.J.J.J.U.Y.L.Y.Y.Y.P.Y.Y.Y.Y.Y.Y.Y.R.!.!.!.^.Y.G.D.D.D.D.D.G.P.).}.^.^.)./././.).[.[.[./.)././././././././._._.[.[.[.[.[.[.}.}.}.}.}.}.}.}.).).}.}.}.}.}.}.[./.[.V.G.G.[.[.|./.^.^./.[.[./.[.[.[.[.[.[.[.[.[.[.[.[.[.[.[.[.}.[.[.[.[.[.[.[.}.}.}.[.[.).).).).).).).).).).).).).).).).).).)./.G.V.L.G.G.L.G./././.^.^.^.^.^.T.^.^.^.^.^.^.E.^.^.^.T.T.T.R.R.R.R.R.R.R.R.T.T.^.).+XOX}.|.|.^.T.Y.Y.Y.Y.P.Y.Y.P.P.Y.Y.Y.Y.P.P.P.P.P.P.P.P.P.P.Y.P.1XY.4 ; : : ",
"; & 1 ; =.w.>.u.f.u.u.u.u.u.u.u.u.u.u.u.u.u.p.f.p.p.p.f.f.f.f.f.f.f.p.f.g.j.g.g.j.g.c.c.u.r.f.g.g.g.g.f.f.f.f.f.f.f.f.f.f.g.g.g.g.g.g.g.g.g.g.j.j.j.j.k.k.c.c.k.c.c.c.k.g.g.c.B.B.M.M.M.c.M.B.B.M.B.B.B.B.B.B.B.B.B.B.V.V.C.V.V.V.V.V.V.V.V.V.V.C.C.C.V.V.V.V.A.C.C.A.A.A.A.A.A.A.A.A.C.G.G.G.G.G.G.A.G.G.c.g.B.G.G.G.F.F.F.G.G.J.J.J.J.J.J.U.Y.Y.Y.Y.Y.P.P.L.G.Y.Y.Y.Y.R.T.!.!.^.P.C.C.D.G.G.C.G.Y.|.|.R.R.).)././.).[.[.)./././././././././././._._.[.[.[.[.[.[.}.}.}.}.}.}.}.Y.T.^.).[.}.}.}./././.V.G.G.[.[.[.^.R.R.^.[.[.[.[.[.[.[.[.[.[.[.[.[.[.[.[.[.[.[.[.[.[.}.}.[.[.[.}.}.}.[.[.).).).).).).).).).).).).).).).).).).).[.G.D.Y.R.R././././.^.^.^.^.^.^.T.^.^.^.^.^.^.T.^.^.^.T.T.R.R.R.R.R.R.R.R.T.T.T.Y.^.XX|.^././.R.T.Y.Y.Y.Y.P.Y.Y.G.L.P.Y.Y.P.L.G.P.P.P.P.P.P.P.P.Y.P.1XY.4 ; : : ",
"1 + ; < h.B.k.r.e.u.u.u.y.u.a.u.u.f.g.f.p.g.g.u.p.f.f.g.f.f.f.f.f.f.f.f.g.g.g.g.c.k.g.g.f.f.u.u.j.g.f.p.f.f.f.f.f.f.f.g.g.g.g.g.g.g.g.g.g.j.k.k.j.j.k.c.c.c.c.c.c.c.c.g.g.c.c.c.c.c.c.c.c.M.B.V.B.B.B.B.B.V.V.V.B.B.B.B.B.V.V.V.V.V.V.C.C.V.C.V.C.C.V.V.V.V.V.V.A.G.G.F.G.G.G.G.A.A.A.A.G.C.C.A.G.G.G.C.G.M.k.B.G.F.F.G.G.G.G.G.J.J.J.J.J.U.U.U.Y.Y.Y.P.G.D.D.G.Y.R.R.Y.Y.^.^.^.D.G.G.G.G.G.G.V.V.R.[._././.).^./././.).)././././././././././././././././.).).)./.).[.}.}.}.[.).L.Y.E.).}.}.).).[.}.^.G.V.R.[.[././.).).).).[.[././.).).).[.[.[.[.[.[.[.[.[.[.[.).).).).[.[.[.[.}.}.}.}.[.[.).).).(.(.^.^.(.(.).(.(.(.).).).(.^.R.G.V.Y.^.^.^./.[./.^.^.^./.^.^.^.^.^.^.^.!.^.^.R.R.R.R.T.T.T.T.T.T.T.T.T.T.T.T.R./.|.|./.Y.P.Y.R.R.R.R.Y.Y.Y.Y.Y.G.G.T.R.G.G.G.D.P.G.G.Y.Y.K.Y.K.H.1XY.1 ; , , ",
"; 1 1 + 6.0.w.k.u.u.f.f.g.g.a.u.g.g.p.u.r.u.f.g.p.f.f.f.f.f.f.f.f.f.f.f.f.g.g.g.c.c.c.k.j.g.g.g.g.g.f.f.f.f.f.f.f.f.f.g.g.g.g.g.g.g.g.g.g.j.k.k.j.j.k.c.c.c.c.c.c.c.c.g.g.c.c.c.M.c.c.c.c.c.B.B.M.B.B.B.B.B.B.B.B.B.B.V.B.V.V.V.V.V.V.C.C.C.V.V.C.V.V.V.V.V.V.V.A.G.C.G.G.G.G.G.A.A.A.A.G.C.C.A.A.G.G.C.G.B.k.B.G.G.G.G.G.G.G.G.J.J.J.J.J.J.U.U.Y.Y.Y.Y.G.G.G.G.Y.R.R.R.R.R.Y.G.G.G.G.L.R.R.G.C.V.R.[.).^./././././././././././././././././././././././././.).)./.).).}.}.[.[.).Y.T.^.).}.}.[.)./.}.^.G.G.Y./.)././.).).).)././././././.).).[.[.[.[.[.[.[.[.[.[.).).).).[.[.[.[.}.}.}.[.).).).).).).(.(.(.(.).)._.).^.^.^.^.(.(./.G.V.G.G.G.G.G.[./.^.^.^.^.^.^.^.^.^.^.^.!.^.^.R.R.R.R.T.T.T.T.T.T.T.T.T.T.T.T.Y./.|.XX).R.Y.R.R.R.R.Y.Y.Y.Y.Y.Y.L.G.G.G.Y.R.^.Y.!.Y.I.Y.Y.H.K.K.H.,XY.1 ; , : ",
"+ 1 ; ; g.h.u.g.g.f.u.e.y.u.u.q.r.e.u.u.f.f.f.g.p.f.f.f.f.f.f.f.f.f.p.f.f.f.g.g.f.f.f.g.g.g.g.g.f.f.f.f.f.g.f.f.f.f.f.f.g.g.g.g.g.g.g.g.g.g.j.k.j.j.k.c.c.c.c.c.c.c.k.g.g.c.c.c.M.M.c.c.c.c.M.B.c.c.c.M.M.B.B.B.B.B.B.V.B.V.V.V.V.V.V.V.C.C.C.V.C.C.V.V.V.V.V.V.V.A.C.G.G.G.G.C.A.A.A.A.C.C.C.C.A.G.G.C.G.B.c.B.G.G.G.G.G.F.F.F.J.J.J.J.J.J.J.U.L.Y.Y.Y.P.G.G.L.L.Y.R.R.R.R.G.V.G.G.G.Y.^.^.Y.C.V.R.[./.^./././.^.^./.^././.^.^././././././././././././././././.^.).).[.[.[.).).E.^.).).[.[.[.[./.[./.L.C.G.T.^.[._./.)./././././././././.).).)././.[.[.[.[.[.[.[.[.).).[.[.[.[.).[.).).).)././.).).).(.).).).)._.(.!.T.!.^.).).^.G.V.V.C.V.G.G.[./.^.^.^.^.^.^.^.^.^.^.!.!.^.^.T.T.R.R.T.T.T.T.T.T.T.T.T.T.T.T.Y./.|.|.).T.Y.Y.R.Y.Y.Y.P.P.P.P.L.R.R.Y.Y.Y.Y.G.L.L.G.D.D.G.Y.^.Y.J.,XU.1 ; , , ",
"; ; + 1 w.h.c.r.u.u.u.u.u.g.c.c.k.g.g.j.g.u.u.u.p.f.f.f.f.f.f.f.p.p.p.p.p.f.f.f.u.u.u.u.u.u.p.p.f.p.p.f.g.g.f.f.f.f.f.f.f.g.g.g.g.g.g.g.g.g.j.j.j.j.k.c.k.c.c.c.c.c.g.g.g.c.c.c.M.M.c.c.c.c.c.c.c.c.c.M.M.M.B.B.B.B.B.V.B.V.V.V.B.B.V.V.V.C.V.V.C.V.C.V.C.C.C.V.V.A.A.C.C.G.C.C.A.A.A.A.A.A.A.A.A.F.G.C.G.B.c.B.G.G.G.G.F.F.F.F.J.J.J.J.J.J.J.J.G.Y.Y.Y.P.P.P.Y.L.Y.R.R.R.R.G.B.D.G.G.R.^.^.L.V.V.R._./.^./././.^.^././././.^.^././././.^.^.^.^.^.^.^./././././././.).).[.).).).).).).).[.[.[.[./.[./.G.V.G.Y.^.[.[././././.^.^././././././././././._._.[.[.[.[.).).).).).).).).).).).).).).)./.).).).).).).).).(.!.T.T.^.).).).Y.G.V.C.D.G.G.Y.[./.^.^.^.^.^.^.^.^.^.^.^.^.T.T.R.R.R.R.R.R.R.R.R.R.R.R.R.R.R.R.^._.|.[.^.R.R.R.R.Y.Y.Y.P.P.Y.Y.V.C.G.G.P.Y.Y.Y.!.Y.Y.Y.H.G.H.G.Y.G.,XU.1 ; , : ",
"1 ; , , l I g.s.u.u.f.f.u.u.u.u.f.u.q.q.u.u.u.f.p.f.f.f.f.f.f.p.u.u.u.u.u.u.p.f.f.f.f.f.f.f.f.p.p.p.p.f.g.g.f.f.f.f.f.g.f.f.g.g.g.g.g.g.g.g.j.g.g.g.k.c.k.c.c.c.c.j.g.g.j.c.c.c.c.c.c.c.c.c.c.c.c.c.M.M.M.B.B.B.B.B.B.B.B.V.V.V.B.B.B.V.V.V.C.V.C.C.C.C.C.V.V.V.V.V.A.A.C.C.A.A.A.A.A.A.A.A.A.A.A.F.G.C.G.B.c.B.F.F.F.F.F.G.G.G.G.G.G.J.J.J.J.J.G.L.Y.Y.Y.Y.Y.Y.Y.R.R.R.R.R.J.V.V.G.R./.~.R.G.G.V.R.[./.E./././.^.^././././././././././.^.^././.^.^.^.^././.^./.^.).).).).).).).[.[.).).).).).)././.^.G.C.C.Y.^.).)./././.^.^.^././././././././././././.).).).[.).).).).).).).).).).).).).).).).).(.(.(.(.(.(.(.^.!.!.!.(.(.!.Y.Y.G.G.G.G.V.G.G.[./.^.^.^.^.^.^.^.^.^.^.^.T.R.T.R.R.R.R.R.R.R.R.R.R.R.R.R.R.R.R.[.|.|./.R.R.R.Y.R.Y.Y.Y.Y.Y.Y.R./.R.J.Y.Y.G.J.T.G.n.G.^.Q.R.Y.F.Y.G.:XJ.1 : 1 : ",
"1 & 5 > X r f.f.g.f.u.u.u.q.y.u.u.f.f.f.g.g.f.u.p.f.f.f.f.f.u.u.u.u.u.u.u.u.u.u.f.f.f.f.f.f.p.p.f.f.p.f.f.f.f.f.f.f.f.f.f.f.g.g.g.g.g.g.g.g.g.g.g.g.j.c.c.c.c.c.c.g.g.g.c.k.g.g.c.c.c.c.c.c.c.c.M.c.c.M.M.B.B.B.B.B.B.B.B.V.V.V.B.B.B.B.V.V.V.V.C.C.V.V.V.V.V.V.V.V.V.V.A.A.V.A.V.V.V.V.A.A.V.V.V.F.C.C.G.B.c.B.G.G.F.G.F.G.G.G.G.G.G.G.J.J.G.G.G.L.Y.Y.Y.P.Y.Y.R.R.R.Y.R.R.Y.C.V.Y./.'.~.Y.G.F.V.R.).^.^.^./.^.^.^././././././.^.^.^.^.^.^.^.^.^.^.^.^.^.^./././././.).).).).).).).).).).).).)././.R.G.G.G.R.^././././.^.^.^.^.^.^.^./.^.^././././././././.).).).).).).).).).).).).).).).).).).).(.(.(.^.(.(.(.).^.(.(.(.!.L.C.V.C.G.C.V.C.D.G././.^.E.^.^.^.^.T.T.^.^.T.T.R.R.R.R.R.R.R.R.R.R.R.R.R.R.R.R.R.R.{.+X|.^.Y.Y.R.Y.R.Y.Y.Y.Y.Y.R.R.G.G.G.Y.Y.G.G.F.).D.G.Y.G.G.~.Y.Y.G.:XG.1 : 1 : ",
"; ; , , ; h f.u.f.u.e.p.g.g.p.p.u.f.u.q.r.f.u.3.f.f.f.f.f.f.p.u.u.u.u.u.u.u.u.u.p.p.u.u.u.u.u.u.g.f.u.u.p.f.f.f.f.f.f.f.f.f.f.f.g.g.g.g.g.g.g.g.g.g.j.c.c.c.c.c.c.g.g.k.c.j.g.f.c.c.c.c.c.c.c.c.c.c.c.c.c.c.c.M.B.B.B.B.B.V.V.V.B.B.B.B.B.V.V.V.V.V.V.V.V.B.B.B.V.C.V.V.V.A.A.V.V.V.V.V.A.A.A.V.A.F.C.C.F.B.c.V.A.C.C.G.G.G.G.G.G.G.G.J.G.J.G.G.G.L.Y.Y.P.P.P.Y.R.R.R.R.R.R.J.V.V.G.R./.~.R.G.G.C.R.).^.T.^././.^.^././././.^.^.^.^.^.^.^.^.^.^.^.^.^.^.^.^.^.^././.^././.).).)././.).).)./.^.^./.^.R.R.R.T.^./././.^.^.^.^.^.^.^.^.^.^.^.^././././././././././.).).).).).).).)././././.).).).(.(.(.^.^.!.!.^.^.(.^.!.(.(.!.L.n.C.G.G.C.V.V.G.Y././.^.!.^.^.^.^.T.T.T.R.T.T.R.R.R.R.R.R.R.R.R.R.R.R.R.R.R.R.R.R.[.XX|.^.Y.R.R.P.Y.Y.Y.Y.Y.Y.Y.Y.U.~.~.G.G.E.E.G.!.C.Y./.G.V.Y.K.Y.F.:XG.1 , 1 : ",
"$ 1 ; ; ; h r.u.f.u.u.g.u.$.H h V C v l J :.f.g.f.f.f.f.f.p.u.u.u.u.u.u.u.u.u.u.u.p.p.p.p.p.f.f.g.f.u.u.u.p.f.f.f.f.f.f.f.f.f.f.g.g.g.g.g.g.g.g.j.g.j.c.c.c.c.c.c.g.g.c.c.j.f.p.k.c.c.c.c.c.c.c.c.c.c.c.c.c.c.c.B.B.B.B.B.V.V.V.B.B.B.B.B.V.V.V.V.V.V.V.V.V.B.B.V.V.V.V.V.V.V.V.V.V.V.V.A.A.V.V.V.G.C.C.F.B.c.B.V.A.C.G.G.G.G.J.G.G.G.J.J.J.G.G.G.L.Y.Y.Y.L.U.Y.Y.R.R.R.E.R.G.M.V.C.J.R.^.R.G.A.C.R./.^.R.^././.^.^.^.^.^.^.^.^.^.^.^.^.^.^.^.^.^.^.^.^.^.^.^.^.^.^.^.^.^./.).).^.^./.)./.^.E.E./.^.^./.[.)././.^.^.^.^.^.^.^.^.^.^.^.^.^.^././././././././././.).).).).).).).).^.^.^.^.^.^.^.^.^.!.^.!.^.!.^.^.^.!.T.!.).!.P.C.^./.^.G.V.V.G.L././.^.T.^.^.^.^.T.T.T.R.T.R.R.R.R.R.R.R.R.R.R.R.R.R.R.R.R.R.R.R.^.|.|.^.T.^.R.G.Y.Y.J.J.J.Y.Y.Y.J.U.u.I v J K n B K w.R.Y.G.R.G.K.G.=XG.1 , < : ",
", ; 1 , @ g f.u.u.f.r.e.| J q u h h h M f l K k.r.u.s.u.u.s.u.r.p.p.u.u.u.u.u.u.u.u.u.u.u.u.p.f.p.p.p.p.p.f.f.f.p.f.f.f.f.f.f.g.g.g.g.g.g.g.g.g.j.j.g.j.j.c.k.k.j.k.c.c.c.c.k.g.g.c.B.B.c.k.c.M.c.c.c.c.c.c.c.M.M.B.B.V.C.V.B.B.B.B.V.V.V.C.C.C.C.V.B.B.B.B.B.B.V.V.V.V.V.V.V.V.C.C.V.V.V.V.V.V.C.F.F.C.G.F.C.V.j.c.A.G.G.F.G.G.G.G.G.G.G.J.J.G.U.Y.Y.Y.Y.Y.Y.Y.R.R.R.R.!.!.^.^.T.G.V.G.G.G.G.G.^.^.^.^././.^.^././.^.^.^.^.^.^.^.^.^.^.^.^.^.^.^.^.^.^.^.^.^./.^.^.^.^.^.^.^.^.^.^.^.^.^.^.^.^.^.^././.^.^.^.^.^.^.^.^.^.^.^.^.^.^.^./././.^.^.^./././././././././././././.^.^./.^.^.^./././././.^./.^.^.^./.^.R.^.[.^.Y.D.V.G.^./.R.G.B.V.G.G./.^.^.^.^.^.!.T.!.!.!.T.T.R.R.R.Y.Y.Y.R.R.R.R.R.Y.Y.Y.Y.Y.Y.Y.Y.}.XX|.^.Y.R.R.G.L.U.L.G.W.C.W.U.*XI n M q u h j V w J } G.R.A.Y.J.J.=XC.1 > , 1 ",
", ; 1 , @ g f.s.g.k.g.<.f C | p.c.E./.E.C.} C I B.k.u.r.f.g.g.k.p.p.u.u.u.u.u.u.u.u.u.u.u.u.p.f.p.p.p.p.p.p.p.f.p.f.f.f.f.f.f.g.g.g.g.g.g.g.g.g.j.j.g.j.k.k.k.k.g.g.g.j.k.c.c.c.f.g.c.c.c.j.c.c.c.c.c.c.c.c.c.M.M.M.B.V.B.B.B.B.B.V.B.V.V.C.C.C.C.C.V.B.B.B.B.B.C.C.C.C.V.V.V.C.C.C.C.V.V.V.V.V.A.G.G.A.C.F.C.B.k.M.A.G.G.F.F.G.G.G.G.G.G.G.J.J.U.Y.Y.Y.Y.Y.Y.Y.R.R.R.R.T.!.^.^./.R.G.G.V.V.G.L.^.^.^.^.^./.^.^././.^.^.^.^.^.^.^.^.^.^.^.^.^.^.^.^.^.^.^.^.^./.^.^.^.^.^.^.^.^.^.^.^.^.^.^.^.^.^.^.^.^.^.^.^.^.^.^.^.^.^.^.^.^.^.^.^.^././.^.^././././././././././././././.^././.^.^.^././././././././.^./././.T.^./.T.G.G.G.Y.^.^.T.G.C.C.G.G./.^.^.^.!.^.T.R.!.!.T.T.T.R.R.R.Y.Y.R.R.R.R.R.R.Y.Y.Y.Y.Y.Y.Y.Y.[.|.[.R.Y.R.R.L.!.C.L.).T.Y.|.C.0.B A | 6.c.T.^.).G.} s q.F.{.G.J.J.=XC.1 > : < ",
", ; 1 , @ g f.s.r.:.C h 7 } p.J.U.2X4X,X4Xu.W h U :.r.r.u.r.r.r.u.u.u.u.u.u.u.u.u.u.u.u.u.u.p.p.u.u.u.u.u.u.u.u.u.f.f.f.f.f.f.g.g.g.g.g.g.g.g.g.g.g.g.j.j.j.j.k.g.g.g.g.g.g.j.k.f.g.g.k.c.c.c.c.c.c.c.c.c.c.c.M.c.M.M.B.B.B.B.M.B.B.B.B.V.C.V.V.C.C.C.V.B.B.B.V.B.B.B.B.V.V.B.B.C.C.C.V.V.V.C.V.V.C.C.A.C.G.C.B.c.M.C.G.F.G.F.F.G.G.G.G.G.J.J.J.U.U.Y.Y.Y.Y.Y.Y.Y.Y.R.R.T.T.!.!.^.^.^.Y.V.b.C.G./.^.^.^.^.^.^.^.^.^.^.^.^.^.^.^.^.^.^.^.^.^.^.^.^.^.!.!.^.^.^.^.^.^.^.^.^.^.^.^.^.^.^.^.^.^.^.^.^.^.^.^.^.^.!.!.^.^.^.^.^.^.^.^.!.^.^.^.^.^.^.^.^.^././././././././././././.^.^.^.^.^.^.^.^.^.^././.^.^.^.^././.^./.^.Y.G.G.Y./.^.^.^.R.G.B.V.L./.^.^.^.!.!.R.R.!.T.T.T.R.R.R.R.R.R.R.R.R.R.R.R.R.R.R.R.R.R.R.R._.[.^.Y.G.Y.R.Y.}.C.G.^.B.G.V.P s h T 3.Y.).4X4X4X4Xu.f N A F.V.J.J.=XA.1 > : , ",
", ; 1 , @ g f.s.u.r.h f V ..&.F.C.4X4X,X*Xf.:.C > ) c.c.u.r.u.u.u.u.u.u.u.u.u.u.u.u.u.u.u.u.p.p.u.u.u.u.u.u.u.u.u.f.f.f.f.p.f.f.f.f.g.g.g.g.g.g.g.g.g.j.g.j.j.j.c.k.j.g.g.g.f.f.g.g.g.k.c.c.c.c.c.c.c.c.c.c.c.M.c.c.B.B.B.B.B.M.M.B.B.B.V.C.V.V.C.V.V.V.B.B.V.V.B.B.V.V.V.V.B.B.V.V.C.C.V.V.C.C.V.A.A.A.A.G.A.B.c.B.C.G.F.G.C.G.G.G.G.G.G.J.J.J.J.U.Y.Y.Y.Y.Y.U.Y.Y.R.R.R.T.T.T.R.^././.Y.C.V.G.[./.^.^.^.^.^.^.^.^.^.^.^.^.^.^.^.^.^.^.^.^.^.^.^.^.R.R.!.^.^.^.^.^.^.^.^.^.^.^.^.^.^.^.^.^.^.^.R.R.R.R.R.!.!.!.!.T.^.E.^.^.^.^.!.!.^.^.^.^.^.^.^.^.^.^./.^.^./.^./././.^.^.^.^.^.^.^.^.^.^.^.^././.^.^.^.^././.[.[.^.Y.G.G.Y././.T.^./.Y.B.B.L.).^.^.^.T.T.R.Y.T.T.T.R.R.R.R.R.R.R.R.R.R.R.R.R.R.R.R.R.R.R.R.R.^.^.T.Y.G.Y.Y.Y.P.L.G.T.U.}.h.u q J ^ :.L.R.3X2X:X}.G.r.N 7 j.{.J.J.=XA.1 ; ; : ",
", ; 1 , @ g f.s.f.| 5 K 8.j.0.g.G.4X4X4XOXE.U.;.c U 3.g.u.w.f.h.u.u.u.u.u.u.u.u.u.u.u.u.u.u.u.u.u.u.u.u.u.u.u.u.u.p.f.f.p.p.f.f.f.f.f.g.g.g.g.g.g.g.g.j.j.j.j.j.k.c.c.c.k.g.g.f.g.g.g.j.c.c.c.c.c.c.c.c.c.c.M.M.c.M.B.B.V.V.B.B.M.B.B.B.B.V.V.V.V.V.B.B.B.B.B.V.B.B.B.B.B.B.B.B.V.V.V.V.V.V.C.C.V.V.A.V.A.G.A.B.c.B.A.F.F.C.C.G.G.G.G.G.G.G.G.G.J.J.Y.Y.Y.Y.U.U.Y.Y.Y.Y.R.R.R.T.Y.R.^./.^.Y.L.Y._./.^.^.^.^.^.^.^.^.^.^.^.^.^.!.^.^.^.^.^.^.^.^.R.R.T.T.T.!.^.^.^.^.^.^.^.^.^.^.^.^.^.^.^.^.^.^.Y.L.G.Y.R.^.^.T.!.!.!.!.^.!.T.T.R.R.^.^.^.^.^.^.^.^.^.^.^.^.^./.^.^.^.^.^.^.^.^.^.^.^.^.^.^.^.^./.^.^.^.^.^.^././.^.T.Y.G.G.R.^.^.T.^.).R.C.B.G./.^.^.T.T.R.R.Y.T.T.R.R.R.R.R.R.R.R.R.R.R.R.Y.R.R.R.Y.Y.Y.Y.R.R.Y.R.R.Y.P.Y.P.G.C.T.L.Y./.B...s Q 3.3.w.Y.).4X4X4X|.}.=X&.K ) p.J.J.=XA.1 ; ; : ",
", ; 1 , @ g f.s.C > q 3.u.f.C.w.$.0.:.B.R.2X=Xr.} u M 3.f.w.r.r.u.u.u.u.u.u.u.u.u.u.u.u.u.u.u.u.u.u.u.u.u.u.u.p.u.p.f.f.p.p.f.f.f.f.f.f.g.g.g.g.g.g.g.g.j.g.g.g.g.g.k.c.c.c.j.g.g.g.g.g.c.c.c.k.c.c.c.c.c.c.M.B.c.M.B.B.V.V.B.B.B.B.B.B.B.B.B.B.B.B.B.B.B.B.B.B.B.B.B.B.B.B.B.B.B.V.V.V.V.V.V.V.B.V.V.C.V.G.A.B.k.c.A.F.F.C.C.G.G.G.G.G.G.G.G.G.J.J.U.Y.Y.Y.U.U.Y.Y.Y.Y.Y.R.R.R.^.R.Y.R.^.^.^././.^.^.^.^.^.^.^.^.^.!.!.^.R.R.R.!.T.!.^.!.^.^.!.R.R.R.R.R.T.^.^.^.^.^.^.!.^.!.!.^.^.^.^.!.!.!.^.L.G.G.G.Y.^.^.^.T.T.T.T.R.R.R.R.R.R.^.!.^.^.^.^.^.^.^.^.^.^.^.^.^.^.^.^.^.^.^.^.^.^.^.^.^.^.^.^.^.^.^.^.^.^.^.^.^.Y.L.G.P.R.^.^.^.!.^./.T.G.V.G./.^.^.T.T.R.R.Y.R.R.R.R.R.R.R.R.Y.Y.Y.Y.Y.Y.Y.Y.Y.Y.Y.Y.Y.Y.Y.Y.Y.Y.Y.Y.Y.P.G.G.P.!.L.G.G.A 1 e X.g.G.C.q.:.q.w.V.=X:X Xq.} < V F.F.*XZ.1 ; ; : ",
", ; 1 , @ g f.s.V   5 ;.r.j.C.N V M q M r.{.C.;...: u w.k.f.h.w.u.u.u.u.u.u.u.u.u.u.u.u.u.u.u.u.u.u.u.u.u.u.u.p.u.p.f.f.p.u.f.f.f.f.f.f.f.g.g.g.g.g.g.g.g.j.g.g.g.g.j.c.c.c.c.c.j.g.g.j.c.c.c.c.c.c.c.c.c.c.M.M.c.c.M.B.B.B.B.M.B.B.B.B.B.B.B.B.c.c.c.c.c.M.B.B.B.B.B.B.B.B.B.B.B.B.V.V.V.V.C.C.B.C.C.V.V.G.V.B.g.c.V.G.F.G.G.F.G.G.G.G.G.G.J.J.G.J.J.Y.Y.Y.Y.J.Y.Y.Y.Y.Y.Y.R.R.^.R.Y.R.R.T./.[.^.!.R.^.^.^.^.T.!.^.!.T.R.R.R.R.T.T.E.E.^.^.!.!.R.R.R.R.R.T.T.!.R.R.T.T.T.T.R.R.R.R.T.R.T.T.!.!.Y.L.G.G.Y.^.^.R.R.R.R.R.R.R.R.R.R.R.R.^.T.!.^.T.T.E.^.^.^.^.^.^.^.^.^.^.^.^.T.T.^.^.^.^.T.T.T.T.^.^.^.^.^.^.^.^.^.Y.G.G.Y.^.^.^.^.^.^.^.R.Y.G.G.^.^.R.R.T.T.R.R.R.R.R.R.R.R.Y.Y.Y.Y.Y.Y.Y.Y.Y.Y.Y.Y.Y.Y.Y.Y.Y.Y.Y.Y.Y.Y.Y.L.G.G.L.G.U.A.L.f ; g Q :.C.C.D j y h M C.{.C.8.$.> v F.F.*XC.1 ; : , ",
", ; 1 , @ g f.s.h > u I { ;.c.V h K C l r.k.<.3.Q > V u.w.w.b.w.u.u.u.u.u.u.u.u.u.u.u.u.u.u.u.u.r.u.u.u.u.u.u.u.u.u.f.f.u.u.f.f.f.f.f.f.f.g.g.g.g.g.g.g.g.j.g.g.c.k.j.g.g.g.j.k.c.c.c.c.c.c.c.c.c.c.c.c.c.c.M.M.c.c.c.M.B.B.c.c.V.V.B.B.B.M.M.M.c.c.c.c.c.c.M.B.M.M.M.M.M.M.M.M.B.B.B.V.V.C.C.C.B.V.C.V.V.A.V.B.g.c.V.F.F.G.F.F.G.G.G.G.G.G.J.J.G.J.J.Y.Y.Y.U.J.Y.Y.Y.Y.Y.Y.R.R.R.Y.R.^.^.R.T./.R.R.R.^.^.^.^.R.^.^.T.R.R.R.R.R.T.T.E.E.^.^.!.!.R.R.R.R.R.R.T.!.R.R.R.R.T.T.R.R.R.R.R.R.!.!.!.!.!.Y.G.L.R.^.T.R.R.R.R.R.R.R.R.R.R.R.R.^.^.!.T.T.T.E.^.^.^.^.^.^.^.^.^.^.^.T.!.!.^.^.^.E.T.T.T.T.^.^.^.^.^.^.^.^.).Y.V.C.Y.^.^.R.^.^.^.R.R.T.Y.G.^.!.R.R.T.T.R.R.R.R.R.R.R.Y.Y.Y.Y.Y.Y.Y.L.L.L.G.P.P.P.P.Y.Y.Y.Y.R.Y.Y.L.G.G.G.Y.L.C.E.C.R.c 0 0 ^ W <.f.N D n N J q.f.3.&.{ 7 u A.A.@XV.1 ; : , ",
"; 1 & 1 : f k.w.f ; f } { 3.g.C c A M u u.g.w.;...1 l 3.0.g.u.u.u.u.u.u.u.u.u.u.u.u.u.u.u.u.u.u.u.u.u.u.u.u.u.u.f.u.u.p.p.f.f.f.g.g.g.f.f.f.f.f.g.g.g.g.g.g.g.g.g.g.g.j.j.c.k.k.k.k.k.c.c.c.c.c.c.c.c.c.c.c.c.c.c.c.c.c.c.c.c.c.M.M.M.M.B.M.M.M.c.c.c.M.M.B.B.B.M.M.M.B.B.B.B.B.V.V.V.C.V.V.C.C.V.C.V.V.V.A.G.C.V.V.A.C.G.G.G.G.C.C.G.F.F.G.J.Y.J.J.J.J.U.Y.Y.Y.Y.Y.Y.Y.Y.Y.Y.Y.R.R.R.T.T.!.^.^.!.!.E.E.^.^.!.!.^.^.!.R.R.R.R.R.R.T.!.R.R.R.R.R.R.R.R.R.R.R.R.R.^.^.!.!.!.^.^.^.R.R.R.R.R.R.R.R.!.!.!.T.T.R.R.R.R.R.R.R.R.R.R.R.R.R.R.T.T.!.^.^.^.^.^.^.^.^.^.^.^.^.^.^.^.^.^.^.^.^.^.^.^.^.^.^.E.E.^.^.^.^.^.^./.L.V.G.R.^.^.^.^.^.^.^.!.Y.G.G.^.^.!.R.R.R.Y.Y.R.R.R.Y.Y.Y.Y.Y.Y.Y.Y.Y.Y.Y.Y.Y.Y.Y.Y.Y.Y.Y.Y.Y.Y.Y.Y.Y.Y.Y.L.G.L.L.Y.L.U.n > 0 Q ! <.k.N N B n A r.w.>.<.^ 1 l V.Y.@XV.1 ; , : ",
"0 : : : @ g h.l.c , f ^ ) :.e.U l M V A f.f.3...^ r h k.w.f.u.f.u.u.u.u.u.u.u.u.u.u.u.u.u.u.u.u.u.u.u.u.u.u.u.u.f.p.p.p.p.f.f.f.f.g.g.g.f.f.f.f.g.g.g.g.g.g.g.g.g.g.g.j.j.j.k.k.k.k.k.c.c.c.c.c.c.c.c.c.c.c.c.c.c.c.M.c.c.c.c.c.M.M.M.M.B.B.M.M.c.c.c.M.M.M.B.B.M.M.M.B.B.B.B.B.B.B.V.V.V.V.C.C.C.C.V.V.V.A.C.C.V.V.A.G.G.G.G.G.C.C.G.G.F.G.J.U.J.J.J.J.U.U.Y.Y.Y.Y.Y.Y.Y.Y.R.Y.R.R.R.T.T.T.^.^.!.T.T.E.^.^.!.!.^.^.R.R.R.R.R.R.T.!.^.!.R.R.R.R.R.R.R.R.R.R.R.R.!.R.T.T.T.T.T.T.R.R.R.R.R.R.R.R.!.!.T.T.T.R.R.R.R.R.R.R.R.R.R.R.R.R.R.T.T.T.^.^.^.^.^.^.^.^.^.^.^.^.^.^.^.^.^.^.^.^.^.^.^.^.^.^.^.T.!.^.^.^.^.^.R.G.V.G.^././.^.^.^.^.^.^.!.R.Y.^.^.T.R.R.R.Y.Y.R.R.Y.Y.Y.Y.Y.Y.Y.Y.Y.Y.Y.Y.Y.Y.Y.Y.Y.Y.Y.Y.Y.Y.L.P.Y.Y.Y.Y.L.G.L.G.Y.U.L.c < f W ) <.i.D n j j K r.k.r.0.} 1 u V.Y.OXB.5 ; < : ",
": + 4 8 , l r.w.l $ 0 M V U | $.3.:.<.w.w.;.^ J M 0 5 g.w.r.u.u.r.r.r.r.r.r.r.r.u.u.u.u.u.u.u.u.u.u.u.u.u.u.u.u.p.p.p.p.p.f.f.f.f.f.f.f.f.g.g.g.g.g.g.g.g.g.g.g.g.g.g.g.j.j.j.k.k.k.k.k.c.c.c.c.c.c.c.c.c.c.c.c.c.c.c.c.c.c.c.c.M.M.M.M.B.B.B.B.M.c.c.c.M.M.M.B.M.M.M.M.B.B.B.B.B.B.B.B.V.V.V.C.C.C.C.V.V.A.A.G.A.A.C.G.G.G.A.A.G.C.G.G.F.G.J.J.J.J.J.J.J.J.U.Y.Y.Y.Y.Y.Y.Y.Y.R.R.R.R.R.T.T.T.!.!.^.^.^.^.^.!.!.E.R.R.R.R.R.R.R.!.^.^.^.R.R.T.^.R.R.R.R.R.R.R.R.R.R.R.R.R.R.R.R.R.R.R.R.R.R.R.R.!.T.T.T.R.R.R.R.R.R.R.R.R.R.R.R.R.R.R.R.T.T.T.!.^.^.^.!.!.!.!.!.^.E.T.^.T.T.!.!.^.^.^.^.^.^.^.^.^.^.^.^.^.^.^.^.C.B.B.G.^./.^.T.^.!.^.^.^.^.^.R.^.!.T.R.R.R.Y.R.R.Y.Y.Y.Y.Y.Y.Y.Y.Y.Y.Y.Y.Y.Y.Y.Y.Y.P.P.Y.Y.Y.Y.G.G.L.L.L.G.L.G.P.G.L.Y.C.h ; e l A ! :.<.>.:.6.6.6.;.L C C 1 c A.Y.+XV.1 ; , : ",
": ; : @ X f g.r.M ; < 0 q l U u.f.r.f.u.I V h 0 q 1 r 3.0.u.u.r.u.u.u.u.u.u.u.u.r.r.r.u.u.u.u.u.u.u.r.u.u.u.u.u.p.p.u.u.p.p.f.f.p.p.f.f.f.g.g.g.f.f.g.g.g.g.g.g.g.g.g.g.g.j.j.j.j.j.k.k.k.c.c.c.c.c.c.c.c.c.c.c.c.c.c.c.c.c.c.c.c.c.c.c.M.M.M.c.c.c.c.c.c.M.M.M.c.c.M.M.M.B.B.B.B.B.B.B.B.V.V.V.V.V.C.V.V.V.A.A.C.C.G.G.G.A.A.A.G.G.G.G.F.G.J.J.G.G.J.J.J.J.Y.Y.Y.Y.Y.Y.Y.Y.Y.Y.R.R.R.R.R.T.T.T.T.T.R.R.R.T.T.T.R.R.R.R.R.R.R.R.T.!.^.^.R.R.R.T.R.R.R.R.R.R.R.R.Y.Y.R.R.R.R.R.R.R.R.R.R.R.R.R.R.T.T.T.R.R.R.R.R.R.R.R.R.R.R.R.R.R.R.R.R.R.T.T.T.T.T.R.R.R.T.T.T.T.R.R.R.R.R.R.R.^.^.^.!.^.^.^.^.R.R.!.T.T.^.^.^.G.C.G.P.!.^.^.T.^.R.R.R.R.^.^.!.!.!.R.R.R.R.Y.Y.Y.Y.Y.Y.Y.Y.Y.Y.Y.Y.Y.Y.Y.Y.Y.P.L.L.G.G.G.L.P.P.G.G.G.G.L.G.G.G.Y.L.G.L.C.C < : 5 r f D i.d.s.c.f.^ K u 0 u > v A.Y. XB.5 ; , : ",
"; 1 1 : + f k.w.Q u 5 1 q k J r.r.w.u.w.C V M q 1 f } 0.r.g.r.w.u.u.u.u.u.u.r.r.r.r.u.u.u.u.u.u.u.r.u.u.u.u.u.u.p.u.u.p.p.f.f.f.u.p.p.f.f.f.g.g.f.f.f.g.g.g.g.g.g.g.g.j.j.j.j.j.j.j.j.k.k.k.c.c.c.c.c.c.c.c.c.c.c.c.c.c.c.c.c.c.c.c.M.M.M.M.c.c.c.c.c.M.M.M.M.M.c.c.c.M.M.M.B.B.B.B.B.B.B.B.V.V.V.V.C.C.V.V.A.A.A.A.C.C.C.A.A.A.G.G.G.G.F.G.G.G.G.G.G.J.J.J.U.Y.Y.Y.Y.Y.Y.Y.Y.Y.R.R.R.R.R.R.T.T.R.R.R.R.!.!.!.T.T.T.R.R.R.R.R.R.R.R.T.R.R.Y.R.R.R.R.R.R.R.R.R.R.Y.R.R.R.R.R.R.R.R.R.R.R.R.R.R.R.T.T.R.R.R.R.R.R.R.R.R.R.R.R.R.R.R.R.R.R.R.R.T.T.R.R.R.R.T.T.T.T.T.T.T.T.R.R.R.T.!.!.!.!.!.!.!.!.R.R.R.^.^.!.^.^.!.!.R.T.^.)././.^.R.R.R.T.!.!.T.T.T.R.R.R.Y.Y.Y.Y.Y.Y.Y.Y.Y.Y.Y.Y.Y.Y.Y.Y.Y.Y.Y.L.G.G.G.L.L.L.P.G.G.G.P.L.G.L.G.G.L.G.L.U. .l ; 0 r f M q.6.>.q.<.A V f 0 0 s ) G.J.|.M.5 ; : : ",
"; ; t w 4 c f.w...M > > r h l U K K K K u h r $ $ C g.r.u.u.w.u.u.u.u.u.u.u.u.u.e.e.r.r.r.r.e.r.r.r.r.e.u.u.u.u.u.u.u.u.p.f.f.f.p.p.p.f.f.f.f.f.f.f.f.f.g.g.g.g.g.g.g.g.g.j.g.g.g.j.j.j.c.c.k.k.c.c.c.c.c.c.c.c.c.c.c.c.c.c.c.c.c.c.c.c.c.c.c.c.c.c.c.c.c.M.c.c.c.c.c.c.M.M.M.M.B.B.B.B.B.B.B.B.B.V.V.V.V.V.A.A.A.V.A.C.C.C.A.A.G.G.G.G.F.G.G.G.G.G.G.G.J.J.J.J.L.Y.Y.Y.Y.Y.Y.Y.Y.R.R.R.R.R.R.R.R.R.R.R.R.R.R.R.R.R.R.R.R.R.R.Y.Y.R.R.R.Y.Y.Y.Y.Y.Y.Y.Y.R.R.R.R.Y.Y.R.R.R.R.T.T.R.R.R.R.R.R.R.R.R.R.R.R.R.R.R.Y.R.R.R.Y.Y.Y.Y.Y.Y.R.R.R.R.R.R.R.R.R.R.R.R.R.R.R.R.R.R.R.R.R.R.R.T.T.T.T.T.!.!.T.R.R.R.R.E.E.T.T./././.^.^./././.^.^.T.T.!.^.!.T.R.R.R.R.Y.Y.Y.Y.Y.Y.Y.Y.Y.Y.Y.Y.Y.Y.Y.Y.Y.Y.Y.P.G.G.G.G.G.G.G.G.L.L.Y.Y.L.G.G.G.D.P.G.L.Y.0.J ; ; 0 h n ` R U ^ R h h q > < T M.F.J.}.M.5 ; : , ",
"+ , r.[.W.b.l.0.| A 5 > 7 5 q e 1 5 5 q 0 r 0 5 5 ^ f.r.r.r.r.u.r.e.e.e.r.r.r.e.e.e.e.r.r.r.r.r.r.r.e.r.u.u.u.u.u.u.u.u.p.p.p.f.f.f.f.f.f.f.f.f.f.f.f.f.f.g.g.g.g.g.g.g.g.j.j.g.g.g.j.j.j.k.k.k.k.k.c.c.c.c.c.c.c.c.c.c.c.c.c.c.c.c.c.c.c.c.c.c.c.c.c.c.c.M.M.c.c.c.c.c.c.M.M.M.B.B.B.B.B.V.B.B.B.B.V.V.V.V.V.V.V.V.A.A.G.G.G.G.G.G.G.G.G.F.G.G.G.G.G.G.G.J.G.G.L.L.Y.Y.Y.Y.Y.Y.Y.Y.R.R.R.R.R.R.R.R.R.R.R.R.R.R.R.R.R.R.R.R.Y.Y.R.R.T.R.R.Y.Y.R.Y.Y.Y.Y.Y.Y.Y.Y.Y.Y.Y.R.R.T.!.!.R.R.R.R.R.R.R.R.R.R.R.R.R.R.Y.Y.R.R.Y.Y.Y.Y.Y.Y.Y.Y.R.R.R.R.R.R.R.R.R.R.R.R.R.R.R.R.R.R.R.R.R.R.R.R.R.R.R.R.R.R.R.R.R.R.T.E.^.^.R.^.^.R.R.E.^.^.^.R.R.R.^.^.!.T.R.R.Y.Y.Y.Y.R.R.Y.Y.Y.Y.Y.Y.Y.Y.Y.Y.Y.L.Y.Y.Y.P.G.G.G.G.G.G.G.G.Y.Y.Y.Y.Y.G.G.G.G.Y.C.U.G.0.U e = $ 1 8 r 5 6 5 8 0 q 7 q u :.A.F.G.{.M.5 ; ; , ",
"w . f.).U.V.0.c...^ h e 5 = e e 0 r q q q > > f A 0.3.r.r.u.s.r.e.q.q.q.e.e.e.e.e.e.r.r.r.r.r.r.r.e.e.e.r.u.u.u.u.u.u.u.u.p.p.f.f.f.f.f.f.f.p.p.f.f.f.f.g.g.g.g.g.g.g.g.g.j.j.j.g.g.g.j.j.k.k.k.k.k.k.c.c.c.c.c.c.c.c.c.c.c.c.c.c.c.c.c.c.c.c.c.c.c.c.c.c.M.M.M.c.c.c.c.c.M.M.M.B.B.B.B.B.V.B.B.B.B.V.V.C.V.V.V.V.V.A.A.G.G.G.G.F.F.G.G.G.F.G.G.G.G.G.G.G.J.G.G.L.L.Y.Y.Y.Y.Y.Y.Y.Y.Y.R.R.Y.R.R.R.R.R.R.R.R.R.R.R.R.R.R.R.Y.Y.Y.R.T.!.T.R.Y.R.R.Y.Y.Y.Y.Y.Y.Y.Y.Y.Y.R.R.T.T.!.^.R.R.R.R.R.R.R.R.R.R.R.R.R.Y.Y.R.R.R.Y.Y.Y.Y.Y.Y.Y.Y.Y.R.R.R.R.R.R.R.R.R.R.R.R.R.R.R.R.R.R.R.R.R.R.R.R.R.R.R.R.R.R.R.R.R.T.^.^.^.Y.^.^.E.R.^./.^.Y.Y.Y.R.T.!.R.R.R.R.R.Y.Y.Y.R.R.Y.Y.Y.Y.Y.Y.Y.Y.Y.Y.Y.U.Y.L.Y.P.G.G.G.G.G.G.G.G.Y.Y.Y.Y.Y.L.G.G.C.L.C.T.G.w.) C h 1 , q q w w 5 5 r 1 ; s A x.J.G.G.[.B.5 ; ; , ",
", & q. XG.b.r.u.w.:.Q A s 5 < 5 5 ; ; 5 > ; h Q 0.q.q.e.u.u.u.u.q.q.q.q.e.u.u.u.u.r.r.e.e.r.u.u.r.e.e.r.u.u.u.u.u.u.u.u.p.f.p.p.p.p.p.f.f.f.f.f.f.f.f.g.g.g.g.g.g.g.g.g.g.g.g.g.j.j.g.g.j.j.j.g.k.k.j.k.c.c.c.c.c.c.c.c.c.c.c.c.c.c.c.c.c.c.c.c.c.c.c.c.c.c.c.c.c.c.c.M.M.B.B.B.M.c.c.M.M.B.B.B.B.B.B.V.V.C.C.C.V.V.A.A.A.C.C.C.A.A.A.G.G.G.G.G.F.F.G.G.G.J.U.U.Y.Y.Y.Y.Y.Y.Y.Y.P.Y.Y.Y.Y.Y.Y.Y.R.R.!.T.T.T.R.R.Y.R.T.T.R.R.Y.Y.R.R.R.Y.Y.Y.Y.Y.R.R.R.R.R.Y.Y.Y.R.R.R.R.R.R.R.R.R.R.R.R.R.Y.Y.Y.R.R.R.R.R.Y.Y.Y.Y.Y.Y.Y.Y.Y.Y.Y.Y.Y.Y.R.R.R.R.R.R.R.R.R.R.R.R.R.R.R.R.R.R.R.R.R.R.R.R.R.R.T.T.T.T.T.T.T.T.T.T.T.!.!.^.^.^.!.!.!.G.L.Y.Y.R.R.T.T.R.R.R.R.R.R.Y.R.Y.Y.Y.Y.Y.L.L.L.Y.Y.Y.Y.Y.Y.Y.Y.J.J.J.U.Y.Y.Y.Y.Y.Y.U.U.U.J.G.F.G.L.G.A.G.C.r...W f > 1 5 , 1 5 < ; < c } p.V.G.C.W./.b.0 1   0 ",
", & w. XG.b.r.r.u.3.$.Q v 7 < 5 ; $ ; > $ 1 A :.e.e.e.r.e.e.e.q.q.w.q.w.q.u.u.r.u.r.r.e.e.r.u.u.r.e.e.r.u.u.u.u.u.u.u.u.p.p.f.p.p.p.p.f.f.f.f.f.f.f.f.g.g.g.g.g.g.g.g.g.g.g.g.g.g.g.g.g.j.j.j.g.k.j.j.k.c.c.c.c.c.c.c.c.c.c.c.c.c.c.c.c.c.c.c.c.c.c.c.c.c.c.c.c.c.c.c.M.M.M.B.B.M.M.c.M.M.B.B.B.B.B.B.V.V.V.C.C.V.V.V.A.A.A.C.C.C.C.C.G.G.G.G.G.F.F.G.G.G.J.U.U.Y.Y.Y.Y.Y.Y.Y.Y.Y.Y.Y.Y.Y.Y.I.I.R.R.R.R.R.R.R.R.!.T.T.R.R.R.R.R.R.R.R.Y.Y.Y.Y.Y.R.R.R.R.R.R.Y.Y.R.R.R.R.R.R.R.R.R.R.R.R.R.Y.Y.Y.R.R.R.R.R.Y.Y.Y.Y.Y.Y.Y.Y.Y.Y.Y.Y.Y.Y.R.R.R.R.R.R.R.R.R.R.R.R.R.R.R.R.R.R.R.R.R.R.R.R.R.R.R.T.T.T.T.T.T.T.T.T.T.T.T.T.T.T.T.T.T.Y.Y.Y.Y.R.R.R.R.R.R.R.R.R.R.Y.R.Y.Y.Y.Y.Y.L.L.L.Y.Y.L.P.L.G.L.L.G.G.G.G.J.J.U.U.Y.Y.J.J.J.J.G.G.G.L.G.G.L.L.c.w.) l , > ; $ ; ; > = q U q.V.G.Y.E.A.}.A.X & 1 1 ",
", & w.$XL.b.r.r.e.u.0.$.P h u u u u s f k A $.g.r.r.r.e.e.q.q.q.r.q.w.w.q.e.e.q.r.u.q.q.e.e.u.u.r.r.e.e.r.u.u.u.u.u.u.u.p.p.u.p.p.p.p.p.f.f.f.f.f.f.f.f.g.g.g.g.g.g.g.g.g.g.g.g.g.g.g.g.g.j.j.j.k.k.j.j.k.c.c.c.c.c.c.c.c.c.c.c.c.c.c.c.c.c.c.c.c.c.c.c.c.c.c.c.c.c.c.c.c.c.M.M.M.M.M.B.M.B.B.B.B.B.B.B.V.V.V.V.V.V.V.V.V.A.A.A.C.C.C.C.G.G.G.G.G.G.F.G.G.J.J.U.Y.Y.Y.Y.Y.Y.Y.Y.Y.Y.Y.Y.Y.Y.I.I.Y.Y.R.R.R.R.Y.Y.^.T.R.Y.Y.Y.R.R.R.R.R.Y.Y.Y.Y.Y.R.R.R.R.R.R.R.R.R.R.R.R.R.R.R.R.R.R.R.R.Y.Y.Y.Y.Y.R.R.R.R.R.Y.Y.Y.Y.Y.Y.Y.Y.Y.Y.Y.Y.Y.Y.R.R.Y.R.R.Y.R.R.R.R.R.R.R.R.R.R.R.Y.R.R.R.R.R.R.R.R.R.T.T.T.T.T.T.T.T.T.R.R.R.R.R.R.R.R.Y.R.R.R.R.R.Y.Y.R.R.R.Y.R.R.Y.Y.Y.Y.Y.Y.Y.Y.L.L.Y.Y.L.L.G.G.G.G.G.G.G.G.G.G.G.G.U.J.G.G.G.G.G.F.A.G.G.A.L.R.G.B.w.Q M l p u f f s f K 9.A.G.G.G.c.G./.V.5 1 , + ",
", & w.$XL.b.r.r.0.r.u.2.{ Y H H P J A K ~ &.0.u.q.q.q.q.e.r.r.u.u.e.q.q.q.q.q.q.u.u.q.q.q.q.u.u.e.e.e.e.e.r.u.u.u.u.u.u.u.p.u.u.u.u.p.p.p.f.f.f.f.f.f.f.f.g.g.g.f.f.g.g.g.g.g.g.g.g.g.g.g.j.j.k.j.j.j.j.j.k.c.c.c.c.k.k.k.k.c.c.c.c.c.c.c.c.c.c.c.c.c.c.c.c.c.c.c.c.c.c.c.c.c.c.M.M.M.B.M.B.B.B.B.B.B.B.B.V.V.V.C.V.V.V.V.V.V.V.A.A.G.C.C.G.G.G.G.F.G.G.G.G.J.J.U.U.Y.Y.L.Y.Y.Y.P.Y.Y.Y.Y.I.I.I.Y.Y.Y.R.Y.Y.Y.Y.Y.Y.Y.Y.Y.Y.R.Y.R.R.R.Y.Y.Y.Y.Y.R.R.R.R.R.R.Y.Y.Y.Y.Y.Y.Y.Y.Y.Y.R.Y.Y.Y.Y.Y.Y.Y.Y.R.R.R.R.Y.Y.Y.Y.Y.Y.Y.Y.Y.Y.Y.Y.Y.Y.Y.Y.R.Y.Y.Y.Y.Y.Y.R.R.R.Y.Y.Y.Y.Y.Y.Y.Y.Y.R.R.R.R.R.R.R.R.R.R.R.R.R.R.R.R.R.R.R.R.R.R.R.R.R.R.R.R.R.R.Y.Y.Y.Y.Y.Y.Y.Y.Y.Y.Y.Y.Y.P.Y.P.G.G.Y.Y.Y.L.G.G.G.G.G.G.G.G.G.G.G.J.G.G.F.F.G.G.G.G.C.G.G.A.A.L.G.C.b.<.` Q U I U U U ) 0.V.G.V.B.G.c.).}.k.0 > < , ",
", & w.$XL.b.r.r.q.e.e.0.2.:.$.$...#...#.,.q.q.3.e.q.q.q.q.e.u.u.u.e.q.q.q.e.q.w.r.e.q.q.q.q.e.r.e.e.e.r.r.r.u.u.u.u.u.u.u.u.u.u.u.u.u.p.p.p.f.f.f.f.f.g.f.f.g.g.f.f.f.g.g.g.g.g.g.g.g.g.g.g.j.j.j.j.j.k.k.k.c.c.c.k.k.k.c.c.c.c.c.c.c.c.c.c.c.c.c.c.c.c.c.c.c.c.c.c.c.c.c.c.c.c.c.c.c.M.M.B.B.B.B.B.B.B.B.B.V.V.C.V.C.C.V.V.V.A.A.A.A.C.C.A.G.G.G.G.G.G.G.J.J.J.J.J.U.Y.L.U.Y.Y.P.Y.Y.Y.Y.Y.I.I.Y.Y.Y.Y.Y.Y.Y.Y.L.Y.Y.R.^.^.T.R.R.R.R.Y.Y.Y.Y.Y.R.R.Y.Y.Y.Y.Y.Y.R.R.R.R.Y.Y.Y.Y.Y.R.R.Y.R.R.R.R.Y.R.R.R.R.Y.Y.Y.Y.Y.Y.Y.Y.Y.Y.Y.Y.Y.Y.Y.Y.Y.R.R.Y.Y.R.R.R.R.Y.Y.R.R.R.R.Y.Y.Y.Y.Y.Y.Y.R.R.R.R.R.R.R.R.R.R.R.R.R.R.R.R.R.R.R.R.R.Y.Y.R.R.R.R.R.R.Y.Y.Y.Y.Y.Y.Y.Y.Y.Y.Y.Y.Y.L.L.L.Y.Y.Y.Y.P.L.G.G.G.J.G.J.J.J.J.U.G.G.C.G.F.G.J.G.A.G.L.A.A.A.A.C.G.g.r.r.0.0.q.3.3.p.B.F.G.G.G.G.U.U. Xk.o . 8 5 ",
", & w.$XL.b.r.w.u.u.e.w.q.u.u.q.0.u.u.e.q.r.u.u.u.u.e.q.q.q.q.e.u.e.q.q.q.q.q.w.e.e.q.q.q.q.e.e.q.e.e.e.r.r.r.r.u.u.u.u.u.u.u.u.u.u.u.u.p.p.p.p.f.f.f.f.f.f.g.g.f.f.f.f.g.g.g.g.g.g.g.g.g.g.g.g.g.j.j.j.k.k.k.k.j.j.j.j.k.k.k.k.c.c.c.c.c.c.c.c.c.c.c.c.c.c.c.c.c.c.c.c.c.c.c.c.c.c.c.M.M.B.B.B.B.B.B.B.B.B.V.V.V.V.V.C.C.C.V.V.V.A.A.A.C.A.C.A.F.G.F.G.G.J.J.J.J.U.U.J.L.L.L.L.P.P.Y.Y.P.P.I.I.Y.Y.Y.R.R.Y.Y.Y.Y.Y.R.^././.^.R.R.R.R.Y.Y.Y.Y.Y.Y.Y.Y.Y.Y.Y.Y.Y.Y.Y.Y.Y.Y.Y.Y.Y.Y.Y.Y.Y.Y.R.R.R.Y.R.R.R.R.Y.Y.Y.Y.Y.Y.Y.Y.Y.Y.Y.Y.Y.Y.Y.Y.Y.Y.Y.Y.Y.Y.Y.Y.Y.Y.Y.Y.Y.Y.Y.Y.Y.Y.Y.Y.Y.Y.R.R.R.R.R.R.R.R.R.R.R.R.R.R.R.R.R.R.R.R.R.Y.Y.R.R.R.R.R.R.Y.Y.Y.Y.Y.Y.Y.Y.Y.Y.Y.Y.L.L.L.G.Y.Y.Y.Y.P.P.L.G.G.J.G.J.U.U.U.U.G.C.V.A.G.G.J.J.C.G.G.G.G.A.A.G.Y.C.C.G.A.G.L.V.G.G.V.M.V.Y.G.M.C.G.}.U.| J ; ; ",
", & w.$XU.b.w.w.u.u.r.q.u.a.u.y.0.u.u.q.3.3.w.u.u.r.q.q.q.q.r.u.u.e.q.q.e.e.q.q.e.q.q.q.q.q.q.e.q.q.e.e.e.r.r.r.u.u.u.u.u.u.u.u.u.u.u.u.u.p.p.p.f.f.f.f.f.f.f.f.f.f.f.f.f.g.g.g.g.g.g.g.g.g.g.g.g.g.j.j.j.k.k.k.k.k.j.j.c.c.k.k.j.j.k.k.j.j.j.j.k.c.c.c.c.c.c.c.c.c.c.c.c.c.c.c.c.c.c.M.M.B.B.B.B.B.B.B.B.B.V.V.B.B.V.V.V.C.C.C.V.V.A.A.A.C.A.A.F.F.G.G.G.G.J.J.J.J.U.J.L.Y.L.U.P.P.Y.Y.P.P.I.P.Y.Y.Y.R.R.Y.Y.Y.R.Y.Y.T.^./.!.Y.R.R.R.R.Y.Y.Y.Y.Y.Y.Y.Y.Y.Y.Y.Y.Y.Y.Y.Y.Y.Y.Y.Y.Y.Y.Y.Y.Y.Y.R.R.Y.R.R.R.R.Y.Y.Y.Y.Y.Y.Y.Y.Y.Y.Y.Y.Y.Y.Y.Y.Y.Y.Y.Y.Y.Y.Y.Y.Y.Y.Y.Y.Y.Y.Y.Y.Y.Y.Y.Y.Y.Y.Y.Y.R.R.R.R.R.R.R.R.R.R.R.R.R.R.R.R.R.R.R.R.R.R.R.R.Y.Y.Y.Y.Y.Y.Y.Y.Y.P.P.Y.Y.Y.P.L.G.G.G.L.L.P.L.G.L.L.G.G.G.G.G.J.J.J.G.C.V.C.V.G.G.U.U.G.G.G.G.G.G.G.G.G.C.G.G.C.G.U.C.R.K.A.V.C.G.C.M.C.E.OX*X4XA.+ 1 ",
", & w.*XU.b.w.w.q.e.e.q.y.u.u.0.u.e.q.q.e.q.q.w.q.w.q.w.q.u.u.u.r.q.w.w.e.r.r.q.e.q.q.q.q.q.q.e.q.q.q.e.e.r.r.r.u.u.u.u.u.u.u.u.u.u.u.u.u.p.p.p.f.f.f.f.f.f.f.f.f.f.f.f.f.g.g.g.g.g.g.g.g.g.g.g.g.g.g.j.j.k.k.k.k.j.j.j.c.c.k.k.j.j.k.k.j.j.j.j.k.c.c.c.c.c.c.c.c.c.c.c.c.c.c.c.c.c.c.M.M.B.B.B.B.B.B.B.B.B.V.V.B.B.B.V.V.V.V.V.V.V.V.A.A.C.A.A.F.F.F.G.G.G.J.J.J.J.J.U.L.Y.Y.U.P.P.Y.Y.P.P.I.P.Y.Y.Y.R.R.R.Y.Y.R.Y.Y.Y.R.R.Y.G.R.R.R.R.R.Y.Y.Y.Y.Y.Y.Y.Y.Y.Y.Y.Y.Y.Y.Y.Y.Y.Y.Y.Y.Y.Y.Y.Y.Y.R.R.Y.R.R.R.R.Y.Y.Y.Y.Y.Y.Y.Y.Y.Y.Y.Y.Y.Y.Y.Y.Y.Y.Y.Y.Y.Y.Y.Y.Y.Y.Y.Y.Y.Y.Y.Y.Y.Y.Y.Y.Y.Y.Y.Y.R.R.R.R.R.R.R.R.R.R.R.R.R.R.R.R.R.R.R.T.T.R.R.Y.Y.L.G.Y.Y.Y.Y.Y.P.P.P.Y.Y.Y.L.L.G.G.G.G.G.G.G.G.G.G.G.F.F.F.G.G.G.G.G.A.V.V.V.C.G.J.J.L.G.C.A.G.A.C.A.G.C.G.G.C.C.L.V.B.V.G.J.G.B.V.Y.Y.C. XOX=Xh.. 5 ",
"> + r.$XL.C.w.r.q.q.q.q.q.e.e.e.q.q.q.q.e.e.e.e.u.q.0.q.u.u.u.u.q.q.q.q.e.q.q.q.e.e.e.q.q.q.q.w.e.q.e.e.q.e.r.u.u.u.u.u.u.u.u.u.u.u.u.u.u.u.u.u.p.p.p.f.f.f.f.f.f.f.f.g.f.g.g.g.g.g.g.g.g.g.g.g.g.g.k.c.c.c.c.k.c.c.c.k.k.k.k.k.j.j.c.c.c.c.c.c.c.c.c.c.c.c.c.c.c.c.c.c.c.c.c.M.c.c.c.M.c.M.M.M.B.B.B.B.B.B.B.B.V.V.V.C.C.V.V.V.A.A.A.A.C.G.G.F.G.G.F.F.G.G.J.U.J.J.J.U.L.Y.Y.L.G.L.Y.Y.P.P.P.I.P.Y./.+X|.^.Y.P.Y.Y.Y.Y.Y.Y.Y.Y.Y.Y.Y.Y.Y.Y.R.R.R.R.Y.Y.Y.Y.Y.Y.Y.Y.Y.Y.Y.Y.Y.Y.Y.Y.Y.Y.Y.Y.Y.Y.R.R.R.Y.Y.Y.Y.R.Y.Y.Y.Y.Y.Y.Y.Y.Y.Y.Y.Y.Y.Y.Y.Y.R.R.Y.Y.Y.Y.Y.Y.R.Y.Y.Y.Y.Y.Y.Y.R.R.R.R.R.R.R.R.R.Y.Y.Y.R.R.R.R.R.R.R.T.T.R.Y.Y.R.R.R.R.Y.Y.Y.Y.Y.Y.Y.Y.Y.Y.Y.Y.U.L.L.G.L.P.G.L.G.G.G.G.G.G.G.G.G.F.F.G.G.F.G.G.A.A.A.C.G.G.Y.Y.U.G.A.G.G.G.G.C.C.A.A.C.C.C.C.A.G.G.G.G.G.G.C.C.B.R.}.:X4Xg.  1 ",
", + r.$XL.C.0.r.q.q.q.q.q.e.e.e.q.q.q.q.e.e.e.e.q.q.0.q.u.u.u.e.q.q.q.q.e.q.q.q.e.e.e.q.q.w.w.w.e.q.e.e.e.e.r.u.u.u.u.u.u.u.u.u.u.u.u.p.u.u.u.u.p.p.p.f.f.f.f.f.f.f.f.f.f.f.g.g.g.g.g.g.g.g.g.g.g.g.j.k.k.k.j.g.c.c.k.k.k.k.k.k.k.j.k.c.c.c.c.c.c.c.c.c.c.c.c.c.c.c.c.c.c.c.M.M.c.c.c.M.c.M.M.M.B.B.B.B.B.B.B.B.V.V.V.C.C.C.V.V.A.V.V.A.A.G.G.F.G.F.F.F.F.G.J.U.J.J.J.U.P.P.Y.L.G.L.Y.Y.P.P.I.Y.Y.R./.|.{.^.Y.Y.Y.Y.Y.Y.Y.Y.Y.Y.Y.Y.Y.Y.Y.Y.R.R.Y.Y.Y.Y.Y.Y.Y.Y.Y.Y.Y.Y.Y.Y.Y.Y.Y.Y.Y.Y.Y.Y.Y.Y.R.R.R.Y.Y.Y.Y.R.Y.Y.Y.Y.Y.Y.Y.Y.Y.Y.Y.Y.Y.Y.Y.Y.R.R.Y.Y.Y.Y.Y.Y.Y.Y.Y.Y.Y.Y.Y.Y.Y.R.R.R.Y.Y.Y.R.R.Y.Y.Y.Y.R.R.R.Y.R.R.T.R.R.Y.Y.Y.R.R.R.Y.Y.Y.Y.Y.Y.Y.Y.Y.Y.Y.Y.L.L.G.G.L.G.L.L.G.G.G.L.G.G.G.G.G.G.G.F.F.F.G.G.G.G.G.F.G.G.J.J.U.G.C.C.G.G.G.C.C.A.A.C.C.C.C.A.A.A.A.A.C.C.C.C.Y.C.E.R.>.W ; 1 ",
"< + u.$XL.V.0.w.q.q.q.q.q.q.q.q.q.q.q.q.q.q.e.e.q.q.w.r.u.u.u.q.q.q.q.q.q.q.q.q.q.e.q.q.q.q.w.w.e.q.q.e.q.e.r.u.u.u.u.u.u.u.u.u.u.u.u.p.p.p.u.u.p.p.f.f.f.f.f.f.f.f.f.f.f.f.g.g.g.g.g.g.g.g.g.g.g.g.g.j.g.g.g.g.k.k.j.j.j.g.g.j.j.j.k.k.j.k.c.c.c.c.c.c.c.c.c.c.c.c.c.c.c.c.c.c.c.c.c.c.M.M.c.M.B.B.B.B.B.B.B.B.V.V.V.V.V.V.V.V.A.V.V.A.A.C.G.G.G.G.G.G.F.G.J.J.J.J.J.J.Y.P.Y.Y.L.P.P.P.P.P.Y.Y.Y.R.^.)./.T.Y.R.Y.Y.Y.Y.Y.Y.Y.Y.R.Y.R.Y.Y.Y.R.R.Y.Y.Y.Y.Y.Y.Y.Y.Y.Y.Y.R.R.R.Y.Y.Y.Y.Y.Y.Y.Y.Y.Y.R.R.Y.Y.Y.Y.Y.R.Y.Y.Y.Y.Y.Y.Y.Y.Y.Y.Y.Y.Y.Y.Y.Y.Y.Y.Y.Y.Y.Y.Y.Y.Y.L.G.P.Y.Y.Y.Y.Y.Y.Y.Y.Y.Y.Y.Y.R.R.Y.Y.Y.Y.R.R.Y.Y.R.R.R.Y.Y.Y.Y.Y.R.Y.Y.Y.Y.Y.Y.Y.Y.Y.Y.Y.Y.Y.L.L.G.G.G.G.G.G.G.G.G.G.G.G.G.L.J.G.G.G.G.G.G.G.G.G.G.G.G.G.G.F.L.G.C.C.A.G.G.G.C.A.C.C.C.C.C.A.A.A.A.A.A.G.G.G.U.k.C.0.  & ; & ",
"1 + u.$XL.V.0.w.w.q.q.q.q.q.q.q.q.q.q.q.q.q.q.q.q.e.u.u.u.u.r.q.w.w.w.w.q.q.q.q.q.q.q.q.q.q.q.q.e.q.q.e.q.e.r.u.u.u.u.u.u.u.u.u.u.u.u.p.p.p.u.u.u.p.p.f.p.f.f.f.f.f.f.f.f.f.f.f.f.f.g.g.g.g.g.g.g.g.g.g.g.g.f.f.j.j.j.g.g.g.g.g.g.j.j.j.j.j.j.j.k.k.c.c.k.c.c.c.c.c.c.c.c.c.c.c.c.c.c.c.c.c.c.M.M.M.B.B.B.B.B.B.B.B.V.V.V.V.V.V.A.A.V.A.A.C.G.G.G.G.G.G.F.G.G.J.G.G.J.J.L.Y.Y.Y.P.P.P.P.P.P.I.Y.Y.Y.R.R.R.Y.Y.R.Y.Y.Y.Y.Y.Y.Y.Y.R.R.Y.Y.Y.Y.Y.Y.Y.Y.Y.Y.Y.Y.Y.Y.Y.Y.R.T.R.R.Y.Y.Y.Y.Y.Y.Y.Y.Y.Y.R.Y.R.Y.Y.Y.Y.R.Y.Y.Y.Y.Y.Y.Y.Y.Y.Y.Y.Y.Y.Y.Y.Y.Y.Y.Y.Y.Y.Y.Y.Y.G.G.G.G.Y.Y.Y.Y.Y.Y.Y.Y.Y.Y.Y.Y.Y.Y.Y.Y.Y.Y.Y.Y.Y.Y.R.R.R.Y.Y.Y.Y.Y.Y.Y.Y.P.Y.Y.Y.Y.U.Y.L.L.P.L.G.G.G.G.G.G.G.G.G.G.G.G.G.G.G.G.J.J.G.G.G.G.G.G.G.G.G.G.G.G.G.G.G.A.C.C.A.A.G.G.C.A.C.C.C.C.C.A.G.F.F.G.G.F.G.G.B.U.E.k.$ 1 1 & ",
"1 + u.$XL.V.0.w.q.q.q.q.q.q.q.q.q.q.q.q.q.q.q.q.u.u.u.u.u.e.q.q.q.q.q.q.q.q.q.q.q.q.q.q.q.q.q.q.e.q.q.q.q.e.r.u.r.r.r.u.u.u.u.u.u.u.u.p.p.p.p.u.u.u.p.f.p.p.f.f.f.f.f.f.f.f.f.f.f.f.f.g.g.g.g.g.g.g.g.g.g.g.f.f.j.g.g.g.g.g.g.g.j.j.j.g.g.j.j.k.k.k.k.c.k.k.c.c.c.c.c.c.c.c.c.c.c.c.c.c.c.c.M.M.M.M.M.B.B.B.B.B.B.B.B.V.V.V.C.C.V.V.V.A.A.C.G.G.G.G.G.G.F.G.G.J.G.G.J.U.L.G.P.Y.P.P.P.P.P.P.P.P.Y.Y.Y.Y.P.Y.Y.Y.Y.Y.Y.Y.Y.Y.Y.Y.R.Y.Y.Y.Y.Y.Y.Y.Y.Y.Y.Y.Y.Y.Y.Y.Y.Y.R.T.T.R.Y.Y.Y.Y.Y.Y.Y.Y.Y.Y.R.Y.Y.Y.Y.R.R.R.Y.Y.Y.Y.Y.Y.Y.Y.Y.Y.Y.Y.Y.Y.Y.Y.Y.Y.Y.Y.Y.Y.Y.Y.G.G.G.G.Y.Y.Y.Y.Y.Y.Y.Y.Y.Y.Y.Y.Y.Y.Y.Y.Y.Y.Y.Y.Y.Y.R.R.Y.Y.Y.P.Y.Y.R.Y.Y.Y.Y.Y.G.L.L.L.G.G.G.G.G.G.G.G.G.G.G.G.G.G.G.G.G.G.G.G.J.G.G.G.G.G.G.F.C.G.F.G.G.F.G.G.A.G.G.G.G.G.G.G.C.A.A.A.C.C.C.A.A.F.F.G.G.F.G.G.V.R.;.Q < 0 $ 8 ",
"1 + u.$XL.V.0.w.q.q.q.q.q.q.q.q.q.q.q.w.w.w.w.w.u.u.p.u.e.q.w.q.w.w.q.q.q.w.q.q.q.q.q.q.q.q.q.e.e.q.q.q.q.e.r.u.e.r.u.u.u.u.u.u.u.u.u.p.p.p.p.u.u.u.p.p.p.p.p.p.p.f.f.f.f.f.f.f.f.f.f.g.g.g.g.g.g.g.g.g.g.g.g.f.g.g.g.g.g.g.g.g.g.g.g.g.g.g.j.j.j.k.k.k.k.c.c.c.c.c.c.c.c.c.c.c.c.c.c.c.c.c.c.c.c.M.M.M.B.B.B.B.B.B.B.B.V.V.V.V.V.V.V.V.A.A.G.C.G.G.G.G.F.F.G.G.G.G.J.J.G.G.G.G.P.P.P.Y.P.P.G.D.Y.R.R.Y.Y.Y.R.R.Y.Y.Y.Y.Y.Y.Y.Y.Y.Y.Y.Y.Y.Y.Y.Y.Y.R.Y.Y.Y.Y.Y.Y.Y.Y.R.R.R.R.Y.Y.Y.Y.Y.Y.Y.Y.Y.Y.R.Y.Y.Y.Y.R.Y.R.Y.Y.Y.Y.Y.Y.Y.Y.Y.Y.Y.Y.Y.Y.Y.Y.Y.Y.Y.Y.Y.Y.Y.Y.G.G.G.G.Y.Y.Y.Y.Y.Y.Y.R.Y.R.R.Y.Y.Y.Y.Y.Y.Y.Y.Y.Y.Y.Y.R.Y.Y.P.L.Y.Y.Y.Y.Y.L.Y.Y.G.G.G.G.G.G.G.G.G.G.G.G.G.G.G.G.G.G.G.G.G.G.G.G.G.G.G.J.G.G.F.G.A.A.C.G.G.G.G.G.C.G.L.L.G.G.G.G.C.A.A.A.C.C.C.A.V.V.V.A.C.G.C.A.C.c.1   o <   5 ",
"1 + u.$XL.V.0.w.0.0.0.0.0.0.0.0.q.q.w.w.w.q.w.q.w.u.u.u.r.q.q.q.q.q.0.0.0.0.0.0.q.q.w.q.q.q.e.e.r.e.q.q.q.e.r.u.e.e.r.u.u.u.u.u.u.u.u.u.u.u.u.u.u.u.u.u.u.p.p.p.p.p.f.f.f.f.f.f.f.f.f.f.f.g.g.g.g.g.g.g.g.g.g.g.g.g.g.g.g.g.g.g.g.g.g.g.g.g.g.g.j.j.j.j.j.k.c.c.c.c.c.c.c.c.c.c.c.c.c.c.c.c.c.c.c.c.M.M.M.B.B.B.B.B.B.B.B.V.V.V.V.V.V.V.A.A.A.C.C.C.G.G.F.F.G.G.G.G.G.J.G.G.G.G.P.P.P.Y.I.P.D.n.G.Y.R.Y.Y.R.R.Y.Y.Y.Y.Y.Y.Y.Y.Y.Y.Y.P.Y.Y.Y.R.R.R.R.R.R.Y.Y.Y.Y.Y.Y.Y.Y.Y.Y.Y.Y.Y.Y.Y.Y.Y.Y.Y.Y.R.Y.Y.Y.Y.R.R.R.Y.Y.Y.Y.Y.Y.Y.Y.Y.Y.Y.Y.Y.Y.Y.Y.Y.Y.Y.Y.Y.Y.L.L.G.G.G.G.Y.Y.Y.Y.Y.Y.Y.Y.Y.Y.Y.Y.Y.Y.Y.Y.Y.Y.Y.Y.Y.Y.Y.Y.Y.Y.P.L.P.Y.Y.Y.L.G.P.Y.G.G.G.G.G.G.G.G.G.G.G.G.G.G.G.G.G.G.G.L.G.G.G.G.G.G.G.G.G.F.G.C.G.C.G.G.G.G.F.F.C.G.U.Y.U.G.A.C.C.A.A.A.C.C.C.A.B.V.V.F.G.A.V.V.C.k.w : r w ; ; ",
"< + r.$XL.V.0.w.q.0.0.0.0.0.0.0.q.q.q.w.w.q.q.q.3.w.u.u.u.w.0.w.0.q.0.0.0.0.0.0.q.q.w.q.q.q.e.e.r.e.q.q.q.e.r.u.e.e.e.u.u.u.u.u.u.u.u.u.u.u.u.u.u.u.u.u.u.p.p.p.p.p.p.f.f.f.f.f.f.f.f.f.f.g.g.g.g.g.g.g.g.g.g.g.g.g.g.g.g.g.g.g.g.g.g.g.g.g.g.g.j.g.g.j.j.k.c.c.c.c.c.c.c.c.c.c.c.c.c.c.c.c.c.c.c.c.c.M.M.B.B.B.B.B.B.B.B.V.V.V.V.V.V.V.V.A.A.C.C.C.A.C.G.G.G.G.G.G.G.G.G.G.G.G.L.L.Y.Y.Y.G.C.c.D.P.R.P.L.Y.Y.G.Y.P.Y.P.Y.P.Y.Y.L.L.L.P.Y.Y.R.T.^.^.T.R.Y.Y.Y.Y.Y.Y.Y.Y.Y.Y.Y.Y.Y.Y.Y.Y.Y.Y.Y.Y.R.Y.Y.Y.Y.R.R.R.Y.Y.Y.Y.Y.Y.Y.Y.Y.Y.Y.Y.Y.Y.Y.Y.Y.Y.Y.Y.Y.L.L.L.G.G.G.G.Y.Y.Y.Y.Y.Y.Y.Y.Y.Y.Y.Y.Y.P.Y.P.Y.P.Y.P.P.P.Y.Y.Y.P.L.G.Y.Y.Y.Y.L.G.P.Y.G.G.G.G.G.G.G.G.G.G.G.G.G.G.G.G.G.G.G.G.G.G.G.G.G.G.G.G.G.G.C.A.G.F.F.G.G.G.F.G.C.L.R.W.U.G.C.C.C.A.A.A.C.C.C.C.V.V.F.F.F.G.V.B.G.g.h ; X . 5 , ",
"+ 1 j N M J r.>.w.w.w.q.q.q.q.q.q.q.q.w.w.w.w.w.w.w.r.w.w.w.w.w.q.q.q.q.q.q.q.q.0.0.w.r.u.u.q.0.e.q.q.e.e.r.r.r.q.q.q.r.u.u.u.u.p.u.u.u.u.u.p.f.u.u.p.p.p.p.u.u.f.f.f.f.f.f.f.f.f.f.f.f.f.f.f.f.g.g.g.g.g.g.g.g.g.g.g.g.g.g.g.g.j.j.g.j.j.c.k.k.j.j.j.k.k.c.c.c.k.c.c.c.c.c.c.c.c.c.c.c.c.c.c.c.c.c.M.B.B.B.B.V.B.B.B.B.B.V.V.V.V.V.V.V.V.A.A.A.C.A.G.G.F.G.G.G.G.G.G.G.G.J.U.U.Y.L.U.Y.Y.L.C.B.D.I.Y.G.Y.I.P.I.Y.P.P.P.P.P.P.P.Y.Y.Y.L.G.R.R.G.B.D.Y.^./.!.Y.G.Y.Y.Y.Y.Y.Y.Y.Y.R.R.R.R.Y.Y.Y.Y.Y.Y.Y.Y.Y.Y.Y.Y.Y.Y.Y.Y.Y.Y.Y.Y.Y.Y.Y.Y.Y.Y.Y.Y.Y.Y.Y.Y.Y.Y.Y.Y.Y.Y.Y.Y.Y.Y.Y.Y.L.L.L.L.Y.Y.L.L.P.P.P.P.P.P.P.P.Y.P.P.P.P.P.P.P.L.Y.Y.Y.Y.U.J.G.J.J.G.G.G.G.J.J.F.J.J.F.C.G.G.F.F.G.G.G.G.G.G.G.F.G.J.J.G.G.G.C.G.G.G.G.G.G.C.A.C.U.R.L.C.C.C.C.C.C.C.C.C.C.C.C.V.C.F.G.L.G.C.C.C.V.0 , : , , ; ",
"8 : & .   t q.r.w.w.w.w.q.q.q.q.q.q.q.w.w.w.w.w.w.w.w.w.w.w.w.q.q.q.q.q.q.q.q.q.q.0.q.q.u.u.q.0.e.e.q.e.e.e.r.r.e.e.e.r.r.u.u.u.u.u.u.u.u.u.u.p.u.u.p.p.p.p.u.u.f.f.f.f.f.f.f.f.f.f.f.f.f.f.f.f.g.g.g.g.g.g.g.g.g.g.g.g.g.g.g.g.j.j.g.j.k.k.k.k.j.j.j.k.k.k.c.c.c.k.k.c.c.c.c.c.c.c.c.c.c.c.c.c.c.c.M.B.B.B.B.B.B.B.B.B.B.V.V.V.V.V.V.V.A.C.A.A.C.C.G.G.F.G.G.G.G.G.G.G.G.J.U.U.Y.U.U.Y.Y.U.C.B.G.I.P.G.I.I.P.I.P.P.P.P.P.P.P.P.Y.P.Y.Y.G.R.T.G.V.C.G.R././.R.L.P.Y.Y.Y.Y.Y.Y.Y.!.^.^.R.Y.Y.Y.Y.Y.Y.Y.Y.Y.Y.Y.Y.Y.Y.Y.Y.Y.Y.Y.Y.Y.Y.Y.Y.Y.Y.Y.Y.Y.Y.Y.Y.Y.Y.Y.Y.Y.Y.Y.Y.Y.Y.Y.Y.L.L.L.P.Y.Y.Y.L.P.P.P.P.P.P.P.P.P.P.P.P.P.P.P.P.L.U.Y.Y.U.J.J.G.J.J.G.G.G.G.J.J.G.Y.R.J.F.F.F.G.F.G.G.G.G.G.G.G.G.G.G.J.G.G.G.C.G.G.G.G.G.G.C.C.G.U.R.L.C.C.C.C.C.C.C.C.C.C.C.C.V.A.G.G.G.A.C.C.A.V.0 , : , , ; ",
": : 1 , ; h q.0.w.w.w.w.q.q.q.q.q.q.q.w.w.w.w.w.w.w.w.w.w.w.w.q.q.q.q.q.q.q.q.q.q.q.q.w.q.e.q.q.e.e.e.e.e.e.e.u.u.u.r.r.e.q.q.q.u.u.u.u.u.u.u.p.u.u.u.p.u.u.u.u.f.f.f.f.f.f.f.f.f.f.f.f.f.f.f.f.f.f.g.g.g.g.g.g.g.g.g.g.g.g.g.g.g.g.g.j.j.j.j.k.j.j.j.j.k.k.k.c.c.c.c.c.c.c.c.c.c.c.c.c.c.c.c.c.B.B.M.B.B.B.B.B.B.B.B.V.B.V.V.V.V.V.V.A.A.C.C.A.A.A.G.G.F.G.G.G.G.G.G.G.G.J.Y.U.U.J.U.Y.Y.J.C.B.G.Y.I.G.P.P.G.P.P.G.G.G.P.P.P.P.Y.Y.Y.Y.L.R.R.V.V.B.B.G.R.^.^.Y.L.P.Y.Y.R.R.Y.Y.^.^.^.R.Y.Y.Y.Y.Y.Y.Y.Y.Y.Y.Y.Y.Y.Y.Y.Y.Y.Y.Y.Y.Y.Y.Y.Y.Y.Y.Y.Y.Y.Y.Y.Y.Y.Y.Y.Y.Y.Y.Y.Y.Y.Y.Y.Y.L.L.Y.P.Y.Y.L.L.P.P.P.P.P.P.P.P.P.P.P.P.P.P.P.L.G.U.U.U.J.J.G.G.J.J.J.J.G.G.G.J.G.U.Y.G.F.F.F.G.F.G.G.G.G.G.G.G.F.G.G.G.G.G.G.G.F.G.G.C.A.C.F.F.L.R.U.G.C.C.C.C.A.C.C.C.C.C.C.C.V.V.C.G.G.G.C.C.A.V.0 , : : , ; ",
"; ; 1 1 : h q.0.w.w.w.w.q.q.q.q.q.q.q.w.w.w.w.w.w.w.w.w.w.w.w.w.0.0.0.0.0.0.0.0.q.q.0.0.q.w.q.q.q.q.q.e.q.e.e.e.u.u.u.r.e.q.e.q.u.u.u.u.u.u.u.u.u.u.u.u.u.u.u.u.p.f.f.f.f.f.f.f.p.p.f.f.f.f.f.f.f.f.f.f.g.g.g.g.f.g.g.g.g.g.g.g.g.g.g.j.g.j.j.j.g.g.j.j.j.k.k.k.k.j.k.k.k.c.c.c.c.c.c.c.c.c.c.c.B.B.B.B.M.M.B.M.B.B.B.V.B.V.V.V.V.V.V.A.A.C.A.A.A.A.G.G.G.F.G.G.G.G.G.G.G.J.J.J.U.J.J.Y.Y.J.A.B.G.Y.I.G.P.P.G.P.P.P.G.G.G.P.P.P.Y.L.R.Y.Y.T.R.V.V.b.c.B.G.R.^.^.Y.Y.Y.Y.Y.Y.Y.Y.R.T.R.R.Y.Y.Y.Y.Y.Y.Y.Y.Y.Y.Y.Y.Y.Y.Y.Y.Y.Y.Y.Y.Y.Y.Y.Y.Y.Y.Y.Y.Y.Y.Y.Y.Y.Y.Y.Y.Y.Y.P.L.L.U.Y.Y.U.L.Y.Y.Y.Y.L.L.P.P.P.P.P.P.P.P.P.P.P.P.P.P.P.G.G.J.J.J.J.G.G.G.G.G.G.G.G.G.G.G.G.G.C.B.V.G.G.G.G.G.G.C.C.G.A.A.F.F.G.G.G.G.G.G.G.G.G.C.A.G.G.J.U.R.U.C.C.C.C.C.C.C.C.C.C.C.C.C.V.V.A.V.C.A.A.G.A.V.0 , ; : , & ",
": ; ; @ o r 0.0.w.w.w.w.q.q.q.q.q.q.q.w.w.w.w.w.w.w.w.w.w.w.w.w.0.0.0.0.0.0.q.q.0.0.0.0.0.0.w.q.q.q.q.e.q.q.e.e.u.u.u.u.u.u.u.u.u.u.u.u.u.u.u.u.u.u.u.u.u.p.p.p.p.p.p.f.f.f.f.f.p.p.p.f.f.f.f.f.f.f.f.f.f.f.f.g.f.f.f.g.g.g.g.g.g.g.g.j.j.j.j.j.g.g.j.k.k.k.k.k.j.j.j.c.c.k.c.c.c.c.c.c.c.c.c.c.M.M.M.M.M.c.c.c.B.B.B.B.B.V.V.V.V.V.V.A.V.A.A.A.A.A.G.G.G.F.G.G.G.G.J.J.J.J.J.J.J.J.J.Y.Y.J.A.b.G.Y.Y.G.P.P.G.P.P.P.L.G.G.G.G.G.P.L.R.Y.P.T.R.V.B.B.B.V.V.G.T./.^.T.Y.Y.Y.P.Y.Y.P.Y.Y.Y.Y.Y.Y.R.Y.Y.Y.Y.Y.Y.Y.Y.Y.Y.Y.Y.Y.Y.Y.Y.Y.Y.Y.Y.Y.Y.Y.Y.Y.Y.Y.Y.Y.Y.Y.Y.U.L.L.L.Y.Y.Y.Y.Y.Y.Y.Y.Y.L.L.L.P.P.P.P.P.P.P.P.P.P.P.P.L.L.L.L.G.J.U.U.G.G.G.G.G.G.G.G.G.G.G.G.J.V.g.u.c.C.G.G.G.G.C.G.G.A.A.A.F.G.F.F.F.F.G.G.F.G.G.A.G.G.J.Y.R.R.U.C.C.C.C.C.C.C.C.C.C.C.C.C.V.V.V.V.C.C.C.A.A.V.0 : ; ; , ; ",
": : 1 1 : g w.0.w.w.w.w.q.q.q.q.q.w.q.w.w.w.w.w.w.w.w.0.0.0.0.0.0.0.0.0.0.0.0.0.0.0.0.0.0.0.q.q.q.q.q.q.q.q.q.q.r.u.r.u.u.u.u.u.u.u.u.u.u.u.u.u.u.u.u.u.u.u.p.p.u.p.p.p.f.f.f.f.u.p.p.p.f.f.f.f.f.f.f.f.f.f.f.f.f.f.f.f.g.g.g.g.g.g.g.g.j.g.g.g.g.g.j.j.k.k.j.j.g.j.k.k.c.c.k.k.c.c.c.c.c.c.c.c.c.c.c.c.c.B.M.B.B.B.B.B.B.V.V.V.V.V.V.V.V.A.A.A.A.A.G.G.G.F.G.F.J.J.J.J.J.J.J.J.J.G.J.Y.Y.G.A.b.G.Y.Y.G.P.P.G.P.P.P.P.L.L.L.L.L.Y.P.Y.Y.L.R.R.V.c.B.B.B.B.V.G.Y.^.^.R.Y.P.P.Y.Y.G.L.P.Y.Y.Y.Y.R.Y.Y.Y.Y.Y.Y.Y.Y.Y.Y.Y.Y.Y.Y.Y.Y.Y.Y.Y.Y.Y.Y.Y.Y.L.L.Y.Y.Y.Y.L.L.G.G.G.G.G.G.L.P.Y.Y.Y.Y.Y.Y.L.L.P.P.P.P.P.P.P.P.P.P.L.L.G.G.G.G.G.G.J.J.G.G.G.F.G.G.G.G.G.G.G.G.J.B.u.u.j.G.G.G.C.C.G.G.A.A.A.A.G.G.G.G.G.F.G.F.G.G.G.G.F.G.U.Y.R.R.U.C.C.C.A.C.C.C.C.C.C.C.C.C.V.V.V.V.C.C.C.C.A.V.0 : ; , , ; ",
"1 : ; @ o u q.w.w.w.w.w.q.q.q.q.w.w.w.w.w.w.w.w.w.w.w.0.0.0.0.0.0.0.0.0.0.0.0.0.3.0.q.0.0.0.0.w.q.q.q.q.q.q.q.q.r.r.u.u.u.u.u.u.u.u.u.u.u.u.u.u.u.u.u.u.u.u.p.p.u.u.p.p.f.f.f.f.u.u.p.p.f.f.f.f.p.p.f.f.f.f.f.f.f.f.f.f.g.g.g.g.g.g.g.g.g.j.g.g.g.g.g.g.j.j.j.j.j.j.k.j.k.c.c.c.c.c.c.c.c.c.c.c.c.c.c.c.c.B.B.B.B.B.B.B.B.V.V.V.V.V.V.V.V.A.A.A.A.A.G.G.G.G.F.F.J.G.G.J.G.J.G.G.J.G.G.U.Y.G.V.b.G.Y.P.G.P.P.G.Y.P.L.P.P.P.P.Y.Y.Y.Y.Y.Y.G.R.T.G.B.B.B.B.B.B.V.V.R.R.R.R.R.Y.Y.Y.G.Y.Y.Y.Y.Y.Y.Y.Y.Y.Y.Y.Y.Y.Y.Y.Y.Y.Y.Y.Y.Y.Y.Y.Y.Y.Y.Y.Y.Y.Y.Y.L.L.L.P.Y.Y.Y.L.L.L.G.G.G.G.G.G.L.Y.Y.Y.Y.Y.Y.Y.P.P.P.P.P.P.P.P.L.L.G.G.G.G.G.G.G.G.G.G.G.G.F.F.G.G.G.G.G.G.G.G.G.C.k.g.c.C.F.A.G.G.G.C.A.A.A.A.G.G.G.G.G.F.F.G.C.G.G.G.G.J.Y.Y.U.U.L.C.C.G.A.C.C.C.C.C.C.C.C.C.V.V.V.V.C.C.C.C.C.V.0 : ; , 1 , ",
"; ; 1 1 ; f 0.<.w.w.w.w.q.q.q.q.w.w.w.w.w.w.w.w.w.w.w.w.w.w.w.w.0.0.0.0.0.0.0.0.3.0.q.q.0.0.0.q.q.q.q.q.q.q.q.q.r.r.u.u.u.u.u.u.r.u.u.u.u.u.u.u.u.u.u.u.u.u.p.p.u.u.u.p.p.f.f.f.u.u.u.p.p.f.f.f.p.p.p.f.f.f.f.f.p.f.f.f.f.g.g.g.g.g.g.g.g.j.g.g.g.g.g.g.j.j.j.j.j.j.j.k.k.c.c.c.c.c.c.c.c.c.c.c.c.c.c.c.c.M.B.B.B.B.B.B.B.V.V.V.V.V.V.V.V.A.A.A.A.A.G.G.G.F.F.F.G.G.G.G.G.G.G.G.J.G.G.J.Y.G.V.B.C.Y.P.G.P.Y.P.Y.G.G.G.L.P.Y.R.!.Y.Y.Y.L.G.R.T.G.G.G.G.G.G.G.V.B.Y.Y.R.^.^.R.Y.Y.Y.Y.Y.Y.Y.Y.Y.Y.Y.Y.Y.Y.Y.Y.Y.Y.Y.Y.Y.Y.Y.Y.Y.Y.Y.Y.Y.Y.Y.Y.Y.Y.L.L.L.L.Y.Y.Y.U.L.L.L.G.G.G.G.G.L.Y.Y.Y.Y.Y.Y.Y.P.P.L.L.P.P.P.P.G.G.G.G.G.G.G.G.G.G.G.G.G.G.F.F.G.G.G.G.G.G.F.F.G.G.V.V.C.G.G.A.G.G.G.C.A.A.A.A.G.G.G.G.C.G.G.G.A.C.F.G.J.U.Y.Y.U.U.G.C.C.G.A.C.C.C.C.C.C.C.C.C.V.V.A.A.C.C.C.C.C.B.8 : , , 1 , ",
": ; 1 : @ u q.q.0.r.0.w.0.8.u.3.i.<.:.w.3.<.s.0.w.r.0.3.w.w.0.w.0.0.0.0.0.0.0.0.0.0.0.q.q.w.w.q.q.q.q.q.q.e.r.e.u.e.q.q.e.r.e.q.q.u.u.u.u.u.u.u.u.u.u.u.u.u.u.u.p.p.p.p.p.p.u.u.f.f.f.f.f.f.f.f.p.p.p.f.f.f.f.f.f.f.f.f.f.f.f.f.g.g.g.g.g.g.g.g.g.g.g.j.j.k.k.k.j.j.j.k.k.c.c.c.j.k.c.c.c.c.c.c.M.c.c.c.M.B.B.c.B.B.B.B.B.V.V.V.V.V.V.V.V.A.A.A.A.A.C.G.G.G.G.G.F.G.J.J.G.G.G.J.Y.U.Y.J.A.B.C.J.Y.P.P.P.Y.Y.Y.Y.Y.G.G.G.G.R./.|.^.T.Y.Y.L.Y.R.R.T.R.R.R.R.Y.G.V.g.B.L.T.!.R.Y.Y.Y.Y.Y.Y.Y.Y.Y.Y.Y.R.R.Y.L.L.Y.Y.Y.Y.Y.Y.Y.Y.Y.P.Y.Y.Y.Y.Y.L.Y.Y.Y.Y.Y.Y.Y.L.L.G.Y.Y.Y.Y.L.U.U.Y.Y.Y.Y.Y.Y.Y.Y.Y.Y.U.U.G.Y.G.G.G.G.G.G.G.G.G.G.G.G.G.G.G.F.F.F.F.F.F.G.G.F.F.F.F.F.G.G.G.G.F.G.G.C.C.C.C.C.C.C.A.A.A.C.C.G.G.G.G.G.G.F.G.J.Y.Y.R.C.R.C.C.C.B.C.C.G.k.G.C.B.Y.C.B.V.A.C.Y.C.B.U.C.A.h.8 & ; 1 : , ",
": ; 1 : @ u q.q.:.q.q.0.e.q.q.r.w.g.f.f.g.r.0.w.w.u.r.0.w.0.3.0.0.0.0.0.0.0.0.0.q.0.0.q.q.q.q.q.q.q.q.q.e.u.r.r.u.e.q.r.u.u.u.u.u.u.p.f.u.u.u.u.u.u.u.u.u.u.u.u.p.u.p.p.u.p.u.u.p.p.p.p.p.p.p.p.p.p.p.f.f.f.f.f.f.f.f.f.f.f.f.f.g.g.g.g.g.g.g.g.g.g.g.j.j.j.k.k.j.j.j.k.k.k.c.c.c.c.c.c.c.c.c.c.c.c.c.c.M.B.B.M.B.B.B.B.B.B.V.V.V.V.V.V.V.V.A.A.A.A.C.G.F.G.G.G.F.F.G.G.G.G.U.Y.Y.G.F.G.V.M.V.G.Y.P.P.P.Y.Y.Y.Y.G.G.G.G.G.Y.^.[.T.R.Y.Y.G.Y.Y.Y.R.Y.Y.R.R.R.G.D.c.V.Y.R.R.Y.G.L.Y.Y.Y.Y.Y.Y.Y.Y.R.R.R.R.Y.Y.Y.G.Y.Y.Y.Y.Y.Y.Y.L.Y.Y.Y.Y.Y.L.Y.Y.Y.Y.Y.Y.Y.L.L.G.Y.Y.Y.Y.L.U.P.U.P.P.Y.Y.Y.Y.Y.Y.Y.U.L.L.Y.G.G.G.G.G.G.G.G.G.G.G.G.G.G.G.F.F.F.F.F.F.G.G.F.F.F.F.F.F.G.G.F.G.G.G.C.C.A.C.G.C.C.C.A.A.A.G.G.G.G.F.A.A.A.G.G.F.G.G.V.G.C.C.G.C.L.G.U.C.G.C.L.R.C.U.C.G.c.g.G.C.B.B.A.k.w , : 1 : 1 ",
": ; 1 : @ u q.q.r.0.0.r.g.:.U W K J R J A ;.u.>.3.0.0.0.w.6.3.q.0.0.0.0.0.0.0.0.q.q.0.0.q.q.q.q.q.q.q.e.e.u.u.r.q.q.q.q.u.u.r.q.e.r.u.u.p.p.u.u.u.u.u.u.u.u.u.u.u.u.u.u.u.u.u.u.u.u.u.u.u.u.u.u.p.p.p.p.f.f.f.f.f.f.f.f.f.f.f.f.g.g.g.g.g.g.g.g.g.j.g.g.j.j.k.k.j.j.j.j.k.k.k.c.c.c.c.c.c.c.c.c.c.c.c.c.c.M.B.M.B.B.B.B.B.B.V.V.V.V.V.V.V.A.A.A.A.A.C.G.F.G.G.G.G.F.F.F.G.J.Y.R.G.C.B.B.B.B.A.G.Y.Y.P.P.Y.Y.Y.Y.G.G.G.G.G.Y.R.^.Y.Y.Y.Y.P.L.Y.Y.Y.Y.L.Y.R.R.Y.G.G.Y.!.^.R.Y.Y.Y.Y.Y.Y.Y.Y.Y.Y.Y.R.Y.Y.R.T.T.R.R.Y.Y.Y.Y.Y.Y.Y.Y.Y.Y.Y.Y.Y.L.L.P.Y.Y.Y.Y.Y.L.L.G.Y.Y.Y.Y.Y.P.P.Y.L.L.P.P.L.Y.U.P.Y.L.L.L.G.G.L.L.L.G.G.G.G.G.G.G.G.G.G.F.F.F.G.G.F.F.F.F.G.G.G.G.G.G.F.F.G.G.G.C.A.A.A.A.A.A.A.A.A.A.A.A.A.G.G.G.A.A.C.A.A.V.V.V.C.G.B.C.C.B.C.C.C.R.B...! | ) ` ....F.R.U.B.L.B.C.k.w , ; , ; , ",
": ; 1 : @ u q.q.u.:.0.r.:.J q r h 8 p u r J $.w.3.0.3.3.w.0.3.w.0.0.0.0.0.0.0.0.0.0.0.0.0.q.q.q.0.q.q.e.e.e.e.e.r.q.q.q.q.w.0.0.q.0.0.q.u.p.p.u.u.u.u.u.u.u.u.u.u.u.u.u.u.u.u.u.u.u.u.p.p.u.u.u.u.u.p.p.p.f.f.f.p.p.f.f.f.f.f.f.f.f.g.g.g.g.g.g.g.g.g.g.g.j.k.k.g.g.j.j.j.k.k.k.c.c.c.c.c.c.c.c.c.k.k.c.c.M.M.c.B.B.B.B.B.V.V.V.C.C.V.V.V.A.A.A.A.A.G.G.G.G.G.G.G.G.G.G.J.Y.Y.Y.A.B.c.B.V.G.G.G.G.L.L.L.L.L.L.L.G.G.G.G.G.L.Y.Y.Y.Y.Y.Y.Y.Y.Y.Y.Y.P.G.L.Y.Y.Y.Y.R.T.^.^.R.Y.Y.Y.Y.Y.Y.Y.Y.Y.Y.Y.G.G.D.G.Y.R.T.^.Y.Y.Y.Y.Y.Y.Y.Y.Y.Y.Y.Y.Y.L.P.P.Y.Y.Y.Y.Y.L.L.L.P.P.L.L.L.G.G.G.G.G.G.L.G.L.G.G.L.L.L.G.L.L.G.G.G.G.G.G.G.G.G.G.F.F.F.F.G.G.G.G.G.G.G.G.G.G.G.G.G.G.G.G.G.C.A.A.V.V.V.V.A.A.A.A.V.A.A.V.A.A.G.G.C.C.G.C.C.A.A.V.G.C.B.C.C.B.A.B.B.w.^ f , u h q e 5 { 3.V.B.U.b.C.h.0 ; ; , ; , ",
": ; < : @ u q.q.w.0.g.3.V c U ~ ! ;...<.r.B 0 <.w.u.w.0.w.w.6.q.0.0.0.0.0.0.0.0.0.0.0.0.0.0.q.q.0.w.q.q.w.q.q.e.u.u.u.u.e.q.q.q.e.q.0.0.e.u.u.u.u.u.u.u.u.u.u.u.u.u.u.u.u.u.u.u.u.u.u.u.p.p.p.u.u.u.u.p.f.f.f.f.p.p.p.f.f.f.f.f.f.f.f.g.g.g.g.g.g.g.g.j.j.j.k.k.g.g.g.j.j.g.j.j.c.c.c.c.c.c.c.c.k.j.j.c.c.c.c.c.B.B.B.B.B.B.B.B.C.V.V.V.V.V.V.V.A.A.A.G.F.G.G.G.G.G.G.Y.Y.Y.G.G.B.B.B.V.G.Y.Y.G.J.U.U.U.U.U.U.U.G.U.Y.Y.J.J.J.Y.P.Y.Y.Y.Y.Y.Y.Y.Y.Y.L.L.P.Y.Y.Y.Y.Y.Y.Y.P.L.L.Y.Y.Y.Y.Y.Y.Y.Y.R.D.B.c.B.V.G.G.R.R.Y.Y.L.Y.Y.Y.Y.Y.Y.Y.Y.Y.Y.Y.Y.Y.Y.Y.L.Y.L.L.L.Y.Y.Y.Y.L.L.L.L.G.G.G.G.G.G.Y.Y.U.U.J.J.J.G.J.J.J.J.G.G.G.G.G.G.F.F.F.F.G.G.G.G.G.G.G.G.G.G.C.G.C.C.C.C.C.A.V.V.V.V.V.V.V.V.V.A.V.V.V.V.A.A.A.C.C.C.C.C.C.C.C.C.C.C.C.G.C.G.T.b.k.C h W ! } 3.:.3.:.J u g.U.C.B.G.k.8 & ; 1 , 1 ",
": ; 1 : @ u q.q.r.w.$.C 7 K c.M.^.4X1X4X4Xr.C J | 3.w.0.w.w.q.q.0.0.0.0.0.0.0.0.0.0.0.0.0.0.0.0.0.q.q.q.0.8.0.q.q.q.w.w.w.q.r.u.f.u.u.q.q.r.u.u.u.u.u.u.u.u.u.u.u.u.u.u.u.u.u.u.p.p.p.p.f.f.f.f.u.u.u.u.p.p.p.p.u.p.p.p.f.f.f.f.f.f.f.g.g.g.g.g.g.g.g.g.j.j.j.j.g.g.g.g.j.g.j.j.k.k.c.c.c.c.c.c.c.k.k.c.c.c.c.c.M.B.B.B.B.B.B.B.V.C.V.V.V.V.V.V.A.A.A.G.F.G.G.G.G.G.G.U.Y.J.C.B.c.V.C.G.R.^.R.G.J.J.J.J.J.J.J.J.G.U.Y.Y.J.G.J.J.G.P.Y.Y.Y.Y.Y.Y.Y.Y.Y.Y.L.P.Y.U.Y.Y.Y.Y.P.P.Y.Y.Y.Y.Y.Y.Y.Y.Y.R.Y.G.C.D.V.B.C.Y.T.R.Y.L.Y.Y.Y.Y.Y.Y.Y.Y.Y.Y.L.Y.Y.Y.Y.L.Y.L.L.L.L.L.L.L.G.G.G.G.G.G.G.L.G.L.U.Y.J.J.J.J.G.G.G.G.G.G.G.G.G.G.G.G.F.F.G.G.G.C.C.C.C.C.C.C.C.C.A.A.A.A.A.A.A.V.V.V.V.V.C.C.V.V.V.V.V.V.V.V.V.V.A.A.C.C.V.V.V.A.A.C.C.C.C.G.C.G.C.:.U h K g.C.^.4X4X4X4Xu.l W :.V.G.A.h.8 & ; 1 ; , ",
": ; 1 : @ u q.q.w.;.u 5 k W c.k.R.4X1X1X}.c.>.8 j ` q.0.q.r.w.0.0.0.0.0.0.0.0.0.0.0.0.0.0.0.0.0.w.q.q.0.3.2.8.q.3.0.0.8.8.0.e.u.f.f.f.u.e.q.q.q.u.u.u.u.u.u.u.u.u.u.u.u.u.u.u.u.u.u.u.u.u.u.u.u.u.u.u.u.u.p.p.p.u.u.p.p.p.f.f.f.f.f.f.f.f.g.g.g.g.g.g.g.g.j.g.g.g.g.g.g.g.j.j.j.g.j.j.k.c.c.c.c.c.c.c.c.c.c.c.c.M.M.B.B.B.B.B.B.V.V.C.C.C.V.V.V.A.A.A.G.F.G.G.G.V.C.V.G.G.F.V.c.B.G.U.Y.R.^.R.G.J.J.J.J.J.J.J.J.G.Y.Y.Y.J.J.J.Y.G.G.G.L.Y.Y.Y.Y.L.Y.Y.Y.Y.L.L.Y.R.R.Y.Y.Y.Y.Y.Y.Y.Y.Y.Y.Y.Y.Y.R.^.R.Y.R.G.B.V.Y.^.R.Y.G.P.Y.Y.Y.Y.Y.Y.Y.Y.L.L.P.Y.Y.Y.L.Y.L.L.L.L.L.L.G.G.G.G.G.G.G.G.G.L.L.Y.Y.J.J.J.G.G.G.G.G.G.G.G.G.G.G.F.F.G.G.G.C.A.C.A.A.A.A.A.A.A.A.A.A.A.A.V.V.V.V.C.V.C.C.C.C.C.C.V.V.V.C.V.V.V.V.V.V.C.C.C.V.V.V.A.A.C.G.C.C.V.C.r.N , C | u.B./.4X4X=XOXB.$.u r f.U.C.k.w , ; : & , ",
": ; < : @ u q.q.r.;.1 M :.{ e.M.C.4X2X4X$Xh.g.^ , Q i.i.w.w.0.3.0.0.0.0.0.0.0.0.0.0.0.0.0.0.0.0.q.q.w.8.2.<.3.q.q.q.q.0.0.0.r.u.u.p.f.u.r.q.0.0.u.u.u.u.u.u.u.u.u.u.u.u.u.u.u.u.u.u.u.u.u.u.u.u.u.u.u.u.u.p.p.p.u.u.u.p.p.f.f.f.f.f.f.f.f.g.g.g.g.g.g.g.g.g.g.g.g.g.g.g.g.j.j.j.g.g.g.j.c.c.c.c.c.c.c.c.c.c.c.c.M.M.M.B.B.B.B.B.V.V.V.C.C.V.V.V.A.A.A.G.F.G.G.G.B.M.M.V.A.C.V.c.A.J.R.R.R.R.Y.G.J.G.J.J.J.J.J.J.U.Y.Y.Y.J.J.J.Y.G.G.G.G.G.G.L.Y.G.G.Y.Y.Y.Y.Y.Y.Y.Y.L.L.L.L.G.G.Y.Y.Y.Y.Y.Y.Y.R.R.Y.T.^.G.B.V.L.^.R.Y.G.L.P.Y.Y.Y.Y.Y.Y.Y.Y.L.L.Y.Y.Y.L.Y.L.L.L.G.G.L.G.G.G.G.G.G.G.L.G.G.P.Y.Y.J.J.J.G.G.G.G.G.G.G.G.G.G.G.F.F.G.G.G.C.A.A.A.A.A.A.A.A.A.A.A.A.V.V.V.V.V.V.C.V.C.C.C.C.C.C.V.V.V.C.C.V.V.V.A.V.A.A.A.A.A.V.V.V.C.C.C.C.C.G.0.0 c | ..0.U.[.:X2X4X=Xc.C.^ q :.G.A.C.l r 8 , ; 5 ",
"+ > 1 > 1 f 0.3.^ u u $.k.k.c.k.U.}.:XOX=X,XE.g.^ f A r.3.0.0.0.3.3.3.8.0.0.0.3.0.0.0.0.0.q.q.q.q.0.0.q.8.3.q.u.u.u.p.p.u.u.q.q.q.r.u.u.u.u.u.u.u.u.u.u.u.u.u.u.u.u.u.u.u.u.u.u.u.u.u.u.u.u.u.u.u.u.u.p.u.p.p.p.f.p.p.f.f.f.f.f.f.f.g.g.g.f.f.f.g.g.g.g.g.g.g.g.j.g.g.g.g.g.j.k.k.k.k.c.c.c.c.c.g.g.k.c.c.c.M.M.B.M.M.B.B.B.B.B.V.C.V.V.C.C.V.A.V.A.G.A.G.G.J.F.M.M.B.B.M.M.B.B.U.Y.R.Y.R.Y.Y.D.G.G.G.G.G.G.G.G.J.J.J.J.J.J.J.J.U.U.U.U.U.U.U.U.G.G.J.J.Y.Y.Y.Y.Y.Y.Y.Y.Y.Y.Y.Y.Y.Y.Y.Y.P.G.L.L.R.Y.Y.R.G.V.V.Y.T.Y.G.P.P.H.G.P.Y.Y.Y.G.G.G.Y.Y.L.U.Y.Y.Y.L.G.G.Y.Y.J.G.G.G.G.J.U.U.U.J.J.G.J.J.J.J.J.J.J.G.G.G.G.G.G.F.G.F.G.G.G.G.G.G.G.A.A.A.V.V.A.A.A.V.V.V.A.A.A.V.V.V.V.V.V.V.C.C.V.V.C.C.V.V.V.V.C.C.C.C.V.V.V.V.A.A.A.A.G.G.V.C.L.! h u :.s.k.C.c.^. X=X:X}.[.[.k.^ q W B.C.}.c.5 ; < 1 ",
"0 1 + ; ; q w.f.u ; 5 ) u.C.C.^ A C C K c.OXR.g.) 0 f 3.0.r.0.3.3.3.3.8.0.0.0.8.0.0.0.0.0.0.q.q.q.q.w.q.q.0.q.p.p.u.u.u.u.u.r.e.r.u.u.u.u.u.u.u.u.u.u.u.u.u.u.u.u.u.u.u.u.u.u.u.u.u.u.u.u.u.u.u.u.u.u.u.u.u.f.f.p.p.p.f.f.f.f.f.f.f.f.f.g.f.f.f.g.g.g.g.g.g.g.g.j.g.g.g.g.g.j.k.k.k.k.c.c.c.c.c.g.j.c.c.c.c.c.c.B.B.M.B.B.B.B.B.V.C.V.V.C.C.V.A.V.G.G.G.G.F.F.A.B.V.V.B.B.V.V.C.L.Y.R.Y.Y.Y.Y.G.G.G.G.G.G.G.G.G.J.J.J.J.J.J.J.J.U.U.U.U.U.U.U.U.G.J.J.U.Y.Y.Y.Y.Y.Y.Y.Y.Y.Y.Y.Y.Y.Y.Y.Y.L.G.L.L.R.Y.R.R.G.V.V.Y.!.Y.L.P.P.H.P.P.Y.Y.Y.Y.Y.Y.Y.Y.Y.L.Y.Y.L.L.G.G.Y.Y.J.G.G.G.G.J.U.U.J.J.J.G.G.G.J.J.J.J.J.G.G.G.G.G.G.G.G.F.F.F.G.G.G.G.G.A.A.A.V.V.A.A.A.V.V.V.A.A.V.V.V.V.V.V.C.C.C.C.V.V.V.V.V.V.V.V.V.C.C.C.V.V.V.V.V.V.A.A.c.C.C.C.g.l ; 0 ;.f.G.G.) U J K ^ W.OXC.0.| 5 q B.C.[.c.5 > > > ",
"> 1 $ 1 ; r r.w.f q h } $.u.B.N c M l h r.C.w.:.| 5 0 :.w.w.0.3.3.3.8.0.0.0.0.0.0.0.0.0.0.0.0.q.q.q.q.u.u.r.u.p.p.u.q.q.q.r.u.u.r.u.u.u.u.u.u.u.u.u.u.u.u.u.u.u.u.u.u.u.u.u.u.u.u.u.u.u.u.u.u.u.u.u.u.u.u.p.p.f.p.p.p.p.f.f.f.f.f.f.f.f.f.f.f.f.g.g.g.g.g.g.g.g.j.g.g.g.g.g.j.k.c.k.k.c.k.c.c.c.k.c.c.c.c.c.c.c.M.M.M.B.B.B.B.B.V.C.V.V.C.C.V.A.C.G.F.G.C.G.A.B.V.V.V.V.V.A.U.R.L.Y.Y.Y.Y.R.Y.G.G.G.G.G.G.G.G.G.J.J.J.J.J.J.J.J.U.U.U.U.U.U.U.U.J.J.U.Y.Y.Y.Y.Y.P.P.P.Y.Y.Y.Y.Y.Y.Y.Y.L.L.G.G.G.R.Y.Y.R.G.V.V.Y.!.Y.P.P.P.P.P.P.L.L.Y.Y.Y.P.L.G.P.L.Y.L.L.G.G.G.Y.U.J.G.J.G.J.J.U.J.J.J.G.G.G.G.J.G.J.J.G.G.G.G.F.G.F.G.G.G.G.G.G.G.G.G.C.C.C.C.A.A.A.A.V.V.V.V.V.V.V.V.V.V.C.C.V.V.V.V.V.V.V.V.V.V.V.V.V.V.V.V.C.V.C.V.V.V.V.V.B.C.L.R.k.f > l Q | q.c.A V V M l g.B.w.>.:.0 h M.C.[.M.5 > > > ",
"o 1 > 1 + h u.:.l 1 u | } :.c.J u V V l r.h.<.0.| w q <.r.<.3.r.3.3.0.0.0.0.0.0.0.0.0.0.0.0.0.0.q.q.q.u.u.u.u.u.u.q.0.0.q.u.u.r.r.r.u.u.u.u.u.u.u.u.u.u.u.u.u.u.u.u.u.u.u.u.u.u.u.u.u.u.u.u.u.u.u.u.u.u.u.p.p.p.u.u.p.p.p.f.f.f.f.f.f.f.f.f.f.f.g.g.g.g.g.g.g.g.j.g.g.g.g.g.j.c.k.k.k.c.k.c.c.c.c.c.c.c.c.c.c.c.M.M.M.B.B.B.B.B.V.C.V.V.C.C.V.A.C.C.F.G.G.G.A.V.Z.C.V.V.Z.J.R./.Y.R.R.Y.Y.Y.Y.G.G.G.G.G.G.G.G.L.G.G.J.J.J.J.J.J.U.U.U.U.U.U.U.U.J.U.Y.Y.Y.Y.Y.Y.L.Y.P.P.L.Y.Y.Y.Y.Y.Y.L.L.G.G.G.Y.Y.Y.R.G.V.V.P.!.Y.P.P.P.P.P.P.G.L.Y.Y.Y.Y.L.P.Y.L.G.G.G.G.G.L.Y.U.J.G.J.J.J.U.J.J.J.G.G.G.G.G.G.G.J.G.G.G.G.G.G.G.F.F.G.G.G.G.G.G.G.C.A.C.A.A.V.V.V.V.V.V.V.V.V.V.V.V.C.V.C.V.V.V.V.V.B.B.B.B.B.B.B.B.B.B.B.B.V.V.V.V.C.C.V.V.C.b.B.U.c.l 1 c ..} 3.c.N M N V A f.w.<.:.} X h c.C.[.M.5 > 1 > ",
"0 > $ ;   f u.u.M $ 0 ..:.3.f.C c V h h 0.g.:.:.^ u q <.r.<.3.w.3.8.0.0.8.3.8.0.0.0.0.0.0.0.0.0.0.0.w.r.u.u.u.e.q.q.0.q.e.u.u.q.q.q.q.q.e.q.e.e.u.u.u.u.u.u.u.u.u.u.u.u.u.u.u.u.u.u.u.u.u.u.u.u.u.u.u.u.u.u.p.p.u.u.p.f.f.f.f.f.p.f.f.f.f.g.g.g.g.g.g.g.g.g.g.g.j.g.g.g.g.g.k.c.j.j.j.k.k.c.c.c.c.c.c.c.c.c.c.c.M.M.M.B.B.B.B.B.V.C.V.V.C.V.V.A.C.G.F.G.F.G.G.C.C.A.Z.V.V.A.G.Y.R.R.R.R.Y.R.P.G.D.G.G.G.G.G.G.L.G.G.J.J.J.J.J.J.U.U.U.U.U.U.U.U.J.Y.Y.Y.Y.Y.U.U.G.L.G.L.L.Y.Y.Y.Y.Y.Y.L.Y.L.L.L.Y.J.Y.Y.G.B.V.L.T.Y.L.P.P.P.P.P.G.L.L.Y.Y.Y.Y.Y.Y.P.G.G.G.G.P.P.Y.Y.J.G.J.G.G.J.J.J.J.G.G.G.G.G.G.G.G.G.G.G.G.G.F.F.F.G.F.F.F.F.C.C.A.A.A.A.A.A.V.V.V.V.V.V.V.V.V.C.C.C.V.V.V.V.B.B.B.B.B.B.B.B.B.B.B.B.B.B.B.B.B.B.B.B.V.V.V.V.G.B.c.G.c.l > f W ^ 0.c.C l c M l g.B.r.3.| $ u M.C./.c.0 < 1 > ",
"; ; ^ G.u.0.u.0.c 5 u U ^ ..3.Q I U I Q 0.g.;...J r 5 ;.u.q.q.3.3.8.0.0.3.3.8.0.8.0.0.0.0.0.0.0.0.0.0.q.u.p.u.0.0.0.q.e.u.e.e.q.q.q.q.w.q.q.e.e.e.u.u.u.u.u.u.u.u.u.u.u.u.u.u.u.u.u.u.u.u.u.u.u.u.u.u.u.u.u.u.u.u.u.p.p.p.f.p.p.p.p.p.f.f.f.g.g.g.g.g.g.g.g.g.g.j.g.g.g.g.g.k.c.j.j.j.k.k.c.c.c.c.c.c.c.c.c.c.c.M.M.M.B.B.B.B.B.V.C.V.V.C.C.V.A.C.C.G.C.G.G.J.G.G.A.A.V.M.M.M.B.P.Y.R.R.Y.Y.P.D.D.G.G.G.G.G.G.Y.G.G.G.G.J.J.G.G.U.U.U.U.U.U.U.U.U.U.Y.Y.Y.U.J.G.G.G.G.G.L.L.Y.Y.Y.Y.Y.L.Y.L.L.L.Y.J.Y.Y.G.B.V.L.T.P.L.P.P.P.P.P.L.L.L.L.G.Y.Y.Y.Y.Y.G.G.G.G.Y.Y.Y.Y.U.J.J.J.G.J.J.J.G.G.G.G.G.G.G.G.G.G.G.G.G.F.F.F.F.F.G.G.C.C.A.A.A.A.A.A.A.V.C.C.C.C.C.C.C.C.C.C.V.V.V.B.B.B.B.B.B.B.B.B.B.B.B.B.B.B.B.B.B.B.B.B.B.B.B.B.B.B.C.C.C.L.c.n 1 u W Q ;.w.) I K J W 0.w.| } W 5 h B.Z./.k.0 1 1 1 ",
"1 . ..OXC.g.3.r.q ; 0 r f A ) r.u.f.g.g.) W h r f r q ;.r.0.w.<.2.8.0.0.3.3.8.0.8.8.0.0.0.0.0.0.0.0.0.0.u.p.u.3.3.q.r.u.q.w.q.e.q.e.q.w.q.q.e.r.e.e.u.u.r.u.u.u.u.u.u.u.u.u.u.u.u.u.u.u.u.u.u.u.u.u.u.u.u.u.u.u.u.u.u.u.u.p.p.p.u.u.p.f.f.f.g.g.g.g.g.g.g.g.g.g.j.g.g.g.g.j.k.c.j.k.j.k.c.c.c.c.c.c.c.c.c.c.M.M.M.M.M.B.B.B.B.B.C.V.V.V.C.V.A.A.V.C.C.V.A.G.J.G.G.G.F.C.C.M.c.c.C.G.P.Y.Y.Y.L.D.D.G.G.G.G.G.G.Y.G.G.G.G.J.J.G.J.U.U.U.U.U.U.J.J.J.J.U.U.J.G.G.G.G.G.G.G.Y.Y.Y.Y.Y.Y.Y.Y.Y.L.L.L.Y.J.Y.Y.G.B.C.G.T.Y.G.P.P.P.P.P.Y.L.G.G.G.P.Y.R.Y.Y.L.G.G.G.P.Y.Y.Y.J.J.G.G.G.J.J.J.J.G.G.G.G.G.G.G.G.G.G.G.G.G.G.F.G.C.A.V.V.V.A.A.A.A.A.A.V.V.C.C.V.C.V.V.V.V.V.V.V.B.B.B.B.B.B.B.B.B.B.B.B.B.B.B.B.B.B.B.B.B.M.M.B.B.B.B.B.B.h.C.V.B.g.V 1 5 u f N Q r.g.h.k.c.| I f f 0 + u V.C./.k.0 1 5 1 ",
"5   ;. Xc.c.<.r.A q 5 1 r h V r.f.r.f.l.C A f u > u l <.0.<.w.3.2.8.w.0.3.3.8.0.8.8.8.0.0.0.0.0.w.w.0.0.u.p.u.3.3.w.u.u.w.0.q.u.e.e.q.q.q.e.r.u.e.e.e.r.r.u.u.u.u.u.u.u.u.u.u.u.u.u.u.u.u.u.u.u.u.u.u.u.u.u.u.u.u.u.u.u.u.p.p.p.u.u.p.p.f.f.g.g.g.g.g.g.g.g.g.g.j.g.g.g.g.j.k.c.k.k.j.c.c.c.c.c.c.c.c.c.c.M.B.M.M.M.M.B.B.B.B.B.V.V.V.V.V.V.A.A.V.C.A.V.V.G.G.G.F.G.J.J.G.C.V.V.n.V.G.L.Y.Y.L.C.D.G.G.G.G.G.G.Y.G.G.J.G.G.G.J.G.U.U.U.U.U.J.J.U.G.J.J.J.G.G.G.G.G.G.G.G.G.L.Y.Y.Y.Y.Y.Y.Y.L.L.L.Y.J.Y.Y.G.B.V.G.T.Y.L.P.P.P.P.P.Y.Y.G.G.G.P.R.T.Y.Y.L.G.G.G.P.Y.Y.U.J.G.G.G.G.J.J.J.J.G.G.G.G.G.G.G.G.G.G.G.G.G.G.F.G.C.V.V.V.V.A.A.A.A.A.V.V.V.C.C.C.C.V.V.C.C.C.V.V.B.B.B.B.B.B.B.B.B.B.B.B.B.B.B.B.B.B.B.B.B.M.M.M.B.B.B.B.B.C.L.C.b.c.K 8 $ , u n D u.r.w.u.r.U K r 0 1 r C C.C./.k.0 1 0 5 ",
"1 + ..}.k.f.w.q.Q l 1 5 0 q C $.} $.<.| C l f 1 + A :.0.3.0.w.0.3.3.3.3.0.0.3.3.0.0.0.0.0.0.0.0.q.q.w.w.q.w.q.q.q.w.w.q.q.q.q.e.q.q.q.e.e.e.e.e.e.e.e.r.r.u.u.u.r.e.e.r.u.u.u.u.u.u.u.u.u.u.u.u.u.u.u.u.u.u.p.p.u.u.u.u.u.p.p.p.p.p.p.f.f.f.f.f.f.f.f.g.g.g.g.g.g.j.k.k.g.g.g.j.k.k.k.c.c.c.c.c.c.c.c.c.c.c.M.M.B.B.B.B.B.B.B.B.C.V.V.A.V.V.V.V.V.A.C.G.G.G.A.A.F.F.G.J.U.U.G.F.b.B.V.G.P.P.G.G.G.G.G.G.G.G.G.L.G.G.J.J.J.U.U.U.J.J.J.J.J.J.J.J.U.U.U.U.U.U.U.U.Y.Y.P.P.L.L.L.L.L.L.L.L.L.L.L.L.U.G.U.Y.G.c.n.G.!.P.G.Y.Y.P.P.P.Y.Y.Y.U.L.L.Y.Y.Y.Y.P.G.G.G.G.P.Y.U.J.G.G.G.G.G.J.J.J.J.U.J.G.G.G.G.G.G.G.F.F.F.G.G.G.G.C.A.A.A.A.A.V.V.V.V.V.V.C.C.C.V.V.B.B.B.V.C.C.C.C.V.B.B.B.B.B.B.B.B.M.M.B.B.B.B.B.B.B.B.B.B.B.B.B.B.B.B.C.V.C.C.c.$.M > ; q f A ..:. .$.;.A u u 0 $ W f.C.C.E.c.0 5 5 5 ",
"1 + ..}.k.f.w.w.;.c + $ 0 q r l f u u u q q 0 ; > J <.w.3.3.0.3.3.3.3.3.0.0.8.3.0.0.0.0.0.0.0.0.q.w.q.w.q.w.q.q.w.w.w.q.q.q.q.q.q.q.q.e.e.e.e.r.e.e.e.r.r.r.u.u.r.e.e.r.u.u.u.u.u.u.u.u.u.u.u.u.u.u.u.u.u.u.u.u.u.u.u.u.u.p.p.p.p.p.p.f.f.f.f.f.f.f.f.g.g.g.g.g.g.g.k.g.g.g.g.j.k.k.k.c.c.c.c.c.c.c.c.c.c.c.M.M.B.B.B.B.B.B.B.B.V.V.V.V.V.V.V.C.V.A.C.G.G.G.G.G.F.F.F.J.J.J.G.F.G.G.V.B.c.n.C.G.G.G.G.G.G.G.G.G.G.J.J.J.J.J.U.U.J.J.J.J.J.J.J.J.U.Y.U.U.U.U.U.U.P.P.P.P.L.L.L.L.L.L.L.L.L.L.L.L.J.G.U.Y.G.c.B.G.R.L.G.L.P.G.G.P.Y.Y.Y.Y.L.L.Y.Y.Y.Y.L.P.L.G.L.G.Y.U.J.G.G.G.G.G.J.J.J.J.J.J.G.G.G.G.G.G.G.F.F.F.G.G.G.G.C.A.A.A.A.A.V.V.V.V.V.A.C.C.V.V.V.B.B.B.V.V.C.C.V.B.B.B.B.B.B.B.M.M.c.c.B.B.B.B.B.B.B.B.B.B.B.B.B.B.B.B.B.b.B.C.c.:.C 5 ; q r u j u 0 r h q 0 5 > > | c.C.C.E.c.0 5 5 5 ",
"1 + .. Xk.f.w.w.$.J w 5 0 5 5 q u 0 1 0 r 0 5 q l ^ 3.w.3.3.0.3.3.3.3.3.0.0.0.8.0.0.0.0.0.0.0.0.0.0.q.q.w.q.q.q.q.w.q.w.q.q.q.q.q.q.q.q.e.e.q.e.e.e.e.e.r.r.r.u.r.r.e.e.r.u.u.u.u.u.u.u.u.u.u.u.u.u.u.u.u.u.u.u.u.u.u.u.u.p.p.p.p.p.p.f.f.f.f.f.g.g.f.g.g.g.g.g.g.g.j.j.g.g.g.g.k.k.k.c.k.c.c.c.c.c.c.c.c.c.c.M.B.B.B.B.B.B.B.B.V.V.V.V.V.V.C.C.A.A.A.G.G.G.G.G.F.F.C.F.G.J.G.F.L.L.G.B.x.x.n.G.G.G.G.G.G.G.G.G.G.G.J.J.J.J.J.U.J.J.J.J.J.J.J.J.J.J.J.U.U.U.U.U.L.L.P.L.L.L.L.L.L.L.L.L.L.L.L.L.J.G.J.Y.G.B.B.G.Y.P.G.G.P.G.G.H.Y.Y.Y.Y.L.L.L.Y.Y.Y.Y.Y.L.L.G.G.U.J.J.G.G.G.G.G.G.G.J.J.J.G.G.G.G.G.G.G.G.G.G.G.G.G.G.G.A.A.A.A.A.A.V.V.V.V.V.V.V.V.C.V.B.B.B.B.B.V.V.V.V.B.B.B.M.M.M.c.c.c.c.c.M.M.B.B.B.B.B.B.B.B.B.B.B.B.B.B.c.c.B.B.c.q.W h > 5 5 0 r q 0 u > 5 0 1 q M w.B.C.C.E.c.0 5 0 0 ",
"1 X .. Xc.f.0.w...) I M r 1 5 r 0 0 5 5 5 X $ l } :.0.3.<.3.0.3.3.2.3.3.0.0.0.0.8.8.0.0.0.0.0.0.0.0.0.q.w.q.q.q.q.q.q.w.q.q.q.q.q.q.q.q.q.q.q.q.q.q.e.e.e.r.r.r.e.e.e.e.e.r.u.u.u.u.u.u.u.u.u.u.u.u.u.u.u.u.u.u.u.u.u.u.u.p.p.p.p.p.p.f.f.f.f.f.g.g.g.g.g.g.g.g.g.g.g.g.g.g.g.g.k.k.k.c.k.c.c.c.c.c.c.c.c.c.M.M.B.B.B.B.B.B.V.V.B.V.V.V.V.V.C.V.A.A.A.G.G.G.G.C.F.C.A.A.A.G.G.F.G.G.G.G.C.C.C.G.G.G.G.G.G.G.G.G.G.G.J.J.J.J.J.J.G.G.G.G.G.G.G.G.J.J.J.J.J.U.U.U.L.L.L.P.L.L.L.L.L.L.L.L.L.L.L.L.U.G.Y.Y.G.V.V.G.Y.P.L.L.P.H.P.P.Y.Y.Y.P.G.G.G.G.G.G.Y.P.P.L.G.G.G.G.G.G.G.G.G.G.G.G.G.G.J.G.G.G.G.G.G.F.G.G.F.F.G.G.G.C.A.A.A.A.A.V.V.V.V.V.V.V.V.V.V.V.B.B.B.B.B.B.B.B.B.B.B.B.M.c.c.c.c.c.c.c.c.M.M.M.B.B.B.B.M.M.M.M.M.M.B.B.c.B.B.c.B.h.;.I l q $ ; 8 0 5 1 q 5 0 q J $.c.c.B.C.E.c.q 5 0 0 ",
"1 X .. Xk.u.3.0.w.:.} K l q > ; ; 1 1 5 5 > h | 3.0.0.<.<.0.0.<.3.2.3.3.0.0.0.0.8.8.8.0.0.0.0.0.0.0.0.0.q.q.q.q.q.q.q.w.w.w.q.q.q.q.w.q.q.q.q.q.q.q.e.r.r.r.r.r.e.e.e.r.r.r.u.u.u.u.r.u.u.u.u.u.u.u.u.u.u.u.u.u.u.u.u.p.p.f.p.p.p.p.p.f.f.f.f.f.g.f.f.g.g.g.g.g.g.g.g.g.g.g.g.g.j.j.j.k.k.c.c.c.c.c.c.c.c.c.c.c.B.B.B.B.B.V.V.V.B.V.C.C.V.V.V.V.V.V.A.A.C.C.A.A.A.C.A.A.C.F.G.G.G.G.G.G.P.P.G.G.G.G.G.G.G.G.G.G.G.G.G.J.J.J.J.J.J.J.J.J.G.G.G.G.G.G.G.J.J.U.U.Y.G.L.L.L.L.L.L.L.L.L.L.L.L.L.L.L.Y.U.Y.Y.P.G.G.G.G.P.P.G.H.P.P.P.L.L.L.P.L.L.L.L.G.G.L.L.L.G.G.G.G.G.G.J.G.G.G.F.G.G.J.J.G.G.G.F.G.F.F.F.G.F.F.F.G.G.C.C.G.A.C.A.A.V.V.C.V.V.V.V.V.V.B.V.B.B.B.B.B.B.B.B.B.B.M.M.M.M.c.c.c.c.c.c.c.c.M.c.B.B.B.B.M.M.M.M.M.M.B.B.B.V.B.c.B.C.s.;.} N 5 > 5 5 ; + 5 + 0 c $.g.C.k.B.B.E.k.q 5 0 0 ",
"1 . |  Xc.r.3.0.r.0.;.^ A f 0 > > > ; > 0 f I <.6.3.<.3.0.q.3.:.3.3.3.3.0.0.0.8.3.8.8.8.0.0.0.0.0.0.0.0.q.q.q.q.0.q.q.q.q.w.q.q.q.q.w.w.q.q.q.q.q.q.e.e.e.r.e.e.q.e.e.e.r.r.r.r.e.r.r.u.u.u.u.u.u.u.u.u.u.u.u.u.u.u.u.p.p.f.p.p.p.p.p.f.f.f.f.f.f.f.f.g.g.g.g.g.g.g.k.j.g.g.g.j.j.j.j.k.k.c.c.c.c.c.c.c.c.c.c.c.B.B.B.B.B.V.V.V.B.B.V.C.C.C.V.V.C.V.V.A.V.V.A.A.C.A.A.A.C.G.G.C.G.G.G.G.G.G.G.G.G.G.D.D.G.G.G.G.G.G.J.J.J.J.J.J.G.G.G.G.G.G.G.G.G.G.G.J.J.J.U.U.L.L.L.L.L.L.L.L.L.L.L.L.L.L.L.L.Y.U.U.Y.Y.Y.G.G.C.D.G.G.D.G.H.D.G.G.G.G.L.G.G.G.G.G.L.L.L.G.G.G.F.G.G.G.J.G.G.F.G.G.G.G.G.G.F.F.F.F.F.F.F.F.F.G.A.A.C.C.A.A.C.V.V.V.V.C.V.V.V.C.V.B.B.B.B.B.B.B.B.M.B.B.B.B.M.c.M.M.M.c.c.c.c.c.c.c.c.M.M.M.B.B.c.c.c.c.c.c.M.M.b.B.c.k.b.C.c.s.} V r 8 1 , 5 1 0 : V } g.B.C.B.B.B.E.k.q 5 0 0 ",
"1 . |  Xc.r.3.0.3.0.0.:.Q C M V J C V V A ) <.0.<.<.3.0.0.6.<.<.3.3.3.3.0.0.8.3.3.3.8.8.8.0.0.0.0.0.0.0.0.q.q.q.0.0.q.q.q.w.q.q.q.w.q.w.w.q.q.q.q.q.q.q.e.e.e.e.q.q.e.e.e.r.e.e.r.r.u.u.r.u.u.u.u.u.u.u.u.u.u.u.u.u.u.p.p.f.p.p.p.p.p.f.f.f.f.f.f.f.f.g.g.g.g.g.g.c.c.k.j.g.j.c.j.k.j.k.c.c.c.c.c.c.c.c.c.M.c.c.B.B.B.B.B.V.B.B.B.B.V.C.C.C.C.V.V.C.C.V.V.V.C.V.A.A.A.C.F.F.G.V.G.G.G.G.D.C.G.G.D.D.D.D.G.G.G.G.G.G.G.G.J.J.J.J.G.G.G.G.G.G.G.G.G.G.G.G.J.J.U.U.U.U.L.L.L.L.L.L.L.L.L.L.L.L.L.L.J.G.G.J.Y.Y.G.G.c.C.G.G.D.P.P.D.G.G.L.L.L.L.G.G.G.G.G.L.L.G.G.G.G.F.G.J.G.G.F.F.G.G.G.G.G.G.F.F.F.F.G.G.G.G.G.G.C.A.C.A.A.A.V.V.V.V.C.C.V.V.V.V.B.B.B.B.B.B.B.B.M.B.B.B.B.M.M.c.B.M.c.c.c.c.c.c.c.c.c.c.c.c.M.c.c.c.c.c.c.c.c.c.b.b.c.c.b.b.c.c.f. .W U A B A A J B ;.u.C.B.c.C.B.B.W.k.q 7 0 q ",
"5 X ..OXc.u.3.0.3.3.0.3.$.Q U W J J U U W $.0.;.6.0.0.0.3.>.<.w.3.3.3.3.0.0.3.3.3.3.3.8.8.0.0.0.q.0.0.0.0.q.0.0.0.0.0.q.q.w.q.q.q.q.q.q.w.q.q.q.q.q.q.q.q.e.e.e.q.q.q.e.e.e.e.r.r.r.e.r.r.u.u.u.u.u.u.u.u.u.u.u.u.u.u.p.p.f.p.p.p.p.p.f.f.f.f.f.f.f.f.g.g.g.g.g.j.k.c.c.j.j.k.c.k.k.j.c.c.c.c.c.c.c.c.c.c.M.c.c.B.B.B.B.B.B.B.B.B.B.V.C.C.C.C.V.B.V.C.C.V.V.V.V.A.A.C.F.G.G.G.V.B.G.L.L.G.V.V.D.G.D.G.G.G.G.G.D.G.G.G.G.G.J.J.J.G.G.G.G.G.G.G.G.F.G.G.G.G.J.Y.Y.U.L.L.L.L.L.L.L.L.L.L.L.L.L.L.L.G.G.F.G.L.Y.G.V.c.V.P.L.L.P.P.G.G.G.G.L.L.L.G.G.G.G.L.Y.L.G.G.G.G.F.G.J.J.G.F.G.G.G.G.G.G.G.F.F.F.F.G.G.G.G.G.G.C.C.C.A.A.A.V.V.V.V.C.V.V.V.V.V.B.B.B.B.B.B.B.B.M.M.B.B.B.M.c.c.B.B.M.c.c.M.c.c.c.c.c.c.c.c.M.M.c.c.c.c.c.c.c.c.b.c.b.V.B.c.c.b.B.:.} | ` ` } ^ X.) f.k.C.c.k.B.B.B.R.k.q 5 q q ",
"; ; } W.C.:.3.3.:.3.q.q.3.3.3.0.:.3.0.3.3.3.0.0.6.6.3.3.3.3.3.3.2.3.0.0.0.0.0.0.8.8.8.8.8.8.8.8.0.0.0.0.0.q.q.q.0.0.0.0.0.q.q.q.q.q.q.q.w.q.q.q.w.q.q.q.q.q.q.q.q.q.q.e.e.r.r.r.r.r.r.u.u.u.u.u.u.u.u.u.u.u.u.u.u.u.u.u.u.u.u.u.p.p.p.f.f.f.f.f.g.g.g.g.g.g.g.g.g.c.c.k.g.g.j.c.j.g.g.k.k.c.c.c.j.c.c.c.M.M.M.M.c.C.A.V.c.c.c.V.B.B.B.B.B.V.V.V.V.V.V.C.C.V.C.C.G.G.G.G.G.G.G.G.F.G.G.G.G.G.G.G.G.G.G.G.F.F.F.G.G.G.G.G.G.G.G.G.G.G.G.G.J.J.J.J.G.G.G.G.G.U.U.L.L.P.L.P.L.P.L.P.G.H.G.H.L.P.L.L.G.U.U.Y.J.J.G.G.B.c.B.G.R.R.Y.G.J.J.J.J.J.U.Y.Y.U.J.G.G.J.J.G.G.G.G.G.G.G.G.G.G.G.G.G.G.G.G.G.G.G.F.F.G.G.C.C.A.A.A.A.V.V.V.V.V.V.V.V.V.V.B.B.B.c.M.B.B.B.M.c.c.M.M.M.c.c.c.c.c.M.M.M.c.c.M.c.c.c.c.c.c.c.c.c.c.c.c.c.c.c.c.c.c.b.b.b.b.B.B.B.B.C.B.c.c.c.c.c.k.g.h.c.c.c.c.b.B.B.B.W.k.e 0 q 0 ",
"q : & : } 0.0.r.8.8.3.3.3.3.3.8.w.r.r.0.<.<.3.<.6.6.3.3.3.3.3.3.2.3.3.8.0.0.0.w.8.8.8.8.8.8.8.8.0.0.0.0.0.0.q.q.0.0.0.0.0.0.q.q.q.q.q.q.q.q.q.q.w.q.q.q.q.q.q.q.q.q.q.e.e.r.r.r.r.r.r.u.u.u.u.u.u.u.u.u.u.u.u.u.u.u.u.u.u.u.u.u.p.p.p.f.f.f.f.f.g.g.g.g.g.g.g.g.g.j.k.j.g.g.g.c.j.j.j.j.k.c.c.c.c.c.c.c.M.M.M.M.B.B.B.c.j.g.c.B.B.B.B.V.B.V.V.V.V.V.V.C.C.C.V.V.A.A.G.G.G.G.G.G.F.G.G.G.G.G.G.G.G.G.G.G.F.F.G.G.G.G.G.G.G.G.G.G.G.G.G.G.J.U.J.J.G.G.G.G.G.J.U.L.L.P.P.H.P.P.P.P.H.H.H.P.P.P.P.L.G.U.U.Y.J.J.G.G.V.B.V.G.G.G.G.U.Y.J.U.J.J.U.U.Y.U.G.G.G.J.J.G.G.L.G.G.G.G.G.G.G.G.G.G.G.G.G.G.G.G.F.G.G.G.G.A.A.A.A.V.V.V.V.V.V.V.V.V.V.V.B.B.B.M.M.B.B.B.M.c.c.M.M.c.c.c.c.c.c.M.M.c.c.c.c.c.c.c.c.c.c.c.c.c.c.c.c.c.c.c.c.c.c.b.m.b.b.b.B.B.B.k.k.c.B.C.C.n.b.C.C.V.b.c.c.b.B.B.B.W.k.e 0 q 0 ",
"; 1 <   ;.h.0.<.8.3.<.3.8.9.q.q.<.3.3.<.<.3.0.0.6.3.3.3.3.3.3.3.2.3.3.3.3.8.0.q.8.8.8.8.8.8.8.8.0.0.0.0.0.0.0.q.0.0.0.0.0.0.0.q.q.q.q.q.q.q.q.q.w.w.q.q.q.e.e.e.e.e.q.r.e.r.r.e.r.r.r.u.r.u.u.u.u.u.u.u.u.u.u.u.u.u.u.u.u.u.p.p.p.p.p.f.f.f.f.f.g.g.g.g.g.g.g.g.g.g.j.g.g.g.g.j.j.k.k.k.c.c.c.c.c.c.c.c.M.M.M.M.V.B.c.g.g.j.c.B.B.B.B.B.B.V.V.V.V.V.V.V.C.C.C.V.V.A.A.C.C.C.G.G.G.G.G.C.A.G.G.G.G.G.G.G.G.F.F.F.F.G.G.G.G.G.G.G.G.G.G.J.J.J.J.J.G.G.G.G.G.J.J.G.L.P.H.H.P.P.P.P.H.H.P.P.P.P.P.L.G.U.U.U.J.J.G.G.G.G.G.G.V.C.G.Y.Y.Y.J.J.J.U.U.Y.U.G.F.F.G.J.J.J.Y.P.G.G.G.G.G.G.G.G.G.G.G.G.G.G.G.G.G.G.C.C.C.C.A.V.V.V.V.V.V.V.V.V.V.V.V.B.B.B.M.B.B.B.B.M.M.c.M.c.c.c.c.c.c.c.c.c.c.c.c.c.c.c.c.c.c.c.c.c.c.c.c.c.c.c.c.c.c.c.c.c.c.c.c.c.B.B.V.B.B.B.b.b.c.h.h.h.h.h.c.B.B.V.B.B.W.k.e 0 q 0 ",
": + p , X.0.3.:.3.3.3.8.8.8.3.3.w.w.w.0.3.6.3.<.3.3.3.3.3.3.3.3.2.3.3.3.3.3.0.q.8.8.8.8.8.8.8.8.0.0.0.0.0.0.0.0.0.0.0.0.0.0.0.0.q.q.q.q.q.q.q.q.w.w.w.q.q.e.e.q.e.e.e.r.e.r.r.r.r.r.r.u.r.u.u.u.u.u.u.u.u.u.u.u.u.u.u.u.u.p.p.p.p.p.p.f.f.f.f.f.g.g.g.g.g.g.g.g.g.g.g.g.g.g.g.g.k.k.k.c.c.c.c.c.c.c.c.c.M.B.B.B.V.c.g.g.k.c.B.B.B.B.B.B.B.V.V.V.B.B.V.V.V.C.V.V.V.V.V.A.A.C.G.G.G.G.C.C.A.A.G.C.A.G.G.G.G.G.G.G.F.G.G.G.F.G.G.G.G.G.G.J.J.J.J.J.G.G.G.G.G.J.J.G.L.P.H.H.H.H.P.P.P.H.P.P.P.P.P.L.L.U.U.U.J.J.J.J.Y.Y.Y.G.V.B.A.Y.Y.Y.J.J.J.J.U.U.U.G.F.G.G.J.Y.Y.Y.Y.L.G.G.G.G.G.G.G.G.G.G.G.G.G.G.G.G.C.C.C.A.A.V.V.V.V.V.V.V.V.V.V.V.V.V.B.B.B.B.B.B.B.M.M.M.M.c.c.c.c.c.c.c.c.c.c.c.c.c.c.c.c.c.c.c.c.c.c.c.c.c.c.c.c.c.c.c.c.c.z.c.c.c.c.M.M.B.B.b.c.b.V.C.C.b.b.V.V.C.V.c.k.B.B.W.k.e 0 e 0 ",
"0 X ; X X.0.w.3.3.8.8.3.3.,.,.,.<.3.3.3.3.6.3.<.3.3.3.3.3.<.<.<.2.2.2.2.2.3.0.q.8.8.8.8.8.8.8.8.0.0.0.0.0.0.0.0.0.0.0.0.0.0.0.0.q.q.q.w.w.q.q.q.w.w.w.q.q.e.e.q.e.e.q.e.e.u.r.r.e.e.e.r.r.u.u.u.u.u.u.u.u.u.u.u.u.u.u.u.u.u.p.p.p.p.p.f.f.f.f.f.f.g.g.g.g.g.g.g.g.g.g.g.j.j.g.g.j.j.c.c.c.c.c.c.c.c.c.M.B.B.B.B.c.j.f.g.c.V.V.B.B.B.B.B.B.V.V.V.B.B.B.V.V.V.V.C.C.C.V.V.V.A.C.C.C.G.A.A.A.A.G.C.A.A.C.C.G.G.G.G.G.G.G.F.F.G.G.G.G.G.G.J.G.J.J.J.G.G.G.J.J.J.J.G.L.L.L.G.L.L.L.L.L.L.L.L.L.L.L.P.L.U.U.U.J.J.Y.Y.Y.R.R.Y.V.M.V.J.Y.Y.U.J.J.J.J.J.U.G.F.G.G.J.Y.Y.P.P.G.G.G.G.G.G.G.G.G.G.G.G.G.G.G.G.A.A.A.A.A.A.V.V.V.V.V.V.V.V.C.C.C.V.V.B.V.V.B.B.M.M.c.c.M.M.c.c.c.c.c.c.c.c.c.c.c.c.c.c.c.c.c.c.c.c.c.c.c.c.c.c.c.c.c.c.c.c.k.z.k.k.c.c.k.k.k.c.c.g.g.h.c.z.c.c.c.b.V.B.b.c.c.M.W.k.e 0 q q ",
"; 0 : + 3.r.q.<.3.8.8.3.3.8.q.u.<.3.3.3.6.0.0.3.3.3.3.3.<.<.<.<.2.2.3.3.2.3.0.0.8.8.8.8.8.8.8.8.8.0.0.0.0.0.0.0.8.0.0.0.0.0.0.0.q.q.q.w.w.q.q.q.w.w.q.q.q.e.e.q.q.e.q.e.r.u.r.r.e.e.e.r.r.u.u.u.u.u.u.u.u.u.u.u.u.u.u.u.u.u.p.p.p.p.p.f.f.f.f.f.f.g.g.g.g.g.g.g.g.g.g.g.k.c.k.g.k.k.c.c.c.c.c.c.c.c.c.B.B.B.B.B.j.f.f.g.c.B.B.c.B.B.B.B.B.V.V.V.B.B.B.B.V.V.V.V.C.C.V.V.V.V.A.A.C.A.A.A.A.A.A.C.V.V.A.C.G.G.G.G.G.G.G.G.F.F.G.G.G.G.G.J.G.J.J.J.G.G.G.J.J.J.J.G.L.L.G.L.L.L.L.L.L.L.L.L.L.L.P.P.Y.U.U.U.J.Y.Y.Y.J.G.G.G.V.c.B.A.Y.Y.Y.U.J.J.J.J.U.J.G.G.G.J.J.J.G.G.G.G.G.G.G.G.G.G.G.G.G.G.G.D.C.C.A.A.A.A.A.V.V.V.V.V.V.V.V.C.C.C.C.V.V.V.V.V.B.B.M.c.c.c.c.B.c.c.c.c.c.c.c.c.c.c.c.c.c.c.c.c.c.c.c.c.c.c.c.c.c.c.c.c.c.c.c.c.k.h.k.k.c.c.k.k.k.V.C.b.c.c.z.g.c.k.k.k.k.c.B.C.c.M.W.k.e 0 e q ",
"$ r > + C I <.8.3.3.3.8.q.q.8.8.u.r.w.3.3.3.3.<.3.3.3.3.3.3.<.<.2.3.3.3.3.3.3.3.8.8.8.8.8.8.8.8.8.8.0.0.0.0.0.0.8.8.0.0.0.0.0.0.q.q.q.w.w.q.q.q.q.q.q.q.q.e.q.e.q.q.q.e.r.u.r.r.e.e.e.r.u.u.u.u.u.u.u.u.u.u.u.u.u.u.u.u.u.u.u.p.p.p.p.f.f.f.f.f.f.g.g.g.g.g.g.g.g.g.g.j.c.c.k.g.k.k.k.c.c.c.c.c.c.c.M.B.B.M.c.c.k.g.f.g.c.B.M.c.B.B.B.B.B.V.V.V.B.B.B.B.B.V.V.V.V.V.V.V.V.V.V.V.A.A.V.V.V.V.A.A.V.V.V.A.A.C.C.A.C.C.G.G.G.G.G.G.G.G.G.G.G.J.J.J.G.G.G.J.J.J.J.G.L.L.L.L.L.L.L.L.L.L.L.L.L.G.L.L.Y.U.U.J.J.Y.Y.Y.J.G.C.V.V.B.B.V.Y.Y.Y.U.J.G.G.J.Y.J.G.G.J.J.J.G.G.G.G.G.G.G.G.G.G.G.G.G.G.G.G.G.C.A.A.A.A.A.V.V.V.V.V.C.C.V.C.C.C.C.C.V.V.B.V.B.B.B.M.c.c.c.M.B.c.c.c.c.c.c.c.c.c.c.c.c.c.c.k.k.c.c.c.c.c.c.c.c.c.c.c.c.c.c.c.c.c.z.k.c.c.c.M.M.k.V.C.c.c.V.D.C.V.C.A.C.b.k.k.c.c.c.W.k.e 0 e q ",
"> ; & 5 $ 1 3.0.3.3.3.0.8.:.{ T Q Q Q ^ | :.6.0.3.3.3.3.3.<.<.<.2.3.3.3.3.2.2.3.8.8.8.8.8.8.8.8.8.8.8.0.0.0.0.0.8.8.8.0.0.0.0.0.q.q.q.w.w.q.q.q.q.q.q.q.q.q.q.e.q.q.q.e.r.u.r.r.r.r.e.u.u.u.u.u.u.u.u.u.u.u.u.u.u.u.u.u.u.u.u.p.p.p.p.f.f.f.f.f.f.g.g.g.g.g.g.g.g.g.g.k.c.c.c.g.k.k.k.c.c.c.c.c.c.c.B.V.B.c.k.g.c.c.g.k.c.B.B.M.B.B.B.B.B.V.V.V.B.B.B.B.B.V.V.V.V.V.V.V.V.V.C.C.A.V.V.V.V.V.A.A.V.V.V.V.A.A.C.C.A.C.G.G.F.G.G.G.G.G.G.G.G.J.J.J.G.G.G.J.J.J.J.J.L.L.L.L.L.L.L.L.L.L.L.L.L.G.L.L.Y.U.U.J.U.Y.Y.R.Y.A.c.c.B.B.B.V.Y.Y.Y.U.J.G.J.J.U.J.G.G.J.J.G.F.G.G.G.G.G.G.G.G.G.G.G.G.G.G.G.G.A.A.A.A.A.V.V.V.V.V.V.C.C.V.V.V.C.C.C.V.V.B.V.B.B.B.M.c.c.c.B.B.c.c.c.c.c.c.c.c.c.c.c.c.c.c.k.k.c.c.c.c.c.c.c.c.c.c.c.c.c.c.c.c.c.z.k.c.c.c.M.M.V.B.f.>. .$.=.$.} >.i.k.c.c.b.V.c.c.W.k.e 0 e q ",
"> ; < : $ u 0.3.3.q.:.3.3.K u q g 0 f u l ^ ..:.:.<.0.3.:.3.0.<.2.2.2.3.3.3.3.3.0.0.8.8.3.3.0.0.3.3.8.0.0.0.0.0.0.0.0.0.0.0.0.0.0.0.0.0.0.0.0.0.q.q.q.q.q.q.q.e.e.e.q.q.q.e.e.e.e.e.e.r.r.u.u.u.u.u.u.u.u.u.u.u.u.u.u.u.u.u.p.p.p.p.p.f.f.f.f.f.f.f.g.g.g.g.g.g.g.g.g.k.c.c.c.c.k.k.j.c.k.c.c.c.c.c.B.B.c.k.g.g.B.c.g.g.c.C.B.M.B.B.B.M.M.B.B.B.B.B.B.V.V.C.C.C.V.V.V.V.V.A.A.A.V.V.C.V.V.V.V.V.V.V.V.A.A.G.C.C.C.C.G.F.F.F.G.G.G.G.G.G.G.G.J.J.G.G.G.J.J.U.U.U.G.G.L.L.L.L.L.L.G.G.G.G.G.G.G.G.G.G.G.G.Y.Y.U.G.V.B.B.B.B.B.c.c.B.G.Y.U.G.G.J.G.J.J.J.J.G.G.G.G.G.G.G.G.G.G.G.G.G.G.G.D.C.V.D.D.C.C.C.A.A.A.A.A.V.V.c.c.M.c.g.B.C.C.V.V.V.B.B.B.B.c.c.c.c.B.B.B.c.c.c.c.c.c.c.c.c.c.c.c.c.c.c.c.c.c.c.k.k.c.c.c.c.c.c.c.c.c.c.c.h.D.h.h.C.B.k.l.M.;.$.h p h 9 a n u :.g.B.B.k.h.c.c.R.k.e 0 e 0 ",
"> ; < : $ u 0.3.0.w.r.,.c f P K c Q W J L l h 0.w.6.<.<.3.<.>.>.2.2.2.2.3.3.3.3.0.0.8.3.3.3.8.0.3.3.3.8.0.0.0.0.0.0.0.0.0.0.0.0.0.0.0.0.0.0.q.q.w.w.q.q.q.q.q.q.e.e.q.q.q.e.e.e.e.e.e.r.r.u.u.u.u.u.u.u.u.u.u.u.u.u.u.u.u.p.p.p.p.p.p.f.f.f.f.f.f.f.g.g.g.g.g.g.g.g.g.j.c.c.c.j.c.c.c.c.c.c.c.c.c.B.B.c.k.g.g.k.V.c.g.g.c.V.B.c.B.B.B.M.M.B.B.B.B.B.B.V.V.V.C.C.V.C.V.C.V.V.C.V.V.V.C.V.V.V.V.V.V.V.V.A.A.A.C.C.G.G.G.G.F.F.G.G.G.G.G.G.G.G.J.J.G.G.G.J.J.J.U.Y.G.G.L.G.L.L.L.L.L.U.L.L.L.L.L.P.J.G.F.G.U.J.G.V.V.B.B.B.V.C.C.V.V.G.R.Y.G.J.G.G.J.J.J.J.G.G.G.G.G.G.G.G.G.G.G.G.G.G.G.D.C.V.C.C.G.C.A.A.A.A.A.V.V.V.M.c.B.c.g.c.V.C.V.V.V.B.B.B.B.c.c.c.c.B.B.B.c.c.c.c.c.c.c.c.c.c.c.c.c.c.c.c.c.c.c.k.k.c.c.c.c.c.c.c.c.c.c.c.h.z.g.V.B.k.Z.Z.V.A c f B U Q ! U L n c r.C.c.b.c.c.W.k.e 0 e 0 ",
"> ; < : $ p 0.3.;.:.{ U 7 Y p.c.E.4X2X4X4Xw.M K } :.<.:.<.<.<.<.2.2.2.2.3.3.3.3.0.0.3.3.3.3.8.8.3.3.3.3.8.8.0.0.0.0.0.0.0.0.0.0.0.0.0.0.q.q.q.q.w.w.q.w.q.q.q.q.e.e.q.q.q.q.e.e.e.e.e.r.r.u.u.u.u.u.u.u.u.u.u.u.u.u.u.u.u.u.p.p.p.p.p.f.f.f.f.f.f.f.g.g.g.g.g.g.k.g.g.j.c.c.k.g.c.c.c.c.c.c.c.c.c.c.c.c.f.f.k.B.V.c.g.j.c.V.B.c.B.B.M.M.M.M.B.B.V.B.B.B.V.V.V.V.V.V.B.V.V.C.C.V.C.V.C.C.V.V.V.V.V.V.V.V.A.A.A.G.G.C.G.G.G.G.F.G.G.G.G.G.G.G.G.J.G.J.G.G.J.J.J.U.G.G.G.G.G.G.L.G.Y.Y.Y.Y.Y.Y.Y.Y.U.G.G.G.J.G.C.c.C.B.B.B.V.A.G.G.B.G.U.Y.J.J.J.G.G.G.J.G.G.G.F.F.G.G.G.G.G.G.G.G.G.G.G.G.V.V.V.C.G.A.A.A.V.V.V.V.V.A.B.B.V.c.g.c.C.V.V.V.B.B.B.B.B.M.c.c.c.M.M.M.c.c.c.c.c.c.c.c.c.c.c.c.c.c.c.c.c.c.k.k.c.c.c.c.c.c.c.c.c.c.c.c.b.h.h.b.g.g.k.&.W q C 3.b.^.4X1X1X4X6.h U :.c.b.M.c.W.k.e q e q ",
"> ; < : $ u 0.3.3.3.u 5 s _ ,.F.[.=X,X4X:XB.} 0 f | r.>.;.6.0.<.<.<.2.2.3.3.3.3.3.3.3.3.3.3.3.3.3.3.3.3.3.8.8.8.0.0.0.0.0.0.0.0.0.0.0.0.q.q.q.q.q.q.q.w.q.q.q.q.e.e.q.q.q.q.e.e.e.e.e.r.e.u.u.u.u.u.u.u.u.u.u.u.u.u.u.u.u.u.p.p.p.p.p.f.f.f.f.f.f.f.g.g.g.g.g.g.k.g.g.j.k.c.j.g.c.c.c.c.c.c.c.c.g.c.c.j.f.f.c.V.M.c.g.j.c.B.B.c.B.B.M.c.c.M.B.B.B.B.B.B.B.V.V.V.B.V.B.V.V.V.C.C.V.V.V.C.V.V.V.C.V.V.V.V.V.A.A.C.C.A.G.G.G.F.G.G.G.G.G.G.G.G.G.G.G.G.G.G.G.J.J.J.G.G.G.G.G.G.G.G.L.L.L.L.L.L.Y.P.G.G.U.U.G.A.B.c.B.B.B.B.V.C.G.G.k.M.C.G.G.J.G.G.G.G.G.G.G.G.F.G.G.G.G.G.G.G.D.D.G.G.G.C.V.V.V.V.A.A.A.V.V.V.V.V.V.G.V.V.V.c.g.c.V.V.V.B.B.B.B.B.B.M.c.c.c.c.c.c.c.c.c.c.c.c.c.c.k.k.k.k.c.c.c.c.c.c.k.j.k.c.c.c.k.k.k.k.c.c.c.c.V.h.c.h.k.V.f.g 1 f ^ g.V./.4X1X-X4Xh.) f r w.f.c.c.W.k.e q e q ",
"> ; < : & p 0.3.3.:.7 s U ..| F.R.:X4X4XR.B.c.U u ! 0.6.>.<.3.<.<.<.2.2.2.3.3.3.3.3.3.3.3.3.3.3.3.3.3.8.3.3.8.8.0.0.0.0.0.0.0.0.0.0.0.0.0.q.q.q.q.q.q.w.q.q.q.q.e.e.q.q.q.q.q.e.q.e.e.r.e.r.r.r.u.u.u.u.u.u.u.u.u.u.u.u.u.u.u.p.p.p.p.f.f.f.f.f.f.f.g.g.g.g.g.g.k.g.g.g.j.j.g.g.c.c.c.c.c.c.c.c.g.c.c.c.g.g.c.c.j.g.f.g.c.B.B.M.B.M.c.c.c.c.B.B.B.B.B.B.B.B.V.V.B.B.V.V.V.C.C.C.V.V.V.C.C.C.C.C.V.V.V.A.V.V.A.A.C.C.G.G.F.G.G.G.G.G.G.G.G.G.G.G.G.G.G.J.J.J.J.J.J.J.J.J.G.G.G.G.J.G.G.G.G.G.G.G.F.U.R.J.V.c.c.B.c.c.M.C.G.F.F.F.c.M.V.G.U.J.G.G.G.G.G.G.G.G.G.G.G.G.G.G.G.C.C.C.G.G.D.C.G.C.C.C.A.A.V.V.V.V.V.V.C.A.C.C.A.c.g.k.V.V.B.B.B.B.B.B.B.M.c.c.c.c.c.c.c.c.c.c.c.c.c.c.k.k.c.c.c.c.c.c.c.c.j.j.j.j.c.c.k.k.c.c.c.c.c.c.c.s.h.h.C.b.0.w l ^ } 3.g.T.4X4X4X}.g.C.Q 0 >.C.c.c.W.k.e q e q ",
"> ; < : & p 0.3.T l q ..p.c.f.j.c. X*X*X=XOXG.q.J M I <.0.:.>.3.<.<.<.2.2.3.3.3.3.3.3.3.3.3.3.3.3.3.3.3.3.3.3.3.0.0.0.0.0.0.0.0.0.8.0.0.0.q.w.w.0.q.q.q.q.q.q.q.e.e.q.q.q.q.q.e.e.e.e.r.e.r.r.r.u.u.u.u.u.u.u.u.u.u.u.u.u.u.u.p.p.p.p.f.f.f.f.f.f.f.g.g.g.g.g.g.g.g.g.g.g.j.g.g.j.j.k.c.c.c.c.c.c.c.B.M.c.g.g.g.g.f.f.g.c.B.B.B.M.M.c.c.M.c.B.B.B.B.B.B.B.B.V.V.V.B.B.V.V.C.C.C.B.V.V.V.C.C.V.V.V.V.V.V.V.A.V.V.A.C.C.G.F.G.F.F.F.G.G.G.G.G.G.G.G.G.G.G.G.G.J.G.G.G.G.G.G.G.G.G.G.G.G.G.G.G.G.G.G.U.Y.G.M.c.c.B.c.c.B.A.G.Y.Y.J.G.G.G.U.Y.G.F.G.G.G.F.F.G.G.G.G.G.G.G.G.C.C.C.V.C.C.C.C.C.C.C.V.V.V.V.V.V.V.V.C.B.V.V.C.A.c.g.k.B.V.B.B.B.B.B.B.B.M.M.c.c.c.c.c.c.c.c.c.k.k.c.k.j.j.k.k.k.k.j.k.c.c.j.j.k.j.c.c.j.j.k.k.k.k.j.h.b.i.g.c.B.^ J r } s.f.C.V.L.OX,X,X4X).^.0.M V ) c.c.W.k.e q w q ",
"> ; < : $ u 0.3.c O q ,.p.M.j.T K Q K W U.1XU.c.) 0 u $.0.>.<.3.,.,.<.2.2.2.3.3.2.3.3.3.3.3.3.3.3.3.3.3.3.3.3.3.0.0.0.0.0.0.0.0.0.0.0.0.0.q.w.w.0.0.q.q.w.q.q.q.q.q.q.q.q.q.q.q.e.e.e.r.r.u.r.r.u.u.u.u.u.u.u.u.u.u.u.u.u.u.u.u.p.p.p.f.f.f.f.f.f.f.g.g.g.g.g.g.g.g.f.g.g.j.j.g.g.g.g.j.k.c.c.c.c.c.c.M.c.c.g.f.g.f.f.g.c.B.B.B.M.c.c.c.c.M.M.B.B.B.B.B.B.B.V.V.B.B.B.B.B.B.B.V.B.B.V.V.V.C.V.V.V.V.V.V.V.A.V.V.A.A.C.G.F.F.G.F.F.F.F.F.F.G.G.G.G.G.G.G.G.J.J.J.G.G.G.G.G.G.G.G.J.J.J.J.G.G.G.G.U.J.G.C.B.B.V.F.A.A.C.G.U.Y.Y.Y.R.J.J.Y.Y.G.C.F.F.G.F.F.G.G.G.G.G.G.G.G.D.D.V.V.C.C.D.V.C.C.V.V.V.V.V.V.V.V.V.C.B.C.B.B.V.c.g.c.V.B.B.B.B.B.B.B.B.M.M.c.M.c.c.c.c.c.c.c.k.k.j.j.j.k.k.k.k.k.k.k.c.k.k.g.j.k.k.c.j.k.k.k.k.k.k.h.b.h.h.g.g.f > w X.g.G.U. .L K L ! ).*XT.c.| q f c.c.U.k.e q w e ",
"> ; < : $ u 0.3.v ; u ~ ..q.g.K h V M c 0./.u.;...0 u $.0.<.0.:.,.,.<.2.2.2.3.3.2.2.3.3.3.3.3.2.3.3.3.3.3.3.3.3.0.0.0.0.0.0.0.0.0.0.0.0.0.q.w.w.0.0.0.q.q.q.q.w.q.q.q.q.q.q.q.q.e.e.e.r.r.u.u.u.u.u.u.u.u.u.u.u.u.u.u.u.u.u.u.u.p.p.p.f.f.f.f.f.f.f.g.g.g.g.g.g.f.f.f.g.g.j.g.g.f.f.g.g.k.c.c.c.k.k.c.c.B.B.c.j.g.g.g.k.c.M.B.M.M.c.c.c.c.M.M.B.B.B.B.B.B.B.B.V.M.M.M.B.B.B.B.B.B.B.B.V.V.C.V.V.V.V.V.V.V.V.V.V.A.A.C.G.G.F.G.F.F.F.F.F.F.G.G.G.G.G.G.G.G.G.J.J.G.G.G.G.G.G.G.G.J.J.J.J.J.J.J.J.Y.G.B.B.A.U.R.E.R.Y.Y.U.Y.Y.Y.Y.R.G.G.U.U.F.C.F.F.G.F.F.G.G.G.G.G.G.G.G.G.C.V.V.C.D.D.C.C.V.V.V.V.V.V.V.V.V.V.C.M.B.B.B.C.c.g.c.V.B.B.B.B.B.B.B.B.M.c.c.M.c.c.c.c.c.c.c.k.j.j.j.j.j.k.k.k.k.k.k.c.k.k.j.j.k.k.c.j.k.k.k.k.k.k.k.s.b.c.f.B.h ; g ^ :.k.g.C N B l D i.L.h.3.) > j c.c.W.k.w q w e ",
"> $ 0 ; h A <.w.l : u ^ ) <.g.C l J A u r.f.:.<.) 0 q <.X.0.3.:.<.<.<.2.2.2.2.2.2.2.3.3.3.3.3.3.3.3.3.3.8.0.0.0.8.3.3.8.0.0.0.0.0.0.0.0.0.q.q.q.0.q.e.q.w.q.q.w.q.q.q.q.q.q.e.u.e.e.e.r.r.u.u.u.u.u.r.u.u.u.u.u.u.u.u.u.u.p.p.p.p.p.p.f.f.f.f.f.f.f.f.f.g.g.g.g.g.f.f.j.c.c.k.f.g.g.g.g.g.k.c.c.c.c.c.c.c.c.c.c.c.j.f.g.c.B.c.c.c.M.B.B.c.c.B.B.M.M.M.M.M.M.M.M.B.B.B.B.B.B.B.B.B.B.V.V.V.C.V.V.V.V.V.A.A.A.A.A.A.A.A.G.G.G.F.G.G.G.G.G.G.G.G.G.G.G.G.G.G.J.J.J.J.J.G.G.G.J.J.J.U.J.G.G.G.Y.Y.R.A.V.B.C.R.R.Y.G.J.U.U.U.U.J.G.G.G.G.G.G.G.G.F.F.G.G.G.G.G.G.G.G.F.F.G.G.G.C.A.A.C.C.C.A.A.A.V.V.V.V.V.V.C.V.V.V.C.M.M.V.B.c.g.c.B.B.B.B.M.M.B.C.V.B.B.c.c.c.c.c.c.c.c.c.c.c.k.k.j.j.j.j.j.j.j.j.j.j.j.j.j.j.j.k.j.j.j.j.k.k.k.k.g.g.B.g.j.h ; f ) _ 3.k.c N A c V y.u.2.:.) q u j.c.R.M.e 7 e e ",
"0 ; 1 q ..0.u.;.h > u W ) 0.r.A c V M h w.f.;...^ 1 0 <.$.<.<.0.<.<.<.2.2.2.2.2.<.2.3.3.3.3.3.3.3.3.3.3.8.8.0.0.3.3.3.8.0.0.0.0.0.0.0.0.0.0.q.q.0.q.q.q.w.q.q.w.q.q.q.q.q.q.e.u.e.e.e.r.r.u.u.u.r.u.r.u.u.u.u.u.u.u.u.u.u.u.p.p.p.p.p.f.f.f.f.f.f.f.f.f.g.f.g.g.g.f.f.g.c.c.j.f.g.g.g.g.g.c.c.c.c.c.c.c.c.c.c.c.B.c.k.c.B.B.M.c.c.M.B.B.c.c.M.B.M.M.M.M.M.M.M.M.B.B.B.B.B.B.B.B.B.B.B.B.V.V.V.V.V.V.V.A.A.A.A.A.A.A.A.G.G.G.F.G.F.F.F.F.G.G.G.G.G.G.G.G.G.G.J.J.J.J.G.G.G.G.J.J.U.J.G.G.G.U.Y.R.G.A.V.F.Y.R.J.F.G.J.J.J.J.G.G.G.G.G.G.G.F.G.F.F.G.G.G.G.G.G.G.G.F.F.G.G.C.C.A.A.C.C.A.A.A.V.V.V.V.V.V.V.C.V.V.V.C.B.B.V.B.c.j.k.B.V.V.B.B.B.B.V.B.B.M.c.c.c.c.c.c.c.c.c.c.c.k.k.j.j.j.j.j.j.j.k.j.j.j.j.j.j.j.k.j.j.j.j.j.k.k.k.M.g.c.g.k.c > s W ) w.j.A c V c V 0.g.3.:.} q u j.c.W.c.e 7 e e ",
"1 ; ; 1 $.w.w.;.l 1 f J U ;.:.^ J K I W w.f.;...| r u 0.3.<.;.3.<.<.<.<.2.2.2.2.<.2.2.2.3.3.3.2.3.3.3.3.8.8.3.8.3.3.3.3.8.8.0.0.0.0.0.0.0.0.0.q.q.w.q.q.q.q.w.q.q.q.q.q.q.q.e.e.e.e.e.u.r.u.u.u.r.r.r.u.u.u.u.u.u.u.u.u.p.p.u.p.p.p.p.f.f.f.f.f.f.f.f.f.f.f.f.g.g.f.g.g.c.c.g.f.g.g.g.g.g.k.c.c.c.c.c.c.c.c.c.c.B.M.c.M.B.B.c.c.c.c.M.M.c.c.B.B.B.B.B.B.B.B.B.B.B.B.B.B.B.B.B.B.B.B.B.B.B.B.B.B.V.V.V.V.A.A.V.A.A.A.A.G.C.G.F.G.G.G.F.F.F.F.G.G.G.G.G.G.G.G.G.G.J.G.G.G.J.J.J.J.J.G.G.G.G.G.U.Y.G.G.G.G.U.J.G.G.G.G.G.G.G.G.F.F.F.G.F.F.G.F.F.G.G.G.G.G.G.G.G.G.G.G.G.G.A.A.A.A.A.A.A.V.A.V.V.V.V.V.V.V.V.V.V.C.V.B.B.V.B.c.j.k.B.V.C.V.B.B.B.B.c.c.c.c.c.c.c.c.c.c.c.c.c.k.k.k.j.j.j.j.j.j.k.k.j.j.j.j.j.j.k.k.j.j.j.j.j.j.k.k.M.g.c.g.g.c > u U ~ ,.8.Q G J A Q 3.f.:...( 5 u j.c.R.c.e 0 e e ",
"1 0 1 > | :.0.r.f ; 0 r f C U <.u.u.u.r...^ M c c $ 5 X.<.0.:.3.<.,.<.<.<.2.2.2.<.<.<.2.3.3.3.2.3.3.3.3.3.3.3.3.3.3.3.3.3.8.8.8.0.0.0.0.0.0.0.0.q.w.q.w.q.q.q.q.q.q.q.q.q.q.q.e.e.e.e.r.r.u.u.u.r.r.r.u.u.u.u.u.u.u.u.u.u.p.p.p.p.p.p.f.f.f.f.f.f.f.f.f.f.f.f.f.g.f.g.g.c.c.g.f.g.g.g.g.g.j.c.c.c.c.c.c.c.c.c.c.c.c.c.c.c.c.c.c.c.c.M.M.c.c.M.B.B.B.B.B.B.B.B.B.M.M.M.M.M.M.B.B.M.M.M.B.B.B.B.B.V.V.V.V.V.V.V.V.A.A.A.G.C.G.G.G.A.C.C.G.G.F.G.G.F.F.G.G.G.G.G.G.G.G.G.G.G.G.G.G.G.G.G.G.F.G.G.J.G.G.J.J.G.G.F.F.G.G.G.G.G.F.G.G.F.F.G.G.G.G.G.G.C.C.C.C.A.A.A.C.G.C.G.C.A.A.A.A.V.V.V.V.V.V.V.C.V.V.V.V.V.V.V.V.C.V.V.B.B.c.k.j.M.B.V.B.B.M.M.M.c.c.M.B.M.c.c.k.c.c.c.c.c.k.j.j.g.j.g.g.g.g.j.j.g.j.g.g.g.g.j.j.g.g.g.g.g.g.j.j.g.g.M.c.u.l > e s h G ^ w.u.j.g.f.-.Q u e s $ c j.k.Y.k.e 0 e e ",
"1 0 1 > ;.0.<.3.V 5 1 5 q f A u.0.3.r.w.K V q r ; 1 c $.<.3.<.<.,.,.,.<.<.<.2.2.<.,.,.2.3.3.3.2.3.3.3.3.3.3.3.3.3.3.3.8.3.3.8.8.0.0.0.0.0.0.0.0.q.q.w.q.0.q.q.r.q.w.q.q.w.q.q.e.e.e.e.r.r.u.u.u.u.u.u.u.u.u.u.u.u.u.u.u.u.u.u.u.p.p.p.f.f.f.f.f.f.f.f.f.f.f.f.f.f.g.g.g.g.g.g.f.g.g.g.g.g.j.j.c.c.c.c.c.c.c.c.c.g.k.c.c.c.c.c.c.c.c.M.c.c.c.M.B.B.B.B.B.B.B.B.B.M.M.M.M.M.M.M.B.M.M.M.M.B.B.B.B.V.V.C.V.V.V.V.V.A.A.C.G.C.G.F.F.A.C.C.G.G.F.G.G.F.F.G.G.G.G.G.G.G.G.G.G.G.G.G.G.F.F.G.G.G.G.G.G.G.F.G.G.F.G.F.G.F.F.F.F.F.F.G.G.G.G.G.G.C.C.A.A.A.A.C.C.C.C.C.C.G.A.A.A.A.A.A.A.V.V.V.V.V.V.C.C.V.V.V.V.V.B.B.B.B.V.V.B.M.c.c.k.c.c.B.B.M.c.c.c.c.c.M.B.B.M.c.c.c.c.c.c.k.k.j.j.g.g.g.g.j.j.j.j.g.g.g.g.j.j.j.j.g.g.g.g.g.g.g.j.j.g.c.c.p.G 5 1 q q h A q.u.u.e.3.U K h u 5 = N j.j.J.j.e 0 e e ",
"; 1 ; ; $.3.<.<.Q h 1 0 f h C ;.r.<.3.<.J C r 0 > A $.0.<.:.;.<.,.,.,.,.<.<.<.<.2.<.,.2.3.0.3.3.3.3.3.3.3.3.3.3.3.3.3.3.3.3.3.3.8.0.0.0.0.0.0.0.q.q.w.q.0.q.q.u.w.w.q.q.w.q.q.q.e.e.e.r.e.u.u.u.u.r.u.u.u.u.u.u.u.u.u.u.u.u.u.u.p.p.p.f.f.f.f.f.p.f.f.f.f.f.f.f.f.f.g.g.g.g.g.f.g.g.g.g.g.g.g.k.k.k.k.c.c.c.c.c.g.j.c.c.c.c.c.c.c.c.c.c.c.c.M.B.M.M.M.M.M.M.B.B.c.c.c.c.c.c.c.M.M.M.M.B.B.B.B.B.V.V.C.C.V.V.V.V.A.A.C.G.G.G.F.F.G.G.F.F.F.F.G.G.F.F.G.G.G.G.G.G.G.G.G.G.G.G.G.G.F.F.G.G.G.G.G.F.G.G.F.F.G.G.G.G.F.F.F.F.F.F.G.C.C.C.C.A.A.A.A.A.A.A.A.A.A.A.A.A.A.A.A.V.A.A.A.A.V.V.C.C.C.V.V.V.V.V.V.V.B.B.B.B.B.V.V.B.M.B.c.c.g.c.c.B.M.c.c.c.c.c.M.B.B.M.c.c.c.c.c.c.c.k.j.g.g.g.g.g.g.g.g.g.g.g.g.g.g.g.g.g.g.g.g.g.g.g.g.g.B.j.g.k.j.| h = < q k A :.,.,.<.$.J M q > > A r.j.j.J.l.q q e e ",
"1 0 5 1 ..<.w.r.Q M > > 0 0 f M f r f f 5 r 5 > ; K :.<.:.;.:.3.,.,.,.,.,.<.<.<.3.2.,.3.0.0.0.3.3.3.3.3.3.3.3.3.3.3.3.3.3.8.3.3.8.8.0.0.0.0.0.0.q.q.q.0.0.q.e.u.w.w.q.q.w.q.q.q.e.e.q.e.e.r.u.u.u.u.u.u.u.u.u.u.u.u.u.u.u.u.u.u.p.p.p.f.f.f.f.f.p.p.f.f.f.f.f.f.f.f.g.g.g.g.g.g.g.g.g.g.g.g.g.g.g.g.k.k.k.c.c.c.c.c.k.k.c.c.c.c.c.c.c.M.c.c.c.M.c.c.c.c.c.c.c.c.c.c.c.c.c.c.c.c.B.B.B.B.B.B.B.B.V.C.V.C.C.V.V.V.A.A.C.G.G.G.F.F.F.G.F.F.G.G.G.G.F.F.G.G.G.G.G.G.G.G.G.G.G.G.G.G.F.G.G.G.G.G.F.F.G.G.F.F.F.G.G.G.G.G.G.G.F.F.G.G.A.A.A.A.A.A.V.V.V.V.V.V.A.A.A.V.A.A.A.V.A.A.A.A.V.C.C.V.V.V.B.B.V.V.V.B.B.B.B.B.c.B.V.B.M.B.B.c.f.j.c.B.B.M.c.c.c.c.c.M.M.c.c.c.c.c.c.c.c.k.j.j.g.g.g.g.g.g.g.g.g.g.g.g.g.g.g.g.g.g.g.g.g.g.g.g.c.k.g.g.g.,.C < > 5 q e c s e u h u e 5 > 5 ..p.k.j.J.l.e q r e ",
"< > > 5 $.3.0.;.Q I r 1 > > u q q 0 u 0 > 0 5 1 j ^ :.:.0.3.:.:.,.,.,.,.,.<.<.<.3.2.<.3.0.q.0.3.3.3.3.3.3.3.3.3.3.3.3.3.3.3.3.3.8.8.8.0.0.0.0.0.q.q.q.0.0.q.e.u.w.q.q.q.q.q.q.e.q.q.q.e.e.r.u.u.u.u.u.u.u.u.u.u.u.u.u.u.u.u.u.u.p.p.p.f.f.f.f.f.p.p.p.f.f.f.f.f.f.f.g.g.f.f.f.f.g.g.g.j.g.g.g.g.g.g.g.j.k.k.c.c.c.c.g.g.g.j.j.g.c.c.M.M.c.c.c.M.c.c.c.c.c.c.c.c.c.c.c.c.c.c.c.c.B.B.B.B.B.B.B.B.V.V.V.V.C.V.V.V.A.A.C.G.G.G.F.F.G.G.G.G.G.G.G.G.F.F.F.G.G.G.G.G.G.G.G.G.G.G.G.G.G.G.G.G.G.G.F.F.Y.J.G.G.G.G.G.F.G.G.G.G.G.G.G.G.A.A.V.V.V.V.V.V.V.V.V.V.A.A.A.V.A.A.A.A.A.A.A.A.V.V.V.V.V.B.B.B.V.V.V.B.B.B.B.B.c.B.V.M.M.V.B.c.f.j.c.B.B.B.M.M.c.c.c.c.c.c.c.c.c.c.c.k.c.k.j.j.g.g.g.g.g.g.g.g.g.g.g.g.g.g.g.g.g.g.g.g.g.g.g.g.p.k.c.l.e.:.K e < < < 5 u u q e 5 5 > ; 7 c r.p.k.j.J.l.e q r e ",
"5 5 ; $ ;.q.<.w...W C j w 1 1 q r 1 1 q 5 $ 5 c | $.:.<.<.<.<.3.,.,.,.,.,.<.<.<.2.2.3.3.3.3.3.3.3.3.3.3.3.3.3.3.3.3.3.3.8.8.0.0.3.0.0.0.8.q.w.q.e.0.3.3.3.0.w.q.q.w.w.q.w.q.e.r.e.e.e.r.e.r.r.u.u.u.u.u.u.u.u.u.u.u.u.u.u.u.u.u.u.u.u.p.p.p.p.p.f.f.f.f.f.f.f.f.g.g.g.g.g.g.g.g.g.g.g.g.g.g.j.j.j.j.j.g.g.j.k.c.c.c.c.c.c.c.c.c.c.c.c.c.c.c.M.B.c.c.c.c.c.c.c.c.c.c.c.c.c.c.c.c.M.M.M.B.B.B.B.B.B.B.B.V.V.C.V.V.G.V.V.G.G.F.B.k.A.Y.R.U.F.G.G.G.G.G.G.G.G.G.G.G.G.G.G.J.G.G.G.G.F.F.F.G.F.F.F.F.G.G.G.G.G.G.F.F.G.G.F.F.F.G.C.C.C.C.C.A.A.A.V.V.V.V.V.V.V.V.V.V.V.V.V.V.V.V.V.V.V.V.V.V.C.C.V.V.B.V.B.B.B.B.B.M.B.B.B.M.M.B.c.c.f.j.c.B.B.c.c.c.c.c.c.c.c.c.c.c.c.k.j.j.c.c.j.g.g.g.g.g.g.g.g.g.j.j.g.g.g.g.g.g.g.g.g.g.g.g.g.g.g.j.g.g.g.e...K M 0 > 5 5 5 5 5 < 5 5 q A $.u.f.j.g.J.g.0 0 e e ",
"5 8 5 1 $.<.<.<.3...Q A h 1 ; ; ; ; > 1 $ ; l ^ X.;.:.<.:.:.<.<.,.,.,.,.,.,.<.<.2.2.2.3.3.3.3.3.3.3.3.3.3.3.3.3.3.3.3.3.3.8.0.0.3.0.0.0.0.q.w.0.w.0.3.3.0.q.w.q.w.w.q.q.q.q.e.r.r.r.e.r.e.r.r.r.u.u.u.u.u.u.u.u.u.u.u.u.u.u.u.u.u.u.u.u.u.u.p.p.f.f.f.f.f.f.f.f.g.g.g.g.g.g.g.g.g.g.g.g.g.g.j.j.g.g.j.j.g.k.c.c.c.c.c.c.c.c.c.c.c.c.c.c.c.c.M.M.c.c.c.c.c.c.c.c.c.c.c.c.c.c.M.c.M.M.M.B.B.B.B.B.B.B.B.V.V.C.V.V.G.V.V.G.G.F.B.c.c.V.G.G.G.G.G.G.G.G.G.F.F.G.G.G.F.G.G.G.G.G.F.G.F.F.F.F.F.F.F.F.G.G.G.G.G.F.F.F.G.G.F.G.G.G.C.C.C.C.A.A.A.V.V.V.V.V.V.V.V.V.V.V.V.V.V.V.V.V.V.V.V.V.V.V.C.V.V.V.B.B.B.B.B.B.B.M.M.B.B.M.M.B.c.k.f.j.c.B.M.c.c.c.c.c.c.c.c.c.c.c.c.j.j.j.k.c.j.g.g.g.j.g.g.g.g.g.j.j.g.g.g.g.g.g.g.g.g.g.g.g.g.g.f.l.g.g.l.g.3.| I f 5 1 > > < > > $ > c } q.g.f.j.l.J.g.q 0 e e ",
"1 , 5 5 Q ..0.<.0.:...Q C r 1 1 > 1 5 1 > q K ;.;.:.<.<.:.:.:.<.,.,.,.,.,.,.,.<.2.2.2.2.2.3.3.3.3.3.3.3.3.3.3.3.3.3.3.3.3.8.0.8.3.0.0.8.0.q.q.0.0.8.3.8.0.q.w.q.q.q.q.q.q.e.q.q.e.e.e.r.e.r.u.r.u.u.u.u.u.u.u.u.u.u.u.u.u.u.u.u.u.u.u.u.u.p.p.p.f.f.f.f.f.f.f.f.g.g.g.g.g.g.g.g.g.g.g.g.g.g.g.g.g.g.g.g.g.k.c.c.c.c.c.c.c.c.c.k.c.c.c.c.c.c.c.c.c.c.c.c.c.c.c.c.c.c.c.c.c.c.c.M.M.M.B.B.B.B.B.B.B.B.B.V.V.C.V.V.C.V.V.G.G.F.V.c.c.c.B.V.G.Y.Y.G.G.G.F.F.F.F.F.G.F.F.G.G.F.G.G.C.F.F.F.F.G.G.G.G.F.F.G.G.F.F.F.F.G.G.F.F.G.C.C.C.A.A.A.V.A.V.V.V.C.C.V.V.C.V.V.V.V.V.V.V.V.V.V.V.V.V.V.C.V.V.B.B.B.B.B.B.B.B.M.M.M.B.B.c.M.B.c.c.f.j.c.B.c.c.c.c.c.c.c.c.c.c.c.c.c.j.g.g.k.k.j.g.g.g.j.g.g.g.g.g.g.g.g.g.g.g.g.g.g.g.g.g.g.g.g.g.f.g.g.g.j.k.f.q.} V q 5 > ; > > 5 > u ( u.g.g.g.j.l.J.l.q 0 e e ",
"1 ; 1 > A ) k.u.<.:.;...W V l l h h f f c I } ;.:.>.<.>.:.:.>.<.,.,.,.,.,.,.,.,.<.2.2.2.2.2.2.2.3.3.2.2.3.3.3.3.3.3.3.3.3.3.3.0.3.0.0.8.0.w.0.3.3.3.8.0.w.w.q.0.q.q.q.q.q.q.q.e.e.e.e.r.e.r.u.u.u.u.u.u.u.u.u.u.u.u.u.u.u.u.u.u.u.u.u.u.u.p.p.p.p.p.f.f.f.f.f.f.f.f.f.f.f.f.f.f.f.g.g.g.g.g.g.g.g.g.g.g.g.k.c.c.k.k.k.k.c.k.c.k.c.c.c.c.c.c.c.c.c.c.c.c.c.c.c.c.c.c.c.c.c.c.c.c.c.c.M.B.M.B.B.B.B.B.B.V.V.C.V.V.C.V.V.A.F.G.V.M.c.M.B.V.C.G.J.J.G.G.F.F.F.F.G.G.G.G.G.G.F.G.C.C.G.G.G.G.G.G.G.G.G.G.F.G.G.G.G.G.F.F.F.G.C.A.C.V.V.V.V.V.V.V.V.C.V.V.V.V.V.V.V.V.V.C.C.C.C.C.C.C.V.C.C.C.B.B.B.B.B.B.B.B.B.B.M.c.c.B.B.c.M.B.c.c.f.j.M.B.c.c.c.c.c.c.c.c.k.k.c.c.k.j.g.j.k.k.j.g.g.g.j.g.g.g.g.g.g.g.g.g.g.g.g.g.g.g.g.g.g.g.g.g.g.g.g.f.g.j.j.f.u.| K C M M N v h m ( q.c.u.u.c.l.l.J.l.q 0 e e ",
"5 > 0 1 V } W.B.:.<.<.;.} W I U I L K L ^ $.>.:.:.>.>.:.:.:.<.<.,.,.,.,.,.,.,.,.<.<.<.<.2.2.2.2.3.2.2.2.2.3.3.3.3.3.3.3.3.3.3.3.3.8.0.8.0.w.0.3.2.3.0.w.q.w.q.0.q.q.q.q.q.q.q.q.e.e.e.r.r.u.u.u.u.u.u.u.u.u.u.u.u.u.u.u.u.u.u.u.u.u.u.u.u.u.u.u.p.p.p.f.f.f.f.f.g.f.f.f.f.f.f.f.f.f.f.f.g.g.g.g.g.g.g.g.g.j.k.c.g.g.j.j.k.k.c.c.c.c.c.c.c.c.c.c.c.c.c.c.c.c.c.c.c.c.c.c.c.c.c.c.c.M.M.B.M.M.B.B.B.B.B.V.V.C.V.V.C.V.V.C.F.G.A.V.B.B.B.B.c.M.A.J.G.G.G.G.F.F.G.G.G.G.G.G.G.F.G.C.G.G.G.G.G.G.C.G.G.G.G.G.G.G.F.G.G.G.G.A.A.A.A.A.V.V.V.V.V.V.V.V.V.V.V.V.V.V.V.V.V.V.C.C.C.C.V.V.V.B.B.B.B.B.B.B.B.B.B.B.B.B.M.c.c.M.M.c.M.B.c.c.f.j.c.c.c.c.c.c.c.c.c.c.c.c.c.c.c.j.g.j.j.k.g.g.j.j.j.g.g.g.g.g.g.g.g.g.f.f.f.f.g.g.g.g.g.g.g.g.g.l.l.g.f.g.g.g.u.&.) ^ ~ ~ ~ Q Q #.w.c.j.u.p.c.g.g.J.l.e q e e ",
"1 1 0 5 V ) E.B.:.>.<.>.$.....$.| X.X.| | ;.>.>.:.:.:.:.:.:.<.<.:.,.,.,.,.,.,.,.,.<.,.<.<.<.2.2.2.2.2.2.2.3.3.3.3.3.3.3.3.3.3.3.3.8.8.8.0.q.0.2.2.3.0.q.w.q.0.0.0.q.q.e.e.q.q.q.e.e.e.r.r.u.u.u.u.u.u.u.u.u.u.u.u.u.u.u.u.u.u.u.u.u.u.u.u.u.u.u.u.p.p.p.f.f.f.f.f.f.f.f.f.f.f.f.f.f.f.f.f.f.g.g.g.g.g.g.g.g.g.j.g.g.g.j.j.k.k.c.c.c.c.c.c.c.c.c.c.c.c.c.c.c.c.c.c.c.c.c.c.c.c.c.c.c.M.M.M.M.M.M.B.B.B.V.V.C.V.V.C.A.V.A.G.F.C.V.G.G.C.C.M.c.C.J.G.G.G.F.F.F.F.G.G.G.G.G.G.F.F.G.C.C.C.C.C.C.A.A.G.G.G.G.G.G.G.G.G.G.A.A.V.V.V.V.V.V.C.C.V.V.V.V.B.V.B.B.B.B.B.B.V.V.V.V.V.V.V.V.B.B.B.B.B.B.B.B.B.B.B.B.B.M.c.c.c.c.c.c.c.B.c.c.g.g.c.c.c.c.c.c.c.c.c.c.k.k.c.c.c.j.g.j.j.j.g.g.j.j.j.g.g.g.g.g.g.g.f.f.f.f.f.f.f.f.f.f.f.f.f.f.f.g.g.l.g.g.l.g.M.u.r.u.u.u.p.e.q.u.g.g.g.g.g.f.g.g.J.l.e 0 e e ",
"1 5 5 1 V ^ R.g.;.;.:.:.:.:.<.<.:.<.<.:.=.$.;.:.:.:.:.:.:.:.:.:.:.:.,.,.,.,.,.,.,.,.<.,.,.<.<.<.2.2.2.2.2.2.3.3.3.3.3.3.3.3.3.3.3.8.8.8.q.q.0.<.3.8.q.q.q.0.0.0.0.q.q.e.e.q.q.q.e.e.e.r.r.u.u.u.u.u.u.u.u.u.u.u.u.r.u.u.u.u.u.u.u.u.u.u.u.u.u.u.u.u.p.p.p.f.f.f.f.f.f.f.f.f.f.f.f.f.f.f.f.f.f.f.j.g.g.g.g.g.g.g.g.g.g.g.j.k.c.c.k.k.c.c.c.c.c.c.c.c.c.c.c.c.c.c.c.c.c.c.c.c.c.c.c.c.c.c.c.M.M.M.B.B.B.V.V.C.V.V.A.A.V.A.C.G.G.G.U.G.G.F.C.C.C.U.F.F.F.G.G.G.G.F.F.F.F.G.G.F.F.G.C.A.A.A.A.A.A.A.A.C.C.C.A.A.A.A.C.C.A.A.V.V.C.C.C.C.C.V.V.V.B.B.B.B.B.B.B.B.B.B.V.B.B.B.B.B.B.B.B.B.B.B.B.B.M.M.M.B.B.B.B.B.M.c.c.M.c.c.c.B.c.c.g.g.g.c.c.c.c.k.c.c.c.c.k.k.c.c.k.j.g.g.j.j.g.g.g.j.g.g.g.g.g.g.f.f.f.f.f.f.f.f.f.f.f.g.f.g.f.f.g.g.g.g.g.g.g.g.k.p.f.j.g.g.k.g.j.g.f.f.g.k.g.f.g.g.J.j.e q e 0 ",
"5 0 5 > N ) E.k.:.:.:.;.;.;.;.;.$.;.:.<.3.<.:.:.:.:.:.:.:.:.:.;.:.:.:.,.,.,.,.,.,.,.,.<.,.,.<.<.2.2.2.2.2.2.3.3.3.3.3.3.3.3.3.3.3.8.3.8.q.q.0.,.3.0.w.q.0.0.0.0.0.q.q.e.r.e.q.w.e.e.e.r.r.u.u.u.u.u.u.u.u.u.u.u.r.r.u.u.u.u.u.u.u.u.u.u.u.u.u.u.u.u.u.p.p.f.f.f.f.f.f.f.f.f.f.f.f.f.f.f.f.f.f.g.c.j.g.g.g.g.g.g.g.g.g.g.g.g.c.c.k.k.c.c.c.c.c.c.c.c.c.c.c.c.c.c.c.c.c.c.c.c.c.c.c.c.c.c.c.M.M.M.B.B.B.V.V.C.V.V.A.A.V.A.C.G.G.G.G.V.V.F.G.G.C.F.G.C.A.A.A.A.A.G.C.C.G.F.F.F.G.G.C.C.A.A.A.A.A.A.A.C.C.C.A.A.A.C.C.C.A.V.V.V.C.C.C.C.V.V.V.B.B.B.B.B.B.B.B.B.B.B.B.B.B.B.V.V.B.B.B.B.M.M.B.M.M.M.M.B.B.B.B.M.c.c.c.c.c.c.c.B.c.c.j.g.g.k.c.M.c.j.c.c.c.k.k.k.k.c.k.j.g.g.j.j.g.g.g.g.g.g.g.g.g.g.f.f.f.f.f.f.f.f.f.f.f.g.g.g.f.f.g.g.g.g.g.g.f.g.c.g.j.k.f.g.c.k.h.g.f.g.g.f.f.g.g.g.J.j.e q e 0 ",
"5 1 0 1 M ^ R.k.;.;.;.;.;.:.;.:.;.:.:.;.:.:.;.:.:.:.:.;.;.;.:.:.:.:.:.,.,.,.,.,.,.,.,.<.<.2.2.2.2.2.2.2.2.3.3.3.3.3.3.3.3.3.3.3.3.3.3.8.0.0.0.q.3.3.8.q.q.8.8.q.3.0.q.e.q.q.q.w.e.e.e.e.r.u.u.u.e.e.r.u.u.u.u.u.u.u.u.u.u.u.u.u.u.u.u.u.u.u.u.u.u.u.u.u.u.p.f.f.f.f.f.f.f.f.f.f.f.f.f.f.f.g.g.g.j.j.g.g.g.g.j.j.g.g.g.g.g.g.j.j.g.g.k.k.k.j.c.c.c.c.c.c.c.c.c.c.c.c.c.c.c.c.c.c.c.c.c.c.c.M.M.M.B.B.B.B.C.V.V.A.V.V.A.A.A.G.C.C.G.G.G.F.F.G.G.G.G.G.F.F.F.G.G.G.G.G.A.A.C.G.G.G.G.A.A.V.V.A.A.C.V.V.A.A.A.C.C.C.A.A.A.V.V.A.V.V.V.C.C.V.V.V.B.B.B.B.B.B.B.B.B.B.B.B.B.B.B.V.V.V.B.B.B.B.B.B.M.c.B.B.B.M.M.M.c.M.c.c.c.c.c.c.c.c.j.g.g.j.c.M.c.g.c.c.c.k.k.j.j.j.j.j.j.g.g.g.g.g.g.g.g.g.g.f.f.f.f.f.f.g.g.g.f.f.f.f.f.f.f.f.f.f.f.f.f.f.f.f.f.g.g.g.g.g.g.g.g.g.g.s.s.g.h.g.g.g.k.r.C.h.w r 1 7 ",
"5 1 0 1 M ^ W.k.;.;.;.;.:.:.:.:.;.:.:.;.;.:.:.:.:.:.:.;.;.:.:.:.:.:.:.,.,.,.,.,.,.,.,.<.<.<.2.2.2.2.2.2.2.2.3.3.3.3.3.3.3.3.3.3.3.3.3.3.0.0.0.q.3.3.8.q.q.q.0.q.3.0.q.e.q.q.q.w.e.e.e.e.r.r.u.u.e.e.r.u.u.u.u.u.u.u.u.u.u.u.u.u.u.u.u.u.u.u.u.u.u.u.u.u.u.u.f.f.f.f.f.f.f.f.f.f.f.f.f.f.f.f.g.g.g.g.g.g.g.g.g.g.g.g.g.g.g.g.j.j.g.g.c.j.j.j.k.c.c.c.c.c.c.c.c.c.c.c.c.c.c.c.c.c.c.c.c.c.c.M.M.M.B.B.B.B.C.V.V.V.V.V.V.A.A.A.C.C.G.G.G.F.F.G.G.G.A.C.G.G.G.G.G.C.G.G.G.A.C.G.G.G.G.A.V.A.V.V.A.C.V.V.A.A.A.A.C.C.A.A.A.A.V.V.V.V.V.V.V.V.V.B.B.B.B.B.B.B.B.B.B.B.B.B.B.B.B.B.V.V.B.B.B.B.B.B.M.c.B.B.M.M.M.c.c.c.c.c.c.c.c.c.c.c.g.g.g.c.c.c.c.k.c.k.c.k.k.j.j.j.j.j.g.g.g.g.g.g.g.g.g.g.g.f.f.f.f.f.f.f.g.g.f.f.f.f.f.f.f.f.f.f.f.f.f.f.f.f.f.g.g.g.g.g.g.g.g.g.g.d.d.g.h.g.g.g.g.g.W.M.0 q 0 z ",
"1 1 0 < M ^ W.k.;.;.;.;.;.;.;.;.:.:.:.:.:.:.:.:.:.:.:.:.:.:.:.:.:.:.:.,.,.,.,.,.,.,.,.,.<.<.<.2.2.2.2.2.2.2.2.3.3.3.3.3.3.3.3.3.3.3.3.3.3.0.0.0.0.3.3.q.r.e.q.q.3.0.q.q.q.q.q.w.e.e.q.q.r.r.r.u.e.e.e.e.r.u.u.u.u.u.r.u.u.u.u.u.u.u.u.u.u.u.u.u.u.u.u.u.u.p.p.f.f.f.f.f.f.f.f.f.f.f.f.f.f.f.f.g.f.f.f.g.g.g.g.g.g.g.g.g.g.g.g.g.g.j.k.k.j.g.k.c.k.k.k.k.k.j.c.c.c.c.c.c.c.c.c.c.c.c.c.c.c.M.M.M.B.B.B.B.V.C.V.V.V.V.V.V.V.A.A.A.C.G.G.G.G.G.G.C.C.V.V.A.C.C.C.C.G.G.G.G.C.C.A.A.A.A.V.V.V.V.A.A.V.V.A.A.V.A.A.A.V.V.V.V.V.V.V.C.V.V.V.B.B.B.B.B.B.B.B.B.B.B.B.B.B.B.B.B.B.B.B.B.B.B.B.B.B.B.c.c.M.M.M.c.c.c.c.c.c.c.c.c.c.c.c.c.f.g.j.c.c.c.c.c.k.k.k.j.k.j.g.j.j.g.g.g.g.g.g.g.g.g.g.g.f.f.f.f.f.f.f.f.g.g.g.f.f.f.f.f.f.f.f.f.g.g.f.f.f.f.f.f.g.g.g.f.g.f.f.f.g.g.g.g.g.g.g.g.B.k.C.l.q f 1 7 ",
"1 1 7 < M ^ W.h.;.;.;.;.=.=.=.=.:.:.:.:.:.:.:.:.:.:.:.:.:.:.:.:.:.:.:.,.,.,.,.,.,.,.,.,.,.<.<.<.<.<.2.2.2.2.2.2.2.2.3.3.3.3.3.3.3.3.3.3.3.8.0.0.q.3.2.3.q.q.q.q.8.0.q.q.q.q.w.w.q.q.e.e.e.r.r.r.q.q.e.e.e.r.u.u.r.r.r.u.u.u.u.u.u.u.u.u.u.u.u.u.u.u.u.u.u.p.p.p.p.p.p.p.p.p.p.p.f.f.f.f.f.g.f.f.f.f.f.f.g.g.g.g.g.g.g.g.g.g.g.g.g.g.j.j.g.g.j.c.k.k.k.k.c.c.c.c.c.c.c.c.c.c.c.c.c.c.c.c.c.M.M.M.B.B.B.B.V.V.V.V.C.V.V.V.V.A.V.V.C.C.G.G.G.G.C.C.V.V.V.A.C.G.G.G.A.C.G.G.G.C.A.A.V.A.V.V.V.V.V.V.C.V.V.V.V.V.V.V.V.V.V.V.V.C.C.V.B.B.B.B.B.B.B.B.M.M.M.M.B.B.B.M.M.B.B.B.B.B.B.B.M.B.B.B.B.B.c.c.c.c.c.c.c.c.c.c.c.c.c.c.c.c.c.c.g.g.c.c.c.c.c.c.k.k.k.j.k.j.g.g.g.g.g.g.g.g.g.g.g.g.g.g.f.f.f.f.f.f.f.f.f.f.f.f.f.f.f.f.f.f.f.f.f.f.f.f.f.f.f.f.g.g.g.f.f.f.f.g.g.g.g.g.g.f.g.h.w.h.W.k.q e 1 f ",
"1 < 7 < M ^ W.h.;.;.;.;.=.=.=.=.:.:.:.:.:.:.:.:.:.:.:.:.:.:.:.,.:.:.,.,.,.:.,.,.,.,.,.,.,.,.<.<.<.<.<.2.2.2.2.2.2.2.2.3.3.3.3.3.3.3.3.3.3.3.0.0.u.8.,.2.8.0.w.q.0.0.0.w.q.q.q.q.q.q.q.e.e.e.r.r.e.e.e.r.e.e.u.r.r.r.r.u.u.u.u.u.u.u.u.u.u.u.u.u.u.u.u.u.u.u.u.u.p.p.p.p.f.f.p.p.f.f.f.f.f.f.f.f.f.f.f.g.g.g.j.g.g.g.g.g.g.g.g.g.g.g.g.g.g.g.j.c.k.k.c.c.c.c.c.c.c.c.c.c.c.c.c.c.c.c.c.M.M.B.M.M.B.B.B.B.B.V.V.V.C.V.C.C.V.V.V.V.A.A.G.C.C.A.A.A.C.V.A.C.G.G.G.G.A.A.G.C.G.A.V.V.V.V.C.C.C.C.V.V.C.C.C.V.V.V.V.V.V.V.V.V.V.V.V.V.B.B.B.B.B.B.B.B.M.M.M.M.B.B.M.M.M.M.M.M.B.B.B.B.M.M.B.B.B.B.M.c.c.c.c.c.c.c.c.c.c.c.c.c.c.c.c.c.g.k.c.c.c.c.k.k.k.c.c.j.c.k.j.j.g.g.g.g.g.g.g.g.g.g.f.f.f.f.f.f.f.f.f.f.f.f.f.f.f.f.f.f.f.f.f.f.f.f.f.f.f.f.f.f.f.f.f.f.f.g.f.f.g.g.g.g.g.f.g.k.r.0.f.>.e w < e ",
"1 < 7 < M ^ W.h.;.;.;.;.=.=.=.=.:.:.:.:.:.;.;.;.:.:.:.:.:.:.:.,.,.,.,.,.,.,.:.:.,.,.,.,.,.,.,.,.<.<.<.<.2.2.2.2.2.2.2.2.3.3.3.3.3.3.3.3.3.3.0.0.u.0.2.2.3.3.0.q.0.0.0.q.q.e.q.q.q.q.q.q.e.e.e.e.q.e.e.e.e.e.e.e.r.u.r.u.u.u.u.u.u.u.u.u.u.u.u.u.u.u.u.u.u.u.u.u.u.u.u.u.p.p.u.u.p.f.f.f.f.f.f.f.f.f.f.g.g.g.g.g.f.g.g.g.g.g.g.g.g.g.g.g.g.g.g.k.k.k.c.c.c.c.c.c.c.c.c.c.c.c.c.c.c.c.c.M.M.B.M.M.B.B.B.B.B.V.V.V.V.V.V.C.C.C.V.V.V.V.A.C.A.A.V.V.V.V.V.C.A.C.C.C.A.A.C.C.G.A.V.V.V.C.V.V.V.V.C.V.V.V.V.C.C.C.V.V.V.V.V.V.V.B.B.B.B.B.B.B.B.M.M.M.c.c.c.c.M.M.c.c.c.M.c.M.M.M.B.B.M.M.M.M.M.M.c.c.c.c.c.c.c.c.c.c.c.c.c.c.c.c.c.c.g.j.k.c.c.c.j.g.c.c.c.k.c.k.k.j.g.g.g.g.g.g.g.g.f.f.f.f.f.f.f.f.f.f.f.f.f.f.f.f.p.p.p.p.p.p.p.p.f.f.f.f.f.f.f.f.f.f.f.f.f.f.g.f.g.g.g.g.f.f.g.c.V $ ; ; : f w 0 ",
"1 < 3 > v ^ U.h.=.=.=.=.=.=.=.=.;.;.;.;.&.&.&.&.:.;.;.:.:.:.:.,.,.,.,.,.,.,.,.,.,.,.,.,.,.,.,.,.<.<.<.<.<.2.2.2.2.2.2.2.2.3.3.3.3.3.3.3.3.3.3.0.q.0.0.0.0.3.3.0.0.0.0.0.q.e.q.w.q.q.q.q.e.e.r.r.q.q.e.e.e.r.e.e.u.u.u.u.u.u.u.u.u.u.u.u.u.u.u.u.u.u.u.u.u.u.u.u.u.u.u.u.p.p.p.u.p.p.f.f.f.f.f.f.f.f.f.f.g.g.f.f.f.f.g.g.g.g.g.g.f.g.g.g.g.g.g.j.g.g.j.k.c.c.c.c.c.c.c.c.c.c.c.c.c.c.c.M.M.M.M.M.B.B.B.B.B.B.B.B.B.B.V.V.V.C.C.C.V.V.A.A.A.A.V.V.C.V.V.V.V.V.V.V.A.A.C.G.G.A.V.V.C.C.V.B.B.V.C.C.B.B.V.V.V.C.C.V.V.V.V.B.B.B.B.B.B.B.B.M.M.M.M.M.c.c.c.c.c.c.c.c.c.c.c.c.c.M.M.M.c.M.M.M.B.M.c.c.c.c.c.c.c.c.c.c.c.c.c.c.c.c.c.c.g.f.g.j.c.c.c.g.c.c.c.k.c.j.j.j.g.g.g.g.g.g.g.g.g.g.f.f.f.f.f.f.f.f.f.f.f.f.f.f.p.p.p.p.p.p.p.p.f.f.f.f.f.f.f.f.f.f.f.f.f.f.f.f.s.g.g.g.f.f.g.c.I 5 f 1 0 3 q r ",
"1 > 1 > v ^ U.h.=.=.=.=.=.=.=.=.&.&.&.$.$.$.$.$.;.;.;.:.:.:.:.,.,.,.,.,.,.,.,.,.,.,.,.,.,.,.,.,.<.<.<.<.<.2.2.2.2.2.2.2.2.3.3.3.3.3.3.3.3.3.8.8.q.0.q.u.q.8.3.3.q.0.8.0.q.r.q.w.q.q.q.q.e.e.e.r.q.q.q.e.e.r.r.r.u.u.u.u.u.u.u.u.u.u.u.u.u.u.u.u.u.u.u.u.u.u.u.u.u.u.u.u.p.p.p.p.p.p.p.f.f.f.f.f.f.f.f.f.f.f.p.p.f.f.f.g.g.g.g.g.f.g.g.g.g.g.g.j.g.g.g.g.g.j.k.k.c.c.c.c.c.c.c.c.c.c.c.M.M.M.M.M.B.B.B.B.B.B.B.B.B.B.B.V.V.V.C.C.V.V.V.A.A.V.V.V.V.C.V.V.V.C.V.B.A.A.G.G.G.A.V.B.C.V.V.B.B.V.V.C.B.B.B.V.V.V.C.V.V.V.B.B.B.B.B.B.B.B.M.M.M.c.M.M.c.c.c.c.c.c.c.c.c.c.c.c.c.c.M.M.c.M.M.M.M.M.c.c.c.c.c.c.c.c.c.c.c.c.c.c.c.c.c.c.f.u.p.g.c.M.c.g.c.c.c.k.k.j.j.j.g.g.g.g.g.g.g.g.g.g.f.f.f.f.f.f.f.f.f.f.f.f.f.f.p.p.p.p.p.p.p.p.f.f.f.f.f.f.f.f.p.p.p.p.p.p.f.p.s.s.g.g.g.f.g.b.N . 7 = r < 0 0 ",
"5 1 1 7 k _ J.j.:.:.:.;.-.=.=.=.$.$.$.$.&.;.;.;.;.:.:.:.$.;.,.3.2.:.;.,.<.,.:.,.,.,.,.,.,.,.,.,.<.<.<.2.2.2.2.2.2.2.2.2.2.3.3.3.3.3.3.3.3.3.8.8.0.0.0.0.q.q.q.q.0.3.3.0.u.u.q.0.q.q.w.q.q.q.e.e.r.e.q.q.q.e.u.u.r.r.r.r.u.r.r.r.u.u.u.u.u.u.u.u.u.u.u.u.u.u.u.u.p.p.p.p.u.u.u.u.u.u.u.u.f.f.f.f.f.f.f.f.f.f.f.f.f.f.f.g.g.g.g.g.g.g.g.g.g.g.g.g.g.g.j.c.c.k.k.j.c.c.c.c.c.c.c.c.c.c.c.c.c.c.c.c.M.M.M.B.B.B.B.B.B.B.V.V.V.C.V.V.V.V.C.C.C.C.C.V.C.V.V.V.V.C.V.V.G.G.C.V.C.V.B.B.B.B.B.V.V.V.B.B.V.V.V.V.V.V.V.V.V.C.V.C.C.C.B.B.B.M.M.c.c.c.c.c.c.c.c.c.c.c.c.c.c.c.c.c.c.c.c.c.c.c.c.c.c.c.c.c.c.c.c.c.c.c.c.c.c.c.c.c.c.c.c.c.f.f.g.k.c.c.c.c.k.k.k.j.j.g.g.g.c.j.g.g.f.f.f.f.g.g.f.f.f.f.f.f.p.p.p.p.p.p.p.p.f.f.f.f.f.f.f.f.f.f.f.f.f.f.f.f.f.f.f.f.f.f.f.f.f.f.f.f.g.g.g.f.X.U W W : e 0 7 ",
"5 5 1 7 k [ J.j.:.:.;.;.-.$.-.=.$.$.$.&.&.&.;.;.;.:.:.:.$.;.,.3.2.:.:.,.,.,.:.,.,.,.,.,.,.,.,.,.<.<.<.2.2.2.2.2.2.2.2.2.2.3.3.3.3.3.3.3.3.3.3.3.8.0.0.0.0.q.w.q.0.3.3.3.q.q.q.0.q.q.w.q.q.q.e.q.e.e.q.q.q.e.r.u.r.r.r.r.u.r.r.r.u.u.u.u.u.u.u.u.u.u.u.u.u.u.u.u.u.u.p.p.u.u.u.u.f.p.p.p.p.p.u.u.f.f.f.f.f.f.f.f.f.f.f.g.g.g.g.g.g.g.g.g.g.g.g.g.g.g.k.k.c.k.j.j.c.c.c.c.c.c.c.c.c.c.c.c.c.c.c.c.M.M.M.B.B.B.B.B.B.B.B.V.V.V.V.V.V.V.C.C.C.C.C.V.V.V.V.V.V.V.C.C.V.V.V.C.B.B.B.B.B.B.B.B.V.V.B.B.B.B.B.B.B.V.V.B.V.B.B.V.V.V.B.B.B.B.c.c.c.c.c.c.c.c.c.c.c.c.c.c.c.c.c.c.c.c.c.c.c.c.c.c.c.c.c.c.c.c.c.c.c.c.c.c.c.c.c.c.c.c.c.c.f.g.j.c.c.c.c.k.k.k.j.j.j.g.g.g.c.j.g.g.f.f.f.g.g.g.f.f.f.f.f.f.p.p.p.p.p.p.p.p.f.f.f.f.f.f.f.f.f.f.f.f.f.f.f.f.f.f.f.f.f.f.f.f.f.f.f.f.g.g.g.g.C.k.M.w.e 0 7 0 ",
"1 5 1 7 k [ J.j.;.&.;.;.$.$.$.$.$.$.$.$.&.&.&.:.&.:.:.:.$.;.,.2.,.:.:.,.,.,.:.,.,.,.,.,.,.,.,.,.<.<.<.<.2.2.2.2.2.2.2.2.2.3.3.3.3.3.3.3.3.3.3.3.8.0.8.0.0.0.w.w.0.3.2.2.3.0.w.w.q.q.q.q.q.q.q.q.e.e.q.q.q.e.r.u.r.r.r.r.r.r.r.r.u.u.u.u.u.u.u.u.u.u.u.u.u.u.u.u.u.u.p.p.u.u.u.u.f.f.f.f.p.u.u.u.f.f.f.f.f.f.f.f.f.f.f.f.g.g.g.g.g.g.g.g.g.g.g.g.g.g.g.j.k.k.j.j.c.c.c.c.c.c.c.c.c.c.c.c.c.c.c.c.M.M.M.M.B.B.B.B.B.B.B.B.B.V.V.V.B.B.B.V.C.C.V.V.V.V.V.V.B.B.B.B.B.B.B.B.B.B.M.M.B.B.B.B.V.V.V.B.B.B.B.B.B.B.B.B.B.B.B.B.B.B.B.B.B.M.M.M.c.c.c.c.c.c.c.c.c.c.c.c.c.c.c.c.c.c.c.c.c.c.c.c.c.c.c.c.c.c.c.c.c.c.c.c.c.c.c.c.c.c.c.c.g.j.c.c.c.c.c.k.k.j.j.j.j.j.j.j.g.g.g.g.f.f.g.g.g.f.f.f.f.f.f.f.p.p.f.f.p.p.p.p.f.f.f.f.f.f.f.f.f.f.f.f.f.f.f.f.f.f.f.f.f.f.f.f.s.s.s.s.f.f.f.f.u.u.k.w.0 1 0 s ",
"1 5 < 7 k _ J.j.&.;.;.&.$.$.$.$.$.$.$.$.$.&.&.;.&.:.:.;.$.&.:.,.,.:.:.:.,.:.:.,.:.:.,.,.,.,.,.,.,.,.<.<.<.2.2.2.2.2.2.2.2.3.3.3.3.3.3.3.3.3.3.3.8.8.8.8.0.0.q.q.q.8.3.3.8.0.w.q.q.q.q.q.q.q.q.q.q.e.e.e.e.e.r.e.e.e.e.e.e.e.e.e.u.u.u.u.u.u.u.u.u.u.u.u.u.u.u.u.u.u.u.u.u.u.u.u.u.u.f.f.p.u.u.u.p.f.f.f.f.f.f.f.f.f.f.f.f.g.g.g.f.f.g.g.g.g.g.g.g.g.g.j.j.j.j.g.k.k.c.c.k.c.c.c.c.c.c.c.c.c.c.c.c.c.M.M.M.B.B.B.B.B.B.B.B.B.B.B.B.B.B.B.V.C.V.V.V.V.V.B.B.B.B.B.M.M.M.M.B.B.B.B.B.B.B.B.B.B.B.B.B.B.B.B.B.B.B.B.c.M.B.B.B.B.B.B.M.M.M.c.c.c.c.c.c.c.c.c.c.c.c.c.c.c.c.c.c.c.c.c.c.c.c.c.c.c.c.c.c.c.c.c.c.c.c.c.k.k.c.c.c.c.c.c.c.c.c.c.c.c.k.j.j.j.j.g.j.j.g.g.g.g.g.g.g.g.f.f.f.f.f.f.f.f.p.p.u.u.p.p.u.u.u.u.p.p.p.p.p.p.p.p.p.p.p.p.p.p.f.f.p.p.p.p.p.p.p.p.s.s.s.s.f.f.f.f.u.q.l.0.0 7 7 0 ",
"6 6 < 5 k _ J.j.&.*.&.&.$.$.$.$.$.$.$.$.$.$.;.;.$.;.:.&.;.:.:.:.,.,.,.:.:.:.,.:.:.:.:.,.,.,.,.,.,.,.,.<.<.<.2.2.2.2.2.2.2.3.3.3.3.3.3.3.3.3.3.3.8.8.8.8.0.0.0.0.q.0.0.q.w.q.q.q.w.w.w.q.q.e.q.q.q.q.r.r.u.u.e.e.e.e.e.e.r.r.e.e.u.u.u.u.u.u.u.u.u.u.u.u.u.u.u.u.u.u.u.u.u.u.u.r.r.u.p.f.p.u.p.f.p.p.p.f.f.f.f.f.f.f.f.g.f.f.g.g.f.f.f.g.g.g.g.g.g.g.j.j.j.j.g.g.k.k.k.c.k.c.c.c.c.c.c.c.c.c.c.c.c.c.M.B.B.B.B.B.B.B.B.B.B.B.B.B.M.M.B.B.B.V.C.C.V.C.V.B.B.B.B.B.M.M.B.B.B.B.B.B.B.B.B.B.B.B.B.B.B.B.B.B.B.B.B.B.c.M.B.B.M.c.M.B.c.c.c.c.c.c.c.c.c.c.c.c.c.c.c.c.c.c.c.c.c.c.c.c.c.c.c.c.c.c.c.c.c.c.c.c.c.c.c.c.k.k.c.c.c.c.c.c.c.c.c.c.c.k.j.g.j.j.g.g.j.g.g.g.g.g.g.g.g.f.f.f.f.f.f.f.f.p.p.p.p.p.p.p.p.p.p.p.p.p.p.p.f.f.f.p.p.p.p.p.p.p.f.f.f.f.f.f.p.p.p.p.s.s.s.s.f.f.f.f.c.g.M.q.q 0 7 1 ",
"< 6 < 5 k _ J.j.&.&.&.&.$.$.$.$.$.$.$.$.$.$.&.&.$.$.&.&.;.:.:.:.,.<.<.:.:.:.,.:.:.:.:.:.,.,.,.,.,.,.,.,.<.<.<.<.2.2.2.2.2.3.3.3.2.3.3.3.3.3.3.3.8.8.8.8.8.8.0.0.0.q.q.e.r.e.q.w.w.w.w.q.q.q.q.q.q.q.e.r.r.u.r.e.q.q.q.q.e.e.q.q.u.u.r.r.r.r.u.u.u.u.r.r.r.r.u.u.u.u.u.u.u.u.r.q.q.u.p.f.p.u.f.f.u.p.p.p.f.f.f.f.f.f.f.f.f.g.f.f.f.f.f.f.g.g.g.g.g.g.g.j.g.g.g.g.j.k.k.k.k.c.c.c.c.c.c.c.c.c.c.c.c.c.M.M.M.B.M.M.M.M.M.B.B.B.B.B.M.M.B.B.B.B.B.V.V.V.B.B.B.B.B.B.B.B.B.B.B.B.B.B.B.B.B.B.B.B.B.B.B.B.B.B.B.B.B.B.c.B.V.V.M.c.c.B.c.c.c.c.c.c.c.c.c.c.c.c.c.c.c.c.c.c.c.c.c.c.c.c.c.c.c.c.c.c.c.c.c.c.c.c.c.c.c.c.j.j.k.k.k.k.j.k.c.c.c.c.k.j.j.g.g.g.g.g.g.g.g.g.g.g.g.g.g.f.p.u.f.f.f.f.p.p.p.u.u.u.u.u.u.u.u.u.u.u.u.u.p.p.p.u.u.u.u.u.u.u.p.p.p.p.p.p.u.u.u.u.s.s.s.s.s.s.f.f.w.r.k.0.5 7 0 e ",
"< 6 < 5 k _ F.j.&.&.&.$.$.$.$.$.$.$.$.$.$.&.&.&.$.$.$.$.:.:.;.;.:.2.2.:.:.:.,.:.:.:.:.:.:.,.,.,.,.,.,.,.<.<.<.<.2.2.2.2.2.3.3.3.2.2.3.3.3.3.3.3.3.3.3.3.3.3.3.8.8.0.q.q.q.w.q.0.w.w.q.q.q.e.q.q.q.e.e.r.u.r.e.e.q.q.q.q.e.e.e.q.u.u.r.r.r.u.u.u.u.r.r.r.u.u.u.u.u.u.u.u.u.u.e.q.q.u.f.f.p.u.u.f.u.u.p.p.p.f.f.f.f.f.f.f.f.g.g.g.f.f.f.f.f.g.g.g.g.g.g.j.g.g.g.g.j.j.j.j.j.k.c.c.c.c.c.c.c.c.c.c.c.c.c.M.c.M.M.M.c.M.M.M.B.B.B.B.M.B.B.B.B.B.B.B.B.B.B.B.M.B.B.B.B.B.B.B.B.B.B.M.B.B.B.B.B.B.B.B.B.B.B.B.B.B.B.B.B.V.V.V.M.c.c.B.c.c.c.c.c.c.c.c.c.c.c.c.c.c.c.c.c.c.c.c.c.c.c.c.c.c.c.c.c.c.c.c.c.c.c.c.c.c.c.c.j.j.j.k.k.k.k.k.c.c.k.j.j.g.g.g.g.g.g.g.g.g.g.g.g.g.g.g.f.f.u.u.f.f.f.p.p.p.u.u.u.u.u.u.u.u.u.u.u.u.u.u.p.p.p.p.u.u.u.u.u.u.u.u.p.p.p.u.u.u.u.u.u.u.u.s.s.u.u.s.f.f.B.q.1 7 0 0 ",
"< < < 6 k _ F.j.&.&.&.$.$.$.$.$.$.$.$.$.$.$.&.&.$.$.$.$.:.:.;.&.:.2.2.:.;.:.,.:.:.:.:.:.:.,.,.,.,.,.,.,.<.<.<.<.2.2.2.2.2.3.3.3.2.2.2.3.3.3.3.3.3.3.3.3.3.3.3.3.3.0.0.q.0.0.0.0.w.q.q.q.q.e.q.q.q.q.e.r.u.r.e.q.q.q.q.q.e.e.e.q.u.u.r.r.u.u.u.u.u.u.r.r.u.u.u.u.u.u.u.u.u.u.q.q.q.u.f.f.u.u.u.p.u.u.u.p.p.f.f.f.f.f.f.f.f.f.g.g.f.f.f.f.f.g.g.g.g.g.g.j.g.g.g.g.j.g.g.j.j.k.c.c.c.c.c.c.c.c.c.c.c.c.c.c.c.M.M.M.c.c.c.M.M.M.B.B.M.B.B.B.B.B.M.M.B.B.M.M.M.B.B.B.B.B.B.M.M.c.c.c.B.B.B.B.B.B.B.B.M.M.M.M.M.M.M.M.B.V.C.V.M.c.c.M.c.c.c.c.c.c.c.c.c.c.c.c.c.c.c.c.c.c.c.c.c.c.c.c.c.c.c.c.c.c.c.c.c.c.c.c.c.c.c.c.j.j.j.k.k.k.k.k.c.k.j.g.g.g.g.g.g.g.g.g.g.g.g.g.j.k.g.g.f.p.u.u.f.f.f.p.p.u.u.u.u.u.u.u.u.u.u.u.u.u.u.u.p.p.u.u.u.u.u.u.u.u.u.u.u.u.p.u.u.u.u.u.u.u.u.s.s.u.u.u.g.u.l.3.7 q 0 1 ",
"1 > 1 > l Q U.g.=.&.;.;.;.&.;.$.$.$.$.$.$.$.$.$.$.$.$.$.$.;.,.2.,.,.:.:.:.:.:.:.:.:.:.:.:.,.,.,.,.,.,.,.,.,.,.,.2.2.2.2.2.2.2.2.<.<.3.3.3.3.3.<.8.8.8.8.8.0.0.0.0.0.0.0.0.q.q.q.0.0.q.w.w.w.q.q.3.w.u.u.u.r.q.r.e.e.e.e.e.e.e.e.r.r.r.r.r.r.r.u.r.e.e.r.u.u.u.u.u.u.u.u.u.u.u.u.r.w.q.p.g.p.u.u.u.u.u.u.p.p.p.p.f.f.p.f.f.f.f.f.f.f.f.f.f.f.g.g.g.g.g.j.j.j.j.g.g.j.j.k.c.c.c.c.c.c.c.c.c.c.c.c.c.c.c.c.c.c.c.c.c.M.c.c.c.c.M.M.B.B.B.B.B.B.B.B.B.B.B.B.B.B.B.B.B.B.B.B.B.B.B.B.M.B.B.B.B.B.B.M.c.c.c.c.c.c.M.M.c.c.M.c.c.c.c.c.c.c.c.c.c.c.c.c.k.c.c.c.c.c.c.c.M.k.g.c.c.c.g.f.c.c.c.c.c.c.c.c.c.c.c.k.c.c.c.c.k.k.j.j.c.c.c.c.c.k.k.j.k.j.j.j.g.g.g.g.g.g.g.g.g.g.g.g.f.f.f.f.f.p.u.u.u.u.u.p.p.u.u.u.u.u.u.u.u.u.u.u.u.u.u.u.u.u.u.u.u.u.p.p.p.u.u.u.u.p.p.p.f.f.f.f.f.f.f.f.l.u.k.q.8 8 5 0 ",
"1 > 1 > l Q U.g.;.;.;.;.;.;.=.$.$.$.$.$.$.$.$.$.$.$.$.$.$.;.,.2.,.,.:.:.:.:.:.:.:.:.:.:.:.:.,.,.,.,.,.,.,.,.,.,.2.2.2.2.2.2.2.2.<.<.3.3.3.3.3.<.8.8.8.8.8.8.0.0.0.0.0.0.0.q.q.q.0.0.q.w.w.w.q.q.3.w.u.u.u.r.e.r.e.e.e.e.e.e.e.e.r.r.r.r.r.r.r.u.r.e.e.r.u.u.u.u.u.u.u.u.u.u.u.u.q.q.q.u.f.p.u.u.u.u.u.u.u.u.p.p.f.f.p.f.f.f.f.f.f.f.f.f.f.f.f.f.g.g.g.j.g.g.g.g.g.j.k.k.c.c.c.c.c.c.c.c.c.c.c.c.c.c.c.c.c.c.c.c.c.c.c.c.c.M.M.c.B.B.B.B.B.B.B.B.B.B.B.B.B.B.B.B.B.B.B.B.B.B.B.B.M.B.B.B.B.B.B.M.c.c.c.c.c.c.c.c.M.c.c.c.c.c.c.c.c.c.c.c.c.c.c.c.c.c.c.c.c.c.c.c.c.k.k.c.c.k.j.k.c.c.c.c.c.k.k.c.c.c.k.k.c.c.c.c.k.k.k.j.c.c.c.c.c.k.j.j.j.j.j.j.g.g.g.g.g.g.g.g.g.g.g.f.f.f.p.p.f.p.u.u.u.u.u.p.u.u.p.p.u.u.u.u.u.u.u.u.u.u.u.u.u.u.u.u.u.u.u.u.p.u.p.p.u.u.p.p.f.f.f.f.f.f.f.f.f.u.k.q.0 8 5 0 ",
"1 > 1 > l Q U.g.;.;.;.;.$.$.$.;.$.$.$.$.$.$.$.$.$.$.$.$.$.&.:.,.,.,.:.:.:.:.:.:.:.:.:.:.:.:.:.,.,.,.,.,.,.,.,.,.<.<.<.2.2.2.2.2.<.<.3.3.3.3.3.<.8.8.8.8.8.8.8.0.0.0.0.0.0.q.q.q.0.0.q.w.w.w.w.q.8.w.u.u.u.e.q.e.e.e.e.e.e.e.e.e.r.r.e.e.r.r.u.u.r.r.e.e.r.u.u.u.u.u.u.u.u.u.u.u.q.q.q.u.f.p.u.p.u.u.p.u.u.u.u.u.p.p.p.p.f.f.f.f.f.f.f.f.f.f.f.f.g.g.g.j.g.g.j.g.g.j.k.k.c.c.c.c.c.c.c.c.c.c.c.c.c.c.c.c.c.c.c.c.M.M.M.M.M.M.M.M.B.B.B.B.B.B.B.B.B.B.B.B.B.B.B.B.B.B.B.B.B.B.B.B.B.B.B.B.B.B.M.M.M.M.M.c.c.c.c.c.M.c.c.c.c.c.c.c.c.c.c.c.c.c.c.c.c.c.c.k.k.k.k.k.c.c.c.c.c.g.j.c.c.c.c.c.k.c.j.j.c.c.k.j.k.k.k.k.j.j.j.g.j.j.j.j.c.k.j.j.g.g.g.j.g.g.g.g.g.g.g.g.f.g.f.f.f.p.p.u.f.p.p.u.u.u.u.u.u.u.u.u.u.u.u.u.u.u.u.u.u.u.u.u.u.u.u.u.u.u.u.u.u.u.p.p.u.u.u.u.f.f.f.f.f.f.f.f.f.u.k.q.0 5 5 0 ",
"1 > 1 > l Q U.g.;.;.;.;.;.;.;.:.$.$.$.$.$.$.$.$.$.$.$.$.$.&.:.,.:.:.:.:.;.:.:.:.:.:.:.:.:.:.:.:.:.:.,.,.,.,.,.,.,.<.<.<.<.2.2.2.<.<.3.3.3.3.3.<.3.3.8.8.8.8.8.8.0.0.0.0.0.q.q.q.0.q.q.q.w.w.q.q.0.q.r.u.u.e.q.e.e.e.e.e.e.e.e.e.e.e.q.e.e.e.r.r.e.e.e.e.e.r.u.u.u.u.u.u.u.u.u.u.e.q.e.u.u.u.u.u.u.u.u.u.u.u.u.u.p.u.p.p.p.f.f.f.f.f.f.f.f.f.f.f.g.g.g.g.g.g.g.g.j.k.k.c.k.c.c.c.c.c.c.c.c.c.c.c.c.c.c.c.c.c.c.c.M.M.M.M.M.M.M.M.M.M.M.M.M.M.M.M.M.M.M.M.M.M.M.M.M.M.M.M.M.M.M.M.M.B.B.B.B.B.M.c.B.M.M.c.c.c.c.c.c.c.c.c.c.c.c.c.c.c.c.c.c.c.c.c.c.c.c.k.c.c.c.c.M.c.c.c.c.g.g.c.c.c.c.c.j.j.j.j.k.k.j.j.j.j.k.j.g.j.g.g.g.g.g.g.j.j.j.g.g.g.g.g.g.g.g.g.g.g.g.g.f.f.f.p.p.u.u.u.f.p.u.u.u.u.u.u.u.u.u.u.u.u.u.u.u.u.u.u.u.u.u.u.u.u.u.u.u.u.u.u.u.u.u.u.u.u.u.u.f.f.u.u.u.u.u.u.f.u.k.q.0 8 5 0 ",
"1 > 1 > l Q U.g.;.;.;.;.;.:.>.<.$.$.$.$.$.$.$.$.$.$.&.&.$.$.:.:.:.:.:.;.;.;.;.:.:.:.:.:.:.:.:.:.:.:.:.,.,.,.,.,.,.,.<.<.<.2.2.2.<.<.<.3.3.3.3.3.3.3.8.8.8.8.8.8.0.0.0.0.0.0.0.0.0.q.q.q.q.q.q.q.q.q.e.e.q.q.q.q.e.e.e.e.r.r.r.e.e.e.e.e.r.r.r.r.e.e.e.r.r.r.u.u.u.u.r.u.u.u.u.u.u.u.u.r.e.u.u.u.u.u.u.u.u.u.u.u.u.u.u.p.p.p.f.f.f.f.f.f.f.f.g.g.g.g.g.g.g.g.j.g.g.j.k.c.k.k.j.j.c.c.c.c.c.c.c.c.c.c.c.c.c.c.c.c.M.B.B.B.M.M.M.M.M.M.M.M.B.B.B.M.M.M.M.M.M.M.M.M.B.B.B.B.M.M.M.M.c.c.M.B.B.M.M.M.B.B.c.c.c.c.c.c.c.c.c.c.c.c.c.c.c.c.c.c.c.c.c.c.c.c.c.c.c.c.c.c.c.g.g.k.c.c.k.k.c.c.c.c.j.j.k.k.k.j.j.j.g.g.g.j.g.g.g.g.g.g.g.g.j.j.g.g.g.g.g.g.g.g.g.g.g.f.f.f.p.p.p.p.p.u.u.u.p.u.u.u.u.u.u.u.u.u.u.u.u.u.u.u.u.u.u.u.u.u.u.u.u.u.u.u.u.u.u.u.u.u.u.u.u.u.u.u.f.f.f.f.u.u.u.u.f.u.k.q.0 5 5 0 ",
"1 > 5 > l Q U.g.$.$.;.;.;.:.>.<.$.$.$.$.$.$.$.$.$.$.&.&.$.$.;.:.:.:.:.:.;.;.:.:.:.:.:.:.:.:.:.:.:.:.:.:.,.,.,.,.,.,.,.<.<.<.2.2.<.<.<.3.3.3.3.<.3.3.8.8.8.8.8.8.0.0.0.0.0.0.0.0.0.q.q.q.q.q.q.q.q.q.q.q.q.q.q.q.e.e.e.e.r.e.e.e.q.q.q.q.e.q.e.e.q.e.e.e.r.r.r.r.e.r.r.u.u.u.u.u.u.u.u.q.w.e.u.u.u.u.u.u.u.u.u.u.u.u.u.u.p.p.p.p.f.f.f.f.f.f.g.g.g.g.g.g.g.g.j.g.j.j.k.c.k.j.j.g.k.c.c.c.c.c.c.c.c.c.c.c.c.c.c.c.c.M.M.M.c.c.c.c.c.c.c.c.M.M.c.c.c.c.c.c.c.c.c.c.M.M.M.M.c.c.c.c.c.c.M.M.B.M.c.M.M.M.c.c.c.c.c.c.c.c.c.c.c.c.c.c.c.c.c.c.c.c.c.c.k.k.c.c.c.c.c.k.f.u.u.g.c.M.c.c.c.k.k.j.j.j.j.j.j.j.g.g.g.g.g.g.g.g.g.g.g.g.g.g.g.g.g.g.g.g.g.g.g.g.g.g.f.f.f.f.p.p.p.p.p.p.p.p.u.u.u.u.u.u.u.u.u.u.u.u.u.u.u.u.u.u.u.u.u.u.u.u.u.u.u.u.u.u.u.u.u.u.u.u.u.u.u.u.u.u.u.u.u.u.u.u.f.r.k.w.0 5 5 5 ",
"1 > 5 > l Q U.g.$.$.;.;.;.;.;.;.$.$.$.$.$.$.$.$.$.$.&.&.$.$.;.:.:.:.:.&.&.:.:.:.:.:.:.:.:.:.:.:.:.:.:.:.:.,.,.,.,.,.,.<.<.<.2.2.<.<.3.3.3.3.3.<.3.3.3.8.3.8.8.8.0.0.0.0.0.q.0.0.0.q.q.w.q.q.q.q.e.q.q.w.w.q.q.q.e.e.e.e.e.e.e.e.q.q.q.q.q.q.q.q.q.q.e.e.e.r.r.r.r.r.u.u.r.u.u.u.u.u.u.w.0.e.u.u.u.u.u.u.u.u.u.u.u.u.u.u.u.p.p.p.f.f.f.f.f.g.f.g.g.g.g.g.g.j.j.g.j.j.k.c.c.k.j.g.c.c.c.c.c.c.c.c.c.c.c.c.c.c.c.c.c.c.c.c.c.c.c.c.c.c.c.c.M.M.M.M.c.c.c.c.M.M.M.M.M.c.M.c.c.c.c.c.c.c.c.M.B.M.c.c.c.c.c.c.c.c.c.c.c.c.c.c.c.c.c.c.c.c.c.c.c.c.k.k.j.k.c.c.c.g.g.f.u.u.p.k.c.c.c.c.j.j.j.g.g.g.g.g.g.g.g.g.g.g.g.g.g.g.g.g.g.g.g.g.g.g.g.g.g.g.g.g.g.g.g.f.f.f.f.f.p.p.p.f.f.f.f.f.u.u.u.u.u.u.u.u.u.u.u.u.u.u.u.u.u.u.u.u.u.u.u.u.u.u.u.u.u.u.u.u.u.u.u.u.u.u.u.u.u.u.u.u.u.u.u.u.u.r.k.w.0 5 5 5 ",
"1 > 5 > l Q U.g.$.$.;.;.;.=.$.X.$.$.$.$.$.$.$.$.$.$.$.&.$.$.&.:.:.:.;.;.;.:.:.:.:.:.:.:.:.:.:.:.:.:.:.:.:.,.,.,.:.,.,.,.,.<.2.2.<.<.3.3.3.3.3.<.3.3.3.3.3.8.8.8.0.0.0.0.0.q.q.0.0.0.q.w.q.w.q.q.r.q.w.q.w.q.q.q.e.e.e.e.e.e.e.e.q.q.q.q.q.q.q.q.q.q.q.e.e.r.r.r.r.r.e.r.r.u.u.u.u.u.u.0.0.e.u.u.u.u.u.u.u.u.u.u.u.u.u.u.u.p.p.p.f.f.f.f.f.g.f.f.g.g.g.g.j.j.j.g.j.j.c.c.c.k.j.g.c.c.c.c.c.c.c.c.c.c.c.c.c.c.c.c.c.c.c.c.c.c.c.c.c.c.c.c.M.M.c.M.c.c.c.c.c.M.M.M.c.c.M.M.c.c.c.c.c.c.c.M.M.M.c.c.c.c.c.c.c.c.c.c.c.c.c.c.c.c.c.c.c.c.c.c.c.k.k.k.j.k.c.c.j.f.u.u.p.f.j.c.c.g.g.g.j.j.g.g.g.g.g.g.g.g.g.g.g.g.g.g.g.g.g.g.g.g.g.g.j.g.g.g.g.g.g.g.g.g.g.f.f.f.f.f.f.f.f.f.f.f.f.f.u.u.u.u.u.u.u.u.u.u.u.u.u.u.u.u.u.u.u.u.u.u.u.u.u.u.u.u.u.u.u.u.u.u.u.u.u.u.u.u.u.u.u.u.u.u.u.u.u.r.k.w.0 5 5 5 ",
"> 1 > 1 h I /.u.$.=.;.;.;.$.$.$.$.$.$.$.$.$.$.$.$.$.$.$.$.:.,.<.:.:.:.:.:.:.:.:.:.:.:.:.:.:.:.:.:.:.:.,.,.,.,.,.,.,.,.<.<.<.,.,.3.3.3.3.3.3.3.3.8.8.8.8.3.3.8.0.0.0.0.0.0.q.q.q.q.q.w.w.w.w.w.w.q.q.q.q.q.q.q.q.q.q.q.e.e.e.q.q.0.q.q.r.r.e.q.q.e.e.e.e.r.u.u.u.r.e.r.u.u.u.u.u.u.u.r.e.r.u.u.u.u.u.u.u.u.u.u.u.u.u.u.p.p.f.f.p.f.f.f.f.f.f.f.f.f.g.j.c.c.k.g.g.c.c.c.c.k.k.k.k.c.c.c.c.c.c.c.c.c.c.c.c.c.c.c.c.c.c.c.c.c.c.c.c.c.c.c.c.c.c.c.c.c.c.c.c.c.c.c.c.c.c.c.c.c.c.c.c.c.c.c.M.M.c.c.c.c.c.c.c.c.c.c.c.c.c.c.c.c.k.k.k.c.c.c.c.c.c.k.k.c.c.c.j.g.p.u.u.u.f.c.c.k.g.g.j.g.g.g.j.g.g.j.j.g.g.g.g.g.g.g.g.g.g.g.g.g.g.g.g.g.g.g.g.g.g.g.g.f.f.f.f.f.f.f.p.f.f.f.p.p.u.u.u.p.p.u.u.u.u.u.u.u.u.u.u.u.u.u.u.u.u.u.u.u.u.u.u.u.u.u.u.u.u.u.u.u.u.u.u.p.p.f.f.r.f.f.u.r.f.f.r.g.f.B.3.r > 1 5 ",
"1 u 0 ; U ..E.C.$.;.;.;.;.$.$.$.$.$.$.$.$.$.$.$.$.$.$.$.&.:.<.3.:.:.;.&.&.;.:.:.:.:.:.:.:.:.:.:.:.:.:.,.,.,.,.,.,.,.,.<.<.<.,.,.3.3.3.3.3.3.3.3.3.8.8.8.3.3.8.0.0.0.0.0.0.0.q.q.q.q.q.w.w.q.w.q.q.q.q.q.q.q.q.q.q.q.q.e.e.e.q.q.q.q.q.e.r.u.u.u.r.r.e.e.e.r.u.u.e.e.r.u.u.u.u.u.u.u.r.r.u.r.u.u.u.u.u.u.u.u.u.u.u.u.u.p.p.p.f.p.f.f.f.f.f.f.f.f.g.g.g.c.k.j.g.g.c.c.c.c.k.k.k.k.c.c.c.c.c.c.c.c.c.c.c.c.c.c.c.c.c.c.c.c.c.c.c.c.c.c.c.c.c.c.c.c.c.c.c.c.c.c.c.c.c.c.c.c.c.c.c.c.c.c.c.M.M.c.c.c.c.c.c.c.c.c.c.c.c.c.c.c.c.c.k.k.c.c.c.c.c.j.j.j.k.c.c.j.g.f.u.u.u.g.c.c.j.g.g.j.g.j.g.j.g.g.j.j.g.g.g.g.g.g.g.g.g.g.g.g.g.g.g.g.g.g.g.g.g.g.g.g.f.f.f.f.f.f.f.f.f.f.p.p.p.u.p.u.p.p.p.u.u.u.u.u.u.u.u.u.u.u.u.u.u.u.u.u.u.u.u.u.u.u.u.u.u.u.u.u.u.u.u.u.u.p.f.f.r.f.f.u.u.f.f.r.w.q.h.>.0 > 5 0 ",
"+ > + 1 R.*X*XC.$.;.;.;.;.$.$.$.$.$.$.$.$.$.$.$.$.$.$.$.;.,.2.3.:.:.$.$.$.;.:.:.:.:.:.:.:.:.:.:.:.:.:.:.,.,.,.,.,.,.,.,.<.<.,.,.3.3.3.3.3.3.3.3.3.3.8.8.3.3.8.0.0.0.0.0.0.0.0.q.0.0.q.w.w.w.w.q.q.q.q.q.q.q.q.q.q.q.q.q.e.e.e.q.u.r.e.q.e.u.u.f.u.r.r.e.e.e.e.r.r.r.r.r.u.u.u.u.u.u.u.r.u.u.u.u.u.u.u.u.u.u.u.u.u.u.u.u.u.u.u.p.f.f.f.f.f.f.f.f.g.g.g.j.g.g.g.g.j.k.k.c.c.k.c.c.c.c.c.c.c.c.c.c.c.c.c.c.c.c.c.c.c.c.c.c.c.c.c.c.c.c.c.c.c.c.c.c.c.c.c.c.c.c.c.c.M.c.c.c.c.c.c.c.c.c.c.c.c.c.c.c.c.c.c.c.c.c.c.c.c.c.c.c.c.c.c.c.c.c.c.k.j.j.g.j.j.k.k.k.g.f.u.r.g.j.c.c.g.g.g.k.g.g.g.g.g.g.g.g.g.g.g.g.g.g.g.g.g.g.g.g.g.g.g.g.g.g.g.g.g.g.f.f.f.f.f.f.f.f.p.f.f.p.p.p.u.u.p.p.f.p.p.u.u.u.u.u.u.u.u.u.u.u.u.u.u.u.u.u.u.u.u.u.u.u.u.u.u.u.u.u.u.u.u.u.u.u.p.p.r.s.s.u.u.u.s.u.k.f.B.0.0 > 1 1 ",
"5 q 5 1 V.E./.G.$.;.;.;.;.$.$.$.$.$.$.$.$.$.$.$.$.$.$.$.&.:.,.2.:.:.;.:.:.:.:.:.:.:.:.:.:.:.:.:.:.:.:.:.:.,.,.,.:.:.,.,.,.<.,.,.<.<.3.3.<.3.3.3.3.3.8.8.3.3.8.0.8.8.0.0.0.0.0.0.0.0.0.q.q.q.q.q.w.w.w.w.q.q.q.q.q.q.q.q.q.q.q.q.u.r.w.q.q.u.p.g.u.u.r.e.q.q.q.q.e.e.r.r.r.u.u.u.u.u.u.u.u.u.u.u.u.u.u.u.u.u.u.u.u.u.u.u.u.u.u.u.p.f.f.f.f.f.g.g.g.g.g.g.g.g.k.c.g.k.k.k.k.c.c.c.k.c.c.c.c.c.c.c.c.c.c.c.c.c.c.c.c.c.c.c.c.c.c.c.c.c.c.c.c.c.c.c.c.c.c.c.c.c.c.c.c.c.c.c.c.c.c.c.c.c.c.c.c.c.c.c.c.c.c.c.c.c.c.c.k.c.c.c.c.c.c.c.k.k.k.k.g.g.g.g.g.g.j.k.g.f.u.e.c.c.c.k.g.g.g.k.g.g.g.g.g.g.g.g.g.g.g.g.g.g.g.g.g.g.g.g.g.g.g.g.g.g.g.g.f.f.f.f.f.f.f.f.f.f.p.p.p.p.p.u.p.p.u.u.u.p.p.u.u.u.u.u.u.u.u.u.u.u.u.u.u.u.u.u.u.u.u.u.u.u.u.u.u.u.u.u.u.u.u.u.u.u.u.u.u.u.u.u.u.s.s.s.w.0.g.3.1 1 5 5 ",
"1 + > q f.G.E.u.$.;.;.;.;.$.$.$.$.$.$.$.$.$.$.$.$.$.$.$.$.&.;.:.:.:.:.,.2.,.:.&.:.:.:.:.:.:.:.:.:.:.:.:.:.:.,.,.:.:.,.,.,.,.,.,.<.<.<.3.3.3.3.3.3.3.3.3.3.3.8.0.8.8.8.0.0.0.0.0.8.8.0.q.q.q.q.0.w.w.w.w.q.q.q.q.q.q.q.q.q.q.q.q.u.q.0.3.0.q.u.f.u.u.e.q.q.q.q.q.e.e.e.r.r.r.u.u.u.u.u.u.u.u.u.u.u.u.u.u.u.u.u.u.u.u.u.u.u.u.u.u.p.p.f.f.f.f.g.g.g.g.g.g.g.g.j.c.g.g.k.c.c.c.c.c.k.k.c.c.c.c.c.c.k.c.c.c.c.c.c.k.c.c.c.c.c.c.c.c.c.c.c.c.c.c.c.c.c.c.c.c.c.c.c.c.c.c.c.c.c.c.c.c.c.c.c.c.c.c.c.c.c.c.c.c.c.c.k.k.c.c.c.c.c.c.c.c.c.k.j.j.g.g.g.g.g.g.g.j.j.g.u.r.c.c.c.g.g.g.g.j.g.g.g.g.g.g.f.f.g.g.g.g.g.g.g.g.g.g.g.g.f.f.f.g.g.f.f.f.f.f.f.f.f.f.f.f.f.f.p.p.p.p.u.u.p.u.u.u.u.u.u.u.u.u.u.u.u.u.u.u.u.u.u.u.u.u.u.u.u.u.u.u.u.u.u.u.u.u.u.u.u.u.u.u.u.u.u.u.u.u.u.u.u.u.s.f.c.g.Z.f.1 1 5 5 ",
"1 > 5 + + 0 X.:.$.;.;.;.;.$.$.$.$.$.$.$.$.$.$.$.$.$.$.$.$.$.$.$.:.:.,.2.3.2.:.$.&.:.:.;.:.:.:.:.:.:.:.:.:.:.:.:.:.:.:.,.,.,.<.,.<.<.<.<.<.3.3.3.3.3.3.3.3.3.3.8.8.8.8.8.0.0.0.0.8.8.0.0.q.q.0.0.q.q.q.q.q.q.q.q.q.q.q.q.w.w.q.q.q.0.3.3.3.0.u.u.u.e.e.q.q.e.e.e.q.e.e.e.u.u.r.r.u.u.u.u.u.u.u.r.u.u.u.u.u.u.u.u.u.u.u.u.u.u.u.u.u.p.p.f.f.g.g.g.g.g.g.g.g.g.g.j.g.g.g.j.k.k.c.c.j.j.k.k.k.k.j.k.k.c.c.c.c.c.c.k.c.c.c.c.c.c.c.c.c.c.c.c.c.c.c.c.c.c.c.c.c.c.c.c.c.c.c.c.c.c.c.c.c.c.c.c.c.c.c.c.c.c.c.c.k.k.j.j.c.c.c.c.k.k.g.j.k.k.g.g.g.g.g.g.g.g.g.g.k.j.f.u.c.c.j.g.g.g.g.g.g.g.g.g.f.f.f.f.f.f.f.f.g.g.f.f.g.g.f.f.f.f.f.f.f.f.f.f.f.f.f.f.f.f.f.f.f.p.u.p.u.u.u.u.u.u.u.u.u.u.u.u.u.u.u.u.u.u.u.u.r.r.r.u.u.u.u.u.u.u.u.u.r.u.u.u.u.u.u.u.u.u.u.u.u.u.u.u.u.r.r.u.u.u.s.g.OX[.@XU.0 1 1 > ",
"> > ; 0 > u :.X.=.;.;.;.;.$.$.$.$.$.$.$.$.$.$.$.$.$.$.$.$.$.$.;.:.:.:.,.3.2.:.$.&.&.;.;.:.:.:.:.:.:.:.:.:.:.:.:.:.:.:.,.,.,.<.<.<.<.<.<.<.<.3.3.3.3.3.3.3.3.3.8.8.8.8.8.8.0.0.0.8.8.0.0.0.0.0.0.q.q.q.q.q.q.q.q.q.q.w.w.w.w.q.q.q.0.3.3.3.0.q.r.e.q.q.q.q.q.e.r.q.q.e.e.e.r.r.r.u.u.u.u.u.u.u.r.r.u.u.u.u.u.u.u.u.u.u.u.u.u.u.u.u.u.p.f.f.g.g.g.g.g.g.g.g.g.g.g.g.g.g.j.k.k.c.c.j.j.j.k.k.k.k.k.j.k.c.c.c.c.k.j.c.c.c.c.c.c.c.c.c.c.c.c.c.c.c.c.c.c.c.c.c.c.c.c.c.c.c.c.c.c.c.c.c.c.c.c.c.c.c.c.c.c.c.c.j.j.g.g.c.c.c.c.j.g.g.g.j.j.j.g.g.g.g.g.j.g.g.g.c.c.g.f.c.c.g.g.g.g.g.g.g.g.g.g.f.f.f.f.f.f.f.f.f.f.f.f.g.g.f.f.f.f.f.f.f.f.f.f.f.f.p.p.p.f.f.f.f.p.p.u.u.u.u.u.u.u.u.u.u.u.u.u.u.u.u.u.r.r.u.r.r.r.r.u.u.u.r.u.r.r.r.r.e.e.r.r.r.u.u.u.u.u.u.u.u.u.u.u.f.r.r.u.u.r.s.l.[.E. XR.1 > 1 1 ",
"> 5 X 0 ; r ;...=.;.;.;.;.$.$.$.$.$.$.$.$.$.$.$.$.$.$.$.&.;.:.:.,.:.:.,.2.2.:.$.&.&.&.;.:.:.:.:.:.:.:.:.:.:.:.:.:.:.:.,.,.,.<.<.<.<.<.<.<.<.3.3.3.3.3.3.3.3.3.8.8.8.8.8.8.0.0.0.8.8.0.0.0.0.0.0.q.q.q.q.q.q.q.q.w.w.w.w.w.w.q.q.q.0.8.3.3.0.q.q.q.q.q.q.q.e.r.r.q.q.q.e.e.r.r.r.r.u.u.u.u.u.u.e.e.r.r.u.u.u.u.u.u.u.u.u.u.u.u.u.u.u.p.f.f.g.g.g.g.g.g.g.g.g.g.g.g.g.g.g.j.k.c.c.j.j.j.j.k.k.k.k.j.k.c.c.c.c.c.j.c.c.c.c.c.c.c.c.c.c.c.c.c.c.c.c.c.c.c.c.c.c.c.c.c.c.c.c.c.c.c.c.c.c.c.c.c.c.c.c.c.c.c.k.g.g.g.g.c.c.c.c.j.g.g.g.j.j.g.g.g.g.g.g.k.g.f.g.c.c.c.g.c.j.g.g.g.g.g.g.g.g.g.g.f.f.f.p.f.f.f.f.f.f.f.f.f.f.f.f.f.f.f.f.f.f.f.f.f.p.p.p.p.f.f.f.f.p.u.u.u.u.u.u.u.u.u.u.u.u.u.u.u.u.u.u.r.r.r.r.r.r.r.u.u.u.r.r.r.r.r.r.e.e.e.r.r.u.u.u.u.u.u.u.u.u.u.u.p.r.r.u.u.u.s.g.}.[.*XE.< > 1 1 ",
"+ q ; ; + u ;...;.;.;.$.=.:.;...$.:.>.:.$.....$.;.;.=.$.;.:.<.<.2.:.;.,.3.8.2.:.&.&.&.;.&.:.:.:.&.&.;.:.:.;.;.:.,.,.:.:.:.,.,.,.2.2.2.2.2.3.3.3.3.3.3.3.3.3.3.3.8.8.8.8.8.8.8.8.0.0.0.0.0.0.0.0.0.0.0.0.0.0.0.0.q.q.w.w.w.q.q.q.q.0.3.3.3.0.q.q.q.q.q.q.q.e.e.e.q.q.q.e.e.r.r.u.r.r.r.r.e.e.e.e.q.r.u.u.u.u.f.g.u.p.f.f.f.f.p.u.u.u.p.p.p.p.f.g.f.g.g.g.g.g.g.g.g.g.g.g.g.j.k.k.j.j.j.j.k.c.c.c.c.c.c.c.c.c.c.c.c.c.c.c.c.c.c.c.c.c.c.c.c.c.c.c.c.c.c.c.c.c.c.c.c.c.c.c.c.c.c.c.c.c.c.c.c.c.c.c.j.c.c.g.p.f.c.V.c.c.k.j.g.j.k.c.c.k.k.j.g.g.g.g.c.c.k.j.g.j.k.k.g.g.g.g.g.g.g.g.f.g.g.g.g.f.f.f.f.f.f.f.f.f.f.f.f.f.f.f.f.f.f.f.p.f.f.f.f.p.u.u.u.p.p.u.u.u.u.f.f.f.f.p.u.u.u.u.u.u.u.u.u.u.r.r.u.u.u.u.u.r.r.r.r.r.r.r.r.r.r.r.i.i.i.i.i.i.r.r.i.r.r.u.f.f.u.u.r.e.u.g.f.u.r.p.C.B.3.;.< & q > ",
"> ; 1 r 1 u | ;...$.;.$.$.;.;.$.X.| | | $.;.;.$.;.;.$.$.$.;.:.>.:.:.&.:.<.2.,.$.&.&.&.&.&.;.;.:.;.:.:.:.:.:.:.:.:.:.:.,.,.,.,.,.2.2.2.2.2.2.3.3.3.3.3.3.3.3.3.3.8.8.8.8.8.8.8.8.0.0.0.0.0.0.0.0.0.0.0.0.0.0.0.0.q.q.q.q.w.w.q.q.w.0.3.3.8.0.q.q.q.q.q.q.q.q.q.q.q.q.q.e.e.e.r.u.r.r.r.r.e.e.e.e.e.r.u.u.u.u.p.f.u.u.p.f.f.p.u.u.u.u.p.f.p.p.f.f.f.g.g.g.g.g.g.g.g.g.g.g.g.j.k.k.j.j.j.j.k.k.c.c.c.c.c.c.c.c.c.c.c.c.c.c.c.c.c.c.c.c.c.c.c.c.c.c.c.c.c.c.c.c.c.c.c.c.c.c.c.c.c.c.c.c.c.c.c.c.c.c.k.c.c.g.f.g.c.B.c.c.k.j.j.j.j.j.j.j.j.g.g.g.g.g.j.g.g.g.g.g.g.g.g.g.g.g.g.g.g.g.g.f.g.g.f.f.f.f.f.f.f.f.f.f.f.f.f.f.f.f.f.f.f.f.f.f.f.f.f.p.u.u.u.u.p.u.u.u.u.f.p.f.p.p.u.u.u.u.u.u.u.u.u.u.r.r.u.u.u.u.u.r.r.r.r.r.r.r.r.r.r.r.i.i.i.i.r.r.r.r.r.r.u.r.w.0.q.q.g.u.q.q.e.r.r.r.u.:.+ X $ 1 : $ ",
"> > :.[.B.0.<.$...;.:.;.$.$.=.=.3.:.$.$.;.;.;.$.=.$.$.$.$.$.;.;.$.$.$.;.:.:.;.$.&.&.$.&.&.;.:.:.:.:.:.:.:.:.:.;.;.:.:.,.<.<.,.,.2.2.2.2.2.2.2.3.3.3.3.3.3.3.3.3.3.3.3.8.8.8.8.8.0.0.0.0.0.0.0.0.0.0.0.0.0.0.0.0.0.q.q.q.q.q.w.q.0.0.3.3.0.q.q.q.q.q.q.q.w.q.q.q.q.q.q.q.e.e.r.u.r.r.r.r.e.e.e.e.r.u.u.u.u.u.u.p.u.u.u.u.u.u.u.u.u.u.f.f.f.p.f.f.f.f.g.g.g.g.g.g.g.g.g.g.g.g.j.k.j.j.g.g.k.k.k.c.c.c.c.c.c.c.c.c.c.c.c.c.c.c.c.c.c.c.c.c.c.c.c.c.c.c.c.c.c.c.c.c.c.c.c.c.c.c.c.c.c.c.c.c.c.c.c.c.c.c.c.j.g.j.c.c.k.k.k.k.k.j.g.g.g.g.g.g.g.g.g.g.g.g.f.f.f.f.g.g.g.g.g.g.g.g.f.f.f.f.f.f.f.f.f.p.f.f.f.f.f.f.f.f.f.f.f.f.f.f.p.p.f.f.f.f.f.u.u.u.u.u.u.u.u.u.u.p.p.u.u.p.u.u.u.u.u.u.u.u.u.u.r.r.u.u.u.u.r.r.r.e.r.r.r.r.r.r.r.r.r.r.r.r.r.r.r.r.r.u.s.s.u.s.g.j.0.u.p.p.r.r.r.r.r.u.< > 5 > , u ",
"0 . <.[.f.<.;.:.;.;.:.;.$.X.$.$.| ..$.$...X.=.;.$.$.=.=.$.$.$.$.$.$.$.&.&.$.$.$.&.&.$.&.&.;.:.:.;.:.;.;.;.:.;.&.&.;.:.,.<.<.,.,.<.<.2.2.2.2.2.2.3.3.3.3.3.3.3.3.3.3.3.3.3.8.8.8.8.8.8.8.8.8.8.8.0.0.0.0.0.0.0.0.0.q.q.q.q.q.q.q.0.8.8.0.q.q.q.q.q.q.q.q.q.q.q.q.q.q.q.q.q.e.r.r.e.e.r.r.r.r.u.u.r.u.u.u.u.u.u.u.u.u.u.u.u.u.u.u.u.u.f.f.f.f.f.f.f.f.g.g.g.g.g.g.g.g.g.g.g.g.j.j.g.g.j.j.j.k.k.k.k.c.c.c.c.c.c.c.k.k.k.k.k.k.k.k.c.c.c.c.k.k.k.k.c.c.c.c.c.c.c.c.c.c.c.c.c.c.c.c.c.k.k.c.k.c.k.k.c.c.j.c.c.c.c.c.g.j.k.k.k.j.g.g.g.g.g.g.g.g.g.g.f.f.f.f.f.f.f.f.g.g.g.g.f.f.f.f.f.f.f.f.f.f.p.p.f.f.f.f.f.f.f.f.f.f.f.f.p.p.p.u.p.f.f.f.f.u.u.r.q.u.u.p.u.u.u.u.u.u.u.u.u.u.u.u.u.u.u.u.u.u.r.r.r.r.r.r.r.r.r.e.e.e.e.e.e.e.e.e.r.r.r.r.r.r.r.r.f.u.r.r.i.u.w.3.8.u.p.p.p.p.u.w.f.<.; 0 < $ ; . ",
"5   w. Xg.w.$.$.;.$.$.$.$.=.$.X.;.;.:.:.;.$.X...=.;.;.;.;.$.$.$.$.$.&.&.$.$.$.;.&.&.&.;.&.:.:.:.;.:.;.&.;.:.:.&.&.;.:.,.<.<.,.,.<.<.<.2.2.2.2.2.3.3.3.3.3.3.3.3.3.3.3.3.3.8.8.9.8.9.9.9.8.8.8.8.0.0.0.0.0.0.0.0.0.0.0.0.0.0.0.q.0.0.0.0.q.q.q.q.0.0.0.0.q.q.w.w.q.q.q.e.e.e.r.r.e.e.e.r.r.u.u.u.r.u.u.u.u.u.u.u.u.u.u.u.u.u.u.u.u.p.f.g.f.f.f.f.f.f.g.g.g.g.g.g.g.g.g.g.g.g.j.j.g.g.g.j.j.j.k.k.k.k.c.c.c.c.c.c.c.c.c.c.k.k.c.c.c.c.c.c.c.c.c.c.c.c.c.c.c.c.c.c.c.c.c.c.c.c.c.c.k.k.k.k.c.c.c.c.c.k.k.c.c.c.k.g.g.g.j.k.j.g.g.g.g.g.g.g.g.g.g.g.g.f.f.f.f.f.g.g.g.f.f.f.f.f.f.f.f.f.f.f.f.f.p.u.f.f.f.f.f.f.f.f.f.p.p.p.u.u.u.u.u.p.f.f.f.u.u.u.q.u.u.p.u.u.u.u.u.u.u.u.u.u.u.u.u.u.u.u.u.u.u.r.q.e.r.u.u.u.e.e.r.r.r.r.e.e.e.e.r.r.r.r.r.i.i.i.w.r.u.r.u.g.s.r.k.p.q.q.u.g.p.w.u.:.< 0 + + 0 q ",
"q X w.E.w.w.;.,.;.$.X.;.:.;.....:.;.$.$.;.:.;...;.;.;.;.;.;.$.$.$.$.&.&.$.$.&.:.&.&.&.;.&.:.:.:.:.,.:.;.:.3.<.;.;.;.:.:.,.,.,.,.,.<.<.<.2.2.2.2.2.2.3.3.3.3.3.3.3.3.3.3.3.3.8.8.9.9.9.9.8.8.8.8.0.0.0.0.0.0.0.0.0.0.0.0.0.0.0.0.q.0.0.0.q.q.q.0.q.0.0.q.q.w.w.w.q.q.q.q.q.q.e.e.q.q.e.r.r.u.u.u.e.u.u.u.u.u.u.u.u.u.u.u.u.u.u.u.u.f.g.g.f.f.p.p.f.f.g.g.g.g.g.g.g.g.g.g.g.g.g.g.g.g.g.g.j.j.j.j.j.j.k.k.k.k.j.k.k.k.k.k.j.j.k.j.k.k.k.k.k.k.k.k.c.c.k.k.k.k.c.c.c.c.c.c.c.c.c.k.j.j.j.j.k.k.k.k.k.k.j.k.c.c.j.g.g.g.g.g.g.g.g.g.g.g.g.g.g.g.f.f.g.g.f.f.f.f.g.g.f.f.f.f.f.f.f.f.p.p.f.f.f.f.u.u.p.p.p.p.p.p.p.p.p.p.u.p.u.u.u.u.u.u.u.u.u.u.u.u.r.u.u.u.u.u.u.p.u.u.u.u.u.u.u.u.u.u.u.u.u.u.u.r.q.q.e.e.u.u.e.r.e.e.e.e.q.q.q.q.r.r.r.r.r.r.i.i.w.g.h.u.w.r.f.f.q.e.p.a.u.e.r.p.k.;.+ + < q $ + ",
"5 X 0.E.u.w.$.&.:.;.;.;.$.^ I K V C C A K Q  .>.=.=.=.=.=.=.=.=.$.$.$.$.$.&.;.;.&.&.&.;.;.:.:.:.:.,.:.;.,.8.3.:.:.:.:.:.:.:.:.:.<.<.<.<.<.2.2.2.2.2.3.3.3.3.3.3.3.3.3.3.3.3.8.8.9.9.9.9.9.9.9.9.0.0.0.0.0.0.0.0.8.8.0.0.0.0.0.0.q.w.0.0.w.q.q.0.q.q.q.q.w.w.q.q.q.q.q.q.q.q.q.q.q.q.e.r.u.u.u.u.q.u.u.u.u.u.u.u.u.u.u.u.u.u.u.u.u.f.g.g.g.f.p.p.f.f.f.g.g.g.g.f.g.g.g.g.g.g.g.g.g.g.g.g.j.k.k.k.j.j.j.k.k.k.k.k.k.k.k.k.k.k.k.k.k.k.k.k.k.k.k.k.c.k.k.k.c.c.c.c.k.k.c.c.c.c.c.c.k.k.j.j.c.c.c.c.g.g.j.k.j.g.g.g.g.g.g.g.g.g.g.g.g.g.g.g.f.f.f.f.g.g.f.f.f.f.g.g.f.f.f.f.f.f.p.p.u.p.p.p.f.p.u.u.p.p.p.p.p.p.p.p.u.p.p.u.u.u.u.u.u.u.u.u.u.u.u.p.u.u.p.u.u.u.u.f.u.u.u.u.u.u.u.u.u.u.u.u.u.u.u.u.q.q.q.e.e.r.r.r.e.e.e.q.q.q.q.q.w.w.r.r.r.r.i.r.f.r.:.! K K I K P ~ :.p.f.w.w.f.r.r.| R , ; o 1 ",
"5 + <.R.f.0...;.;.;.:.$.^ C f r h n V j w p K X.=.$.$.$.$.$.=.;.&.$.$.$.&.;.;.&.&.&.&.;.;.:.:.:.;.:.:.&.:.8.3.;.:.:.:.:.:.:.:.:.<.<.<.<.<.2.2.2.2.2.3.3.3.3.3.3.2.3.3.3.3.3.8.8.9.9.9.9.9.9.9.9.0.0.0.0.0.0.0.0.8.8.8.0.0.0.0.0.r.q.0.0.0.q.0.0.q.q.w.w.w.q.q.q.q.q.q.q.q.q.q.q.q.q.e.r.r.u.u.u.q.u.u.u.u.u.u.u.p.u.u.u.u.u.u.p.u.f.g.g.g.f.p.p.f.f.f.g.g.g.g.f.g.g.g.g.g.g.g.g.g.g.g.g.j.k.k.k.j.j.j.j.k.k.k.k.k.k.k.k.k.k.k.k.j.k.k.k.j.k.k.k.c.c.k.k.c.c.c.c.k.k.k.k.c.c.c.c.k.k.k.j.c.c.c.c.g.j.c.j.g.g.g.g.k.g.g.f.f.g.g.g.g.g.g.f.f.f.f.p.f.f.f.f.f.f.f.g.f.f.f.f.f.p.p.p.u.u.p.p.f.p.u.u.p.p.p.p.p.p.p.p.u.u.u.u.u.u.u.u.u.u.u.u.u.u.f.f.u.p.p.u.u.u.p.f.u.u.u.u.u.u.u.u.u.u.u.u.u.u.u.u.q.q.q.e.e.r.r.r.q.q.e.q.q.q.q.q.w.w.r.r.r.r.r.r.3.} V w r j h e v u c { u.g.u.r.f.<.k.r.; > 0 ; ",
"1 > <.R.f.3.;.=.>.X...Q r h =.3.g.|.^.Y.L...; R :.:.;.} 3. . .=.$.$.$.$.$.$.&.;.:.:.:.&.&.&.;.;.,.:.;.;.:.,.:.:.:.:.:.:.:.:.:.:.,.,.,.,.,.<.<.<.2.2.2.3.3.3.0.0.3.3.3.9.9.9.9.3.3.3.3.9.9.9.9.9.8.8.8.8.8.8.8.8.8.8.8.8.8.8.8.8.0.0.0.0.0.0.0.0.0.0.0.q.q.w.q.q.q.q.q.q.q.e.r.u.u.u.u.u.e.q.0.0.q.r.u.p.u.u.u.u.r.u.f.u.r.u.u.u.u.u.f.f.f.f.p.p.f.f.f.f.f.g.g.g.g.g.g.g.g.g.g.g.g.g.g.g.g.g.g.g.j.g.g.g.g.g.j.k.k.k.k.k.k.k.k.k.c.c.c.c.c.k.k.c.c.c.c.c.c.c.c.c.k.k.k.j.j.k.k.c.c.c.c.j.j.g.g.g.k.k.k.k.c.c.k.k.g.g.g.g.g.g.g.g.g.g.g.g.g.f.f.f.f.f.f.f.f.p.p.p.p.f.p.u.u.u.u.u.p.p.p.p.p.p.u.u.u.u.u.u.u.u.u.u.u.u.u.u.u.u.u.u.u.u.u.u.u.u.u.p.p.u.u.u.u.u.u.u.u.u.u.u.u.u.u.u.r.r.r.r.r.r.r.r.e.e.e.e.e.e.e.e.q.q.e.r.r.u.u.u.w.w.w.r.g.w.f.0.} h j ) s.w.C.J.A.c.{ s { c.8.r.u.w.f.<., : ; , ",
"> ; >.R.f.3.;.$...| C u h W g.U.^.4X,X4X=Xs.B p c Q =.} :.$.=.$.$.$.$.$.$.$.&.&.:.:.:.&.&.&.;.:.:.;.&.;.;.:.:.:.:.:.:.:.:.:.:.:.,.,.,.,.,.,.<.<.2.2.2.2.3.3.3.8.3.3.3.3.9.9.8.3.8.8.3.9.9.9.9.9.8.8.8.8.8.8.8.8.8.8.8.8.8.8.8.8.0.0.0.0.0.0.0.0.0.0.0.0.q.w.q.q.e.q.q.q.w.q.u.u.u.r.w.0.3.3.0.0.8.q.q.q.q.0.8.0.q.u.u.u.u.u.u.u.u.u.p.f.f.f.f.f.f.f.f.f.f.g.g.g.g.g.g.g.g.g.g.g.g.g.g.g.g.g.g.g.j.g.g.g.g.g.j.k.j.k.k.k.k.k.k.k.c.c.c.c.c.c.k.k.c.c.c.c.c.c.c.k.k.k.k.j.j.j.j.k.k.k.k.j.j.g.g.g.j.j.j.j.j.k.j.j.g.g.g.g.g.g.g.g.g.g.f.g.f.f.f.f.f.f.f.f.f.p.p.p.p.p.u.u.u.u.u.u.u.u.p.p.p.p.u.u.u.u.u.u.u.u.u.u.u.u.u.u.u.u.u.u.u.u.u.u.u.u.u.p.p.u.u.u.u.u.u.u.u.u.u.u.u.u.u.u.r.r.r.r.r.r.r.r.e.e.e.e.e.e.e.e.q.q.e.r.r.r.u.u.r.w.r.q.w.0.w.D r u I r./.}.4X4X4X4Xp.V 0 v p.l.f.w.g.<., > ; , ",
"> ; >.E.g.6.:.$.;.| q ; A ) 3.C.Y.4X1X4X^.i.:.h 8 L >.$.$.$.:. .$.$.$.$.$.$.$.$.:.:.&.&.$.$.&.:.:.:.:.;.;.&.;.:.:.:.:.:.:.:.:.:.,.,.,.,.,.,.,.<.2.2.2.2.2.3.3.3.3.3.3.3.8.9.8.8.8.8.8.8.9.9.9.9.8.8.8.8.8.8.0.8.8.8.8.8.8.8.8.8.8.8.0.0.0.0.0.0.0.0.0.0.q.q.w.q.u.q.q.0.0.q.u.u.e.q.0.0.3.3.8.0.0.q.w.w.0.8.8.0.3.q.u.u.u.u.u.u.u.u.u.u.f.f.f.g.f.f.f.f.f.f.f.g.g.g.g.g.g.g.g.g.g.g.g.g.g.g.g.g.g.g.g.g.g.g.j.j.j.k.k.k.k.k.k.k.c.c.c.c.k.k.k.k.k.k.k.j.k.j.g.g.k.k.k.j.j.g.g.g.k.j.j.j.g.g.g.g.g.g.g.g.g.g.g.g.g.g.g.g.g.g.g.g.g.f.f.f.f.f.f.f.f.f.f.f.p.p.p.p.p.u.u.u.u.u.u.u.u.u.u.u.p.u.u.u.u.u.u.u.u.u.u.u.u.u.u.u.u.u.u.u.u.u.u.u.u.u.u.u.u.u.u.u.u.u.u.u.u.u.u.u.u.u.u.u.r.r.r.r.r.e.e.e.e.e.e.e.e.e.r.r.q.q.q.q.e.e.e.r.r.w.f.w.w.u.0.w w A } 6.C.E.,X,X3X+X9.9.C q 3.u.f.r.l.<., : : , ",
"> ; >.E.g.0.:.;.) J 0 A r.u.r.C.).4X4X4X).G.Y. .n D } =. . .=.$.$.$.$.$.$.$.$.$.&.&.$.$.$.$.;.:.<.3.3.,.;.&.&.:.:.:.:.:.:.:.:.:.,.,.,.,.,.,.,.,.2.2.2.2.2.2.2.2.3.3.3.3.3.3.8.3.3.3.8.8.3.9.9.9.3.3.3.3.3.3.8.8.3.3.3.3.3.3.3.3.3.8.8.8.0.0.0.0.0.0.0.0.q.q.w.w.q.q.q.0.0.w.e.r.0.q.r.u.u.q.0.8.q.q.w.w.w.w.q.q.2.q.u.u.u.u.u.u.u.u.u.u.f.f.g.g.f.f.f.f.f.f.f.f.f.f.g.g.g.g.g.g.g.g.g.g.g.g.g.g.g.g.g.g.g.g.g.k.g.j.j.j.j.j.j.j.k.k.k.k.j.j.j.j.k.k.j.j.j.j.g.g.g.g.j.j.j.g.g.g.j.j.j.g.g.g.g.g.g.g.g.g.g.g.g.g.g.g.g.g.g.g.f.f.f.f.f.f.f.f.f.f.f.f.f.p.p.p.u.u.u.u.u.u.u.u.u.u.u.u.u.u.u.u.u.u.u.u.u.u.u.u.u.u.u.u.u.u.u.u.u.u.u.u.u.u.u.u.u.u.u.u.u.u.u.u.u.u.u.u.u.u.u.u.u.r.r.r.r.e.e.e.e.q.q.q.q.q.q.q.e.e.q.q.q.q.q.e.e.e.w.r.u.w.u.<.) 0 U ;.6.r.C.}.4X4X4XY.~.|.$.l G w.u.r.h.<.: : : > ",
"1 ; :.R.f.0.<.:.M q u ;.C.C.c.f.q.h.h.n.#X1X_.s.R a n  .$. .@.:.$.$.$.$.$.$.$.$.$.$.$.$.$.&.;.:.,.<.<.:.;.&.;.:.;.;.;.:.:.:.:.:.,.,.,.,.,.,.<.<.<.2.2.2.2.2.,.,.3.2.3.3.3.4.3.3.3.3.3.9.4.4.9.9.3.3.3.3.8.8.8.8.8.8.8.8.3.3.3.3.8.8.8.3.8.8.8.0.0.0.0.0.0.q.w.w.0.q.w.w.q.w.w.q.w.e.u.u.u.u.e.w.q.0.0.q.q.w.w.q.3.w.u.u.u.u.u.u.u.p.p.p.f.f.f.g.f.f.f.f.f.f.f.g.f.f.f.g.g.g.g.g.g.g.g.g.g.g.g.g.g.g.g.g.g.g.g.k.k.k.k.k.j.j.j.j.k.k.k.k.k.k.k.k.k.j.j.g.j.j.g.g.g.g.g.j.j.g.g.g.j.j.g.g.g.g.g.g.g.g.g.g.g.g.g.g.g.g.g.g.g.f.f.f.f.f.f.f.f.f.f.f.f.f.p.p.f.p.p.u.u.u.u.u.u.u.u.u.u.u.u.u.u.u.u.u.u.u.u.u.u.u.u.u.u.u.u.u.u.u.u.u.u.u.u.u.u.u.u.u.u.u.u.u.u.u.u.u.u.u.u.u.e.e.e.e.r.r.r.e.e.e.e.q.q.q.q.q.e.e.e.e.q.q.q.e.q.q.q.e.w.u.6.3.r.J r q <.k.C.C.g.f.B.c.+X{.@XY.w.$.e c u.u.h.<.; : > , ",
"> ; :.R.f.3.:.;.r > l ..>.r.u.L c j n B b.|.s.7.` , 5  .-.@.@.=.$.$.$.$.$.$.$.$.$.$.$.$.$.&.;.:.&.&.;.;.;.;.:.:.;.;.;.:.:.:.:.:.:.,.,.,.,.,.,.,.<.2.2.3.3.2.2.,.3.2.2.4.3.3.3.3.2.3.3.3.4.4.9.8.3.3.3.3.3.3.3.3.3.3.3.3.3.3.3.3.3.3.3.8.3.3.8.8.8.0.0.0.0.q.q.q.0.0.w.q.q.w.0.0.u.r.e.q.q.r.u.u.u.r.e.q.q.q.0.0.3.q.u.u.r.u.u.u.p.p.f.f.f.f.f.f.p.f.f.f.f.f.f.f.f.f.f.f.g.g.g.g.g.g.g.g.g.g.g.g.g.g.g.g.g.g.j.j.j.j.j.j.g.g.g.g.j.j.j.j.j.j.j.j.k.k.j.j.j.g.g.g.f.f.g.g.j.j.g.g.j.j.g.g.g.g.g.g.g.g.g.g.g.g.g.g.g.g.g.g.f.f.f.f.f.f.f.f.f.f.f.p.p.p.p.p.p.p.p.u.u.u.u.u.u.u.u.u.u.u.u.u.u.u.u.u.u.u.u.u.u.u.u.u.u.u.u.u.u.u.u.u.u.r.u.u.u.u.u.u.u.u.u.u.u.u.u.u.u.u.u.u.e.q.q.q.r.r.e.e.e.q.q.q.q.q.q.q.q.q.q.q.q.q.q.q.q.q.q.q.w.f.3.0.i.u X h ;.r.c.k.U l l h l F.+XV.:.Q < s r.r.h.<.; : > , ",
"> ; <./.g.0.:.;.r ; l } } w.f.C N m m a 3.z.=.>.' 5 9 @.$.=.$. .$.$.$.$.$.$.$.$.$.$.$.$.$.&.;.:.&.&.$.&.;.;.:.;.;.;.:.:.:.:.:.:.:.:.,.,.,.,.,.,.<.<.2.3.3.3.2.2.2.2.2.3.3.3.3.2.2.2.3.3.3.4.9.8.3.3.3.3.3.3.3.3.3.3.3.3.3.3.3.3.3.3.3.3.3.3.3.3.8.8.0.0.0.0.q.q.0.0.q.q.q.q.0.0.r.q.w.q.w.e.u.u.u.u.u.u.u.u.q.0.0.e.u.u.e.u.u.u.p.f.g.g.g.f.p.u.p.p.f.f.f.f.f.f.f.f.f.f.f.g.g.g.g.g.g.g.g.g.g.g.g.g.g.g.g.g.g.g.j.j.j.g.g.g.g.g.j.j.j.j.j.j.j.j.j.g.g.g.g.g.g.g.u.f.g.g.j.k.k.j.j.j.j.g.g.g.g.g.g.g.g.g.g.g.g.g.g.g.g.g.f.f.f.f.f.f.f.f.f.f.p.p.p.p.p.u.p.p.u.u.u.u.u.u.u.u.u.u.u.u.u.u.u.u.u.u.u.u.u.u.u.u.u.u.u.u.u.u.u.u.u.u.u.r.r.r.u.u.u.u.u.u.u.u.e.e.r.u.r.r.u.e.e.e.q.q.r.r.e.e.e.q.q.q.q.q.q.q.q.q.q.q.q.q.q.q.q.q.q.q.q.s.w.r.r.p ; c U } 6.s.A l C M k c.p.0.,.^ 5 k w.r.g.>.& : , , ",
"> > 0.}.c.r.<.;.f $ u ) } 3.r.N c N B c 6.g.>.=.! q u  .) ;.>. .$.$.$.$.$.$.$.$.$.$.$.$.$.&.;.:.,.:.;.&.;.:.&.$.;.;.;.:.:.:.:.:.:.:.:.,.,.,.,.,.<.<.2.3.3.3.3.2.2.3.3.3.3.3.3.3.3.3.3.3.3.3.8.8.3.3.3.3.3.3.3.3.3.3.3.3.3.3.3.3.3.3.3.3.3.3.3.3.8.8.0.0.0.0.q.q.w.q.0.0.0.0.0.q.0.w.q.r.u.u.u.u.u.u.u.u.p.u.u.q.8.q.u.r.e.u.p.f.p.f.g.g.g.f.u.u.p.p.p.f.f.f.f.f.f.f.f.f.f.g.g.g.g.g.g.g.g.g.g.g.g.g.g.g.g.g.g.g.g.g.j.g.g.g.g.g.j.j.j.j.j.j.j.j.g.g.g.g.g.g.g.g.u.u.f.g.j.k.c.j.j.j.j.g.g.g.g.g.g.g.g.f.f.f.f.f.g.g.g.g.f.f.f.f.f.f.f.f.f.p.p.p.p.p.p.u.p.u.u.u.u.u.u.u.u.u.u.u.u.u.u.u.u.u.u.u.u.u.u.u.u.u.u.u.u.u.u.u.u.u.u.u.u.r.r.r.r.u.u.u.u.u.u.r.e.e.e.u.r.r.e.e.e.q.q.q.r.r.e.q.q.q.q.w.q.q.q.q.q.q.q.q.q.q.q.q.q.q.q.q.0.i.u.u.3.f 1 r ) } 3.f.A M A u M p.p.,.;...; u 0.w.g.>.$ : , < ",
"> 1 I :.;.) :.$.u $ h ^ | w.w.J n l l V 3.i.0.$.Q w r ..=.;...;.$.$.$.$.$.$.$.$.$.$.$.$.$.$.$.$.&.&.&.&.&.;.;.;.;.;.;.:.:.:.:.:.:.:.,.,.<.,.,.:.,.,.,.,.<.<.3.3.3.3.3.3.3.3.3.8.8.8.8.3.3.3.3.3.3.3.3.3.3.3.3.3.3.3.3.3.3.3.3.3.3.3.3.3.3.3.3.8.0.0.8.0.0.0.0.0.0.0.q.q.q.q.w.w.w.w.q.q.q.q.q.q.u.u.r.u.u.u.r.q.8.q.u.u.u.e.u.g.u.u.u.u.p.u.u.u.p.p.p.f.f.f.f.f.f.f.f.f.f.g.g.g.p.f.g.g.g.f.g.g.g.g.g.g.g.g.g.g.g.g.g.g.g.g.g.g.g.g.g.g.g.g.g.g.g.g.g.g.g.g.g.g.u.u.f.g.g.g.g.g.g.g.g.g.g.g.g.g.g.g.g.g.g.f.f.f.g.g.g.g.f.f.f.p.f.f.f.p.p.u.u.u.p.p.p.u.u.u.u.u.u.u.u.u.u.u.u.u.u.u.u.u.u.r.r.r.r.r.u.u.u.u.u.u.u.u.u.u.u.u.u.u.e.e.r.r.r.r.r.r.u.u.e.e.u.u.u.e.u.r.e.q.q.q.q.e.u.r.r.e.q.q.q.w.q.q.q.q.q.q.q.q.q.q.q.q.q.e.e.e.w.w.r.r.w.u $ l } ) w.g.C l V l c w.w.<.3.W $ l r.r.g.<.; ; ; > ",
"5 ; ; + + q ..<.h > r A J ) <.} ) } | | 3.<.| U K 5 q | $.;...;.$.$.$.$.$.$.$.$.$.$.$.$.$.&.$.$.&.&.&.&.&.;.;.;.;.;.;.:.:.:.:.:.:.:.,.,.,.,.,.,.,.,.,.,.<.<.3.3.<.<.3.3.3.3.3.3.8.8.8.3.3.3.3.3.3.3.3.3.3.3.3.3.3.3.3.3.3.3.3.3.3.3.3.3.3.3.3.8.8.0.8.0.0.0.0.0.0.0.0.q.q.q.w.w.w.w.w.q.q.q.q.q.u.e.e.u.u.u.u.q.0.0.e.u.u.q.u.p.u.u.u.u.p.p.u.u.p.p.p.f.f.f.f.f.f.f.f.f.f.f.g.g.f.f.f.f.f.f.f.f.g.g.g.g.g.g.g.g.g.g.g.g.g.g.g.g.g.g.g.g.g.g.g.g.g.g.g.g.g.g.g.g.f.g.g.j.c.k.k.j.g.g.g.g.g.g.g.g.g.g.g.g.g.f.f.f.g.g.g.f.f.f.f.f.f.f.p.p.p.u.u.u.p.p.u.u.u.u.u.u.u.u.u.u.u.u.u.u.u.u.r.r.u.r.r.r.e.r.r.u.u.u.u.u.u.u.u.u.u.u.u.u.e.e.r.r.r.r.r.r.u.r.q.q.u.u.u.u.u.u.r.r.e.e.r.r.r.e.e.q.q.q.q.q.q.q.q.q.q.q.q.q.q.q.q.e.q.q.e.e.w.r.u.r.0.f $ f A I } <...} ) ) | u.r.) ^ W ; u r.r.g.<.; ; > > ",
"; 5 1 > > u <.$.u $ ; q q c } 3.r.u.u.w.) I c u f > r ) $.$.$.;.$.$.$.$.$.$.$.$.$.$.$.$.$.&.&.&.&.&.&.&.&.;.;.;.;.;.;.:.:.:.:.:.:.:.:.,.,.,.,.,.,.,.,.,.<.<.3.3.<.<.3.3.3.3.3.3.3.8.3.3.3.3.3.3.3.3.3.3.3.3.3.3.3.3.3.3.3.3.3.3.3.3.3.3.3.3.3.3.8.0.8.8.0.0.0.0.0.0.0.0.0.q.q.q.q.q.w.q.q.q.q.q.e.e.e.e.u.u.u.u.w.q.q.u.u.r.r.u.u.u.u.u.p.p.p.p.p.p.p.f.f.f.f.f.f.f.f.f.f.f.f.g.g.f.f.f.f.f.f.f.g.g.g.g.g.g.g.g.g.g.g.g.g.g.g.g.g.g.g.g.g.g.g.g.g.g.g.g.f.f.g.g.g.j.c.c.c.c.k.j.g.g.g.g.g.g.g.g.g.g.g.g.f.f.f.f.f.f.f.f.f.f.f.f.f.p.p.p.u.u.u.u.u.u.u.u.u.u.u.u.u.u.u.u.u.u.u.u.u.r.r.r.e.e.r.r.e.r.u.u.u.u.u.u.u.u.u.u.u.u.u.u.e.e.e.e.r.r.r.r.r.q.q.r.u.u.p.p.u.u.u.r.u.u.r.u.q.q.q.q.q.q.q.q.q.q.q.q.q.q.q.q.q.q.q.q.q.q.q.q.w.u.u.w.<.c $ 1 1 h c I f.f.0.k.f...^ f 5 h + h r.r.g.<.> > > > ",
"X 1 ; ; $ q :.} V q > q r h W 0.r.u.w.0.K V f 0 > q A ..X.$.;.$.#.#.$.$.$.$.$.$.$.$.$.$.$.&.&.&.&.&.&.&.&.;.;.;.;.;.;.:.:.:.:.:.:.:.:.:.,.,.,.,.,.,.,.,.<.<.3.3.<.<.<.3.3.3.3.3.3.3.3.3.3.3.3.3.3.3.3.3.3.3.3.3.3.3.3.3.3.3.3.3.3.3.3.3.3.3.3.3.3.8.8.8.8.0.0.0.0.0.0.0.0.0.0.0.q.q.q.q.q.q.q.q.e.q.q.q.e.u.u.u.q.q.q.u.u.u.u.u.u.u.u.u.u.p.p.p.u.u.p.f.p.f.f.f.f.f.f.f.f.f.g.g.g.g.f.f.g.g.g.g.f.f.g.g.g.g.g.g.g.g.g.g.g.g.g.g.g.g.g.g.g.g.g.g.g.g.g.g.f.g.g.g.g.g.g.g.g.g.g.g.g.g.g.g.g.g.g.g.g.g.g.f.f.f.f.f.f.f.f.f.f.f.f.f.p.p.p.u.p.u.u.u.u.u.u.u.u.u.u.u.u.u.u.u.u.u.u.u.r.r.r.e.e.r.e.e.e.e.u.u.u.u.u.u.r.u.u.u.u.u.u.u.e.e.e.e.r.r.r.r.q.q.r.u.u.u.u.u.u.u.r.e.r.r.e.r.q.q.q.q.q.q.e.e.q.q.w.w.w.q.q.q.w.q.q.q.q.q.q.q.0.u.r.w.0.K 5 ; 1 u f V f.f.r.B.f.J M r $ > r Q r.r.g.<.> > > > ",
"5 q ; ; $ 0 0.<.W h 1 5 r r M Q W U U W l h r 0 $ N $.:.$.X.;.| #.#.#.$.$.$.$.$.$.$.$.$.$.$.&.&.&.&.&.&.&.;.;.;.;.;.;.:.:.:.:.:.:.:.:.:.,.,.,.,.,.,.,.,.<.<.<.3.<.<.<.3.3.3.3.3.3.3.3.3.3.3.3.3.3.3.3.3.3.3.3.3.3.3.3.3.3.3.3.3.3.3.3.3.3.3.3.3.3.3.3.8.8.8.0.0.0.0.0.0.0.0.0.0.q.q.q.w.w.w.q.q.q.q.q.w.q.e.u.u.w.0.0.r.u.u.u.u.u.u.u.u.u.u.u.p.u.u.u.p.p.p.f.f.f.f.f.f.f.f.f.f.g.f.f.f.g.g.g.g.f.f.f.g.g.g.g.g.g.g.g.g.g.g.g.g.g.g.g.g.g.g.g.g.g.g.g.g.g.g.g.g.g.g.g.g.g.g.f.f.g.g.g.g.g.g.g.g.g.g.f.f.f.f.f.f.p.p.p.p.f.f.f.f.p.p.u.p.p.u.u.u.u.u.u.u.u.u.u.u.u.u.u.u.u.u.u.u.u.u.u.u.e.e.e.e.e.r.r.r.r.r.r.r.r.r.u.u.u.u.u.u.r.r.r.r.r.r.r.r.q.r.u.u.u.q.0.3.r.e.q.q.q.q.q.q.w.w.w.q.q.q.q.q.q.w.w.w.w.w.q.q.w.q.q.q.w.w.q.q.0.r.w.w.w.| l > 5 q h c ) W W ^ Q h h c 1 $ K :.r.w.f.<.> > > > ",
"$ ; ; 1 > 0 ....Q h ; ; 1 1 q l r w r f 0 5 > ; ; A :.$.X...;.X.#.#.#.#.$.$.$.$.$.$.$.$.$.$.$.$.&.&.&.&.&.;.;.;.;.;.;.:.;.:.:.:.:.:.:.:.:.:.,.,.,.,.,.,.<.<.<.3.<.<.<.<.<.3.3.3.<.<.<.3.3.3.3.3.2.2.2.2.2.2.2.2.2.2.2.2.2.2.2.2.2.3.3.3.3.3.3.3.3.3.3.3.8.8.8.8.8.8.8.0.0.0.0.0.0.q.q.q.q.w.q.q.q.q.q.q.w.q.e.u.q.8.8.q.u.u.q.q.u.u.u.u.u.u.u.u.u.u.u.u.p.p.p.p.p.f.f.f.f.f.f.f.p.f.g.g.f.f.f.f.f.f.f.f.g.g.g.g.g.g.g.g.g.g.g.g.g.g.g.g.g.g.g.g.g.g.g.g.g.g.g.g.g.g.g.g.g.g.g.g.f.f.f.f.g.g.f.f.f.f.f.f.f.f.f.f.p.p.p.p.p.p.u.u.u.u.u.p.u.u.u.u.u.u.u.u.u.u.u.u.u.u.u.u.r.r.u.e.r.u.u.r.e.e.e.q.e.e.r.r.e.e.e.e.e.e.r.r.r.r.e.r.r.r.r.r.r.r.r.r.r.u.u.u.e.0.3.3.e.q.q.q.w.w.q.q.q.q.q.w.q.q.q.q.q.q.q.q.q.q.q.q.q.q.0.q.q.q.w.w.w.u.3.w.3.$.M > > ; q h l u f r u q 0 0 $ > } <.r.w.f.<.> > > > ",
"1 ; 1 ; ; u $.:.} J h q 1 0 u u w w w 0 q 1 1 0 l I $.| ;.| ;.;.#.#.#.#.#.$.$.$.$.$.$.$.$.$.$.$.&.&.&.&.&.;.;.;.;.;.;.;.:.:.:.:.:.:.:.:.:.:.,.,.,.,.,.,.<.<.<.3.<.<.<.<.<.<.<.<.<.<.<.<.<.3.3.<.2.2.2.2.2.2.2.2.2.2.2.2.2.2.2.2.2.2.3.3.3.3.3.3.3.3.3.3.3.8.8.8.3.3.8.8.8.0.0.0.0.0.q.q.q.w.w.q.w.q.e.q.w.q.q.r.e.w.q.u.u.e.q.q.u.u.u.u.u.u.u.u.u.u.u.u.u.p.p.p.p.p.f.f.f.f.f.f.f.j.c.c.g.u.p.f.f.f.f.f.f.g.g.g.g.g.g.g.g.g.g.g.g.g.g.g.g.g.g.g.g.g.g.g.g.g.g.g.g.g.g.g.g.f.g.g.f.f.f.f.g.g.f.f.g.g.f.f.f.f.f.f.f.f.p.p.p.u.u.u.u.u.p.u.u.u.u.u.u.u.u.u.u.u.r.r.u.u.u.u.r.r.e.e.r.r.r.e.e.e.q.q.q.q.q.q.q.q.e.e.e.e.e.e.r.r.r.r.r.r.r.r.r.r.r.r.u.u.u.e.q.0.0.q.r.e.q.q.q.q.q.q.q.q.q.w.q.w.q.0.q.q.q.q.q.q.w.q.0.0.0.0.0.q.q.q.w.u.3.w.<.:.J f u 5 0 h r u u q u 0 5 ; r C 3.u.r.w.u.:.> > > ; ",
"> $ 5 X X u ..;.$.^ K l 1 1 0 1 0 q q ; q > q c $...;...3.| ..=.#.#.#.#.#.$.$.$.$.$.$.$.$.$.$.$.&.&.&.&.&.;.;.;.;.;.;.;.:.:.:.:.:.:.:.:.:.:.,.,.,.,.,.,.<.<.3.3.<.<.<.<.<.<.<.<.,.<.<.<.<.3.3.3.2.2.2.2.2.2.2.2.2.2.2.2.2.2.2.2.2.2.2.3.3.3.3.3.3.3.3.3.3.8.8.8.3.3.3.8.8.8.0.0.0.0.0.q.q.w.w.q.q.q.r.q.w.0.w.q.u.u.u.p.u.r.q.e.u.u.u.u.u.u.u.u.u.u.u.u.u.p.p.p.p.p.p.f.f.f.f.f.g.c.V.B.j.p.p.f.f.f.f.f.f.g.g.g.g.g.g.g.g.g.g.g.f.f.f.f.f.f.g.f.g.g.g.g.g.g.g.g.g.g.f.f.f.f.f.f.f.f.f.f.g.g.f.f.g.g.f.f.f.f.f.f.f.f.p.u.u.u.u.u.u.u.p.u.u.u.u.u.u.u.u.u.u.u.r.u.u.u.u.u.r.e.e.e.r.r.r.e.e.q.q.q.q.q.q.q.q.q.e.e.e.e.e.e.r.r.r.r.r.r.r.r.r.r.r.r.u.u.e.q.0.0.u.u.u.r.e.q.q.q.q.e.e.q.q.q.q.q.q.0.q.q.q.q.q.q.w.q.0.0.0.0.0.0.q.q.3.w.3.r.0.r...W C u ; 5 > r 0 0 r $ 1 0 W $.3.u.r.0.u.:.> > > ; ",
"5 $ 0 l > M | ;.;.| Q A f 1 ; > 5 > > 1 ; > M | $.$.$.$.$.X.X.X.#.#.$.$.$.$.$.$.$.$.$.$.$.$.$.$.$.&.;.;.;.;.:.:.:.;.;.;.;.:.:.:.:.:.:.:.:.,.,.,.:.:.,.,.,.,.,.,.3.3.3.<.<.<.<.<.<.<.<.<.<.<.<.<.2.2.2.2.2.2.2.2.2.2.2.2.2.2.2.2.2.2.2.3.3.3.3.3.3.3.3.3.3.8.8.8.8.8.8.0.0.0.0.0.0.0.0.q.q.q.q.q.q.q.q.q.q.q.q.q.u.u.u.u.u.u.r.r.u.u.u.u.u.u.u.u.p.p.u.u.u.u.p.f.p.p.p.f.f.f.f.f.g.c.V.B.c.f.f.f.g.f.g.g.f.f.g.c.g.g.g.g.g.g.g.g.f.f.f.g.g.g.g.g.g.g.g.g.g.g.g.g.g.g.g.g.g.f.f.f.f.f.f.f.f.f.f.f.f.f.g.f.p.u.p.f.p.f.f.f.f.p.u.u.u.u.u.u.u.u.u.u.u.u.u.u.u.u.u.u.u.u.u.r.u.e.e.e.e.e.e.q.q.q.q.q.r.e.e.q.q.e.r.u.u.u.r.e.e.e.e.e.u.u.r.e.e.r.u.u.r.u.u.3.3.e.u.r.u.e.e.q.q.q.q.q.e.q.q.q.q.q.0.0.q.q.q.q.q.0.0.0.q.0.0.0.q.q.q.q.3.0.q.0.w.r.<...I c 0 > ; ; ; 1 1 ; 5 J ;.w.w.0.w.f.w.0.; > ; 1 ",
"; $ K k.<.X.$.| =.$...Q C r 5 5 1 5 5 5 0 l I | $.$.$.$.$.X.X.X.#.#.$.$.$.$.$.$.$.$.$.$.$.$.$.$.$.&.;.;.;.;.:.:.:.;.;.;.;.:.:.:.:.:.:.:.:.,.,.,.:.:.,.,.,.,.,.,.3.3.3.<.<.<.<.<.<.<.<.<.<.<.<.<.2.2.2.2.2.2.2.2.2.2.2.2.2.2.2.2.2.2.2.3.3.3.3.3.3.3.3.3.3.3.3.3.8.8.8.0.0.0.0.0.0.0.0.q.q.q.q.q.q.q.q.q.q.q.q.q.u.u.u.u.u.u.u.r.u.u.u.u.u.u.u.u.p.u.u.u.u.u.p.f.p.p.p.f.f.f.f.f.g.j.c.c.c.k.f.p.g.f.f.g.f.u.f.j.g.g.g.g.g.g.g.g.f.f.g.g.g.g.g.g.g.g.g.g.g.g.g.g.g.g.g.g.g.f.f.f.f.f.f.f.f.f.f.f.f.f.f.f.p.p.p.p.p.p.f.f.p.u.u.u.u.u.u.u.u.u.u.u.u.u.u.u.u.u.u.u.u.u.r.r.u.e.e.e.e.e.q.q.q.q.q.q.r.e.q.q.q.q.r.u.r.r.e.e.e.r.e.u.q.w.w.w.q.e.u.u.u.u.e.0.0.q.r.e.q.q.q.q.q.q.q.q.q.q.q.q.q.q.0.0.0.0.q.q.0.0.0.0.q.0.0.0.0.q.q.q.0.w.w.0.w.r.w.:.) C r 0 0 5 5 5 0 w N } 0.r.w.0.0.w.r.<.$ 1 $ 1 ",
"0 $ C f.;.| $.;.$.;.;.| U M h j l V N c A ) ;.;.$.$.$.$.$.$.X.X.#.#.$.$.$.$.$.$.$.$.$.$.$.$.&.&.$.&.;.;.;.;.;.:.:.;.;.;.;.:.:.:.:.:.:.:.:.,.,.,.:.:.:.,.,.,.,.,.<.<.<.<.<.<.<.<.<.<.<.<.<.<.<.<.2.2.2.2.2.2.2.2.2.2.2.2.2.2.2.2.2.2.2.2.3.3.3.3.3.3.3.3.3.3.3.3.8.8.0.0.0.0.0.0.0.0.0.0.q.q.q.q.q.q.q.q.q.q.q.q.q.e.e.r.u.u.u.u.u.u.u.u.u.u.u.u.u.u.u.u.u.u.u.p.p.p.f.f.f.f.f.f.f.f.f.k.M.c.j.p.g.f.f.f.f.u.p.g.g.g.g.g.g.g.g.g.g.g.g.g.g.f.f.f.g.g.g.g.g.g.g.g.g.g.g.g.f.f.f.f.f.f.f.f.f.f.f.f.f.f.f.f.p.p.p.p.u.p.p.p.p.u.u.u.u.u.u.u.u.u.u.u.u.u.u.u.u.u.u.u.u.r.r.r.r.r.e.e.q.q.q.q.q.q.q.q.e.e.q.q.q.q.e.e.q.q.q.q.e.e.u.u.0.q.q.w.q.r.u.u.u.q.q.q.q.q.w.e.0.q.q.q.q.q.q.0.q.q.q.q.q.q.0.0.0.0.0.0.0.0.0.0.q.q.0.0.0.0.0.q.w.r.w.0.q.r.r.w.3.) A V C C V N M J } 0.r.q.0.w.0.r.l.<.$ 1 $ 1 ",
"1 ; A w.| | $.X.$.;.;...) W R W I W U K W | $.} $.$.$.$.$.$.$.$.#.#.$.$.$.$.$.$.$.$.$.$.$.$.&.&.$.&.;.;.&.&.;.:.:.;.;.;.;.:.:.:.:.:.:.:.:.,.,.,.:.:.:.,.,.,.,.,.<.<.<.<.<.<.<.<.<.<.<.<.<.<.<.<.<.<.<.<.<.<.<.<.<.<.<.<.<.<.<.<.2.2.2.2.2.3.3.3.3.3.3.3.3.3.3.3.3.3.0.0.8.0.0.0.0.0.0.0.0.q.q.q.q.q.q.q.w.q.q.q.q.q.q.e.r.u.u.u.r.r.u.u.u.u.u.u.u.u.u.u.u.u.p.u.u.u.p.f.p.f.f.f.f.p.u.g.c.M.c.c.g.g.f.f.f.u.u.g.g.g.g.g.g.g.g.g.g.g.g.f.f.f.f.f.g.g.g.g.g.g.g.f.g.g.g.g.f.f.f.f.f.f.f.f.f.f.f.f.f.f.p.p.f.f.p.u.u.u.u.u.u.u.u.u.u.u.u.u.u.u.u.u.u.u.u.u.u.u.u.r.r.r.r.e.e.e.q.q.q.q.q.q.q.q.q.q.q.q.q.q.q.q.q.q.q.q.q.q.q.e.u.u.q.q.q.q.q.q.e.e.q.8.0.r.u.0.0.e.0.q.q.q.q.q.8.3.q.w.w.q.q.0.0.0.0.0.0.0.0.0.q.q.q.q.0.0.0.0.0.0.w.w.w.0.0.w.r.w.3...Q Q ^ ^ ^ ^ } ..3.w.w.3.0.r.w.0.} Q ; 1 5 > ",
"$ ; I k.:.....} ;.;.=.$.$.$.$.$.;.;.$.$.;.:.;.;.X.$.$.$.$.$.$.$.#.#.$.$.$.$.$.$.$.$.$.$.$.&.&.&.&.;.;.;.&.&.;.:.:.;.;.;.;.:.:.:.:.:.:.,.,.,.,.,.:.:.:.,.,.,.,.,.,.<.<.<.<.<.<.<.<.<.<.<.<.<.<.<.<.<.<.<.<.<.<.<.<.<.<.<.<.<.<.<.2.2.2.2.2.2.3.3.3.3.3.3.3.3.3.3.3.3.8.0.8.8.0.0.0.0.0.0.0.0.q.q.q.q.q.w.w.q.q.q.q.q.q.q.e.r.u.u.r.u.u.u.u.u.u.u.u.u.u.u.u.u.u.u.u.p.p.f.p.p.f.f.f.f.p.f.g.c.M.B.c.g.f.g.f.p.p.g.g.g.g.g.g.g.g.g.f.f.f.f.g.g.g.f.f.f.g.g.g.g.f.f.g.g.f.g.f.f.f.f.f.f.f.f.f.f.f.f.f.p.u.u.f.f.u.u.u.u.u.u.u.u.u.u.u.u.u.u.u.u.u.u.u.u.u.u.r.r.r.r.r.r.e.q.e.e.q.q.q.q.q.q.q.q.q.q.q.q.w.w.q.w.q.q.w.w.w.w.q.e.r.u.u.u.e.q.q.0.8.3.8.2.3.e.r.0.0.e.q.q.q.q.q.0.3.2.q.w.q.q.q.q.q.q.0.0.0.0.q.q.w.w.q.0.0.0.0.0.0.0.0.w.w.q.0.0.w.w.u.r.w.w.r.r.r.r.0.3.0.0.0.0.0.w.r...> 1 X > 0 $ ",
"5 + V u.$.^ | ;.....X.X.;.:.;...| } | ....} } ..X.X.X.X.$.$.$.$.#.#.$.$.$.$.$.$.$.$.$.$.$.$.&.&.&.;.;.;.&.&.;.;.:.;.;.;.;.:.:.:.:.:.:.,.,.,.,.,.:.:.:.,.,.,.,.,.,.,.,.,.<.<.<.<.<.<.<.<.<.<.<.<.<.<.,.,.,.,.,.,.<.<.,.,.,.,.,.,.<.2.2.2.2.2.2.2.3.3.3.3.3.3.3.8.3.3.8.8.8.8.8.8.0.0.0.0.0.0.0.0.q.q.0.q.w.w.q.q.w.q.q.q.q.e.e.u.e.u.r.r.u.u.u.u.u.u.u.u.u.u.u.u.u.u.p.p.p.p.p.p.f.f.f.f.f.g.c.C.c.g.f.g.g.f.f.g.f.f.g.g.f.f.f.f.f.f.f.f.g.f.g.g.f.g.g.g.g.g.f.f.f.f.f.f.f.f.f.f.p.p.p.p.p.p.p.p.f.p.u.u.f.f.u.u.u.u.u.u.u.u.u.u.u.u.u.u.r.r.u.e.u.u.r.e.r.e.e.e.e.e.q.q.e.e.q.q.q.q.q.q.q.q.q.w.q.w.q.q.q.q.q.q.w.w.w.w.w.q.e.e.e.e.q.q.0.3.2.<.3.3.3.w.q.q.q.q.q.q.q.w.0.8.3.2.q.w.q.0.0.0.q.q.0.0.0.0.0.q.q.q.0.0.0.0.0.0.0.0.w.w.r.r.w.w.q.q.3.3.0.0.0.0.0.0.w.0.3.0.w.w.0.0.w.$.> ; > $ ; > ",
"0 $ V u.<.$.;.;.| ..X...$.=.X.} $...$.;.;.$.$.:.......X...X.$.X.#.#.$.$.$.$.$.$.$.$.$.$.$.$.$.$.&.;.;.;.&.&.;.;.:.;.;.;.;.:.:.:.:.:.:.,.,.,.,.,.:.:.:.,.,.,.,.,.,.,.,.,.,.<.<.<.<.<.<.<.<.<.,.,.<.<.<.,.,.,.,.,.<.<.<.,.,.,.,.,.<.<.2.2.2.2.2.2.2.2.3.3.3.3.3.3.3.3.3.3.3.8.8.8.0.0.0.0.0.0.0.0.0.0.0.q.q.w.q.q.q.q.q.q.q.q.e.e.r.r.r.u.u.u.u.u.u.u.u.u.u.u.u.u.u.u.u.u.u.p.p.p.p.f.f.p.p.f.j.c.c.f.p.f.g.f.f.f.f.f.f.f.f.f.f.f.u.p.p.f.f.g.g.g.f.f.f.g.g.f.f.f.f.f.f.f.f.f.f.f.p.p.p.p.f.p.f.f.f.u.u.u.f.f.u.u.u.u.u.u.u.u.u.u.u.u.u.u.r.r.e.e.r.e.e.q.e.e.q.q.e.e.q.q.e.e.q.q.q.q.q.w.q.q.w.q.w.w.q.0.0.q.q.q.q.w.w.q.w.w.q.q.q.q.q.w.q.0.8.3.3.0.q.q.w.q.q.0.q.w.w.0.0.0.8.8.q.q.0.0.0.0.0.0.0.0.0.0.0.q.q.q.0.0.0.0.0.0.q.0.w.w.w.r.r.w.w.q.0.w.w.w.w.w.w.0.0.0.0.0.q.w.0.0.0.r.) } ;.J + 0 ",
"5 > A q.:.0.q...$.;.;.X...$.=.$.............X.X.......X...X.X.X.#.#.$.$.$.$.$.$.$.$.$.$.$.$.$.$.&.;.:.;.&.&.&.;.:.;.;.;.;.:.:.:.:.:.:.,.,.,.,.,.:.:.:.,.,.,.,.,.,.,.,.,.,.<.<.<.<.<.<.<.,.,.,.,.<.<.,.,.,.,.,.,.<.<.,.,.,.,.,.,.<.<.<.2.2.2.2.2.2.2.2.3.2.3.3.3.3.3.3.3.3.8.8.8.0.0.0.0.0.0.0.0.0.0.0.0.q.q.q.q.q.q.q.q.q.q.q.q.r.r.e.u.u.u.u.u.u.r.u.u.u.u.u.u.u.u.u.u.u.p.p.p.u.u.u.p.f.f.f.f.j.f.u.f.f.f.f.f.f.f.f.f.f.f.f.f.u.u.p.f.f.g.g.g.f.f.f.g.g.f.f.f.f.f.f.f.f.f.f.f.p.p.p.p.f.f.f.f.f.u.u.u.f.f.u.u.u.u.u.u.u.u.u.u.u.u.u.u.r.e.e.e.e.e.q.q.e.q.q.q.e.e.e.q.e.q.q.q.q.q.q.w.w.q.q.q.w.q.q.0.0.q.q.q.q.q.w.q.q.q.w.w.q.q.q.r.r.r.e.q.0.r.u.0.0.e.q.3.q.q.0.0.0.0.0.q.0.0.0.0.0.0.0.0.0.0.0.0.0.q.q.q.0.0.0.0.0.0.q.q.w.q.q.w.r.w.w.q.w.0.3.3.0.w.q.0.q.w.r.w.3.3.8.0.0.u.B./.4XL.; 1 ",
"5 = A 3.M.J.f.| ..$.$.$.$.$.$.$.#.#.#.#.#.#.#.#.......#.#.#.#.#.$.#...#.$.;.;.$.$.$.$.$.$.$.$.$.$.$.$.&.&.;.:.:.:.:.:.:.:.:.:.:.;.:.:.:.:.,.,.,.,.,.,.,.,.,.,.,.,.,.<.2.2.2.<.<.,.,.,.,.,.,.,.,.,.,.,.,.,.,.,.,.,.,.,.,.,.,.,.,.<.<.<.<.<.2.2.2.2.2.2.2.2.3.3.3.3.3.3.3.3.3.8.8.0.8.8.8.8.8.8.8.0.0.0.0.0.q.q.q.q.q.q.q.q.q.q.q.q.q.e.u.u.u.u.u.u.u.u.u.u.u.u.u.u.u.u.u.u.p.p.p.f.f.f.f.f.f.f.f.f.p.p.p.p.p.p.p.f.f.f.f.f.f.f.f.f.f.f.f.f.f.f.f.f.f.f.f.f.f.f.f.p.f.f.f.f.p.u.u.u.u.u.p.u.p.p.p.u.u.u.p.p.u.u.u.u.u.u.u.u.u.u.u.u.u.u.r.r.e.e.e.u.r.r.e.e.e.e.e.e.e.e.e.q.q.q.0.q.q.q.w.w.q.q.q.0.q.q.q.q.q.q.q.q.w.w.w.q.w.q.q.w.w.w.q.q.q.w.w.q.q.q.0.0.0.0.0.q.q.0.0.0.q.q.0.0.0.0.0.0.0.0.0.8.0.0.0.w.q.e.e.0.0.0.0.0.q.q.q.q.q.q.e.q.q.0.8.0.0.0.8.8.8.8.8.0.0.0.0.0.0.0.0.0.q.b.G.2Xm.o , ",
"< - H 2.g.F.j.:.&.$.....$.$.$...#.#.#.#.#.#.#.#.......#.#.#.#.#.$.#.#.#.$.&.$.$.$.$.$.$.$.$.$.$.$.$.$.$.&.;.;.:.:.:.:.;.;.&.;.;.:.:.:.:.:.:.:.:.,.,.,.,.,.,.,.,.,.,.,.2.2.2.<.,.,.,.,.,.,.,.,.,.,.,.,.,.,.,.,.,.,.,.,.,.,.,.,.,.<.<.<.<.<.<.2.2.2.2.2.2.2.2.3.3.3.3.3.3.3.3.3.3.0.0.0.0.0.0.8.8.0.0.0.0.0.0.q.q.q.q.q.q.q.q.q.q.q.q.e.e.u.u.u.u.u.u.u.u.u.u.u.u.u.u.u.u.u.u.p.p.f.f.f.f.f.f.f.f.f.p.p.p.p.p.p.p.f.f.f.f.f.f.f.f.f.f.f.f.f.f.f.f.f.f.f.f.f.f.f.f.p.p.f.f.p.p.u.u.u.u.p.p.u.u.p.p.u.u.u.u.u.u.u.u.u.u.u.u.u.u.u.u.u.u.r.r.r.e.e.e.u.r.e.e.e.e.e.q.e.e.q.q.q.w.q.0.q.q.w.w.w.q.q.q.q.q.q.w.q.q.w.w.q.q.q.q.q.q.q.q.q.q.q.w.q.w.q.q.q.q.0.0.0.0.0.0.0.0.0.0.0.q.q.q.0.0.0.0.0.0.0.0.8.8.0.0.0.q.w.w.0.0.0.0.0.0.q.q.w.q.q.q.q.q.0.8.0.0.0.8.8.8.8.0.0.0.0.0.0.0.9.9.4.q.n.P.4Xm.o * ",
"< > J ,.p.A.g.&.:.$.| | $.$.$...#.#.#.#.#.#.#.#.....#.#.#.#.#.#.$.#.#.$.$.$.$.$.$.$.$.$.$.$.$.$.&.$.$.$.$.&.:.:.:.;.;.&.$.$.$.$.:.:.:.:.:.:.:.:.,.,.,.,.,.,.,.,.:.,.,.,.<.<.<.,.,.,.,.,.,.,.,.,.,.,.,.,.,.,.,.,.,.,.,.,.,.,.,.,.,.,.<.,.<.<.<.2.2.2.2.2.2.2.2.3.3.3.3.3.3.3.3.3.8.8.8.8.0.0.0.0.0.0.0.0.0.0.0.q.q.q.q.q.q.q.q.q.q.q.e.e.e.u.u.u.u.u.u.u.u.u.u.u.u.u.u.u.u.p.u.u.p.p.u.u.p.p.p.p.p.p.u.u.u.u.u.u.p.p.p.p.p.p.p.p.p.f.f.f.f.f.f.p.p.f.f.f.f.f.f.p.p.p.f.f.p.u.u.u.p.p.p.p.u.u.u.u.u.u.u.u.u.u.u.u.u.u.u.r.r.r.r.r.u.r.r.r.e.e.e.e.u.e.e.e.q.q.q.q.e.q.q.w.q.q.q.q.q.w.w.w.q.q.q.q.w.w.w.q.q.q.q.q.0.0.0.0.q.q.w.w.0.0.0.q.q.q.w.q.q.0.0.0.0.0.0.0.0.0.0.0.0.0.q.0.0.0.0.0.0.0.0.0.8.8.8.0.0.0.0.0.0.0.0.0.0.0.0.q.q.w.q.q.q.q.0.0.0.0.0.8.8.8.0.0.0.0.0.0.0.0.0.0.3.q.n.Y.4Xm.o * ",
"6 > A ,.c.Y.j...:.&.$.$.$.$.$...#.#.#.#.#.#.#.#.#.#.#.#.#.#.#.#.$.$.$.$.$.$.$.$.$.$.$.$.$.$.$.$.&.&.$.$.$.&.;.;.&.&.&.&.&.&.$.$.:.:.:.:.:.:.:.:.,.,.,.,.,.,.,.,.:.:.,.,.,.,.,.,.,.,.,.,.,.,.:.:.,.,.,.,.,.,.,.,.,.,.,.,.,.,.,.,.,.,.,.,.,.<.<.<.<.<.2.2.2.2.2.2.3.3.3.3.3.3.3.3.3.3.3.3.8.8.8.3.0.0.0.0.0.0.0.0.q.q.q.q.q.q.q.q.q.q.q.e.q.r.r.u.u.u.u.u.u.u.u.u.u.u.u.u.u.u.u.u.u.u.u.u.u.u.u.u.u.u.u.u.u.u.u.u.u.p.u.u.u.u.u.u.p.p.f.f.f.f.p.p.p.p.f.f.f.f.p.p.u.p.p.f.p.u.u.u.u.u.u.u.u.u.u.u.u.u.u.u.u.u.u.u.u.u.u.r.e.e.e.e.r.r.r.e.e.e.q.q.e.e.e.q.q.q.q.q.e.q.w.q.q.q.w.w.w.w.w.q.q.q.0.0.w.w.q.q.0.0.0.0.0.0.0.0.q.w.q.q.q.q.q.0.0.0.0.0.0.0.0.0.0.0.0.0.0.0.0.0.0.0.0.0.8.8.8.0.8.8.8.8.0.0.0.0.0.0.8.8.0.0.0.0.0.0.0.0.q.q.w.w.q.0.0.0.0.0.0.8.8.8.0.0.0.0.0.0.4.4.4.4.3.q.n.P.4Xb.o * ",
"> = G <.j.G.j.;.$.&.:.;.$.$...$.#.#.#.#.#.#.#.#.#.#.#.#.#.#.#.#.$.$.$.$.$.$.$.$.$.$.$.$.$.$.$.$.&.&.&.&.$.;.;.;.$.$.$.&.:.:.:.:.&.&.:.:.:.:.:.:.:.,.,.,.,.,.,.,.,.,.,.,.,.,.,.,.,.,.,.,.,.:.:.:.,.,.,.,.,.,.,.,.,.,.,.,.,.,.,.,.,.,.,.,.,.,.<.<.<.<.<.2.2.2.2.2.3.3.3.3.3.3.3.3.3.3.8.8.8.8.3.3.0.0.0.0.0.0.0.0.q.q.q.w.q.q.q.q.e.e.q.e.q.e.e.r.u.u.u.u.u.u.u.u.u.u.u.u.u.u.u.u.u.u.u.u.u.u.u.u.u.u.u.u.u.u.u.u.u.u.u.u.u.u.u.u.u.u.p.f.f.f.u.u.p.u.p.f.p.p.u.u.p.p.f.f.u.u.u.u.u.u.u.u.u.u.u.u.u.u.u.u.u.u.u.u.u.u.u.u.r.e.e.e.r.r.e.q.r.e.e.e.e.e.q.q.q.q.q.q.q.q.w.q.q.q.q.w.q.q.q.q.q.0.0.0.q.q.q.0.0.0.0.0.0.0.0.q.q.q.q.q.w.q.q.0.0.0.8.8.0.0.0.0.0.0.0.0.0.0.0.0.0.0.0.0.0.0.0.0.8.8.0.0.0.0.0.0.0.0.0.8.0.0.0.0.0.0.0.0.0.q.0.0.0.0.0.0.0.0.8.8.8.0.0.0.0.0.0.0.4.4.4.4.3.7.b.L.2Xm.o , ",
"> > K :.,.8.3.:...$.:.:.&.....$.#.#.#.#.#.#.#.#.#.#.#.#.#.#.....$.$.$.$.$.$.$.$.$.$.$.$.$.$.$.$.&.&.&.;.$.&.;.;.$.$.&.:.:.,.,.,.$.$.&.:.:.:.:.,.:.:.:.:.,.,.,.,.,.:.:.:.:.,.,.,.,.,.,.,.:.:.:.:.:.:.:.:.:.:.:.:.:.:.:.:.:.:.:.:.,.,.,.,.,.,.,.,.<.<.<.<.2.2.2.2.2.3.3.3.3.3.3.3.3.3.3.3.3.3.3.3.8.0.0.0.0.0.0.0.0.q.q.q.q.q.q.q.e.e.e.q.q.q.e.e.u.u.u.u.r.r.r.u.u.u.u.u.u.u.u.u.u.u.u.u.u.u.u.u.u.u.u.u.u.u.u.u.u.u.u.u.u.u.u.u.u.u.u.p.p.p.u.u.u.u.p.f.p.u.u.u.p.p.p.p.u.u.u.u.u.u.u.u.u.u.u.u.u.u.u.u.u.u.u.u.u.u.u.u.r.r.r.r.e.e.e.q.e.e.e.q.q.q.q.q.q.q.q.q.q.q.w.q.w.w.q.0.q.q.q.q.0.0.0.0.0.0.0.0.0.0.0.0.0.0.0.0.q.q.q.q.w.q.0.0.0.8.3.3.0.0.0.0.0.0.0.8.0.0.0.0.0.0.0.0.3.8.8.8.3.3.3.8.0.0.0.0.0.0.0.8.8.0.0.0.0.0.0.0.0.0.0.0.0.0.0.0.0.0.8.8.8.0.0.0.0.0.0.0.3.3.4.4.3.7.c.G.1Xm.# , ",
"1 > P :...} } $...$.&.&.$.#.$.$.#.#.#.#.#.#.#.#.#.#.#.#.#.......#.$.$.$.$.#.$.$.$.$.$.$.$.$.$.$.$.$.$.&.$.;.;.:.;.;.:.:.:.:.,.,.&.&.;.:.:.:.:.:.:.:.:.:.:.,.,.,.,.:.:.:.:.:.,.,.,.,.,.:.:.:.:.:.:.:.:.:.:.:.:.:.:.:.:.:.:.:.:.:.,.,.,.,.,.,.,.,.<.,.<.<.<.2.2.2.2.2.3.3.3.3.3.3.3.3.3.3.3.3.3.3.8.8.0.0.0.0.0.0.0.0.q.q.q.q.w.w.e.e.q.q.q.q.q.q.u.u.r.r.r.r.u.u.u.u.u.u.u.u.u.u.u.u.u.u.u.u.u.u.u.u.u.u.u.u.u.u.u.u.u.u.u.u.u.u.u.u.u.u.p.p.u.u.u.u.p.p.u.u.u.u.u.p.u.u.u.u.u.u.u.u.u.u.u.u.u.u.u.u.u.u.u.u.u.u.u.r.e.e.e.e.e.r.e.e.q.q.e.e.q.q.q.q.q.q.q.q.w.w.0.0.w.q.q.w.0.0.q.q.q.0.0.0.0.0.0.0.0.0.0.0.0.0.8.0.0.0.0.0.0.0.0.0.8.8.0.0.0.0.0.0.0.0.0.0.8.8.0.0.0.0.0.0.0.0.3.3.3.3.3.3.3.3.3.3.3.3.8.8.8.8.8.8.0.0.0.0.0.0.0.0.0.0.0.0.0.0.0.8.8.8.8.0.0.0.0.0.8.0.3.3.4.4.3.7.b.L.2Xm.# , ",
"1 ; K 3.,.....$.........$.$.$.$.#.#.#.#.#.#.#.#.#.#.#.#.#.......#.$.&.$.$.#.$.$.$.$.$.$.$.$.$.$.$.$.$.&.$.;.;.:.:.:.:.:.:.:.:.:.:.:.:.:.:.:.&.&.:.:.:.:.:.,.,.,.:.:.:.:.:.:.,.,.,.,.,.:.:.:.:.:.:.:.:.:.:.:.:.:.:.:.:.:.:.:.:.:.,.,.,.,.,.,.,.,.,.,.<.<.<.2.2.2.2.2.2.3.3.3.3.3.3.3.3.3.3.3.3.3.8.8.8.0.0.0.0.0.0.0.0.q.q.w.w.w.e.e.q.q.e.q.q.q.u.u.r.r.r.r.u.u.u.u.u.u.u.u.u.u.u.u.u.u.u.u.u.u.u.u.u.u.u.u.u.u.u.u.u.u.u.u.u.u.u.u.u.u.p.u.u.u.u.u.u.u.u.u.u.u.u.p.u.u.u.u.u.u.u.u.u.u.u.u.u.u.u.u.u.u.u.u.u.u.q.q.q.q.q.q.e.e.e.e.e.q.e.q.q.q.q.q.q.q.q.w.w.w.3.0.w.e.e.q.0.8.q.q.q.0.0.0.0.0.3.8.8.0.0.0.0.0.3.3.3.3.8.3.3.3.3.3.3.8.0.0.q.q.0.0.0.0.0.0.0.8.0.0.0.0.0.0.0.0.3.3.3.3.3.3.3.3.3.3.3.3.3.3.3.3.8.8.8.0.0.0.0.0.0.0.8.8.8.0.0.0.8.8.8.8.0.0.0.0.0.0.8.8.3.3.4.4.3.7.b.P.4Xm.# , ",
"< 5 t r w j ;.X.X.X.X...........#.........#.$.$.......#.#.#.#.#.$.$.$.$.$.$.$.$.$.$.$.$.$.$.$.$.$.$.$.$.$.&.;.:.$.$.$.&.;.:.:.:.,.:.:.&.$.&.:.,.;.:.:.:.:.,.,.,.:.:.:.:.:.:.:.:.,.,.,.:.:.:.:.:.:.:.:.:.:.:.:.:.:.:.:.:.:.:.:.:.,.,.,.,.,.,.,.,.,.,.,.<.<.2.2.2.2.2.3.3.8.0.q.e.q.0.3.3.0.0.8.3.3.3.3.8.0.0.0.0.0.0.0.w.q.q.w.w.q.q.q.q.q.e.e.e.e.e.u.u.u.u.u.u.e.r.r.r.u.r.r.r.r.r.u.u.u.u.u.u.u.u.u.u.u.u.u.u.u.u.u.u.u.u.u.u.u.u.u.u.u.u.u.u.u.u.u.u.u.u.u.u.u.u.u.p.u.r.e.r.e.u.u.f.f.f.u.u.u.u.u.u.u.u.u.u.r.r.r.e.e.q.q.q.e.e.e.q.q.q.q.q.q.q.q.q.q.q.q.q.q.q.w.q.q.q.w.w.0.0.0.0.0.0.0.0.0.0.0.0.0.0.0.0.0.8.3.3.3.8.0.0.0.0.0.8.8.0.0.0.0.0.0.0.8.8.0.0.8.8.8.3.3.3.3.3.3.3.3.8.3.8.0.0.3.3.3.3.3.8.0.0.0.8.3.8.3.3.3.3.8.0.0.0.0.0.3.3.8.8.8.8.8.8.8.8.6.6.3.3.3.4.4.4.1.q.c.G.4Xm.o 4 ",
"1 , , : : w $.X.X.X.X...........#.........#.#.$.........#.#.#.$.$.$.$.$.$.$.$.$.$.$.$.$.$.$.$.$.$.$.$.$.$.&.;.:.$.$.$.&.&.:.:.:.:.:.:.;.&.:.:.:.;.:.:.:.:.:.,.,.:.:.:.:.:.:.:.:.,.,.:.:.:.:.:.:.:.:.:.:.:.:.:.:.:.:.:.:.:.:.:.:.,.,.,.,.,.,.,.,.,.,.,.,.,.,.<.2.2.3.3.0.0.q.0.0.w.0.3.3.3.0.3.3.3.3.3.8.8.0.0.0.0.0.q.q.q.q.w.w.q.q.q.q.q.q.e.e.r.e.e.u.u.u.u.u.e.r.e.e.u.u.r.r.r.r.e.r.u.u.u.u.u.u.u.u.u.u.u.u.u.u.u.u.u.u.u.u.u.u.u.u.u.u.u.u.u.u.u.u.u.u.u.u.u.u.u.r.q.0.0.0.q.w.w.q.0.0.q.q.e.u.u.u.u.u.u.u.q.q.q.q.q.e.e.e.e.e.q.q.q.q.q.q.q.q.q.q.q.q.q.q.q.q.w.q.q.q.w.q.0.0.0.0.0.0.0.0.0.0.0.0.0.0.0.0.0.8.3.3.3.8.0.0.0.0.8.8.8.0.0.0.0.0.0.8.8.8.8.8.8.8.3.3.3.3.3.3.3.3.3.8.3.3.0.0.3.3.3.3.3.3.8.0.0.8.3.0.0.0.0.0.0.0.0.0.0.0.3.3.8.8.8.8.0.8.8.8.6.6.3.3.3.3.4.4.1.q.c.G.4Xm.o 4 ",
"1 , : & & q $.X.X.X.............#.#.......#.#.$.#.#.......#.#.$.$.$.$.$.$.$.$.$.$.$.$.$.$.$.$.$.$.$.$.$.$.$.;.:.$.$.$.$.$.&.:.:.&.;.:.:.:.:.:.:.:.:.:.:.:.:.:.:.:.:.:.:.:.:.:.:.:.:.:.:.:.:.:.:.:.:.:.:.:.:.:.:.:.:.:.:.:.:.:.:.,.,.,.,.,.,.,.,.2.<.,.,.,.,.2.2.2.3.0.w.w.0.3.2.3.8.0.8.3.3.3.8.3.3.3.8.8.0.0.0.0.0.0.0.q.q.q.w.w.w.q.q.q.q.q.q.q.q.e.e.e.u.r.r.r.r.e.e.u.u.r.r.e.e.e.r.r.u.u.u.u.u.u.u.u.u.u.u.u.u.u.u.u.u.u.u.u.u.u.u.u.u.u.u.u.u.u.u.u.u.u.u.u.u.q.0.8.8.8.8.0.0.0.0.3.3.3.0.q.u.f.u.r.q.r.u.w.q.q.q.e.e.u.r.e.q.q.q.q.q.q.q.q.q.q.q.q.q.q.q.q.q.w.w.w.q.q.0.0.0.0.0.0.0.0.0.0.0.0.0.0.0.8.8.8.8.3.3.3.8.0.0.0.0.8.3.3.8.8.0.0.0.0.3.3.3.3.8.3.3.3.3.3.3.3.3.3.3.3.3.3.3.3.3.3.3.3.3.3.3.3.8.0.0.0.0.0.0.0.0.0.0.0.0.0.8.3.3.8.8.0.0.8.8.8.8.6.6.3.3.3.3.4.4.1.q.c.G.4Xm.o 4 ",
", , 1 , , r +...............#.#.#.#.......#.#.#.$.#.........#.$.#.#.$.$.$.$.$.$.$.$.$.$.$.$.$.$.$.$.$.$.$.$.&.:.&.$.$.$.$.;.:.;.$.$.;.:.:.:.:.:.:.:.:.:.:.:.:.:.:.:.:.:.:.:.:.:.:.:.:.:.:.:.:.:.:.:.:.:.:.:.:.:.:.:.:.:.:.:.:.:.:.:.,.,.,.,.,.,.2.,.,.:.,.2.3.8.0.0.w.w.0.3.<.,.2.3.0.0.3.2.3.0.3.3.3.8.8.0.0.0.0.0.0.0.0.q.q.q.q.w.w.w.q.q.q.q.q.q.q.q.e.e.e.e.e.q.q.q.e.e.e.e.q.e.e.e.r.r.u.u.u.u.u.u.u.u.u.u.u.u.u.u.u.u.u.u.u.u.u.u.u.u.u.u.u.u.u.u.u.u.u.u.u.u.q.0.0.w.q.q.q.e.u.u.w.0.0.0.u.u.u.u.r.q.e.r.e.e.e.e.r.r.r.r.e.q.q.q.q.q.q.q.q.q.q.q.q.q.w.w.0.q.q.q.q.0.0.0.0.0.0.0.0.0.8.8.0.0.0.0.8.8.8.3.8.8.3.3.3.3.0.0.0.8.3.3.3.3.3.3.0.8.3.3.3.3.3.3.3.3.3.3.3.3.3.3.3.3.3.3.3.3.3.3.3.3.3.8.3.3.3.3.0.0.q.0.0.8.3.3.0.0.0.0.8.8.3.3.3.3.3.8.3.3.3.3.6.6.3.3.3.3.4.4.1.q.c.G.4Xm.o 4 ",
": : 1 1 , r X.| ............#.#.#.#.#.......#.#.$.#.#.......#.#.#.#.#.$.$.$.$.$.$.$.$.$.$.$.$.$.$.$.$.$.$.$.&.;.$.$.$.$.$.$.&.&.$.$.;.:.:.:.:.:.:.;.:.:.;.;.;.;.:.:.:.:.:.:.:.:.:.:.:.:.:.;.:.:.:.:.:.:.:.:.:.:.;.;.;.:.:.:.:.:.:.:.:.,.,.:.,.,.,.,.,.,.<.3.0.w.q.q.q.0.3.2.,.:.,.3.0.0.3.2.3.0.3.3.3.8.8.0.0.0.0.0.0.0.q.q.q.q.q.q.q.q.w.w.w.q.q.q.q.q.q.q.q.e.e.e.e.e.r.r.e.e.q.q.q.q.e.e.e.u.u.u.r.u.u.u.u.u.u.u.u.u.u.u.u.u.u.u.u.u.u.u.u.u.u.u.u.u.u.u.u.u.u.u.q.0.0.u.u.u.u.u.u.u.q.q.e.u.u.u.u.u.u.u.q.q.u.u.u.u.r.e.e.q.q.q.q.q.q.q.q.q.q.q.w.q.q.q.q.q.0.0.q.q.0.0.0.8.0.0.0.0.0.8.8.8.0.0.8.8.3.3.3.3.8.3.3.3.3.3.0.0.0.8.3.3.3.3.3.3.3.3.3.3.3.3.3.3.3.3.3.3.3.3.3.3.3.3.3.3.3.3.3.3.3.3.3.3.3.3.3.3.<.3.0.0.8.3.8.0.0.0.8.8.3.8.8.8.8.8.8.8.8.8.8.8.6.3.3.3.3.4.4.4.1.q.b.D.4Xm.o , ",
"4 : : : : w +.X.............#.#.$.#.#.......#.#.#.#.#.#.#.#.....#.#.#.#.$.$.$.$.$.$.$.$.$.$.$.$.&.$.$.$.$.$.&.;.&.$.$.$.$.$.$.$.$.$.;.:.:.:.:.:.;.;.:.&.&.&.$.$.:.:.:.:.:.:.:.:.:.:.:.:.;.&.;.&.:.;.;.;.:.:.:.:.&.:.:.:.:.:.:.:.:.:.:.:.,.,.:.:.,.,.,.,.2.3.0.q.q.q.8.3.<.,.,.,.:.2.0.0.3.3.3.3.3.3.3.8.8.0.0.0.0.0.0.0.q.0.0.0.0.q.0.q.q.q.w.w.w.w.w.q.q.q.q.q.q.q.q.q.e.e.q.q.q.q.q.q.q.q.e.r.e.r.r.u.u.u.u.u.r.r.u.u.u.u.u.u.u.u.u.u.u.u.u.u.u.u.u.u.u.u.u.u.u.u.q.3.0.u.f.u.g.u.q.8.8.q.u.f.u.u.q.q.u.u.q.0.u.u.u.u.r.q.q.q.q.q.q.q.q.q.q.w.w.w.q.q.w.q.q.0.0.0.0.0.0.0.8.3.0.0.0.0.8.8.8.3.0.0.3.3.3.3.3.3.3.3.3.3.3.3.0.0.8.8.3.3.3.3.3.3.3.3.3.3.2.2.3.3.3.3.3.3.3.2.2.2.2.2.2.3.3.3.3.3.3.3.3.3.3.3.3.3.&.,.3.8.8.8.0.w.0.0.8.3.3.3.8.8.3.3.3.3.3.3.3.3.3.3.3.3.3.4.4.4.1.q.b.D.4Xm.o 4 ",
"4 4 4 : : w =.=...........#.#.#.$.#.#.........#...#.$.$.$.#.....#.#.#.#.#.$.$.$.$.$.$.$.$.$.$.$.&.$.$.$.$.$.&.;.$.&.$.$.$.$.$.&.$.;.;.:.:.:.;.;.:.;.;.&.&.$.$.$.;.;.:.:.:.:.:.:.:.:.:.;.&.&.$.$.:.:.;.;.;.:.:.:.&.&.:.:.:.:.:.:.:.:.:.:.:.,.,.,.,.,.,.,.<.2.3.3.3.3.2.<.<.<.2.2.:.,.3.0.0.3.3.3.3.3.3.8.8.0.0.0.0.0.0.0.0.q.0.0.0.0.0.0.0.q.q.q.q.q.q.q.w.q.q.q.q.q.q.q.e.q.q.q.w.w.q.q.q.q.q.e.r.r.u.u.r.u.u.u.r.r.r.r.u.u.u.u.e.e.r.r.e.e.e.e.u.u.u.u.u.u.u.u.u.u.q.3.0.u.f.u.f.r.0.8.q.u.u.p.u.r.q.e.u.u.q.0.u.u.r.e.q.q.q.w.q.q.q.w.q.q.w.w.w.w.q.q.q.q.0.0.0.0.0.0.0.8.3.3.0.0.0.8.8.8.3.3.8.8.8.3.3.3.3.3.3.3.3.3.3.3.3.8.8.3.3.3.3.3.3.3.3.3.3.2.2.2.2.2.3.3.3.2.2.2.2.2.2.2.2.2.2.3.3.3.3.3.3.0.3.3.3.2.&.,.3.8.3.3.8.0.0.0.3.3.3.3.8.8.3.3.3.3.3.3.3.3.3.3.3.3.3.4.4.4.1.q.b.G.4Xm.o 4 ",
": : : : : w X.| ..........#.#.#.$.$...............#.$.$.$.#...| #.#.#.#.#.$.$.$.$.$.$.$.$.$.$.$.$.$.$.$.$.$.&.;.$.$.$.$.$.$.$.$.:.;.;.;.;.;.;.;.:.;.;.$.$.$.$.$.&.;.:.:.:.:.:.:.:.:.;.;.&.$.$.$.:.:.;.;.;.:.:.:.&.&.&.:.:.:.:.:.:.:.:.:.:.,.,.,.,.,.,.,.,.,.,.,.,.,.,.<.2.3.3.3.:.,.3.0.0.3.3.3.3.3.3.8.8.0.0.0.0.0.0.0.0.q.0.0.0.0.0.0.0.0.q.q.q.q.q.q.w.w.q.q.q.q.e.e.e.e.q.q.w.w.w.q.q.q.q.e.r.r.e.r.r.u.u.u.r.r.r.r.u.u.r.r.e.e.e.r.e.e.e.e.u.u.u.u.u.u.u.u.u.u.w.3.0.u.p.q.r.q.w.u.f.g.p.u.q.e.r.r.e.q.q.q.q.q.q.q.q.w.w.w.q.q.q.w.w.q.q.q.w.w.w.q.q.q.0.0.0.0.0.0.0.8.3.3.0.0.0.8.8.3.3.3.8.8.3.3.3.3.3.3.3.3.3.3.3.3.3.8.8.3.3.3.3.2.3.3.3.3.2.2.2.2.2.2.3.3.2.2.2.2.2.2.2.2.2.2.2.2.3.3.3.3.3.8.3.3.3.2.:.2.0.0.3.2.3.3.0.0.3.3.3.3.3.8.3.3.3.3.3.3.3.3.8.3.3.3.3.4.4.3.2.q.b.L.4Xm.o 6 ",
": 1 1 : : w =.X.$.| ;.,.| ..:.| |  .| $...| ;.| | ..$.;.;.;.&.$.$.$.$.$.$.#.#.#.$.$.$.$.$.$.$.$.$.$.$.$.$.$.$.$.$.$.$.&.&.;.;.$.$.$.$.&.$.$.$.$.:.:.;.;.&.;.;.&.:.:.:.:.:.:.:.:.:.:.:.;.;.&.&.&.&.:.:.:.:.&.:.:.:.:.:.:.:.:.:.:.:.:.:.:.:.,.,.,.:.:.,.,.,.,.<.2.,.<.2.2.2.2.2.2.,.<.3.3.3.3.3.3.3.8.8.8.8.0.0.0.0.0.0.0.0.0.0.0.0.0.q.q.0.0.0.0.q.q.q.q.q.q.q.q.w.w.w.w.q.q.q.q.w.q.q.q.q.q.q.q.q.q.e.e.e.u.u.u.e.e.e.r.r.u.u.u.u.u.u.r.e.r.u.u.u.u.u.u.u.u.u.u.u.u.e.0.0.u.p.u.0.0.q.u.f.f.u.q.e.e.e.e.e.q.q.q.0.e.r.q.q.e.u.q.q.q.q.q.q.q.q.q.q.q.q.0.0.0.0.0.0.0.0.0.0.0.0.8.0.8.3.3.3.3.3.3.3.3.3.8.3.3.3.3.3.3.3.3.3.3.3.3.3.3.3.3.3.3.3.3.3.3.3.2.2.2.2.3.2.2.2.2.2.2.2.2.2.2.2.2.2.2.2.2.3.0.0.3.,.,.3.0.2.3.3.3.8.3.3.3.3.e.q.3.3.3.3.q.3.,.e.3.<.:.w.3.8.0.3.9.8.0.u.,.0.w.b.n.4Xb.  w ",
": 1 1 : ; w =.X.>...} ` $.:.} { | :.;.$.&.| ..>.X.X.&.$.$.$.$.;.$.$.$.$.$.#.#.#.$.$.$.$.$.$.$.$.$.$.$.$.$.$.$.$.$.$.$.$.&.&.$.$.$.$.$.&.&.$.$.$.&.;.;.;.&.;.;.;.:.:.:.:.:.:.:.:.:.:.:.;.;.&.&.$.:.:.;.&.&.:.:.:.:.:.:.:.:.:.:.:.:.:.:.:.:.:.,.,.:.:.,.,.,.,.<.<.,.<.2.2.2.2.2.2.<.<.2.2.3.3.3.3.8.8.8.0.8.8.0.0.0.0.0.0.0.0.0.0.0.q.q.q.0.0.0.0.q.q.q.q.q.q.q.q.w.w.w.w.q.q.q.q.w.q.q.q.q.q.q.q.q.q.q.e.e.e.u.u.e.e.e.e.r.r.u.u.u.r.r.e.r.u.u.u.r.u.u.u.u.u.u.u.u.u.q.q.w.q.q.r.q.e.u.u.u.u.r.e.e.e.e.e.q.q.q.q.q.e.e.q.q.q.e.q.q.q.q.q.q.q.q.q.q.q.0.0.0.0.0.0.0.0.0.0.0.0.0.8.0.8.3.3.3.3.3.3.3.3.8.8.3.3.3.3.3.3.3.3.3.3.3.3.3.3.3.3.3.3.3.3.3.3.3.2.2.2.2.3.2.2.2.2.2.2.2.2.2.2.2.2.2.2.2.2.3.3.3.3.2.3.8.q.2.3.3.3.3.3.3.3.<.8.8.3.8.8.3.0.0.8.8.:.u.0.8.8.<.q.3.8.q.:.:.u.:.u.C.E.4Xb.X & ",
": 1 1 : : w ;.X.^ X.>...:.;.^ ,.=.....) } =...} $...$.=.$. ...=.$.$.$.$.$.#.#.#.$.$.$.$.$.$.$.$.$.$.$.$.$.$.$.$.$.$.$.$.&.&.$.&.$.$.&.&.&.&.$.$.$.$.$.&.&.:.:.:.:.:.:.:.:.:.:.:.:.:.:.;.;.;.$.$.,.:.$.$.$.:.:.;.:.:.:.:.:.:.:.:.:.:.:.:.:.:.:.:.:.:.,.,.,.,.,.,.,.,.<.2.2.2.2.2.3.<.,.<.3.3.3.3.3.8.8.8.8.8.8.0.0.0.0.0.0.0.0.0.0.0.q.q.0.0.0.0.0.0.q.q.q.q.q.q.q.q.q.q.q.q.q.q.q.q.q.q.w.q.q.q.q.q.q.q.q.e.e.e.e.e.e.q.r.r.r.u.q.q.e.e.r.r.u.u.e.q.q.q.r.u.u.u.u.q.e.u.e.3.3.w.u.u.p.u.e.w.q.u.e.e.q.q.q.q.q.q.q.q.q.q.q.q.q.0.q.q.q.q.q.q.q.q.q.0.0.0.0.0.0.0.0.0.0.0.0.0.8.8.8.8.3.3.3.3.3.3.3.3.8.8.3.3.3.3.3.3.3.3.3.3.3.3.3.3.3.3.3.3.3.3.3.3.3.2.2.2.2.2.2.2.2.2.3.3.2.2.3.3.3.3.3.3.3.3.2.2.<.2.3.0.0.0.<.2.3.3.3.3.3.3.3.3.3.8.0.3.3.3...q.q.$.q.:.;.3.q.9.8.,.e.u.:.:.3.r.3.w.A.=.> , ",
": 1 1 : : r =.X.=...;.} | ^ h h n r c l j ) >.....| ..$.;.$. .X.$.$.$.$.$.#.#.#.#.#.$.$.$.$.$.$.$.$.$.$.$.$.$.$.$.$.$.$.$.$.$.$.$.$.&.&.&.&.$.$.$.$.$.$.&.:.:.:.;.;.&.&.&.&.:.:.&.&.:.:.:.;.&.&.:.$.....$.:.:.;.:.:.:.:.;.;.;.;.:.:.:.:.:.:.:.:.:.:.:.,.,.,.,.,.,.,.<.2.2.2.2.<.3.2.:.:.2.3.3.3.3.3.3.8.3.8.8.8.8.0.0.0.0.0.0.0.0.0.0.0.0.0.0.0.0.0.0.0.q.q.q.q.0.0.0.0.0.0.0.0.0.q.w.q.q.q.q.q.w.q.q.q.q.q.q.q.q.q.e.q.e.r.r.r.q.q.e.e.e.e.e.e.e.q.w.w.q.u.u.u.u.w.r.p.u.3.3.e.f.p.u.u.q.q.q.u.e.q.q.q.q.q.w.w.q.w.q.q.q.q.q.0.q.q.q.q.q.q.q.0.0.0.0.0.0.0.0.0.0.0.0.0.0.0.8.8.8.3.3.3.3.3.3.3.3.3.3.3.3.3.3.2.3.3.3.3.3.3.3.3.3.3.3.3.3.3.3.3.3.3.2.2.2.2.2.2.2.2.2.3.3.3.2.2.3.3.3.3.3.3.3.3.3.<.,.2.8.0.0.8.<.<.2.3.3.3.3.3.8.3.3.0.3.3.8.0.0.8...C V c v c k V &.8.<.q.q.r.w.$.1   $ & $ w ",
": 1 1 : ; w =.X.:.| :.) A N h f h c A B l j A  .=...|  .$.$.X. .$.$.$.$.$.#.#.#.#.#.#.$.$.$.$.$.$.$.$.$.$.$.$.$.$.$.$.$.$.$.$.$.$.$.$.&.&.&.$.$.$.$.$.$.&.:.:.:.&.&.&.&.;.:.:.:.&.&.&.&.;.;.;.&.$...} ..$.:.:.:.:.:.:.:.:.:.:.:.:.:.:.:.:.:.:.:.:.:.:.,.,.,.,.,.,.,.<.<.2.2.<.<.8.2.:.:.2.3.3.3.3.3.3.8.3.3.8.8.8.8.8.0.0.0.0.0.0.0.0.0.0.0.0.0.0.0.0.0.0.0.0.q.0.0.0.0.0.0.0.0.0.0.0.0.q.w.w.q.q.q.w.w.q.q.q.q.q.q.q.e.e.q.e.e.u.r.r.e.q.q.q.q.u.e.w.w.q.r.r.e.u.w.q.u.u.3.0.u.f.u.e.q.q.e.r.r.q.q.q.q.q.w.w.w.q.0.0.0.w.w.0.0.q.q.q.q.q.0.0.0.0.0.0.0.0.0.0.0.0.0.0.0.0.0.8.3.8.3.3.3.3.3.3.3.3.3.3.3.3.3.3.2.3.3.3.3.3.3.3.3.3.3.3.3.3.3.3.3.3.3.2.2.2.2.2.2.2.2.2.2.2.2.2.2.3.3.3.3.3.3.3.3.3.2.,.2.8.0.3.2.<.2.2.3.3.3.3.3.0.3.8.8.:.3.w.8.p.J h r s h C l c c b U ,.,.$.8.>.$.q 5 1 1 1 , ",
": 1 1 : ; w =.X.} } ;.^ f c &.f.c.$X).}.}.! u W  .$.X.} } $.=.$.$.$.$.$.$.#.#.#.#.#.#.#.$.$.$.$.$.$.$.$.$.$.$.$.$.$.$.$.$.$.$.$.$.$.&.&.&.&.$.$.$.$.$.$.&.;.:.;.$.$.$.$.&.&.&.;.$.$.&.&.;.;.:.:.#.......$.:.:.:.;.;.;.;.&.;.;.;.;.;.&.:.:.:.:.:.:.:.:.:.:.,.,.,.,.,.,.<.<.<.<.<.3.2.,.,.<.3.3.3.3.3.3.3.3.3.3.3.3.8.8.8.0.0.0.0.0.0.0.0.0.0.0.0.0.0.0.0.0.0.0.0.0.0.0.0.0.0.0.0.0.0.0.0.q.0.q.q.q.q.q.w.w.w.q.q.q.q.q.q.e.e.e.e.u.u.e.q.q.q.e.r.u.u.w.q.q.e.e.q.u.q.q.u.r.0.q.f.p.u.q.0.q.u.r.q.q.q.q.q.w.w.w.q.w.8.3.0.q.w.0.0.q.q.q.q.0.0.0.0.0.0.0.0.0.0.0.8.0.0.0.0.0.8.3.3.8.3.3.3.3.3.3.3.3.3.3.3.3.3.2.2.2.2.2.2.2.2.2.2.2.2.2.2.2.2.2.2.3.3.2.2.<.<.2.2.3.3.2.2.2.2.2.2.2.2.2.2.2.2.2.2.3.2.<.3.0.0.3.,.2.2.2.2.2.3.3.3.3.,.8.3.:.0.w.$.$.u V ,.g.c.|.|.@X|.U u &.f.3.,.r.<.0 , = < 7 1 ",
": 1 1 : ; w =.X.;.} M l l K r.c.G.4X-X4X4X3.N a A ) =. .' $.=. .$.$.$.$.$.#.#.#.#.#.#.#.#.$.$.$.$.$.$.$.$.$.$.$.#.$.$.$.$.$.$.$.&.&.&.&.&.&.&.&.$.$.$.$.&.&.&.;.$.$.$.$.$.$.$.$.&.&.$.&.;.:.:.:.$.$.$.$.&.;.:.:.;.;.;.;.&.;.;.;.&.$.&.&.:.:.:.:.:.:.:.:.:.:.:.:.,.,.,.<.<.<.<.,.3.2.,.,.,.2.3.3.3.3.3.3.3.3.3.3.3.3.8.8.8.0.0.0.0.0.0.0.0.0.0.0.8.8.0.0.0.0.0.0.0.0.8.8.0.0.0.0.0.0.0.0.0.0.0.0.0.q.q.q.q.w.w.q.q.q.q.q.q.e.e.e.u.u.q.w.q.r.u.p.f.u.q.w.q.e.q.q.e.e.e.e.e.r.u.u.r.e.q.w.q.q.q.q.q.q.q.q.w.w.q.q.q.3.2.0.q.w.0.q.q.q.q.0.0.0.0.0.0.0.0.0.0.0.8.8.8.0.0.0.0.8.3.3.8.3.3.3.3.3.3.3.3.3.3.3.3.3.2.2.2.2.2.2.2.2.2.2.2.2.2.2.2.2.2.2.3.2.2.2.<.<.2.2.2.2.2.2.2.2.2.2.2.2.2.2.2.2.2.2.2.2.2.3.0.0.3.<.3.3.2.2.2.2.2.2.3.,.8.3.,.e.,.G f 0 U e.F.E.3X4X,X4X2.f u A ,.3.0.;.7 1 : 3 ; ; ",
": 1 1 : ; w =.X.| | e q C U e.c.V.4X3X2XT.s.s.c 5 K =.=. .=.=.' $.$.$.$.$.#.#.#.#.#.#.#.#.$.$.$.$.$.$.$.$.$.$.$.#.$.$.$.$.$.$.$.&.&.&.&.&.&.&.$.&.$.$.$.&.&.$.$.$.$.$.$.$.$.$.$.&.&.&.;.:.:.:.:.;.:.:.:.:.;.:.:.&.&.;.;.;.;.;.;.$.$.$.&.:.;.:.:.:.:.:.:.:.:.:.:.,.,.,.<.<.<.<.,.2.2.2.<.<.,.2.3.3.3.3.3.3.3.3.3.3.3.3.8.8.0.0.0.0.0.0.0.0.0.0.0.8.8.8.0.0.0.0.0.0.0.0.0.0.0.0.0.0.0.0.0.0.0.0.0.0.0.0.q.q.q.w.q.q.q.q.q.q.e.e.e.u.e.q.q.q.u.f.g.g.u.q.w.q.e.q.q.q.r.r.q.e.u.u.q.q.q.u.e.q.0.q.q.q.q.q.q.q.q.q.q.0.2.2.0.q.q.q.w.q.q.q.0.0.0.0.0.0.0.0.0.0.8.8.8.8.0.0.0.0.8.3.3.8.3.3.3.3.3.3.3.3.3.3.3.3.3.2.2.2.2.2.2.2.2.2.2.2.2.2.2.2.2.2.2.3.2.2.<.<.<.<.2.2.2.2.2.2.2.2.2.<.<.<.<.<.<.<.<.,.<.2.3.0.0.3.2.3.3.3.2.2.2.2.2.0.<.0.8.3.e.| q u A { | j.+X4X,X4XXXc.g.c 5 2.q.w.;.5 < ; q 2 3 ",
", , 1 : : w ;.;.$.I 0 K 3.f.e.c.C.,X4X4X_._.G.1.n S @.@. .=. .$.#.#.#.#.#.#.#.#.$.$.$.$.$.$.$.#.$.$.$.$.$.$.$.$.$.$.$.$.$.$.$.$.$.$.$.$.$.$.$.$.$.$.$.$.$.$.$.$.;.;.&.&.&.&.&.&.&.&.&.&.&.&.&.&.$.$.$.&.&.;.;.;.$.$.$.&.;.:.:.:.&.&.&.:.:.:.:.:.:.:.:.:.:.,.,.,.,.,.,.,.,.,.,.,.,.2.3.2.,.:.,.3.3.3.3.3.3.3.3.3.3.3.3.3.3.8.0.0.3.3.8.0.0.0.0.0.0.0.0.0.0.0.0.0.8.8.8.0.0.0.0.0.0.0.0.0.0.0.0.0.0.0.0.0.0.q.q.q.w.w.w.q.q.q.e.e.u.q.3.3.w.u.u.u.e.e.e.e.q.q.q.q.q.q.e.r.u.q.q.q.e.e.e.q.q.e.q.q.q.q.q.q.q.q.q.q.0.0.0.0.0.0.q.w.q.q.q.0.0.0.0.0.0.0.0.8.8.3.3.3.0.0.0.0.0.0.0.0.3.3.8.3.3.3.3.8.2.2.2.2.2.2.2.2.3.3.3.2.2.2.2.2.2.2.2.2.2.<.<.<.2.2.2.2.2.2.2.2.<.<.<.<.<.<.<.<.<.<.<.2.2.2.2.2.2.3.3.3.3.2.<.<.2.2.3.3.3.3.3.3.:.3.w.;.0.:.T r U :.p.e.J.'.,X4X4XoXoXY.,.M A u.w.3.e : = 1 = 3 ",
", , 1 : : w ;.;.f q 5 ) j.V.M.u...-.=.q.!.4X(.7.( w j ( :.-.'  .#.#.#.#.#.#.#.#.$.$.$.$.$.$.$.$.$.$.$.$.$.$.$.$.$.$.$.$.$.$.$.$.$.$.$.$.$.$.$.$.$.$.$.$.$.$.$.$.&.&.&.&.&.&.&.&.&.&.&.&.;.&.&.&.$.$.$.&.&.&.;.;.&.&.&.&.&.;.:.:.;.&.&.:.;.:.:.:.:.:.:.:.:.:.,.,.,.,.,.,.,.,.,.,.,.2.3.2.,.:.<.3.3.3.3.3.3.3.3.3.3.3.3.3.3.3.0.0.3.3.3.8.0.0.0.0.0.0.0.0.0.0.0.0.8.8.8.0.0.0.0.0.0.0.0.0.0.0.0.0.0.0.0.0.0.0.q.q.q.w.q.w.q.q.e.e.e.q.3.8.q.u.u.u.q.e.e.e.q.q.q.q.q.q.e.e.q.q.q.q.e.e.q.q.q.q.q.q.q.q.q.q.q.q.q.q.q.q.0.3.3.0.q.e.q.q.0.0.0.0.0.0.0.0.8.8.8.3.3.3.0.0.0.0.8.8.8.8.<.2.3.3.3.3.3.3.2.2.2.2.2.2.2.2.3.3.2.2.2.2.2.2.2.2.2.2.2.<.<.<.2.2.2.2.2.2.2.2.<.<.<.<.<.<.<.<.<.<.<.2.2.2.2.2.,.3.3.3.2.,.<.2.2.2.2.3.3.3.3.3.0.<.0.8.:.M q q | u.G.j.<...,.2.a.{.3X|.u.U q u 0.g.<.&.r 2 : 1 ",
", , < : ; w =.;.u 0 r ^ 3.3.u.I h j h l s. XV.w.X., q } ;. .} ;.#.#.#.#.#.#.#.#.$.#.#.#.#.$.$.$.$.$.$.$.$.$.$.$.$.$.$.$.$.$.$.$.$.$.$.$.$.$.$.$.$.$.$.$.$.$.$.$.&.;.;.&.&.&.&.&.&.&.;.;.&.&.&.&.$.$.$.$.&.&.&.:.;.&.$.$.$.$.&.;.;.;.&.:.;.:.:.:.:.:.:.:.:.:.:.,.,.,.,.,.,.,.,.,.,.2.2.2.,.,.<.3.3.3.3.3.3.3.3.3.3.3.3.3.3.3.3.3.3.3.3.3.8.8.8.3.0.0.8.8.8.8.8.8.8.8.8.8.0.0.0.0.0.0.0.0.0.0.0.0.0.0.0.0.q.0.0.q.q.w.q.w.q.q.q.q.e.q.0.0.q.r.r.e.q.q.q.q.q.q.q.q.e.q.q.q.w.q.q.q.q.q.q.q.q.q.q.q.q.q.q.q.q.q.q.q.r.w.8.3.3.0.q.u.q.0.0.0.0.0.0.0.0.8.8.8.3.3.3.3.3.3.3.3.3.3.3.3.:.,.<.3.3.3.2.<.3.3.3.3.3.3.3.3.3.2.2.2.2.2.2.2.2.2.2.2.<.<.<.<.2.2.2.2.2.2.2.2.<.<.<.<.<.<.<.<.<.<.<.<.2.2.2.2.,.2.3.3.<.,.<.2.2.2.2.2.2.3.3.3.0.:.3.q.,.q O u { 8.A.j.J k c f V c.R.c.3.} 0 q <.w.u.w.1 + 1 + ",
": : , : ; w =.=.f > q I ) | p.V M A D p >.h.=.3.) 8 p $.} } X.=.#.#.#.#.#.#.#.#.$.$.#.#.#.$.;.:.$.$.$.$.$.$.$.$.$.$.$.$.$.$.$.$.$.$.$.$.$.$.$.$.$.$.$.$.$.$.$.$.&.&.$.$.$.$.$.$.$.$.$.&.$.$.$.$.$.$.$.$.$.&.&.;.$.$.$.&.&.&.$.$.;.;.&.;.;.:.:.:.:.:.:.:.:.:.:.:.:.:.,.,.,.,.,.,.,.<.2.<.,.,.2.3.3.3.3.3.3.3.3.3.3.3.3.3.3.3.3.3.3.3.3.3.8.8.3.3.3.3.3.3.3.3.3.3.3.3.8.8.8.0.0.0.8.0.0.0.0.0.0.0.0.0.0.0.0.0.0.0.q.q.q.q.q.w.q.q.q.w.0.q.q.q.q.q.w.w.q.q.q.q.q.q.e.q.q.q.0.q.q.q.q.q.q.q.q.q.q.w.0.0.0.0.0.0.0.0.e.w.0.3.3.0.w.r.0.0.0.0.0.0.0.0.8.8.8.3.3.3.3.3.3.3.3.3.3.3.3.3.:.:.,.<.3.3.3.2.3.3.3.3.3.3.3.3.2.2.2.2.2.2.<.<.2.2.2.<.<.<.<.<.<.<.<.<.<.<.<.<.<.<.<.<.,.,.,.,.,.,.<.<.<.2.2.2.:.2.3.3.,.:.<.2.<.2.2.2.2.2.2.2.3.3.<.<.3.l > f P ~ w.p.V N J M c f.u.2...~ > k w.0.0.>.: : e < ",
": : , : ; w =.=.r $ u Q | ;.k.J c M N f 0.b.=.3.) q q | | ;.;.) #.#.#.#.#.#.#.#.$.$.$.$.$.$.:.:.$.$.$.$.$.$.$.$.$.$.$.$.$.$.$.$.$.$.$.$.$.$.$.$.$.$.$.$.$.$.$.$.&.&.&.&.$.$.$.$.&.&.&.&.$.$.$.$.$.$.$.$.$.$.;.;.#.$.:.,.,.:.;.$.;.&.;.:.;.:.:.:.:.:.:.:.:.:.:.:.:.:.:.,.,.,.,.,.,.,.<.,.,.<.2.3.3.3.3.3.3.3.3.3.3.3.3.3.3.3.3.3.3.3.8.0.8.8.8.3.3.3.3.3.8.8.8.8.3.3.3.8.8.8.0.0.8.8.8.0.0.0.0.0.0.0.0.0.0.0.0.0.0.0.q.0.q.q.q.q.q.w.q.w.q.q.q.0.w.w.w.w.q.q.q.q.q.q.q.0.0.0.q.w.q.q.q.q.w.q.q.q.0.0.0.0.0.0.0.0.w.q.0.0.0.0.0.q.q.0.0.0.0.0.0.0.8.8.3.8.8.3.3.3.3.3.3.3.3.3.3.3.2.<.,.,.2.3.3.3.3.3.3.3.3.3.3.3.2.2.2.2.2.<.<.<.2.2.<.<.<.,.,.,.<.<.<.<.<.<.<.<.,.,.,.,.,.,.,.,.,.,.,.<.<.<.2.2.:.,.3.3.,.,.,.2.<.<.<.<.2.2.2.2.8.8.3.:.<.c > r W Q 3.r.N c V h N a.a.y.<.^ $ u <.u.g.3.1 : > 5 ",
": : : : ; w $.$.c 1 l W ~ | 8.U A V C J r.B.:.;.Q w 5 ....$.$...#.#.#.#.#.#.#.#.$.$.$.$.$.$.;.:.$.$.$.$.$.$.$.$.$.$.$.$.$.$.$.$.$.$.$.$.$.$.$.$.$.$.$.$.$.$.$.$.$.$.$.$.$.$.$.$.$.$.$.$.$.$.$.$.$.$.$.$.$.$.&.&.$.:.,.2.3.<.:.;.;.;.;.:.;.:.:.:.:.:.:.:.:.:.:.:.:.:.:.:.,.,.,.,.<.<.,.,.<.2.2.3.2.2.2.2.2.2.2.2.3.3.2.3.3.3.3.3.3.3.8.0.8.8.3.3.3.3.3.3.3.3.3.3.3.3.3.3.8.8.8.8.3.8.8.8.0.0.0.0.8.0.0.0.0.0.0.0.0.0.0.0.0.0.0.0.w.w.q.q.q.q.0.0.q.q.q.q.q.q.w.w.q.q.w.q.0.0.0.0.q.q.q.q.q.0.0.0.0.0.0.0.0.0.0.0.0.0.q.w.w.0.0.8.0.0.0.0.0.0.0.8.3.3.3.8.3.3.3.3.3.3.3.3.3.3.3.3.3.3.3.<.,.,.3.8.2.2.2.2.2.2.2.2.2.2.2.2.<.<.<.<.<.<.<.<.,.,.,.,.<.<.<.<.,.,.,.,.,.,.,.,.,.,.,.,.,.,.,.,.<.<.<.<.:.,.<.2.<.,.,.,.,.,.,.<.<.<.2.2.8.<.8.8.,.s = u U Q 3.q.I V C v U p.u.2.$.^ 7 f ;.i.g.;.1 ; X > ",
": : , ; ; w $.$.c ; q M c U } :.0.q.0.0.>.$.I A M q q ;.X.| ..:.#.#.#.#.#.#.#.#.$.$.$.$.$.$.$.$.$.$.$.$.$.$.$.$.$.$.$.$.$.$.$.$.$.$.$.$.$.$.$.$.$.$.$.$.$.$.$.$.$.$.$.$.$.$.$.$.$.$.$.$.$.$.$.$.$.$.$.$.$.&.&.&.,.,.2.2.<.,.:.;.;.;.;.:.;.:.:.:.:.:.:.:.:.:.:.:.:.:.:.:.:.,.,.,.,.,.,.,.<.2.2.3.2.2.2.2.2.2.2.2.2.2.2.2.2.3.3.3.3.3.3.3.3.3.3.3.3.3.3.3.3.3.3.3.3.3.3.3.3.8.8.8.3.3.8.8.8.0.0.0.8.8.0.0.0.0.0.0.0.0.0.0.0.0.0.0.q.q.q.0.0.0.0.q.0.0.0.0.0.0.0.0.q.q.w.w.q.0.0.0.q.q.q.0.0.0.0.0.0.0.0.0.0.0.0.0.0.0.w.w.q.0.0.8.0.0.0.0.0.0.8.8.3.3.8.3.3.3.3.3.3.3.3.3.3.3.3.3.3.8.0.3.,.:.,.3.2.2.2.2.2.2.2.2.2.2.2.<.<.<.<.<.<.<.<.,.,.,.,.,.,.,.<.<.,.,.,.,.,.,.,.,.,.,.,.,.,.,.,.,.,.<.<.<.,.:.:.,.2.2.,.:.,.,.,.,.,.<.<.<.3.;.8.w.:.s > r h M Q &.3.,.8.q.9.q...K Z v 0 s 0.w.u.=.1 9 ; 1 ",
": : , ; ; w $.$.l ; 1 u 7 M K q.q.r.w.p.Q C l w 1 7 7 X.X.;...| #.#.#.#.#.#.#.#.#.#.$.$.$.#.#...$.$.$.$.$.$.$.$.$.$.$.$.$.$.$.$.$.$.$.$.$.$.$.$.$.$.$.$.$.$.$.$.$.$.$.$.$.$.$.$.$.$.$.$.$.$.$.$.$.$.$.$.$.&.&.&.2.2.,.:.:.&.$.$.;.;.;.:.:.:.:.:.:.:.:.:.:.:.:.:.:.:.:.:.:.,.,.,.,.,.,.,.<.2.3.2.2.2.2.2.2.2.2.2.2.2.2.2.2.2.3.3.3.3.3.3.3.3.3.3.3.3.3.3.3.3.3.3.3.3.3.3.3.8.8.8.3.3.3.8.8.0.0.0.8.8.8.0.0.0.0.0.0.0.0.0.0.0.0.0.q.q.0.0.0.0.0.q.0.0.0.0.0.0.0.0.0.0.q.q.q.0.0.8.q.q.0.0.0.0.0.0.0.0.0.0.0.0.0.0.0.q.q.q.q.0.0.8.0.0.0.0.0.8.0.8.3.3.8.3.3.3.3.3.2.2.2.2.2.2.2.2.2.8.q.3.,.&.:.<.<.<.<.<.<.<.<.<.2.2.2.<.<.<.<.<.<.<.<.,.,.,.,.,.,.,.,.,.,.,.,.,.,.,.,.,.,.,.,.,.,.,.,.,.,.<.<.<.,.:.:.,.2.3.,.:.,.,.,.,.,.,.<.<.8.:.8.3.$.l 5 ; q e k K w.e.e.r.t.~ C h r 0 1 u 6.3.g.>.& 1 , ; ",
", > > ; ; q ....I u > 0 q q G q.u.3.r.0.K l l 0 1 l U ` ..;.$.| #.#.#.#.#.#.#.#.#.#.#.#.#.#.#.#.$.$.$.$.$.$.$.$.X.X.X.X.X.X.$.$.$.$.$.$.$.$.$.$.$.$.$.$.$.$.$.$.$.$.$.$.$.$.$.$.$.$.$.$.$.$.$.$.#.$.$.$.#.$.:.2.2.,.:.:.$.$.$.$.;.;.&.&.&.;.;.;.:.:.:.:.:.:.:.:.:.:.:.:.:.:.,.,.,.,.,.,.,.<.<.<.2.2.2.2.2.3.3.3.3.3.3.3.3.3.3.3.3.3.3.3.3.3.3.3.3.3.3.3.3.3.3.3.8.8.8.8.8.8.3.3.8.8.8.8.8.0.0.0.8.8.8.0.0.0.0.0.0.0.0.0.0.0.0.0.0.0.q.q.q.0.0.0.0.0.0.0.0.q.0.0.0.0.0.q.q.0.0.0.0.0.0.0.0.q.0.0.0.0.0.0.0.q.q.q.0.0.0.0.0.0.0.0.8.8.8.8.8.8.8.8.0.8.3.3.8.8.3.3.3.3.3.3.3.3.2.2.2.3.0.0.3.2.,.:.,.;.,.3.2.2.3.2.<.<.<.<.<.<.<.<.,.,.,.,.,.,.,.,.,.,.,.,.,.,.,.,.,.,.,.,.,.,.,.,.2.,.:.,.3.3.3.3.:.,.,.,.<.2.2.2.,.,.,.<.<.2.2.2.<.0.<.<.3.Q f 5 0 u u J 0.u.3.u.r.C l k q 1 u } 3.3.s.<.> , , > ",
"> > > ; ; w ....Q k < 5 q e c P I G I J f r u 1 $ C $.;.....$...#.#.#.#.#.#.#.#.#.#.#.$.$.#.#.#.$.$.$.$.$.$.$.$.X.X.X.X.$.X.$.$.$.$.$.$.$.$.$.$.$.$.$.$.$.$.$.$.$.$.$.$.$.$.$.$.$.$.$.$.$.$.$.$...#.$.$.$.:.2.3.,.,.:.;.$.$.$.&.;.;.;.&.&.&.;.;.:.:.:.:.:.:.:.:.:.:.:.:.:.:.:.:.,.,.,.,.,.,.<.<.2.2.2.2.2.2.3.3.3.3.3.3.3.3.3.3.3.3.3.3.3.3.3.3.3.3.3.3.3.3.3.3.8.3.8.8.3.8.3.3.8.8.8.8.8.8.0.0.8.8.8.0.0.0.0.0.0.0.0.0.0.0.0.0.0.0.q.q.0.0.0.0.0.0.0.0.0.0.0.q.0.0.0.0.q.q.0.0.0.0.0.0.0.0.0.q.0.0.q.0.0.0.q.q.0.0.0.0.0.0.0.0.8.8.8.8.8.8.8.8.0.8.3.3.8.8.3.3.3.3.3.3.3.3.2.2.2.3.0.0.0.3.,.:.,.;.,.3.2.2.3.2.<.<.<.<.<.<.<.<.,.,.,.,.,.,.,.,.,.,.,.,.,.,.,.,.,.,.,.,.,.,.,.,.,.,.:.,.3.3.3.,.:.,.,.,.<.2.2.<.,.,.,.<.<.<.2.2.<.0.<.<.<.^ h 5 ; r f V W I J ^ J h h u > 1 C <.3.3.u.<.> 1 > > ",
"> : : ; ; w $...Q N 0 > 6 q e e q q r q 0 0 5 1 > I <.;.} | $.| #.#.#.#.#.#.#.#.#.$.$.$.$.$.$.#.$.$.$.$.$.$.$.$.$.$.$.$.$.$.$.$.$.$.$.$.$.$.$.$.$.$.$.$.$.$.$.$.$.$.$.$.$.$.$.$.$.$.$.$.$.$.$.$...#.$.$.$.:.<.3.:.:.&.$.$.$.&.&.&.&.$.&.;.&.;.;.:.:.:.:.:.:.:.:.:.:.:.:.:.:.:.:.,.,.,.,.,.,.,.<.<.<.2.2.2.2.2.2.3.3.3.3.3.3.3.3.3.3.3.3.3.3.3.3.3.3.3.3.3.3.3.3.3.3.3.3.3.3.3.3.8.8.8.8.8.8.8.0.8.8.8.8.0.0.0.0.0.0.0.0.0.0.0.0.0.0.q.q.0.0.0.0.0.0.0.0.q.q.q.q.0.0.0.0.0.0.0.0.0.0.0.0.q.q.q.q.0.0.0.0.0.0.0.0.0.0.0.0.0.0.0.0.8.8.8.8.8.8.8.8.0.8.3.3.8.8.3.3.3.3.3.3.2.2.2.2.3.3.3.3.0.8.2.,.,.;.,.3.2.<.3.2.<.<.<.<.<.<.<.<.,.,.,.,.,.,.,.,.,.,.,.,.,.,.,.,.,.,.,.,.,.,.,.,.,.:.,.<.3.3.,.:.:.,.,.,.<.<.<.<.,.,.,.,.<.<.<.2.>.6.<.:.<.} V q $ > 0 r r 5 5 r q r r 7 $ q ^ 3.3.3.u.<.> 1 > > ",
": ; : ; ; w $.$.Q K k 0 < < 7 q 5 q 0 5 0 > > r C ^ X.| } $.$.| #.#.#.#.#.#.#.#.#.$.$.$.$.$.$.#.$.$.$.$.$.$.$.$.$.$.$.$.$.$.$.$.$.$.$.$.$.$.$.$.$.$.$.$.$.$.$.$.$.$.$.$.$.$.$.$.$.$.$.$.$.$.$.$.$.$.$.#.#.$.$.:.$.$.$.$.$.$.&.&.$.&.&.&.&.;.;.;.;.;.:.:.:.:.:.:.:.:.:.:.:.:.:.:.:.:.,.,.,.,.,.,.<.<.<.<.2.2.2.2.2.2.3.3.3.3.3.3.3.3.3.3.3.3.3.3.3.3.3.3.3.3.3.3.3.3.3.3.3.3.3.3.3.8.8.8.8.8.8.8.3.3.8.8.8.0.0.0.8.0.0.0.0.0.0.0.0.0.0.0.0.0.0.0.0.0.0.0.0.0.0.0.0.0.0.0.0.0.0.0.0.0.0.0.0.0.0.0.q.q.0.0.0.0.0.0.0.0.0.0.0.0.0.0.8.8.8.8.8.8.8.8.0.8.3.3.8.8.3.3.3.3.3.2.2.2.2.2.3.2.2.3.0.0.3.<.,.;.,.3.<.<.3.2.,.,.,.,.,.,.,.,.,.,.,.,.,.,.,.,.,.,.,.,.,.,.,.:.,.,.,.,.,.,.,.,.,.:.:.,.2.<.,.:.,.,.,.<.<.<.<.<.,.,.,.,.,.<.<.<.:.3.<.:.<.$.U l f 5 1 q 0 q q 5 0 e > 1 r C :.:.3.3.u.<.> 1 > > ",
": ; : ; ; w $.$.| Q K v e < < q 1 0 1 1 5 $ 5 A X.| | | $.;.$.$.#.#.#.#.#.#.#.#.#.$.$.$.$.$.$.#.$.$.$.$.$.$.$.$.$.$.$.$.$.$.$.$.$.$.$.$.$.$.$.$.$.$.$.$.$.$.$.$.$.$.$.$.$.$.$.$.$.$.$.$.$.$.$.$.;.$.$.#.#.#.#.#.$.$.$.$.$.$.&.&.$.$.$.&.&.:.;.;.;.;.;.:.:.:.:.:.:.:.:.:.:.:.:.:.:.:.,.,.,.,.,.,.<.<.<.<.<.<.<.2.2.2.2.3.3.3.3.3.3.3.3.3.3.3.3.3.3.3.3.3.3.3.3.3.3.3.3.3.3.3.3.3.3.3.8.8.8.8.8.8.3.3.3.8.8.8.0.0.8.8.8.0.0.0.0.0.0.0.0.0.0.0.0.0.0.0.0.0.0.0.0.0.0.0.0.0.0.0.0.0.0.0.0.0.0.0.0.0.0.0.0.0.0.0.8.8.0.0.0.0.0.0.0.0.8.8.8.8.8.8.8.8.0.8.3.3.8.8.3.3.3.3.2.2.<.2.2.2.3.2.<.2.0.0.3.2.,.&.,.3.<.<.2.<.,.,.,.,.,.,.,.,.,.,.,.,.,.,.,.,.,.,.,.,.,.:.:.:.,.,.,.,.,.,.,.,.,.,.:.:.:.,.:.:.,.,.,.<.<.<.,.,.,.,.,.,.,.,.<.<.>.<.<.<.<.<.| K K r > 1 1 q q > 5 > + u K | w.:.3.3.u.:.> 1 > > ",
"> : : ; ; w $.X.;.{ W P v q = - > 1 ; ; 1 1 c ..;.....;.;...| $.#.#.#.#.#.#.#.#.$.$.$.;.;.$.$.$.$.$.$.$.$.$.$.$.$.X.$.$.$.$.$.$.#.#.#.#.#.#.#.#.$.$.$.$.$.$.#.#.$.$.$.$.$.$.$.$.$.$.$.$.$.$.$.$.&.$.$.$.$.$.$.$.$.$.$.$.$.$.$.&.$.$.$.$.&.&.;.:.&.;.;.;.:.:.;.;.;.:.:.:.:.:.:.:.:.:.:.,.,.,.,.,.,.,.,.<.<.<.<.<.2.2.2.2.3.3.3.3.2.2.2.2.2.2.2.2.2.2.2.2.2.2.2.2.3.3.3.3.3.3.3.3.3.3.8.3.8.8.8.8.3.3.3.3.8.8.8.8.3.8.8.8.0.0.0.0.0.0.0.0.0.0.0.0.0.0.0.0.0.0.0.0.0.0.0.0.0.0.0.0.0.0.0.0.0.0.0.0.0.0.0.0.0.0.0.0.8.8.8.8.8.8.8.8.8.8.8.8.8.8.8.8.0.8.3.3.0.8.3.3.3.3.2.<.,.<.2.2.3.<.,.2.3.0.3.3.,.&.,.3.<.,.2.,.,.,.,.,.,.,.,.,.:.:.:.,.,.,.,.,.,.,.,.,.:.:.:.:.:.:.:.:.:.:.:.:.,.,.:.:.:.:.,.,.,.,.,.<.<.,.,.,.,.,.,.,.,.,.,.,.<.<.<.<.<.3.:.) W h 5 > $ ; > $ > > q K ..:.3.:.<.<.u.:.> 1 > > ",
"> > > ; ; w ....$.| ) Q G h q 7 r u q q f V Q :.| | X.=.$.| | ..#.#.#.#.#.#.#.#.$.$.&.:.:.;.$.$.$.$.$.$.$.$.$.$.X.X.X.X.$.$.$.$.#.#.#.#.#.#.#.#.$.$.$.$.$.$.#.#.$.$.$.$.$.$.$.$.$.$.$.$.$.$.$.$.$.$.#.$.$.&.$.$.$.$.$.$.$.$.$.$.$.$.$.$.&.&.:.:.&.&.&.;.&.;.;.;.;.;.:.;.:.:.:.:.:.:.:.:.,.,.,.,.,.,.,.,.,.<.<.<.2.2.2.2.2.3.3.3.2.2.2.2.2.2.2.2.2.2.2.2.2.2.2.2.3.3.3.3.3.3.3.3.3.3.3.3.8.8.8.8.3.3.3.3.3.8.8.8.3.3.8.8.8.0.0.0.0.0.0.0.0.0.0.0.0.0.0.0.0.0.0.0.0.0.0.0.0.0.0.0.0.0.0.0.0.0.0.0.8.0.0.0.0.0.0.0.8.8.8.8.8.8.8.8.8.8.8.8.8.8.8.8.0.8.3.3.0.0.3.3.3.3.2.<.<.<.2.2.2.2.<.<.2.2.3.3.,.&.,.3.,.,.2.,.,.,.,.,.,.,.,.,.:.,.,.,.,.,.,.,.,.,.,.,.:.:.:.:.:.:.:.:.:.:.:.:.:.:.,.,.,.:.,.,.,.,.,.<.<.,.,.,.,.,.,.,.,.,.,.,.0.:.<.3.:.<.3.;.| I M l u r u u u u K | :.<.;.:.<.<.r.:.> 1 > > ",
", > > ; ; q ....| $.$.{ Y A V A M C V M A ^ ..| | X.$...X.;.;...#.#.#.#.#.#.#.#.$.$.&.:.:.&.$.$.$.$.$.$.$.$.$.$.X.X.X.X.X.X.$.$.#.#.#.#.#.#.#.#.$.$.$.$.$.$.#.#.$.$.$.$.$.$.$.$.$.$.$.$.$.$.$.$.$.#.....$.$.$...$.$.$.$.$.$.$.$.$.$.$.$.$.&.:.:.&.&.$.&.&.;.;.;.;.;.;.;.:.:.:.:.:.:.:.:.,.,.,.,.,.,.,.,.,.,.<.<.2.2.2.2.2.3.3.3.2.2.2.2.2.2.2.2.2.2.2.2.2.2.2.2.3.3.3.3.3.3.3.3.3.3.3.3.8.8.8.8.3.3.3.3.3.8.8.8.3.3.3.8.8.0.0.0.0.0.0.0.0.0.0.0.0.0.0.0.0.0.0.0.0.0.0.0.0.0.0.0.0.0.0.0.0.0.0.0.3.8.8.0.0.0.0.0.8.8.8.8.8.8.8.8.8.8.8.8.8.8.8.8.0.8.3.3.8.8.3.3.3.3.2.<.,.<.2.2.<.2.2.<.<.<.2.3.,.&.,.3.,.,.2.,.,.,.,.,.,.,.,.,.,.,.,.,.,.,.,.,.,.,.,.:.:.:.:.;.:.:.:.:.:.:.:.:.;.:.,.<.<.,.,.:.,.,.<.<.<.,.,.,.,.,.,.,.,.,.,.,.w.:.<.0.;.:.3.<.;.^ J A A C C C A V } ;.:.0.:.3.<.<.r.:.> 1 > > ",
"; 1 , > & 8 $.$.$.X...| { _ ~ ~ ^ ^ ) ) } | ..........X.X.$.$.$.#.$.$.$.$.$.$.$.$.$.$.:.:.;.$.................X.$.X...................#.#.#.$.$.$.&.#...$.$.#.&.$.$.$.$.$.$.$.$.$.$.$.$.$.$.$.$.$.$.$.$.$.$.$.$.$.$.$.$.$.$.$.$.$.$.$.$.$.$.&.:.;.;.;.:.:.:.:.:.;.;.:.:.:.:.:.;.:.:.:.:.:.,.,.,.2.,.:.:.,.,.2.2.2.2.2.2.2.2.2.2.2.2.2.2.2.2.2.2.<.<.<.2.2.2.2.2.3.3.3.3.3.3.3.3.3.3.3.3.3.3.3.3.3.3.3.8.8.0.0.0.8.3.3.8.8.0.0.0.0.0.0.0.0.0.0.0.0.0.0.0.0.0.0.0.0.0.0.0.0.0.0.0.0.0.0.0.0.8.8.8.8.8.8.8.8.8.8.8.3.3.3.3.3.8.8.8.0.0.0.8.8.3.3.3.8.0.8.8.8.3.3.3.3.3.3.w.w.3.2.2.2.2.<.<.<.2.2.2.:.;.:.2.3.,.,.2.,.,.,.,.,.,.,.,.,.,.,.:.:.:.:.:.:.:.:.:.:.:.:.:.:.:.:.:.:.:.:.:.;.:.2.3.3.2.2.2.2.,.:.;.:.:.<.3.<.<.2.3.3.3.3.3.3.<.<.<.<.<.3.3.:.;.$.........X...$.:.:.<.<.<.<.<.<.u.<., 1 < > ",
", : > < > w ;.| | ....X.$.$.$.$...........X.$.$.....X.X.X.$.$.$.#.#.$.$.$.$.$.$.$.$.$.&.;.$.#...................$.X...................#.#.#.$.$.$.$.....:.:.#.$.$.$.$.$.$.$.$.$.$.$.$.$.$.$.$.$.$.$.$.$.$.$.$.$.$.$.$.$.$.$.$.$.$.$.$.$.$.$.&.:.;.;.;.:.:.:.:.:.:.:.;.;.:.:.:.:.:.:.:.:.:.:.,.,.<.,.,.,.,.<.<.,.<.<.<.2.2.<.<.<.2.2.2.2.2.2.2.2.<.<.<.2.2.2.2.2.3.3.3.3.3.3.3.3.3.3.3.3.3.3.3.3.3.3.3.8.8.8.0.0.3.3.3.8.0.8.0.0.0.0.0.0.0.0.0.0.0.0.0.0.0.0.0.0.0.0.0.0.0.0.0.0.0.0.0.0.0.8.8.8.8.8.8.8.0.0.8.8.3.3.3.3.3.8.8.8.0.0.8.8.8.3.3.3.8.8.0.8.8.3.3.3.3.2.3.0.0.3.2.2.2.2.<.<.<.2.2.2.,.:.:.2.2.,.,.2.,.,.,.,.,.,.,.,.,.,.:.:.:.:.:.:.:.:.:.:.:.:.:.:.:.:.:.:.:.:.:.:.:.:.,.<.2.2.2.3.3.<.:.:.:.:.<.3.3.3.3.3.3.3.3.3.<.<.<.<.<.<.<.3.6.3.3.3.<.3.0.0.<.<.6.0.3.<.<.<.<.<.u.<., 1 < > ",
"< ; , > $ q $.| | ..$.$.$.$.$.$.;.$.$.$...........X.X.X.$.X.X.X...#.$.$.$.$.$.#.$.$.$.$.&.$.#...X.X.............$.X...................#.#.#.$.$.$.$.....:.:.#.#.$.$.$.$.$.$.$.$.$.$.$.$.$.$.$.$.$.$.$.$.$.$.$.$.$.$.$.$.$.$.$.$.$.$.$.$.$.$.&.:.;.;.;.:.:.:.:.:.:.:.:.:.:.:.:.:.:.:.:.:.,.:.:.,.,.,.,.<.2.<.,.:.,.,.<.2.2.<.,.,.<.<.<.<.<.<.<.<.<.<.<.<.2.2.2.2.3.3.3.3.3.3.3.3.3.3.3.3.3.3.3.3.3.3.3.3.8.8.3.8.3.3.3.3.8.8.0.0.0.0.0.0.0.0.0.0.0.0.0.0.0.0.0.0.0.0.0.0.0.0.0.0.0.0.0.0.0.0.0.0.8.8.8.8.0.0.0.0.3.3.3.3.3.8.8.8.0.8.8.8.3.3.8.8.8.8.0.3.8.3.3.3.3.2.2.3.3.2.<.2.2.2.<.<.<.<.2.2.2.,.,.<.<.,.,.2.,.,.,.,.,.,.,.,.,.:.:.:.:.:.:.:.:.:.:.:.:.:.:.:.:.:.:.:.:.:.:.:.,.:.:.,.<.2.3.3.2.,.:.&.&.:.,.<.3.3.8.3.3.3.3.2.<.<.<.<.<.<.<.<.:.:.:.>.<.<.<.<.3.6.0.0.3.<.:.:.<.<.u.<.> 1 < > ",
"< ; 1 ; o 0 | ....X.$.X...| | | ................X.X.X.$.X.X.$.$...#.$.$.$.$.$.#.#.#.#.$.$.$.#...$.$.$.$.X.X.X.$.$.X...................#.#.#.#.#.$.$.....,.,.$...#.#.#.#.#.#.#.#.#.#.#.#.#.#.#.#.$.$.$.$.$.$.$.$.$.$.$.$.$.$.$.$.$.$.$.$.$.$.&.:.;.;.;.:.;.:.:.:.:.;.;.:.:.:.,.<.:.:.:.:.:.,.:.:.:.:.,.<.2.,.:.$.,.,.<.2.2.2.<.<.,.,.,.,.,.,.,.,.<.<.<.<.<.2.2.2.3.3.3.3.<.<.<.<.<.3.3.3.3.3.3.3.3.3.3.3.3.3.3.3.3.3.3.3.3.8.8.8.8.8.8.8.0.0.8.8.8.8.8.8.8.8.8.8.8.8.8.8.8.8.8.8.0.0.0.8.0.0.8.8.3.3.3.3.8.8.8.3.3.3.3.3.3.8.8.8.8.8.8.3.8.8.3.3.8.0.0.8.8.3.3.3.3.2.<.2.2.,.<.2.2.2.<.<.,.,.<.<.3.2.<.,.,.,.,.2.,.,.,.,.,.,.,.,.:.:.:.:.:.:.:.:.:.:.:.:.:.:.:.:.:.:.:.;.:.:.:.:.:.:.:.,.<.3.2.2.:.:.$.$.$.;.:.,.2.2.2.2.2.2.<.<.<.<.<.<.<.<.<.<.>.>.<.<.<.>.>.:.:.<.<.<.<.:.:.:.<.<.u.<.> 1 1 < ",
"1 ; 1 , q n ........$.$.$.$.$.&.X.X.......X.$.$.X.X.$.$.$.$.$.$...#.$.$.$.$.$.#.#.#.#.$.$.$.$.#.$.$.$.X.X.X.$.$.$.X.................#.#.#.#.#.#.$.$.| ..,.,.$.#.#.#.#.#.#.#.#.#.#.#.#.#.#.$.#.#.$.$.$.$.$.$.$.$.$.$.$.$.$.$.$.$.$.$.$.$.$.$.&.;.&.&.&.;.;.:.:.:.;.;.;.:.:.,.<.3.:.:.:.:.:.:.:.:.;.:.:.,.<.,.:.$.,.,.<.2.2.2.2.<.<.<.<.<.,.,.,.,.,.,.,.<.<.<.2.2.3.3.3.3.3.3.3.3.<.3.3.3.3.3.3.3.3.3.3.3.3.3.3.3.3.3.3.8.8.8.8.8.8.8.8.8.8.0.8.8.8.8.8.8.0.0.8.8.8.8.8.8.0.0.8.8.0.0.8.8.8.3.3.8.3.3.8.8.8.8.3.3.3.3.3.8.8.0.8.8.8.8.3.3.8.3.3.3.8.8.8.3.3.3.3.3.3.<.,.2.2.,.,.2.2.2.<.<.<.<.,.,.3.3.2.,.:.,.,.,.,.,.,.,.,.,.,.,.:.:.:.:.:.:.:.:.:.:.:.:.:.:.:.:.:.:.:.:.:.:.:.;.;.:.:.<.2.2.,.,.:.;.&.&.;.:.,.<.:.,.,.<.<.<.<.<.<.<.<.<.<.>.>.>.<.<.<.<.<.<.:.:.>.<.<.3.<.<.<.<.<.<.r.<.1 1 1 1 ",
"1 ; : 5 K } ;.| ..X.$.&.$.$.$.&.$.$.$.X.........$.$.$.$.$.$.$.$.#.$.$.$.$.$.$.$.$.#.#.$.$.$.$.#.$.$.$.$.$.$.$.$.$.X.............#.#.#.#.#.#.#.#.$.$.....:.:.$.$.#.#.#.#.#.#.#.#.#.#.#.#.#.#.#.#.#.#.#.#.#.#.#.#.#.$.$.$.$.$.$.$.$.$.$.$.$.$.&.;.&.&.&.;.:.:.:.:.;.:.:.,.,.<.<.<.:.:.:.:.:.:.:.:.;.;.:.:.,.,.:.:.,.,.,.,.<.<.2.2.<.<.<.<.,.,.,.,.,.,.,.,.<.<.<.<.<.<.<.<.<.<.<.<.<.3.<.<.3.3.3.3.3.3.3.3.3.3.3.3.3.3.3.3.3.3.3.3.3.3.3.3.8.8.3.3.3.3.3.3.8.8.3.3.3.3.3.3.8.8.3.3.8.8.8.8.3.3.3.3.3.3.3.3.3.3.3.3.3.3.3.8.8.0.8.8.3.3.3.3.3.3.3.3.8.8.8.3.3.3.3.3.3.<.,.2.2.,.,.2.2.2.<.<.,.,.,.,.3.3.2.:.:.,.,.,.:.:.:.:.:.:.:.:.:.:.:.:.:.:.:.:.:.:.:.:.:.:.:.&.:.:.:.:.:.:.:.:.$.:.<.2.<.,.:.:.:.:.,.,.2.2.3.3.:.:.,.<.2.2.2.2.<.<.<.,.>.:.>.>.;.:.:.:.:.:.:.:.<.<.3.3.<.:.:.>.:.<.r.<.1 1 1 1 ",
", 1 : 1 ) >.$.| X.$.$.$.$.....#.=.$.$.X.........$.$.$.$.$.$.$.$.$.$.$.;.&.&.$.$.$.$.$.$.$.&.$.$.$.$.$.$.$.$.$.$.$.X.............#.#.#.#.#.#.#.#.#.$.....:.:.$.&.#.#.#.#.#.#.#.#.#.#.#.#.#.#.#.#.#.#.#.#.#.#.#.#.#.#.$.$.$.$.$.$.&.$.$.$.$.$.&.;.&.&.&.;.:.:.:.:.:.:.<.<.<.,.:.:.;.:.:.:.:.:.:.:.:.:.:.:.,.,.,.,.,.:.:.:.:.,.<.2.<.<.<.<.<.<.<.<.,.,.,.,.,.<.<.<.<.<.<.<.<.<.<.<.<.<.<.<.3.3.3.3.3.3.3.3.3.3.3.3.3.3.3.3.3.8.8.3.3.3.3.3.3.3.3.3.3.3.3.3.8.8.8.3.3.3.3.3.8.8.8.3.8.8.8.3.3.3.3.3.3.3.3.3.3.3.3.3.3.3.3.8.8.8.8.8.3.3.3.3.3.3.3.3.8.8.8.3.3.3.3.3.3.<.<.3.2.,.,.2.2.2.<.<.,.,.,.,.2.3.2.:.:.,.,.:.:.:.:.:.:.:.:.:.:.:.:.:.:.:.:.:.:.:.:.:.;.;.&.&.:.:.:.:.:.:.:.:.&.,.2.2.:.;.:.,.,.2.3.3.3.3.3.2.:.,.,.<.2.2.<.<.<.<.<.:.:.:.:.:.>.<.<.<.3.3.3.3.<.<.<.<.:.:.:.:.:.<.r.<.1 1 1 1 ",
"; 0 1 > ^ X.} $...X.$.&.$.$.&.&.&.=.$.$.$.$.$.$.$.$.$.$.$.$.$.$.$.$.$.;.;.&.$.$.$.$.$.$.$.&.&.$.$.$.$.$.$.$.$.$.$.X.............#.#.#.#.#.#.#.#.#.$.....&.&.$.:.#.#.#.#.#.#.#.#.#.#.#.#.#.#.#.#.#.#.#.#.#.#.#.#.#.#.#.$.$.$.$.$.&.$.$.$.$.$.&.;.;.&.&.:.:.:.:.:.,.<.3.3.<.:.;.$.:.:.:.:.:.:.:.:.,.:.:.:.,.2.3.3.:.:.;.&.;.:.,.2.<.<.<.<.<.<.<.<.,.,.,.,.,.<.<.<.<.<.<.<.<.<.<.<.<.<.<.3.3.3.3.3.3.3.3.3.3.3.3.3.3.3.3.3.3.8.3.8.3.3.3.3.3.3.3.3.3.3.3.3.8.8.8.3.3.3.3.3.8.8.8.3.8.8.8.3.3.3.3.3.3.3.3.3.3.3.3.3.3.3.3.8.3.8.8.8.3.3.3.3.3.3.3.3.8.8.8.3.3.3.3.3.3.<.2.3.3.,.,.2.2.2.<.<.,.,.,.,.,.2.2.:.:.,.,.:.:.:.:.:.:.:.:.:.:.:.:.:.:.:.:.:.:.:.:.:.;.&.&.&.:.:.:.:.:.:.:.:.:.,.3.<.&.$.:.<.2.3.8.0.0.3.,.:.:.,.,.,.,.,.,.,.<.<.<.:.:.:.:.:.:.:.:.:.:.:.:.>.<.<.<.<.<.:.<.<.:.<.r.<.1 1 1 1 ",
", ; 8 ; ^ X.X.....$.:.&.$.#.$.*.$.$.$.#.#.......#.#.#.#.#.$.$.&.=.$.$.#.$.$.=.:.-.$.$.$.$.:.$.$.;.$.$.#.#.#.#.#.$.#.#.......#.#.............#.#.#.$.$.#...#.&.,.#.#.............#.#.#.#.#.#.#.#.#.#.$.$.$.#.#.#.#.#.#.#.#.#.$.$.$.$.$.$.$.$.$.&.&.$.$.$.&.:.:.:.3.3.<.:.:.:.:.:.:.:.:.:.:.:.:.:.;.;.:.:.:.:.:.,.<.:.:.:.:.:.;.&.:.:.,.2.2.,.,.3.,.,.,.,.,.<.<.<.,.,.,.,.,.,.,.,.<.<.2.2.3.3.3.3.3.2.2.2.2.3.3.3.3.3.3.8.8.8.3.3.8.8.8.8.8.8.8.8.8.8.8.8.8.8.0.0.3.3.3.8.8.0.0.0.0.0.0.8.3.3.3.3.3.3.3.3.3.3.3.3.3.3.3.3.8.0.3.3.8.8.3.3.3.3.3.3.3.3.3.3.3.3.3.3.2.2.2.2.2.<.<.<.2.2.,.,.,.,.,.<.3.2.,.:.:.,.,.,.:.:.:.:.:.:.:.:.:.:.:.:.:.:.:.:.;.;.;.;.;.;.;.;.&.&.&.;.;.:.:.:.$.,.2.,.;.$.,.8.3.3.3.<.,.:.:.:.,.,.,.<.<.<.3.3.<.<.,.,.:.:.:.;.:.:.:.:.:.:.,.,.<.<.<.<.<.<.>.>.<.>.w.:.> 1 1 1 ",
", ; 8 ; ^ X.X.....$.&.$.$.#.$.*.$.$.$.$.#.#.#.#.$.$.#.#.$.$.$.&.$.$.$.#.#.$.$.=.-.$.$.$.$.=.$.$.$.$.$.#.....#.#.$.#.#.........#.............#.#...#.$.#.....$.:.#.#...........#.#.#.#.#.#.#.#.#.#.#.#.#.$.#.#.#.#.#.#.#.#.#.$.$.$.$.$.$.$.$.$.&.&.$.$.&.:.:.<.2.3.2.,.:.:.;.:.:.:.:.;.:.:.:.:.:.;.;.:.:.:.:.:.:.<.,.:.:.:.:.;.&.$.;.,.3.2.,.,.<.,.,.,.,.,.,.<.<.,.,.,.,.,.,.,.,.<.<.2.2.2.3.3.3.3.2.2.2.2.3.3.3.3.3.3.8.8.3.3.3.8.8.8.8.8.8.8.0.8.8.8.8.8.0.0.0.3.3.3.8.8.0.0.0.8.0.8.8.3.3.3.3.3.3.3.3.3.3.3.8.3.3.3.3.8.8.3.3.8.3.3.3.3.3.3.3.3.3.3.3.3.3.3.3.2.2.2.2.2.<.<.<.2.,.,.,.,.,.,.<.2.,.,.:.:.,.,.,.:.:.:.:.:.:.:.:.:.:.:.:.:.:.:.:.;.;.;.;.;.;.;.;.&.&.&.;.;.:.:.:.:.,.2.,.:.:.,.3.,.,.,.:.:.:.:.:.:.,.,.,.<.<.3.3.<.,.,.:.:.:.;.;.:.:.:.:.:.:.,.,.<.<.<.<.<.<.>.>.<.>.r.:.> 1 1 1 ",
", ; 8 ; ^ X.X.....$.$.$.$.#.$.$.$.$.$.$.$.$.$.#.$.$.$.$.$.$.$.$.$.$.#.#.#.$.$.$.=.$.$.$.$.$.$.$.$.$.#.#.......#.$.#.#.......#.#.............................$.:.#...........#.#.#.#.#.#.#.#.#.#.#.#.#.#.#.#.#.#.#.#.#.#.#.#.$.$.$.$.$.$.$.$.$.&.;.&.&.:.:.,.3.8.<.,.:.:.;.;.:.:.;.;.;.;.:.:.:.:.;.;.:.:.:.:.:.:.<.<.,.<.<.,.:.;.$.$.,.3.3.<.,.,.,.,.,.,.,.,.,.<.<.<.<.<.<.<.<.<.<.<.2.2.2.3.3.3.3.2.2.2.2.3.3.3.3.3.8.8.8.8.3.3.8.8.8.8.8.8.0.0.8.8.8.8.8.8.0.0.3.8.3.3.8.8.8.0.8.3.8.8.3.3.3.3.3.3.3.3.3.3.8.8.3.3.0.8.0.8.3.3.8.8.3.3.3.3.3.3.3.3.3.3.3.3.3.3.2.2.2.2.<.<.<.<.,.,.,.,.,.,.,.<.,.,.,.,.,.:.:.:.:.:.:.:.:.:.:.:.:.:.:.:.:.:.:.:.;.;.;.;.;.;.;.;.;.;.&.:.;.:.:.:.:.,.,.,.,.,.,.2.;.;.;.:.:.:.:.:.:.:.,.,.,.<.<.<.,.,.,.:.:.:.:.:.:.:.:.:.:.:.:.:.>.>.<.<.<.<.<.<.<.>.w.:.> 1 1 1 ",
", ; 8 ; ^ X.X...#.#.$.$.$.#.$.$.$.$.$.$.$.$.$.$.;.;.$.&.$.$.$.$.$.$.$.$.$.$.$.$.=.=.$.$.$.$.$.$.$.$.$.$.#.#.#.#.$.#.#.........#...........................#.$.:.#.........#.#.#.#.#.#.#.#.#.#.#.#.#.#.#.#.#.#.#.#.#.#.#.#.#.$.$.$.$.$.$.$.$.$.&.:.;.&.&.:.,.3.8.:.:.:.&.;.;.:.:.&.&.;.;.;.:.:.:.;.;.;.:.:.:.:.:.,.,.,.3.3.3.<.:.$.$.:.2.3.<.,.<.,.,.,.,.,.,.,.,.<.<.<.<.<.<.<.<.<.<.<.2.2.2.2.3.3.2.2.2.2.3.3.3.3.3.3.3.3.3.3.3.3.3.3.3.3.3.8.8.3.3.3.3.3.3.8.8.3.3.3.3.3.8.8.8.3.3.8.3.3.3.3.3.3.3.3.3.3.3.8.8.3.3.0.0.8.3.3.3.8.8.3.3.3.3.3.3.3.3.3.3.3.3.3.3.2.2.2.<.<.<.,.,.,.,.,.,.,.,.,.,.:.:.,.,.,.:.:.:.:.:.:.:.:.:.:.:.:.:.:.;.;.:.:.:.;.;.;.;.;.;.;.;.;.&.&.:.;.:.:.:.:.:.:.,.<.,.,.:.&.&.;.;.:.:.:.:.:.:.:.:.,.,.,.,.,.,.,.,.:.:.:.:.:.:.:.:.:.:.:.:.:.:.:.:.>.>.>.>.<.>.w.:.> 1 1 1 ",
", ; 8 ; ^ X.X...#.#.$.$.$.$.$.$.$.$.$.$.;.$.$.$.;.;.;.;.;.&.$.$.$.$.$.$.&.&.;.;.;.&.&.&.$.$.$.$.$.$.$.$.$.$.$.$.$.#.#.........#.#.#...................#.#.$.&.:.#.#.#.....#.#.#.#.#.#.#.#.#.#.#.#.#.#.#.#.#.#.#.#.#.#.#.#.#.$.$.$.$.$.$.$.$.$.&.:.:.&.&.;.:.,.<.:.:.&.&.;.;.:.:.&.&.;.:.:.:.:.:.;.;.;.:.:.:.:.:.:.:.:.<.3.8.3.3.:.&.:.,.<.,.,.2.,.,.,.,.,.,.,.,.<.<.<.,.<.<.<.<.<.<.<.2.2.2.2.2.3.2.2.2.2.3.3.3.3.3.3.3.3.3.3.3.3.3.3.3.8.8.8.8.3.3.3.3.3.3.3.8.3.3.3.8.3.8.0.8.3.3.3.3.3.3.3.3.3.3.3.3.3.8.8.8.3.0.0.0.3.3.3.3.8.3.3.3.3.3.3.3.3.3.3.3.3.3.3.3.2.2.<.<.<.,.,.,.:.:.,.,.,.,.,.,.$.:.<.2.,.:.:.:.:.:.:.:.:.:.:.:.:.;.;.;.:.:.:.:.;.;.;.;.&.&.&.;.;.;.;.:.:.:.:.:.:.:.:.:.,.,.:.;.;.:.:.:.:.:.:.:.:.:.:.:.:.:.,.,.,.,.,.,.,.,.,.,.,.,.:.:.:.:.:.:.:.:.>.>.>.>.,.>.<.<.r.:.> 1 1 1 ",
", ; 5 ; ^ X.X...#.#.#.$.$.$.$.$.#.$.$.$.;.;.$.$.$.$.$.;.;.;.$.$.;.;.&.:.;.;.:.:.&.:.;.&.$.$.$.$.$.$.&.&.;.;.$.$.$.#.#.........#.#.#...........#.....#.#.#.$.$.$.$.$.#.#.#.#.#.#.#.#.#.#.#.#.#.#.#.#.#...........#.#.#.#.#.#.$.$.$.$.$.$.$.$.$.&.:.:.&.$.$.&.;.:.&.&.&.&.;.:.;.:.$.&.;.;.:.:.:.:.;.;.;.;.;.:.:.:.;.;.:.,.3.3.3.3.,.:.;.:.,.,.,.2.:.,.,.,.,.,.,.,.,.,.,.,.,.,.,.,.<.<.<.<.<.2.2.2.3.2.2.2.2.3.3.3.3.3.3.3.3.3.3.3.3.3.3.3.3.3.3.3.3.3.3.3.3.3.3.3.3.3.3.3.3.3.3.3.3.3.3.3.3.3.3.3.3.3.3.3.3.3.8.8.3.0.q.0.3.3.3.3.8.8.3.3.3.3.3.3.3.3.3.3.3.3.3.2.<.<.<.<.,.,.,.,.:.:.,.,.:.:.:.:.;.,.2.2.,.:.&.&.:.:.:.:.:.:.:.;.&.&.&.&.;.;.;.;.;.;.;.;.&.&.&.;.;.;.;.:.:.:.:.:.:.:.:.:.:.:.:.;.:.:.:.:.;.:.:.:.:.:.:.:.:.:.:.:.,.,.,.,.,.,.,.,.<.,.:.:.:.;.;.;.:.:.:.:.:.:.:.:.<.<.r.:.> 1 1 1 ",
", ; 8 ; ^ X.X...#.#.#.#.$.$.$.#.#.#.$.$.;.;.$.$.#.$.$.$.;.;.&.$.$.$.;.;.;.;.;.;.&.;.:.;.$.$.$.$.$.$.$.;.;.;.$.$.$.#.#.........#.#.........#.#.#.#.......#.$.$.#.$.$.$.#.........#.#.#.#.#.#.#.#.#.#.............#.#.#.#.#.#.$.$.$.$.$.$.$.$.&.;.$.$.$.&.$.$.$.$.&.:.:.:.:.:.;.;.$.&.;.;.;.:.:.:.;.;.;.;.;.;.;.;.:.:.:.:.<.3.3.<.,.:.;.,.<.,.:.,.:.:.,.,.,.,.,.,.,.,.,.,.,.,.,.,.<.<.<.<.<.<.<.<.3.2.2.2.2.3.3.3.3.3.3.3.3.3.3.3.3.3.3.3.3.3.3.3.3.3.3.3.3.3.3.3.3.3.3.3.3.3.8.8.3.3.3.3.3.3.3.3.3.3.3.3.3.3.3.3.3.0.w.0.3.2.3.3.3.3.3.3.3.3.3.3.3.3.3.3.3.3.2.2.<.<.<.<.,.,.,.,.,.,.,.,.:.:.;.&.:.<.3.3.,.;.&.:.:.:.:.:.:.:.&.&.&.&.&.&.;.;.;.;.;.;.;.;.;.;.;.;.;.;.;.:.:.:.:.:.:.:.:.:.:.:.:.:.:.:.;.;.;.;.:.:.:.:.:.:.;.;.;.:.:.:.:.:.:.,.,.,.<.,.,.:.:.:.;.;.:.:.:.:.:.:.:.:.<.<.r.:.> 1 1 1 ",
", ; 5 ; ^ X.X...#.#.#.#.$.$.$.#...#.$.&.&.&.$.$.#.#.$.$.;.;.&.$.$.$.$.&.&.&.&.$.$.:.:.;.$.$.$.$.$.$.$.;.;.$.$.$.$.#.#.........#.#.#.......#.#.#.#.........#.....;.$.$.#.........#.#.#.#.#.#.#.#.................#.#.#.#.#.#.$.$.$.$.$.$.$.$.&.;.$.$.$.&.&.&.$.$.:.:.:.:.:.:.;.;.&.&.&.;.;.:.:.:.;.;.;.;.;.;.;.;.:.:.:.:.:.,.,.,.:.:.:.,.2.,.:.:.:.:.:.,.,.,.,.,.,.,.,.,.,.,.,.,.<.<.<.<.<.<.<.<.3.2.2.2.2.3.3.3.3.3.3.3.3.3.3.3.3.3.3.3.3.3.3.3.3.3.3.3.3.3.3.3.3.3.3.3.3.3.8.8.3.3.3.3.3.3.3.3.3.3.3.3.3.3.3.3.3.0.q.0.3.2.3.3.3.3.3.3.3.3.3.3.3.3.3.3.3.2.2.2.<.<.<.<.,.,.,.,.,.,.,.,.:.:.&.$.,.2.3.3.,.:.&.:.:.:.:.:.:.;.;.&.;.&.&.&.;.;.;.;.;.;.;.;.;.&.;.;.;.;.;.:.:.:.:.:.:.:.:.:.;.;.:.,.&.;.;.;.;.;.:.:.:.:.:.:.;.;.:.;.;.;.:.:.:.:.:.:.<.<.,.:.:.;.;.;.:.:.:.:.:.:.:.:.<.<.r.:.> 1 1 1 ",
", ; 5 > ^ $.$.$.......#.#.#.#.#.$.$.$.&.&.$.$.$.#.#.$.$.&.&.&.$.,.&.;.;.$.&.:.;.&.&.&.&.&.&.$.$.&.;.&.&.$.$.#...$.$.#.$.$.#...............................#.#.#.:.,.:.$...#.$...#.#.........#.#.#.#.#.#.#.#.#.#.......#.#.$.$.#.#.$.$.$.$.$.$.$.$.$.&.;.;.:.:.:.;.;.;.&.&.&.;.;.$.$.$.&.&.;.;.:.;.;.;.:.;.:.:.:.;.;.:.:.:.:.<.3.:.:.:.<.2.:.:.:.,.,.,.,.,.,.,.,.:.,.,.,.,.,.,.,.<.<.<.2.2.2.2.2.2.2.2.3.3.3.3.3.2.2.3.3.3.3.3.3.3.3.3.3.3.3.3.3.3.3.3.3.3.3.3.3.3.3.3.3.3.3.3.3.3.3.3.3.3.3.3.3.2.3.3.3.3.3.3.8.3.3.3.3.3.3.3.3.3.3.8.3.3.3.3.3.2.2.2.2.2.3.2.2.2.2.2.<.<.,.,.,.<.,.:.:.,.,.<.,.<.2.3.3.,.$.$.:.:.:.:.:.:.:.;.;.:.:.:.&.&.&.&.&.&.&.&.;.;.:.:.:.:.:.:.:.&.$.$.$.:.:.:.:.:.:.:.:.&.:.:.;.;.,.<.,.:.$.;.:.;.:.,.:.;.;.;.:.:.:.:.:.:.:.:.;.:.:.:.:.:.:.;.;.;.:.:.;.;.$.r.:.1 1 + 5 ",
", ; 5 > ^ $.$.$.....#.#.#.#.#.#.$.$.$.&.&.$.$.$.#.$.$.$.&.&.$.$.$.#.:.<.:.&.$...&.$.&.&.&.$.$.;.$.$.$.&.$.$.$.#.$.$.#.#.$.$.#...............................#.#.$.:.:.$...#.$...#.#.#.......#.#.#.#.#.#.#.#.#.#.......#.#.$.$.#.#.$.$.$.$.$.$.$.$.$.&.;.;.;.:.:.;.:.;.;.;.&.;.;.&.$.$.&.$.;.;.:.;.;.;.:.;.:.:.:.;.;.:.:.:.:.<.3.:.:.:.<.<.:.:.,.,.,.,.,.,.,.,.,.:.,.,.,.,.,.,.,.<.<.<.2.2.2.2.2.2.2.2.3.3.3.3.3.2.3.3.3.3.3.3.3.3.3.3.3.3.3.3.3.3.3.3.3.3.3.3.3.3.3.3.3.3.3.3.3.3.3.3.3.3.3.3.3.3.3.3.3.3.2.3.3.3.3.3.3.3.3.3.3.8.8.3.3.3.3.3.3.2.2.2.2.3.2.2.2.2.2.<.<.<.,.,.,.,.,.,.:.:.,.2.2.3.3.3.3.,.&.&.,.:.:.:.:.:.:.;.;.:.:.;.;.&.$.&.&.&.;.&.;.;.;.:.:.:.:.;.:.&.&.$.$.:.:.:.:.:.:.:.:.:.:.:.;.;.:.:.:.:.$.;.:.;.:.<.:.;.;.:.:.:.:.:.:.:.:.:.:.:.:.:.:.:.:.;.;.:.:.:.:.<.:.f.;.1 1 > r ",
", ; 5 > ^ =.$.$.#.#.#.#.#.#.$.$.$.$.$.&.&.$.$.$.#.$.$.$.$.$.$.$.;.$.$.;.;.&.;.<.,.;.;.:.&.X.X.;.$.$.$.$.$.$.$.$.$.#.#.#.$.$.#.................................#.#.$.&.$.#.#.#...#.#.........#.#.#.#.#.#.#.#.#.#.......#.#.$.#.#.#.$.$.$.$.$.$.$.$.$.$.$.$.&.&.;.:.:.:.:.&.;.;.;.$.$.$.$.$.&.:.:.;.;.;.:.;.:.:.:.;.;.:.:.:.:.,.3.:.:.:.,.,.,.:.,.,.,.,.,.,.,.,.,.:.,.,.,.,.,.,.,.<.<.<.<.2.2.2.2.2.2.2.2.3.3.3.3.2.3.3.3.3.3.3.3.3.3.3.3.3.3.3.3.3.3.3.3.3.3.3.3.3.3.3.3.3.3.3.3.3.3.3.3.3.3.0.0.0.0.0.3.3.3.3.3.3.3.3.3.3.3.3.3.8.3.3.3.3.3.3.3.2.2.2.2.2.2.2.2.2.<.<.<.,.,.,.,.,.,.,.,.:.,.2.3.3.3.3.3.,.;.;.,.:.:.:.:.:.;.;.;.:.;.;.;.&.&.&.&.;.;.;.;.:.;.;.:.$.$.:.:.;.;.;.;.:.:.:.:.:.;.:.:.:.;.;.:.,.,.<.3.3.,.3.3.:.:.,.;.:.:.:.:.:.:.;.;.,.:.:.:.:.:.:.:.:.;.;.:.:.:.<.<.0.K K M > q > + ",
", ; 8 > ^ =.$.$.#.#.#.#.$.$.$.$.$.$.$.$.$.$.$.$.$.$.$.$.$.$.$.$.,.;.X.X.X.| | &...| ..&.&...$.:.$.$.$.$.$.$.$.$.#.#.#.#.$.$.#.#...................................#.$.$.$.#.................#.#.#.#.#.#.#.#.#.#.......#.#.#.#.#.#.$.$.$.$.$.$.$.$.$.$.$.$.&.&.&.;.;.;.;.$.$.&.&.&.&.$.$.$.&.:.:.;.;.;.:.;.:.:.:.;.;.;.:.;.:.,.<.,.,.,.,.,.:.:.,.,.,.,.,.,.,.,.,.:.,.,.,.,.,.,.,.,.,.<.<.<.2.2.2.2.2.2.2.2.3.3.3.2.3.3.3.3.3.3.3.3.3.3.3.3.3.3.3.3.3.3.3.3.3.3.3.3.3.3.3.3.3.3.3.3.3.3.3.3.3.0.0.u.r.q.0.3.3.3.0.3.3.3.3.3.3.3.3.3.3.3.3.3.3.3.3.2.2.2.2.2.2.2.<.<.<.<.,.,.,.,.,.,.,.<.,.:.:.2.0.3.3.3.3.2.:.;.:.;.;.;.;.&.&.&.&.;.;.;.&.&.&.$.$.$.$.&.;.&.;.;.;.$.$.&.;.;.:.:.:.:.:.:.:.:.:.:.:.:.;.&.;.;.$.....X.X.;.:.;.:.3.:.:.:.:.:.;.;.;.;.,.:.:.:.:.:.:.:.;.;.;.:.:.:.<.3.^ 1 > : X 1 1 1 ",
", ; 8 > ^ =.$.X.#.$.$.$.$.$.$.$.$.$.$.$.$.$.$.$.$.$.$.$.$.$.$.$...&.;.:.8.<.;.<.3.<.,.:.;.$.X.$.$.#.$.$.$.$.$.$.#.#.#.#.$.$.#.#.................................| ..#.$.$.#.....................#.#.#.#.#.#.#.#.....#.#.#.#.#.#.#.$.$.$.$.$.$.$.$.$.$.&.$.$.$.&.&.&.&.;.;.;.&.&.&.$.$.;.$.&.;.;.;.;.;.:.:.:.:.:.:.:.:.:.;.:.:.,.3.3.2.,.:.:.:.:.,.,.,.,.,.,.,.:.:.,.,.,.,.,.,.,.,.,.,.<.<.<.2.2.2.2.2.2.2.2.3.3.2.3.3.3.3.3.2.2.3.3.3.3.3.3.3.3.3.3.3.3.3.3.3.3.3.3.3.3.3.3.3.3.3.3.3.3.3.3.0.0.u.r.q.0.3.3.3.8.3.3.3.3.3.3.3.3.3.3.3.3.3.3.3.3.2.2.2.2.2.<.<.,.<.<.,.,.,.,.,.,.:.,.<.,.:.:.2.8.<.<.3.3.3.:.&.&.;.;.;.;.;.;.;.;.:.:.;.;.&.$.$.$.$.$.$.;.&.&.;.;.$.$.$.$.:.:.:.:.:.:.:.:.:.;.;.;.$.;.:.,.<.3.3.3.3.3.0.8.:.:.,.&.:.:.:.:.:.;.;.;.,.:.:.;.:.:.:.:.;.;.;.:.:.:.<.0.0.q ; 1 > 1 > 1 ",
", ; 8 > ^ =.$.X.$.$.$.$.$.$.$.$.$.$.$.$.$.$.$.$.$.$.$.$.$.$.$.$.X.<.X.[ ..X.} X.....| { | &.;.$.$.$.#.#.$.$.$.$.$.#.#.#.$.$.#...................................| ..#.$.$.....#.................#.#.#.#.#.#.#.#.....#.#.#.#.#.#.#.$.$.$.$.$.$.$.$.$.$.$.$.$.$.$.$.$.$.$.&.$.$.$.$.$.&.;.$.&.;.;.;.;.;.:.:.:.:.:.;.:.:.;.;.;.:.,.3.3.2.:.:.,.,.:.,.,.,.,.:.:.:.:.:.,.,.,.,.,.,.,.,.,.,.,.<.<.<.<.<.2.2.2.2.2.2.2.2.3.3.3.3.2.2.2.3.3.3.3.3.3.3.3.3.3.3.3.3.3.3.3.3.3.3.3.3.3.3.3.3.3.3.3.3.3.8.0.q.w.0.3.2.2.2.3.3.3.3.3.3.3.3.3.3.3.3.3.3.3.3.2.2.2.2.2.<.,.,.,.,.,.,.,.,.,.,.,.:.,.,.,.:.:.,.2.:.:.,.3.2.:.$.$.&.&.&.&.&.&.&.&.&.&.;.;.$.$.$.$.$.$.$.&.&.&.&.&.$.$.&.&.:.:.:.:.:.:.:.:.:.;.;.;.$.,.,...} ..$.$.....$...} $.,.:.:.:.:.:.:.:.;.;.:.:.:.;.;.;.;.;.;.=.;.:.:.;.<.w.$.> X 1 ; q > 1 ",
", ; 5 > ^ =.$.X.$.$.$.$.$.$.&.&.$.$.$.$.$.$.$.$.&.$.$.$.$.$.$.$.:.8.W f s f r s q u u s A | ,.;.$.$.#.#.#.$.$.$.$.$.#.#.$.$.#.......................................#.$.$.....#.#.#.............#.#.#.#.#.#.#.#.......#.#.#.#.#.#.$.$.$.$.$.$.$.$.$.$.$.$.$.$.$.$.$.$.$.&.&.$.$.$.$.&.;.$.&.&.&.;.;.;.:.:.:.:.:.:.:.:.;.;.;.:.:.3.3.2.:.:.,.2.,.,.,.,.:.:.:.:.:.:.,.,.,.,.,.,.,.,.,.,.,.,.<.<.<.<.<.2.2.2.2.2.2.3.3.3.3.3.2.2.<.3.3.3.3.3.3.3.3.3.3.3.3.3.3.3.3.3.3.3.3.3.3.3.3.3.3.3.3.3.3.3.3.3.8.8.3.2.2.2.2.3.3.3.3.3.3.3.3.3.3.3.3.3.3.2.2.2.2.2.2.<.,.,.,.,.,.,.,.,.,.,.,.,.,.,.,.,.:.:.:.:.;.;.:.:.:.&.;.&.&.&.&.&.&.&.&.&.&.;.&.$.$.$.$.$.$.$.$.$.&.&.&.$.&.&.;.;.:.:.:.:.:.:.:.:.:.;.;.:.3.$.G s s f e e u h h v Q :.3.;.;.;.:.:.:.:.:.:.;.;.&.&.&.&.;.;.$.;.:.;.$.:.w.C.w.u.;.5 > $ 0 ",
", ; 8 > ^ $.$.X.$.$.$.$.$.$.&.$.$.$.$.$.$.$.$.$.&.&.$.$.$.$.$.&.T } G 7 0 u e e q r 0 1 h Q ..^ $.$.#.#.#.#.$.$.$.$.#.$.$.#.........................................#.$.$.....$.#...............#.#.#.#.#.#.#.#.......#.#.#.#.#.#.$.$.$.$.$.$.$.$.$.$.$.$.$.$.$.$.$.$.$.&.&.&.$.$.$.$.&.$.&.&.&.;.;.;.:.:.:.:.:.:.:.:.;.&.&.:.:.2.3.<.:.:.<.3.2.,.,.,.:.:.:.:.:.:.,.,.,.,.,.,.,.,.,.,.,.,.<.<.<.<.<.<.2.2.2.2.2.3.3.3.3.3.2.<.<.3.3.3.3.3.3.3.3.3.3.3.3.3.3.3.3.3.3.3.3.3.3.3.3.3.3.3.3.3.3.3.3.3.3.0.0.3.3.3.3.3.3.3.3.3.3.3.3.3.3.3.3.3.2.2.2.2.2.2.<.,.,.,.,.,.,.,.,.,.,.,.,.,.,.:.,.,.,.:.$.:.&.$.$.;.$.&.:.&.&.&.&.&.&.&.&.&.&.;.&.$.$.$.$.$.$.$.$.$.&.&.&.&.;.&.;.&.:.:.:.:.:.:.:.:.:.:.;.{ $._ k 1 q s e u r e 7 q V ) ..;.;.;.:.:.:.:.:.;.;.&.&.&.&.&.&.;.$.=.:.;.$.:.w.c.c.G.r.5 5 $ 1 ",
"1 $ 5 5 R $.$.$.$.$.$.$.$.$.$.$.$.$.$.$.$.$.&.$.&.| ..$.} | ,.} f r r U U Q w. .-.1.6.<.^ M 1 W 3.....$.;.( :.#.$.$.$.$.#.#.....$.#.....| ........................#.;.:.:.;.#...#.#.#.#.#.#.#.#.............#.#.#.#.#.#.#.$.$.$.$.$.$.$.$.$.$.$.$.$.$.$.$.$.$.$.;.&.&.$.&.;.;.:.:.:.:.:.:.:.:.:.:.:.;.;.:.:.:.:.:.:.;.;.:.:.:.:.:.:.:.:.:.:.:.:.:.:.:.:.:.:.,.,.:.:.:.,.,.,.,.,.,.,.,.<.<.2.2.2.<.<.<.<.<.2.2.2.2.2.2.2.2.2.2.2.2.2.3.3.3.3.3.3.3.3.3.3.3.3.3.3.3.3.3.3.3.3.3.3.3.3.3.3.3.3.3.3.3.3.3.3.3.3.3.3.3.3.3.3.3.3.3.3.3.3.3.3.3.3.3.3.<.<.<.<.<.<.<.2.,.,.,.,.,.:.:.:.:.:.:.:.:.:.:.:.:.:.:.:.:.;.;.;.&.&.;.&.&.$.$.&.;.&.&.$.$.$.$.$.$.$.$.$.$.&.&.&.$.$.&.:.:.:.:.,.&.,.$.$.2.#...0.P q q A Y U 0.#.f.0.3.r.s.C p h W 3.#...,.$.:.,.:.:.;.$.$.$.&.&.;.$.;.:.=...:.w.C.C.C.q.1 1 1 0 ",
"q > > ; _ ,.&...$.$.$.$.$.$.$.$.$.$.$.$.$.$.$.$.....&.$.$.:.K V q l Q x.b.n.-X4X4X4X4X4Xw.D u c U $.$...&...:.$.$.$.$.$.#.#.....#.#.............................#.$.;.:.:.;.$.#.#.#.#.#.#.#.#.#.............#.#.#.#.#.#.#.$.$.$.$.$.$.$.$.$.$.$.$.$.$.$.$.$.$.$.&.$.&.&.$.;.;.:.:.:.:.:.:.:.:.:.:.;.;.;.:.:.:.:.:.;.;.;.:.:.:.:.:.:.:.:.:.:.:.:.:.:.:.:.:.:.:.:.:.:.:.,.,.,.,.,.,.,.,.<.<.<.2.2.<.<.<.<.<.2.2.2.2.2.2.2.2.2.2.2.2.2.3.3.3.3.3.3.3.3.3.3.3.3.3.3.3.3.3.3.3.3.3.3.3.3.3.3.3.3.3.3.3.3.3.3.3.3.3.3.3.3.3.3.3.3.3.3.2.2.2.2.2.2.2.2.,.,.,.,.<.<.<.<.,.,.,.,.,.:.:.:.:.:.:.:.:.:.:.:.:.:.:.:.:.:.;.;.&.&.&.&.&.$.$.$.;.&.&.$.$.$.$.$.$.$.$.$.$.&.&.&.$.$.&.:.:.:.:.:.;.$.;.:.,.,.:.| u q h ) g.x.OX4X2X4X4X4X:X6.D q J | ,.&.:.:.#.:.:.:.:.&.$.$.&.:.=.$.=.;.;...;.0.u.u.k.8.< 1 1 3 ",
"$ > 5 ; } $.} ..$.$.$.$.$.$.$.$.$.$.$.$.$.$.$.$.| ..$...$.,.r r l M Q w.h.z.(.4X4X-X_.1Xq.! K 0 s #.:.#.$.:.$.#.$.$.$.$.#.#.....#...............................#.#.$.$.&.$.$.#.#.#.#.#.#.#.#.#.............#.#.#.#.#.#.#.$.$.$.$.$.$.$.&.$.$.$.$.$.$.$.$.$.$.$.&.$.$.$.$.&.;.:.:.:.:.:.:.:.:.:.:.:.;.;.:.:.:.:.:.:.;.;.:.:.:.:.:.:.:.:.:.:.:.:.:.:.:.:.:.:.:.:.:.:.:.,.,.,.,.,.,.,.,.,.<.<.<.2.,.,.<.<.<.2.2.2.2.2.2.2.2.2.3.3.2.2.3.3.3.3.3.3.3.3.3.3.3.3.3.3.3.3.3.3.3.3.3.3.3.3.3.3.3.3.3.3.3.3.3.3.3.3.3.3.3.3.3.3.3.3.3.3.<.<.<.<.<.<.<.<.,.,.,.,.,.,.,.,.,.,.,.,.,.:.:.:.:.:.:.:.:.:.:.:.:.:.:.:.:.:.:.;.&.$.$.&.$.$.$.$.&.&.$.$.$.$.$.$.$.$.$.$.$.&.&.&.&.&.;.:.:.:.:.:.:...:.,.$.:.| M e c V _ c.u.B.=X:X,X:X2X[.u.) V j A $.&.&.,.| :.:.:.:.:.&.:.:.:.=.$.$.=.;.$.=.<.;.>.r.<.< 1 1 1 ",
"= 5 e ; ..$...,.$.$.$.$.$.$.$.$.&.$.$.$.$.$.....$.$.| $.T T < r l C } i.D.G.P.>X4X4X4X%X;.R U u 7 P Q $.#.:.#...$.$.$.$.$.#.#.......#.#.....................................................................#.#.#.#.#.#.#.$.$.$.$.$.$.$.$.$.$.$.$.$.$.$.$.$.$.$.&.$.$.$.$.&.;.:.&.&.&.&.;.;.;.;.;.;.;.;.;.;.;.;.;.;.;.;.;.;.;.;.;.;.:.:.;.:.:.:.:.:.:.:.:.:.:.:.:.:.:.,.,.,.,.,.,.,.,.,.,.<.<.<.,.,.,.<.<.2.2.2.2.2.2.2.2.2.3.3.2.2.3.3.3.3.3.2.3.3.3.3.3.3.3.3.3.3.3.3.3.3.3.3.3.3.3.3.3.3.3.3.3.3.3.3.3.3.3.3.3.3.3.3.3.3.3.3.,.,.,.,.,.,.,.,.,.,.,.,.,.,.,.,.,.,.,.,.,.:.:.:.:.:.:.:.:.:.:.:.:.:.:.;.:.:.&.&.$.$.&.$.$.$.$.$.&.&.$.$.$.$.$.$.$.$.$.$.$.&.&.&.;.:.:.:.:.;.$.$.:.$.:.:...^ V < 6 c S T c.c.G.:X4X4X2X4XW.w.^ C u e J | ;.:.#.:.:.:.:.:.:.:.:.:.:.=.$.=.;.=.=.;.$.;.r.<.1 1 < > ",
"q ; $ X ~ $...&.$.$.$.$.$.$.$.$.$.$.$.$.$.X.X...:.$.} :.l q 5 c B ) 3.i.b.D.I.1X1X2X4XL.f.w.:.R s 7 f $.#.$.:.#.#.#.$.$.$.#.#.....#.#.#.#...............................................#.#.................#.#.#.#.#.#.#.$.$.$.$.$.$.$.$.$.$.$.$.$.$.$.$.$.$.$.&.$.$.&.$.$.&.:.&.&.;.:.:.:.;.;.;.;.;.;.;.;.;.;.;.;.;.;.;.;.;.;.;.;.;.:.:.:.:.:.;.;.;.:.:.:.:.:.:.:.:.,.,.,.,.,.,.,.,.,.,.,.<.<.,.,.,.<.<.2.2.2.2.2.2.2.2.2.2.2.2.3.3.3.3.3.3.2.3.3.2.2.3.3.3.2.3.3.3.3.3.3.3.3.3.3.3.3.3.3.3.3.3.3.3.3.3.3.3.3.3.3.3.3.3.3.3.3.,.<.,.,.,.,.,.,.,.,.,.,.,.,.,.,.,.,.,.,.,.:.:.:.:.:.:.:.:.:.:.:.:.:.;.;.;.&.&.&.&.&.$.$.$.$.$.$.$.$.$.$.$.$.$.$.$.$.$.&.&.&.&.&.:.:.:.:.;.&.$.$.$.:.$.;.#.A 5 5 c T #...u.f.B.~.:X4X1X2XU.C.c.w.A r q Q :.$.:.:.:.:.:.:.:.:.:.:.:.=.=.=.:.;.$.=.;.:.r.<.1 1 1 1 ",
"5 % e c ) #.| ..#.#.#.#.#.#.#.#.$.$.$.$.$.X.X...&...| :.u = k Q g.C.V.c.b.C.T.%X4X1X1X^.,X1Xk.| U > 5 #.$...,...#.#.#.$.$.#.#.#.#.#.#.#.....................................................................#.#.#.#.#.#.#.$.$.$.$.$.$.$.$.$.$.$.$.$.$.$.$.$.$.$.;.&.$.$.$.$.&.:.$.$.&.&.&.;.&.&.;.;.;.;.;.;.;.;.;.;.;.;.;.;.;.;.;.;.;.;.:.:.;.:.;.;.;.:.:.:.:.:.:.:.:.,.,.,.,.,.,.,.,.,.,.,.,.,.,.,.,.<.<.2.2.2.2.2.2.2.2.2.2.2.3.3.3.3.3.3.2.2.3.3.2.2.3.8.3.2.3.3.3.3.3.3.3.3.3.3.3.3.3.3.3.3.2.2.2.2.2.2.2.2.2.2.2.2.2.2.2.2.<.<.<.<.<.<.<.<.<.<.<.,.,.,.,.,.,.,.,.,.,.:.:.:.:.:.:.:.:.:.:.&.&.&.&.&.&.&.&.$.$.$.$.$.$.$.$.$.$.$.$.$.$.$.$.$.$.$.$.&.$.&.&.&.:.:.:.:.;.$.$.$.#.:.$.;.} h < h Q 2.F.c.V.V.Y.[.*X4X1X*X[.=X;XR...V > A $.#.,.&.:.:.:.:.:.:.;.;.;.=.=.=.;.;.=.$.&.;.r.>.< 1 1 1 ",
"5 > U u.:.:.&.:.#.#.#.#.#.#.#.#.$.$.$.$.$.$.$.$.......T q < c ..w.V.B.G.c.>.;.@.:.w.k.|.*X$Xk.0.} e 5 Q ;.} ;...#.#.#.$.$.#.#.#.$.#.#.......#.#.................................................#...........#.#.#.#.#.#.#.$.$.$.$.$.$.$.&.$.$.$.$.$.$.$.$.$.$.$.&.$.$.$.$.&.;.:.$.$.&.&.&.&.&.&.;.;.;.;.;.;.;.;.;.;.;.;.;.;.;.;.;.;.;.;.;.:.;.;.;.;.:.:.:.:.:.:.:.:.:.,.,.,.,.,.,.,.,.,.,.,.,.,.,.,.,.<.<.2.2.2.2.2.2.2.3.3.2.2.3.3.3.3.3.3.2.2.0.3.3.3.0.0.0.3.3.3.3.3.3.3.3.3.3.3.3.3.3.3.3.3.2.2.2.2.2.2.2.2.2.2.2.2.2.2.2.2.2.2.2.2.2.2.2.2.2.2.2.,.,.,.,.,.,.,.,.,.,.:.:.:.:.:.:.:.:.;.&.&.&.&.&.$.&.&.$.$.$.&.&.$.$.$.$.$.$.$.$.$.$.$.$.$.$.$.$.&.$.&.&.&.;.;.:.;.;.$.$.$.&.$.*.&.P 5 5 M } 3.V.c.B.3.) ..} :.0.V.=X=X[.k.>.P 5 u ( :.&.$.;.:.:.:.:.;.&.$.=.=.=.$.$.$.=.=.$.;.w.,.> 1 1 1 ",
"e $ K f.} #.$...#.#.#.#.#.#.#.#...X.$.$.$.$.$.$.$.X...f > < 0 ) $.h.c.C.=.p j j u c B T.U.U.w.$.U e > v #.{ &.#.#.#.#.$.$.$.#.#.$.$.#.......#.$.................................................#...........#.#.#.#.#.#.#.$.$.$.$.$.$.$.&.$.$.$.$.$.$.$.$.$.$.$.&.$.$.$.$.&.;.:.$.$.&.&.&.&.&.&.;.;.;.;.;.;.;.;.;.;.;.;.;.;.;.;.;.;.;.;.;.;.;.;.;.;.;.:.:.:.:.:.:.:.:.,.,.,.,.,.,.,.,.,.,.,.,.,.,.,.,.<.<.2.2.2.3.2.2.2.2.3.2.2.3.3.3.3.3.3.2.2.q.8.3.3.0.w.0.3.3.3.3.3.3.3.3.3.3.3.3.3.3.3.3.3.2.2.2.2.2.2.2.2.2.2.2.2.2.2.2.2.3.3.3.3.3.3.3.3.3.2.2.2.<.,.,.,.,.,.,.,.,.:.:.:.:.:.:.:.;.&.&.&.&.&.&.$.&.$.$.$.$.$.&.$.$.$.$.$.$.$.$.$.$.$.$.$.$.$.$.&.$.&.&.&.$.;.;.;.;.&.$.$.,...:.$.c $ 5 c ..:.u.p.G.;.f c l 0 r | [.A.k.s.=.J q ; K 3.#.:.$.;.:.:.:.;.$.$.$.=.=.$...$.$.=.X.;.r.<.< 1 < < ",
"5 ; G u.&...$.#.............................X.X.$.&.| e > 1 v ~ } $.<.k.:.f C h M f I C.u.i.>.:.{ e ; V &.$.2.} #.#.#.$.$.$.$.$.$.#.#.....................................................................#.#.#.#.#.#.$.$.$.$.$.$.$.&.;.&.$.#.#.$.$.$.$.$.&.&.&.$.$.$.&.&.;.;.;.&.&.&.&.&.$.$.$.;.:.:.;.&.$.&.&.;.;.;.;.;.;.;.;.;.;.;.;.;.;.;.:.:.;.;.;.;.;.:.:.:.:.:.:.:.:.:.:.,.,.,.,.,.,.,.,.<.<.<.<.<.<.<.<.2.2.2.2.2.3.3.3.2.2.2.2.2.3.2.2.3.3.3.3.3.3.3.3.3.3.3.3.3.2.2.2.3.3.3.3.3.3.3.3.3.3.3.3.3.3.3.3.3.3.3.2.2.2.2.3.2.2.2.2.2.2.2.2.,.,.<.2.2.,.,.:.,.,.,.,.,.:.:.:.:.:.:.:.:.:.:.:.;.;.:.;.&.$.$.$.$.$.$.$.$.$.$.$.$.$.$.$.$.$.$.$.$.$.&.&.;.:.:.:.$.$.$.$.&.$.$.$.:.#...2.c $ 5 M _ ..3.2.k.} c c h M p ^ V.g.6.0.<.J 5 > J $.#.,.:.:.:.;.&.$.$.$.=.$.$.$.=.=.=.=.&.;.q.<.; 0 w ; ",
"5 ; G u.&...$.#.#...........................X.X.| ....k 5 > h U ) ..:.g.;.u M u n f I C.s.r.=.$.Q e 5 A ..( :.$.#.#.#.$.$.$.$.$.$.#.#.....................................................................#.#.#.#.#.#.$.$.$.$.$.$.$.$.$.$.$.$.#.$.$.$.&.$.&.&.&.$.$.$.&.&.;.;.;.:.;.;.;.$.$.$.$.&.;.:.:.;.&.&.&.;.;.;.;.;.;.;.;.;.;.;.;.;.;.;.;.:.;.;.;.;.:.:.:.:.:.:.:.:.:.:.:.,.,.,.,.,.,.,.,.<.<.<.<.<.<.<.<.2.2.2.2.2.2.3.3.2.2.2.2.3.3.2.2.3.3.3.3.3.3.3.3.2.2.2.2.2.2.2.2.3.3.3.3.3.3.3.3.3.3.3.3.3.3.3.3.3.3.3.2.2.2.2.3.3.2.2.2.2.2.2.2.,.,.<.<.,.,.,.,.,.,.,.,.,.:.:.:.:.:.:.:.:.:.:.:.;.:.:.;.&.$.$.$.$.$.$.$.$.$.$.$.$.$.$.$.$.$.$.$.$.$.&.&.;.:.:.:.$.$.$.$.&.$.$.$.:.#.#.,.c $ 5 c ) ) :.3.c.) h M c c p ^ V.g.<.>. .G q 5 Y 3.&.#.;.;.;.:.&.$.$.$.=.$.$.$.=.=.=.=.$.>.p.<.: > 1 1 ",
"5 > G u.&...$...#.#.#...........................&...| h 1 $ h ( ) :.w.k.:.f N k l u I B.s.w.$.$.( e > V $.) $...#.#.#.#.$.$.$.$.$.#.#...................................................#.#.#.............#.#.#.#.#.#.$.$.$.$.$.$.$.$.$.$.$.$.$.$.$.&.&.$.$.&.&.&.&.&.;.&.:.:.:.:.:.;.:.&.&.;.;.$.;.:.:.:.;.;.;.;.;.;.;.;.;.;.;.;.;.;.;.;.;.:.;.;.;.;.;.;.:.:.:.:.:.:.:.:.:.:.:.,.,.,.,.,.,.,.,.<.<.<.<.<.<.<.<.2.2.2.2.2.2.2.3.2.2.2.2.3.2.2.2.3.3.3.3.3.3.2.3.2.2.2.2.2.2.3.3.3.3.3.3.3.3.3.3.3.3.3.3.3.3.3.3.3.3.3.2.2.2.2.3.3.3.2.2.<.<.<.<.<.<.,.,.,.,.,.,.,.,.,.,.:.:.:.:.:.:.:.:.:.:.:.:.;.;.:.;.&.$.$.$.$.$.$.$.$.$.$.#.$.$.$.$.$.$.$.$.$.$.&.&.;.;.:.:.$.&.&.&.&.$.$.$.$.#.#.,.c $ 5 c { _ #.9.g.Q u M l h u ^ b.s.;.;.=.J 5 ; J ,.$.$.&.&.;.&.&.$.$.$.=.=.$.$.$.$.=.=...:.q.>.s 7 = 1 ",
"7 > J u.$...#...#.#.#...........| ..............;.$.| s 1 > k Q Q =.0.r.| r l k k g T k.u.w.>.6.( e = V ,...#.} #.#.#.#.#.$.$.$.#.#.#...................................................#.#.#.............#.#.#.#.#.#.$.$.$.$.$.$.$.$.$.$.$.$.$.&.&.&.&.$.$.$.$.&.&.&.&.&.:.:.:.:.:.:.:.:.:.,.,.:.:.:.:.;.&.;.:.;.;.;.;.;.;.;.;.;.;.;.;.;.:.:.:.;.;.;.;.;.;.:.:.:.:.:.:.:.:.:.:.,.,.,.,.,.,.,.,.,.,.<.<.<.<.2.2.<.<.2.2.2.2.2.2.2.2.2.3.3.2.2.2.3.3.3.3.3.3.2.2.3.3.3.3.3.3.3.3.3.3.3.3.3.3.3.3.3.3.3.3.3.3.3.3.3.3.3.2.2.2.2.3.3.3.2.<.,.,.,.,.2.<.,.,.:.,.,.,.,.,.,.:.:.:.:.:.:.:.:.:.:.:.;.;.;.;.:.;.&.$.&.&.$.$.$.$.$.$.$.#.$.$.$.$.$.$.$.$.&.&.&.&.;.;.;.;.&.&.&.&.&.$.$.$.$.#.#.:.c ; 7 c #.} $.9.u.( f c h h l } k.g.<.0.:.A 1 > J $...:.$.$.;.$.$.$.$.$.$.$.$.$.$.$.$.$.;.:.w.r.[ J < 7 ",
"q > J u.$.| ....................| | | | ........} $.| f 7 5 u l A W | 3.w.} :.:...| <.g.:.) R Q V 5 > A :.) ..$.#.#.#.#.#.#.$.$.#.#.#.#...................................................................#.#.#.#.#.#.$.$.$.$.$.$.$.$.$.$.$.$.&.$.$.$.&.$.$.$.$.$.$.$.&.&.;.;.;.:.;.;.:.:.,.2.3.3.<.:.;.$.$.;.:.;.;.;.;.&.&.;.;.;.;.;.;.;.:.:.:.;.;.;.;.;.;.:.:.:.:.:.:.:.:.:.:.,.,.,.,.,.,.,.,.,.,.,.<.<.2.2.2.<.<.<.2.2.2.2.2.2.2.2.3.2.2.2.2.3.3.3.3.2.2.2.3.3.3.3.3.3.3.3.2.3.3.3.3.3.3.3.3.3.3.3.3.3.3.3.3.3.3.3.2.2.2.2.3.3.2.2.<.,.,.,.,.2.,.,.:.:.:.,.,.,.,.:.:.:.:.:.:.:.:.:.:.:.;.;.;.&.;.&.$.&.$.$.&.$.$.$.$.$.$.$.#.$.$.$.$.$.$.$.$.&.&.&.&.&.&.&.&.&.;.&.&.&.$.$.$.$.$.#.:.c ; 5 u A J T } 2.3.) ..| } } :.w.$.R Q U c 5 5 P ,.#...$.$.$.$.$.$.$.$.$.$.$.$.$.$.$.$.&.&.q.r.<.^ < 7 ",
"q > J u.$.} ..| ................| | | | ..| ....} $.| r < < 5 5 8 q h U w.q.l.u.l.l.p.<.I l u w u ; ; M :.| ......#.#.#.#.#.#.#.#.#.#.#...................................................................#.#.#.#.#.#.$.$.$.$.$.#.$.$.$.$.&.&.;.&.&.$.&.$.$.$.$.$.$.$.&.&.:.;.;.;.&.&.;.:.,.2.3.8.3.,.;.$.$.&.:.;.;.;.;.&.&.;.&.;.;.;.;.;.:.:.:.;.;.&.&.;.;.:.:.:.:.:.:.:.:.:.:.,.,.,.,.,.,.,.,.,.,.,.<.<.2.2.2.<.<.<.<.2.2.2.2.2.2.2.2.2.2.2.2.2.2.2.2.2.2.2.2.3.3.3.3.3.3.3.3.3.3.3.3.3.3.3.3.3.3.3.3.3.3.3.3.3.3.3.2.2.2.2.3.2.2.<.,.,.,.,.,.,.,.,.,.,.,.,.,.:.:.:.:.:.:.:.:.;.;.:.:.;.;.;.&.&.&.;.$.&.$.&.&.$.$.$.$.$.$.$.#.$.$.$.$.$.$.$.$.&.&.&.&.&.&.&.&.&.;.&.&.&.$.$.$.$.;.#.;.c > > 5 5 u h N ( u.u.f.g.f.s.<.} J r u r u 5 = A 3.:...$.$.$.$.$.$.$.$.$.$.$.$.$.$.$.$.....r.0.;.I ; 0 ",
"q > J u.$.} ..} | ..............| | | | | | | | ..$.| s 1 > > 5 p a l K q.t.q.8.t.q.,.W M h p q 5 > 5 V ,.#.#.} ....#.#.#.#.#.#.#.#.#.#.#.................................................................#.#.#.#.#.#.$.$.$.$.$.#.$.$.&.:.:.:.;.&.&.;.&.&.$.$.$.$.$.$.&.&.;.;.;.&.$.$.$.&.:.,.<.3.3.<.:.;.&.&.;.;.;.;.;.&.&.;.;.;.;.;.;.;.:.:.:.;.;.&.&.;.;.;.:.:.:.:.:.:.:.:.:.,.,.,.,.,.,.,.,.,.,.,.<.<.2.2.2.<.,.<.<.<.2.2.2.2.2.2.2.2.2.2.2.,.,.,.,.,.,.,.,.,.,.<.<.2.3.3.3.3.3.3.3.3.3.3.3.3.3.3.3.3.3.3.3.3.3.3.2.2.2.2.3.,.,.,.,.,.,.,.,.,.,.,.,.,.,.:.:.:.:.:.:.:.:.:.:.:.;.:.&.;.;.&.&.;.;.;.&.;.$.$.$.$.$.$.$.$.$.$.#.$.$.$.$.$.$.$.$.;.&.&.&.&.$.$.$.$.&.&.&.&.$.$.$.$.;.#.:.M 5 < > q u d c J 3.2.3.3.0.w.| I C p f 1 5 5 5 K :.$.&.#.$.$.$.$.$.$.$.$.$.$.$.$.$.$.$.;.;.k.q.;.W 1 s ",
"q > J u.$.} ..} } | | ..........| | | | | | | | } ..$.C h 5 < q , u c K <.<.t.r.r.p.:.J l h u 1 ; r c I :.) ..;.......#.#.#.#.#...#.#.#.#.....| ..........................................................#.#.#.#.#.#.$.$.$.$.$.#.$.$.:.:.:.:.:.&.&.;.&.&.$.$.$.$.$.$.&.&.;.;.;.;.$.$.#.$.$.:.:.,.,.<.,.:.;.;.;.;.;.;.;.;.;.;.;.;.;.;.;.;.:.:.:.;.&.&.&.&.;.;.:.:.:.:.:.:.:.:.:.,.,.,.,.,.,.,.,.,.,.,.<.<.2.2.2.,.,.<.<.<.2.2.2.2.2.2.2.2.2.2.2.:.:.:.:.:.:.:.:.&.:.:.,.<.3.3.3.3.3.3.3.3.3.3.3.3.3.3.3.3.3.3.3.3.3.3.2.2.2.2.3.,.,.,.,.,.,.,.,.:.,.,.,.,.,.:.:.:.:.:.:.:.:.:.:.:.:.:.&.:.&.&.&.;.;.;.&.;.$.$.$.$.$.$.$.$.$.$.#.$.$.$.$.$.$.$.$.;.;.&.&.&.$.$.$.$.&.&.&.&.$.$.$.$.$.#.:.A e 0 5 1 q u M Y q.0.q.0.w.u.` A N r w 8 > e J $.$.~ :.#.#.$.$.$.#.$.#.$.$.$.$.$.$.$.$...| f.3.&.W < 7 ",
"0 < J u.$.{ | | | $.&.} _ } ..$.X.} } } ....} ;.=.} =.} l 8 8 ; 8 8 r c A K I I U I A f r r > > = c Q ..........#.#.#.#.#.#.....#.#.#.........#.......| | | | ........................| | | ....$.} | &.:.$.......| #...#.$.#.&...$.&.;.&.$.......$.$.&.&.&.$.$.$.$.$.$.$.$.$.$.;.:.:.:.:.:.:.&.$.:.,.3.3.,.:.$.;.&.&.;.;.:.:.:.;.;.;.&.;.;.:.:.&.&.&.:.:.:.:.:.:.:.:.:.:.:.:.:.,.2.$.#.2.<.&.,.:.w.<.$.>.<.:.:.<.<.<.<.<.<.<.<.3.3.3.3.3.8.3.<.<.:.;.;.,.3.8.3.3.<.,.:.:.,.3.8.3.3.3.3.3.3.8.8.3.3.3.<.<.3.3.3.3.3.3.<.<.<.<.<.<.<.<.,.,.,.,.,.,.,.,.:.:.:.:.:.<.:.:.:.;.$.;.<.>.<.$.$.:.$...3.&.&.&.&.&.$.$.$.$.$.&.&.$.$.$.$.$.$.$.$.$.$.$.$...$.;.:.,.:.:.$.&.&.$.$.$.$.&.&.$.......~ V q ; $ 5 q f M K I J K I K M f r q 1 5 > h } ;.| ;.$.} $.;.$...$.$.| } $.#.} } $.$.......f.8.8.Q = r ",
"q < K u.$.{ | | { } | ..;.;...) ^ ..,.;.$.;...} ..` ..^ l 0 0 > 5 5 0 r r q 0 0 r r r 5 0 r 1 5 $ c Q | } } ....#.#.#.#.#.........#.#.#.......#.......| | | | ........................| | ......| ..#...} } ..$...&.$.| $.:...} ..$.$.$.$.$.$.$.......$.$.$.$.$.$.$.$.$.$.$.$.$.;.:.:.:.:.:.;.&.$.:.,.2.2.,.:.$.;.;.&.;.;.;.:.:.:.;.;.&.;.;.:.:.&.&.&.:.:.:.:.:.:.:.:.:.:.:.:.:.;.,.,.:.<.,.:.,.$.$.<.0.<.:.<.0.<.<.<.<.<.<.<.<.3.3.3.<.3.8.3.,.,.:.:.,.3.0.8.8.3.<.,.:.,.,.3.3.3.3.3.3.3.3.3.3.3.3.3.<.3.3.3.3.3.3.<.<.<.<.<.<.<.<.,.,.,.,.,.,.,.,.:.:.:.:.:.:.:.$.$.;.:.:.;.;.;.;.:.>.;.$.$.| &.&.&.&.&.$.$.$.$.&.&.&.$.$.$.$.$.$.$.$.$.$.$.$.$.$.:.,.,.,.:.:.$.&.$.$.$.$.$.$.$.$.$...Q N q ; 1 1 5 5 q r q 1 5 q r r r r q 0 $ 1 l } ;.| $.$.:.$.....X.$.$.=.,. .#.3.3...} &.$...r.3.:.T = 0 ",
"q < K u.$.{ | | &...} } | | | ..&.| | ..| | ......| X.} C h u 1 $ > 5 r u r r u u r r 0 q 0 ; 5 e A } #.| } ..$.#.#.#.............#.$.#...............| | | | ........................| ..........&.:.$.........} :...) #.$.$.,...$.$.$.$.$.$.&.$.$.....X.$.$.$.$.$.$.$.$.$.$.$.&.&.:.:.:.:.&.&.$.&.:.,.,.:.;.$.;.;.&.;.:.;.;.:.:.:.&.&.;.;.:.:.&.;.&.&.:.:.:.:.:.:.:.:.:.:.:.:.:.;.:.,.:.:.,.;.w.;.:.w.3.<.3.;.<.<.<.<.<.<.<.<.<.3.3.<.3.8.3.,.:.,.<.8.0.0.8.3.<.<.<.<.<.<.<.<.3.8.8.8.8.3.<.<.<.3.<.3.<.<.3.3.3.<.<.<.<.<.<.<.<.,.,.,.,.,.,.,.,.,.,.:.:.:.:.:.:.:.<.<.:.;.;.<.:...;.>.;.3.0.X.&.&.&.&.&.$.$.$.$.&.&.&.$.$.$.X.$.$.$.$.$.$.$.$.$.$.;.:.:.:.:.:.$.$.$.$.$.$.$.$...$.$.$.^ A s 7 1 > > 0 u f u r u r r u r 5 > $ > h J | :.| ..$.| $.;.$.$.$.$.X.$...) ) | ..#.$.;.$.r.0.:.~ 7 0 ",
"q < K u.X.{ | | $.} } ..$.| ) { } ! Q ) ) } $.| ..| $...Q K v 0 1 1 5 q q q q q 0 5 q 5 5 1 > u A Q #.$...| ..#.....................$.$.#.............| | | | ......................| | | ........| } ..$.&.$...#.:.| ..;.{ } ,.$.$.&.&.&.&.:.:.:.&.$...$.&.&.&.$.$.$.$.$.$.$.$.$.&.;.;.:.:.&.$.$.$.&.:.:.;.&.$.$.$.&.;.&.;.;.;.&.&.$.$.$.$.;.;.&.&.&.&.&.:.:.:.:.:.:.:.:.:.:.:.2.$.:.2.,.3.q.2.w.<.:.;.:.3.3.:.<.<.<.<.<.<.<.<.<.3.3.<.3.3.3.,.:.<.8.q.q.8.3.,.<.3.3.3.3.3.,.:.3.3.8.8.8.3.<.<.<.<.<.<.3.3.<.3.<.<.<.<.<.<.,.,.,.,.,.,.,.,.:.:.,.,.,.:.:.:.:.:.;.;.:.:.:.:.<.3.<.>.:.;.$.$.:.>.&.&.&.&.&.$.$.$.$.&.&.&.$.$.$.X.$.$.$.$.$.$.$.$.$.$.$.$.$.;.:.:.$.$.$.$.$.$.$.$.....$.$.| W C l u 5 > 5 r r q q r q q r 0 > ; > f U ) $.:.| | ..| :.:.| ^ } | ` Q ..:.$.#.$.$.$.$.$.p.u...Q e e ",
"0 > K u.X.{ | | } ) | &...P f 5 8 a w w p A $.$.| | ....} ] P z r 0 > > 1 1 1 > 5 1 0 > > 1 0 C ( } ..| } } } } ................| ..$.$.#.....| ......| | | | ..................| | | | | ......;.| { ..#.| } | ) $.) #.2.$.$...$.$.&.$.$.&.:.,.,.;.$...$.&.&.&.$.$.$.$.$.$.$.$.$.$.&.:.:.&.$.$.$.$.&.&.$.$.$.$.$.$.$.;.&.&.:.:.&.&.&.&.;.;.;.;.&.&.&.;.;.;.:.:.:.:.:.:.:.:.:.:.<.:.3.3.#...&...$.<.;.:.0.<.;.0.<.<.<.<.<.<.<.<.<.3.3.<.3.3.3.,.:.<.0.q.8.<.:.:.<.<.3.8.8.3.<.,.,.<.3.3.3.3.<.<.<.<.3.3.<.<.<.<.<.<.<.<.<.,.,.,.,.,.,.,.,.:.:.:.:.:.:.:.:.:.:.:.3.<.:.;.:.;...} | ;.X.$.:...| 3.&.&.&.&.&.$.$.$.$.$.&.&.&.$.$.X.$.$.$.$.$.$.$.$.$.$.$.$.$.$.:.:.$.$.$.$.$.$.$.$.$.......$.| T G M r > 1 5 > > 1 5 1 1 5 1 > 5 u A ..X...$.| ..X.<.} J l u r u u q h U >.,.} ) $...$.q.8.G Z 7 e ",
"0 > K u.X.{ | | | $.$.~ C h k V F R K ! U h D | $.;.O.} } o.W Z k q > ; 1 5 5 1 1 1 5 > 1 q l U ..| { { } | | | ....................$.$.#.............| | | | ..................| | | | ........$.;.:.#.U N l c f M f M Y } 0.#.$.$.$.$.$.$.;.:.,.;.X...$.&.$.$.$.$.$.$.$.$.$.$.$.$.&.&.&.&.$.$.$.$.&.&.$.$.$.$.$.$.$.$.&.&.;.;.$.$.$.$.$.$.&.&.$.&.&.&.;.;.;.;.&.:.;.;.:.:.:.:.,.2.<.} V f h c M c M Q 3.<.$.3.<.<.<.<.<.<.<.<.<.3.3.<.3.3.3.,.,.3.0.0.3.:.:.:.<.3.3.8.8.3.3.<.,.,.<.3.3.3.3.<.<.<.<.3.<.<.<.<.<.<.<.<.,.,.,.,.,.,.,.,.:.:.:.:.:.:.:.:.:.:.:.:.<.0.>.` J M l l c l h J :.0.;.$.&.&.&.&.&.$.$.$.$.$.$.$.&.$.$.$.$.$.$.$.$.$.$.$.$.$.$.$.$.;.:.,.$.$.$.$.$.$.$.$.$...| ..$.X.) U C f 1 1 1 > < 5 1 1 1 > > 1 r M W ;.$.X.$.$.:.$...V r M I K J U Q A c M Q $.$...&.&.8.&.e e 7 q ",
"0 < J u.$.{ | | ....~ V h G 8.Y.(.>X=X4X,X} c c ^ &.;...o.o.] I G l q 5 1 > > > + $ > ; r C I | ..| } | ....................| | ....$.$.#.............| | | | ..................| | | | ......X.( #.| K l k v M A J V K c c ..#...$.$.$.$.$.&.;.,.;.$...&.;.$...$.$.$.$.$.$.$.$.$.$.$.&.&.$.$.$.$.$.&.&.$.$.$.$.$.$.$.$.$.&.;.;.$.$.$.$.$.$.$.$.$.$.&.&.&.;.;.;.&.&.;.;.:.:.:.:.2.&.Q V c k M J C l N J K ..q.:.<.<.<.<.<.<.<.<.<.3.3.<.<.3.3.,.<.3.0.3.:.:.,.3.3.3.3.3.3.3.3.3.<.<.3.<.3.3.3.3.<.<.3.3.3.3.3.3.<.<.<.,.,.,.,.,.,.,.,.,.:.:.:.:.:.:.:.:.:.:.:.:.X.| W V h l C J I C C D K ..<.) &.&.&.&.&.&.$.$.$.$.$.$.&.$.$.$.$.$.$.$.$.$.$.$.$.$.$.$.$.&.:.:.&.&.$.X.$.$.&.&.$.$.......X.| ) U V u 0 1 ; ; ; $ ; ; ; 1 p C U | ;.$.;.$.;.:.) V f V 3.E.OX:X4X4X|.=.h c ..3...&.;.8.&.1 7 7 q ",
"0 < J u.$.{ | | $.Q v e k Q 8.g.L.4X>X-X1Xz.W q k W X...o.O.o.] U A c f u u u f h h h u V Q ^ ..} } ......| | | ..........| | | ..#.$.$.#.............| | | | ..................| | | | ......X.#.&.Q f k #.B.Y.=X+XOX=X&.e Y #.$.$.&.&.&.&.&.;.3.:.$.$.;.:.&...$.$.$.$.$.$.$.$.$.$.$.&.&.$.$.$.$.$.&.;.&.$.$.$.$.$.$.$.$.&.;.;.$.$.$.$.$.$.$.$.$.$.$.&.&.:.:.;.&.&.&.;.:.:.:.:.,._ c f Q 3.c.R.=X=X=X0.r I f...<.<.<.<.<.<.<.<.<.3.<.,.<.3.3.:.<.3.8.3.:.:.3.q.3.3.3.3.3.3.8.0.8.3.3.<.3.3.3.3.<.<.3.3.3.3.3.3.<.<.<.,.,.,.,.,.,.,.,.,.:.:.:.:.:.:.:.:.:.:.:.:.3.Q l c } c.E./.=X*X:Xg.h C 0.;.&.&.&.&.&.&.$.$.$.$.$.$.&.$.$.$.$.$.$.$.$.$.$.$.#.#.#.#.$.$.;.;.;.&.$...X.$.&.;...$.&...| ..$.$.^ I V l f u u u f h f r h A Q ) $.X...;...| | D 0 l W <.C.OX2X4X,XOXf.K e h Q :.| $.8.3.7 e e 7 ",
"q 1 K u...{ ..} } U u s J ~ 3.c.P.4X%X4XY.b.:.h 1 K <.O.O.] O.X.^ I C V N V M N C V N C I ) | } ................| | | ....................................| | | | | | | ......| .._ $...;.} } | ) P f q J q.A.Y.4X,X4X|.;.J 5 A [ :.....;.&...$.:.;.&.$.$.$.$.$.$.$.$.$.$.$.&.&.$.$.$.$.$.$.$.$.$.$.$.$.$.$.$.$.$.$.$.&.$.$.$.&.$.$.&.&.&.$.$.$.$.$.&.;.;.;.&.&.,.$.:.2.:.#.$.$.) k e c ) G.A.*X2X4X2X3.K r K } 3.$.;.<.0.3.:.3.<.<.<.<.3.3.3.3.<.<.<.,.<.3.8.0.3.3.3.3.3.<.<.3.<.<.<.<.<.,.,.,.<.<.<.<.<.<.<.<.<.<.<.,.,.,.,.,.:.:.:.:.:.:.:.:.<.$.&.,.:.:.;...| r q K :.c./.1X4X1X2XC.U h c $.&.$.$.:.$.:...:.&.&.&.&.$.$.$.$.$.$.$.#.#.#.#.#.#.#.#.$.$.$.;.;.:.;.$...........$.$.$.$.$.$.X.$...^ K C V V N n M V V M A Q ..$.| $.;...} <.A q 5 U | w.G.[.1X4X1X).B.0.V r ( #...&.0.:.0 e 7 q ",
"q 1 K u...{ ..} $.h 0 } g.r.c.R.).4X1X4X|.}.L.3.A B W ] ;.o.O.o.} Q U U W R U U W R U R ^ | ..} ................| | | ....................................| | | | | | | ....| | ..} $.} ..| $.&.) f 5 N | q.c.^.,X4X3X{.k.r.V > } :.&...$.$...&.;.&.&.&.$.$.$.&.#.$.$.$.$.$.$.$.$.$.$.$.$.$.$.$.$.$.&.$.$.$.$.$.$.$.&.&.$.$.&.&.$.$.&.&.&.&.$.$.;.;.;.&.&.&.&.&.,.$.;.:.&.:.,.:.u 5 V _ | c.G.=X:X2X}.u.g.C q I 0.3.<.:.<.<.:.<.<.<.<.<.3.3.3.<.,.,.:.:.3.8.8.3.3.3.3.3.3.3.<.<.<.<.<.<.<.,.,.,.<.<.<.<.<.<.<.<.<.<.,.,.,.,.,.,.:.:.:.:.:.:.:.:.;.;.<.<.&.:.3.<.u 0 N ) 3.k.U.*X:X4X*Xc.u.Q q I :.,.$.&.| :.$.:.&.&.&.&.$.$.$.$.$.$.$.#.#.#.#.#.$.$.$.$.$.$.$.$.&.$.$...........$.$.$.$.$.$.X.X.$.} Q U W W W U U W W I W } $...:.$.| X.$...l r ..w.0.c.U.OX2X4X4X=X[.R.2.P C Q ..&.0.;.0 e 7 q ",
"q 1 K u...{ ..} N = q ;.k.M.c.$.E =.1.d.}.-XR.r.} f l Q ;.X.&.X...} } | | | | | } | | | | ....| ................| | | | ..................................| | | | | | | | | | | ..| $.{ | | ;.| P u J w.c.f.c./.>X4X,X;X[./.0.c K | :.$.$.....&.$.&.;.;.&.$.$.&.#.#.$.$.$.$.$.$.$.$.$.$.$.$.$.$.$.$.$.$.$.$.$.$.&.&.&.&.$.$.$.$.$.&.&.&.$.$.$.$.:.:.;.&.$.$.&.;.;.$.;.;.$.:.$.~ h c &.p.,.f.G.OX4X4XOX}.*X:.c I ..<.3.:.>.<.:.:.<.,.<.3.3.3.,.:.,.:.;.:.3.0.8.<.3.3.3.3.<.<.<.<.<.<.<.<.<.,.,.,.<.<.<.<.<.,.,.,.,.,.,.,.,.,.,.,.,.:.:.:.:.:.:.:.&.:.3.:.&.:.:.{ q J :.r.c.G.E.,X4X4X1X/. Xf.M J | ,.$.$.| ,.&.&.&.$.$.&.$.$.$.$.$.$.$.#.#.#.#.#.$.$.$.$.$.#.#.#.............X.X.................$...| | | ......| ....| | $.$.........;.| C 1 l 0.k.c.C.;.$.;.;.q./.>X/.q.) 5 f ..&.0.;.0 e 7 q ",
"q 1 K u...} ..| 7 ; c } ..f.j.v j h j c s./.k.w.) 5 r [ X.} &.O.......X...| | | } | ......| | | | | | | ......| } } | | | ................................| | | | | | | | | | | } | &.| ..| X.A q q ..c.B.c.8.&.Q :.3.OX*XY.u.K q A &.$.&.....$.$.&.:.:.$...$.$.#.#.$.$.$.$.$.#.$.$.$.$.$.$.$.$.$.$.$.$.$.$.$.$.$.$.$.$.$.$.$.$.$.$.$.$.$.$.$.$.,.:.:.$.$.$.&.;.$.&.:.;.;.:.W u u A u.G.c.0.) } :.<.U.1X[.f.^ f M ..<.<.<.<.<.;.,.,.<.3.3.<.:.;.:.:.,.<.3.8.3.<.<.<.<.<.<.<.<.<.<.<.<.<.<.,.,.,.<.<.<.,.,.,.,.,.:.:.,.,.,.,.,.,.,.:.:.:.:.:.:.:.:.:.;.&.:.3.~ u 0 Q u.c.C.u.^ ) ;.$.E.,X}.c.U 0 C $.$.&...,.&...$.$.$.$.$.$.$.$.$.$.$.#.#.#.#.#.$.$.$.$.#.#.#.#.| ......X.X.........................$.......$.$...$.=.$.$.$.$...} $.$.;.} r + M | 0.k.C.J l u f c G./.n.2.{ ; q ..&.0.:.7 e 7 0 ",
"q 1 K u...{ ..| s ; k ^ Q <.f.A A B A l 0.k.<.>.^ 5 u | } } &...| ....| } } | | } | | | | } | ..| | | ......| | | | | ..| | ..............................| | | | | | | | | ....| | ..| $.....h > 5 Q ,.u.V.} u k h u M.^.p.3.A = h $...&...$.$.$.;.:.:.$.....$.#.$.$.$.$.$.#.#.$.$.$.$.$.$.$.$.$.$.$.$.$.$.$.$.$.$.$.$.$.$.$.$.$.$.$.$.$.$.$.$.,.:.:.$.$.$.&.;.;.&.&.&.:.:.G + 1 J ;.q.c...f h f f r. Xf.w.$.1 5 } 3.<.3.:.<.:.,.,.<.3.3.<.:.;.:.<.3.8.3.<.<.<.<.<.<.<.<.<.<.<.<.<.<.<.<.,.,.,.<.<.<.,.,.,.,.:.:.:.:.,.,.,.,.,.,.,.:.:.:.:.:.:.,.:.$.$.,.3.K O 1 K :.r.k.$.f f l r w.[.g.r.Q ; u ..&.:.$.;.$.$.$.$.$.$.$.$.$.$.$.$.$.#.#.#.#.#.#.#.#.#.#.#.#.$.......X.$.X.............................| | ....| ..X.....$.....=.;.| ....h > h Q ) 3.k.A V M V V c.0.q.3.W > u ..&.9.;.7 e 7 0 ",
"q 1 K u...{ ..| u = f ~ _ :.q.V f h V V r.k.:.;.} q r } } ..$.} | | | } } | | | ..| | | | } | ..} } | | | | | } } | | | ....| | | | | | | | | | ..........| | | ..| | | | | ....$...| | ..| ;.h q q T { 2.c.^ f U V u e.j.3.q.Y 1 h :.| ....&.$.$.&.;.&.$...X.$.$.$.$.$.$.$.#.#.$.$.$.$.$.$.$.$.$.$.$.$.$.$.$.$.$.$.$.$.$.$.$.$.$.$.$.$.$.$.$.$.:.:.;.&.$.$.$.&.:.&.$.$.,.,.K $ 5 U ) } u.^ h A J V <.C.r.>...f 0 $.3.<.<.;.<.<.,.,.,.<.3.<.,.:.,.3.0.0.<.:.,.3.<.<.<.<.<.<.<.<.<.<.<.<.<.,.,.,.<.<.,.,.,.:.:.:.:.:.,.,.,.,.:.:.,.,.:.:.:.:.:.:.;.:.:.$.:.:.I > r K ..<.r.| V I I V :.f.0.0.W u u ;.&.;.$.$.$.;.$.$.$.$.$.$.$.$.$.$.$.#.#.#.#.#.......#.#.#.#.#.....$.$.X...............................| ....$...................;.....| f 5 u Q ^ 0.r.V c j n c c.0.3.3.U 7 q ..&.9.;.7 e 7 0 ",
"q 1 K u...} ..| q 5 h T _ :.3.K C V M C 3.l.0.3.Q q q } | $...} } | | } | ....| ..| } | | } } | } } } } } } } } } } | | | | | | | | | | | | | | ..........| | | ....| | | | ....$...| $...{ ;.k < q Q ( &.u.T A u c v f.u.:.3.J 7 f ,.} ..$.&...$.$.$.$.$.$.&.$.$.$.$.$.$.$.$.#.$.$.$.$.$.$.$.$.$.#.#.#.#.#.#.#.$.$.$.$.$.$.$.$.$.$.$.$.$.$.$.$.$.&.$.$.$.$.$.$.:.$.$.$.,.:.P < = J ) ..p.~ c V l l ;.f.f.;.^ q r :.<.:.3.;.<.>.,.,.,.<.<.3.<.,.,.3.8.3.<.,.,.<.<.<.<.<.<.<.<.<.<.<.<.<.<.,.,.,.<.<.,.,.,.:.:.:.:.:.,.,.,.,.:.:.,.,.:.:.:.:.:.:.;.:.:.;.;.:.U 7 5 C | <.0.) f g h c $.w.w.<.C 0 s :...;.&.X.$.:.$.$.$.$.$.$.$.$.$.$.$.#.#.#.#.#.#.#.#...................................................X.$.X.X.................} X.=.$.^ 5 0 u W ) u.w.K V c V A c.c.,.$.W u e | &.9.;.7 e 7 0 ",
"q 1 K u...{ ..| r > 1 v A U ;.:.} :.:.;.8.&.W P D 1 0 ......} | } | | } | ..| ) | ) ) | | } } } } } } } } } } } } } } | | | | | | | | | | | | | ..........| | | ....| | | | ......| ..:...~ &.h ; q Q ) 8.c.Q V A A J j.q.$.:.A > q :.{ $.&.;.} $.X.....$.&.;.;.$.$.$.$.$.$.$.$.$.$.$.$.$.$.$.$.$.#.#.#.#.#.#.#.$.$.$.$.$.$.$.$.$.$.$.$.$.$.$.$.$.$.$.$.$.$.$.$.#.#.;.:.:.#.A > q A ^ } q._ P K K K f.g.0.| ..q r ;.;.:.w.:.<.;.<.,.,.,.<.3.3.<.,.,.,.<.<.<.<.<.<.<.<.<.<.<.<.<.<.<.<.<.<.,.,.,.<.<.,.,.:.:.:.:.:.:.,.<.,.:.:.;.,.,.:.:.:.:.:.:.:.&.&.;.,.:.P < q C ) $.0.:.K C C J w.g.<.;.A 0 u ;.| ;.,.$.$.&.$.$.$.$.$.$.$.$.$.$.$.#.#.#.#.#.$.$.#.#.........| | | | | ............................X.$.$...| | | | ......| ..&.| | $.} q q 0 A C } | } ;.$.$.:.2.:.U W V ; r ..&.8.;.7 e 7 0 ",
"7 6 P q.&..._ o.7 7 6 7 d k I q.u.8.w.j.G N h q 7 = s _ ..) { | ....| | } } | | | | | | } } | | } } { { { } } } } } { { } } } } | | | | | | | | | | ......| | | ................X.....;.| $.| h 1 > l A J $.f.<.0.<.u.<.| K A u ; A $.:.#.$.$.| $.$.....$.&.:.,.$.....=.:.:.;.$.$.$.$.$.$.$.$.$.$.$.$.$.$.$.$.$.;.=.$.$.$.$.$.$.$.&.&.&.&.&.&.$.$.$.$.$.$.&.&.&.| $.*.*.:.*.K = 5 u V A Q 3.0.0.3.q.q...P V k 7 5 ,.,.&.3.$.:.;.;.:.:.,.,.,.3.3.,.,.,.,.,.2.2.2.,.,.,.,.,.,.,.,.,.,.,.,.,.,.,.,.,.,.,.,.,.,.,.,.:.:.,.,.,.,.:.:.:.:.:.:.:.:.:.:.$.&.*.:.3.3.Y > 5 c J I ) 0.r.<.<.w.w.} J C l 1 u ,.&.#.2.#.$.$.$.$.$.$.$.$.$.$.$.....&.$.....&.........................| | | | | | | ....| | | | | ......................| | | | #...#._ h = 5 0 u u G q.j.r.u.g.K K r q 5 ; s ..8.8.X.s 1 0 0 ",
"e < H 8.| | _ { K r = 6 e u I p.u.p.u.e.b c s q 5 s P ....| ......| | } } } } } } | | | } } } | } } } { } } } } } { { { } } } } | | | | | | | | | | ....| | | | ......................X.| $...V 5 > q u r K 3.3.w.r.r.Q C f h q > V } #...$.&.$.$.#.....#.$.&.:.$.X.X.$.;.:.;.$.$.$.$.$.$.$.$.$.$.$.$.$.$.$.$.$.$.$.$.$.$.$.=.&.$.$.$.$.$.$.&.&.$.$.$.$.$.$.&.&.$.&.*.$.$.#.A = < 7 u e V &.w.w.q.,._ A h e 0 7 q $.$.&.3.&.,.;.:.:.:.,.,.,.,.2.,.,.,.,.,.,.,.,.,.,.,.,.,.,.,.,.,.,.,.,.,.,.,.,.,.,.,.,.,.,.,.,.,.,.,.,.,.,.,.:.:.:.:.:.:.:.:.:.,.:.:.&.:.:.P > ; 0 u h K :.u.u.f.r...A f q 5 = h $.| | :...:.:.$.$.$.$.$.$.$.$.$.$.{ ..| $...#.........................| | | | | | ......| | | | | | | | ................| | | | #...#.| S 7 5 > e s J <.e.3.w.,.C Z r 0 1 s T X.,.,.[ q 1 r r ",
"e < P q...&.&.$.~ s < 7 e e Z ~ U ~ T U u h e 5 > A ....} | | | | | | } } } } } } } | | } } } } } } { { } } } } } } { { } } } } | | | | | | | | | | | ..| | | | ....................| ..} ..;.I r > 5 r u I 0.u.0.u.0.J h 0 0 1 l U #.$...$.$.............$.$.$.$.$.X.$.;.;.=.X.$.$.$.$.$.$.$.$.$.$.$.$.$.$.$.$.X.X...$.$.=.;.;.$.$.$.$.$.$.$.&.$.$.$.$.$.&.&.$.$.$.&.$.&.*.T u > 1 q 5 c $.0.w.u.:.U c f 5 < s P ,.:.:.,.&.<.;.:.:.:.,.:.,.,.,.,.:.:.,.,.,.,.,.,.,.,.,.,.,.,.,.,.,.,.,.,.,.,.,.,.,.,.,.,.,.,.,.,.,.,.,.,.,.,.,.:.:.:.:.:.:.:.:.,.:.:.&.:.3._ h 0 0 0 u A | 3.0.w.<.U l u 0 8 h T :.#.$.:...,.$.$.$.$.$.$.$.$.$...:.$.:...:.....................| | ....| | | | | | ....| | | | | | | | | | | | | | | | | | | | } | { ..#.U s 5 > q s V Q Q I Q K g s q > ; Z X.,.<.q.&.f q 0 1 ",
"e 6 T e.{ | { ~ T k e 7 7 r h e 7 u 5 e 7 u < < 5 U #._ _ { { | | } } } } } } } ) } | | | } } } } { { { { { { { } } { { { } } } | | | | | | | | | | | ..| | ....................| ..| ..| ..;.Q V 5 > q u V K C M J C u f r 5 1 Q ..:.$...$.$.......#.#.#.#.....$.$.$.$.;.;.$...X.X.$.$.$.$.$.$.$.$.X.X.X.X.$.$.$.$.X.X.$.$.=.;.&.&.$.#...$.$.&.$.$.$.$.$.$.$.$.#.#.$.&.*.,.{ A 5 < 7 7 f A C V G C f u s 5 5 V <.0.,.,.;.$.8.;.:.,.,.:.:.:.:.:.:.:.:.:.:.,.,.,.,.,.,.,.,.,.,.,.,.,.,.,.,.,.,.,.,.,.,.:.:.:.:.:.:.:.,.,.,.,.,.,.:.:.:.:.:.:.:.:.*.&.&.&.,.3...J 0 1 1 r c C A C A A h r r 1 0 J ;.,.&.,.:.#.:...$.$.$.$.$.$.$.$...:.$.,.{ ..} $.................| | | | | | | | | | ....| | | | } } | | | | | | | | | | | | | | | | { { | Q c 5 > 5 5 e h r 5 q s r 1 7 > 1 I ..| ..<...r q 0 1 ",
"7 < T r...o.| X.[ G s 5 = 0 s 7 q q > 0 7 5 = q V ) .._ | ..| ..} } } } } } } } } } | | | } } } } } } } } } } } } } } } } } } } | | | | | | | | | | | | | ......................| X.| ....| $.^ A 0 $ 1 0 r q > 5 q 5 5 q 5 ; 0 { ..$.....$.$.$...$.$.$.$.......$.$.$.$.$.$.$...X.X.$.$.$.$.$.$.$.X.X.X.$.$.$.$.$.$.$.X.$.$.$.$.:.;.&.$.....$.$.$.$.$.$.$.$.$.$.$.$.&.&.$.$._ G 0 = > 5 r r 5 q 5 q 5 5 0 ; 1 J <.:.$.:.$.;.0.:.:.:.:.:.:.:.:.:.:.:.:.:.:.:.:.:.,.,.,.,.,.,.,.,.<.<.<.<.<.<.<.<.,.,.:.:.:.:.:.:.:.:.:.:.:.:.,.,.:.:.:.:.:.:.:.:.:.&.;.;.&.;.| K q > ; 5 r r q 0 0 r 0 5 5 ; r Q &.....:.&.$.:...$.$.$.$.$.$.$.$.$...) $.{ | } ;...........| | | | | | | | | | | | | | | | | | | } } } } | | | | | | | } | | | | ......{ { ~ G u q 5 1 0 w 0 5 0 7 r ; 0 r B X.o.,.&.0.} 1 7 q q ",
"7 1 P q.$.[ W X.:.~ G k 7 > 7 0 7 7 1 5 ; + 7 A { | } { ....| ..} } } } } } } } } } | | | } } } { { { { { { { { } } } } } } } } } | | | | | | | | | | | ........................| $.} ..$.| ..) I l 0 5 1 0 r r u u 0 q > > q A ..........$.$.$.$.$.$.$.$.$.....$.$.$.$.X.$.X.X.X.X.X.X.X.X.X.X.X.X.X.X.X.X.X.X.$.$.$.X...X.X.X.:.;.&.$.$.............$.$.$.$.$.$.#.&.&.#...{ U c 0 5 5 0 q 0 h q r 0 1 5 0 c ) ;.$.;.:.:.>.<.;.:.:.:.:.:.:.:.:.:.:.:.:.:.:.:.:.:.:.,.,.:.:.:.:.,.,.,.,.,.,.,.,.:.:.:.:.:.:.:.:.:.:.:.:.:.:.:.:.:.:.:.:.:.:.:.;.:.&.:.:.&.&...Q C f 5 1 5 0 0 q 0 q 5 > 5 q C ;.$.| ..&.$.$.&...$.$.$.$.X.X.$.$.$.| | $.,.;.$...........| | | | | | | | | | | | | | | | | | | | } } } } | | | | | | | } } | | | $.#.$...} | ~ A c e 1 5 q q 0 q 1 0 ; r Z } ,.^ } [ r.;.0 0 0 0 ",
"r e J 8.| Z > r T { { I l 7 ; > = = > > ; 1 M _ ..} } | } | | ) } } } | | } } } } } | } } } } } { { { { { { { { } } } } } } } } } } | | | | | | | | | | | ......................| X.` | $.| | } } U M r > $ > 1 > ; $ 5 ; u J ..&.$.$.$.$.X...X.$.$.$.$.$.......X.X.X.X.....$.$.X.X.X.X.X.X.X.X.X.X.X.X.X.X.X.X.$.$.....X.$.$.$.&.$.$.$.$.$.$.............$.$.$.$...$.&.$.&.$.| Q A l 5 ; > $ > ; ; ; ; r A } 3.;.:.<.:.:.>.;.$.:.:.:.:.:.:.:.:.:.:.:.:.:.:.:.:.:.,.:.,.,.:.:.:.,.,.,.,.,.,.,.,.:.:.:.:.:.:.:.:.:.:.:.,.:.:.:.;.:.:.:.:.:.:.;.;.;.$.:.:.;.:.:.$.Q C r 1 ; > 1 1 1 1 ; ; q V ^ :.&.&.;.$.$.$.....$.$.$.$.X.X.X.X...$.;.U Q W ..| ......| | | | | | | | | | | | | | | | | | | | | } } } | | | | | ....| | } | | | $.| #.$.| #...W A r > > : ; ; ; 1 1 1 G Q X.W l : e X.X.0 e 0 0 ",
"q e K u.8.V . = q Q ..U Z f 7 > 7 5 7 7 q k U _ | _ | ..) | .._ } } | | | | } } } } } } ) ) } } { { { { { { { { } } } } } } } } } } } | | | | | | | | | | ........................$.^ } $.| | | } Q A h q 1 > ; 1 > ; 0 1 C ^ | $.....$.$.X.X.$.$.$.X.........$.....X.......$.$.X.X.X.X.X.X.X.X.X.X.X.X.X.X.X.X.......X.$.$.=.;.....$.$.$.$.$.$.............$.$.$...$.&...$.&...Q I A q 1 q 1 ; 1 > > 5 l Q ;.$.;.<.:...$.>.;.>.;.;.;.:.:.:.:.:.:.:.:.:.:.:.:.:.:.:.:.,.:.:.:.:.,.,.,.,.:.:.:.:.:.:.:.:.:.:.:.:.:.:.,.,.,.:.:.;.:.:.:.:.:.;.;.;.;.$.;.:.$.&.:.:.) I c q 5 1 1 > > > 1 q M ^ ;.....&.;.| ..$...&.$.$.$.$.X.X.X.X.| &...< $ 1 ^ &.......| | | | | | | | | | | | | | | | | | | | | } } } | | | | | X...| | } | | | $.{ | #.| ....Q Q M r r 0 1 8 0 7 5 f } X...g O + 7 &.O.3 0 7 0 ",
"r 1 T 0.0.I + ;   I ;.^ I J M Z c V V M A Q ) Q } } } } } } ) ) W | | $.C.r.g.} } } } ) ) ) ) ) ) ) ) ) ) ) ) } ) | | ) ^ } } ) | ^ | | } ......| | | | | | | | } } } } } } } } | | | | | | | | | | ^ J l u r u f q q l K ^ ..$.........................................$.$.;.;.................................$.$.$.$.$.$.$.$.X...................;.$.| $.;.} #.#.............$.} K l r q w r q 0 r V ^ ;.:.X.=.;.;.;.;.;.;.;.:.:.:.:.:.:.:.:.:.:.:.:.:.:.:.:.:.:.:.:.:.:.:.:.:.:.:.:.:.:.:.:.:.:.:.:.:.:.:.:.:.<.<.:.;.;.;.:.;.;.;.;.;.;.;.;.;.;.;.;.;.;.;.;.$.) K M h u u u f r u C ^ ;.:.$.$.$.$.$.$.$.X.X.} $.$.} } ;.;.| ..;...q ; : W ;.......| | | | | | | | | | | | | | ) ^ } | | } } | | | | | | | | | ....} ^ | ..~ { { } | | | | | ) U A N V B B V G C } [ X.O.O ; + l ,.| 7 w 0 1 ",
"7 1 G } 0.<.Z e s W } Q ^ Q I Q W W W ^ ) } ..;.| | | | | | | | ..;.| | c.w.f.| | | | | | | | | } } } | | | | | ..| | $...} | $.| ) $...) ) ) } ................................................| | ) W K A J K V K U I Q ..;.;.;.;.;.;.;.;.;.;.;.;.;.;.;.;.;.;.;.;.$.$.$...| } X.X.X.X.........$.$.$.$.$.$.$.$.| | | | | | | | $.$.X.X.X...$.$.<.....;.;.;.;.;.&.&.&.&.&.&.;.;.:.$.| ^ W I L K I L I ^ X.>.>.;.<.<.<.<.<.<.<.<.>.>.>.>.<.<.<.<.3.3.3.3.3.3.3.3.3.3.3.3.3.3.<.<.3.<.<.<.3.3.3.3.<.<.<.<.>.>.<.<.<.<.<.<.<.:.>.<.<.<.:.:.:.:.:.:.:.:.:.:.,.>.>.>.:.$.} ^ W W W W U I I ^ ..:.:.;.;.;.;.;.;.;.;.;.0.<.:.;.;.$.$...| $.| 5 : q ^ ;.................| | | | | | | | | ........| | } | | | | | | | | | ) } $.$.$.;...........$.$.$.$.$.| ^ ^ ^ ` ) ^ Q W X.<.;.| f = J | 0.} 0 q e e ",
"q 1 0 1 J t.<...X.:.....:.X.} ;.X.| ..$.Q l w u f f f f f f f f r r q A c.C.B.} | | | } } } } } } } } } } } } } | N 0 q p w q u q h Q | | $...$.| | | | | | | | ................................$.$.....| | ....} :...C u f l h h h g g h h h h h h h g g g g h r C } :.$.| $.:.................................$.$.$.$.$.$.$.$.X.X.X.X.X.X.X.X.I g w l l p p h h h h h h h h h j j j j g h f p f f f h g g g g f f f f f f f f j j h h h h h h f f f f f f f f f f f f f f f f f f f f f f f f h h h h h h h h h j l l h h j l j j h h j h h h j j h h l l l j h h f f f h h f f f f f f f f f h h f f h h h h r w r g u p K :.;.<.| 1 o + h p f f f f f f f f p p p p p p p p W } ....| | ..| | | | | | | | | | } ..| C 0 0 f s s f f h h h h h h f h g g g h l s f g 7 z ,.X.<.;.J z ; 1 0 1 ",
"7 0 r 1 l ..;.&.;...^ ^ } ^ U Q Q W ^ } I r > 1 ; ; ; ; ; ; ; ; > ; > V f.k.r.U W W W W W W W W W W W W W W W W ` l $ ; 1 1 ; > ; 0 J Q Q ^ W W Q Q Q Q Q Q Q Q Q Q Q Q Q Q Q Q Q ! ! ! Q Q Q Q ^ Q Q Q Q Q Q Q I ^ I r + $ 1 ; $ $ $ $ $ $ $ $ $ $ $ $ $ $ $ $ $ h Q | ^ U W ) Q Q ^ ^ ^ ! Q Q Q Q Q Q Q Q Q Q Q Q Q Q Q Q Q Q ^ ^ ! ! ! ! ^ ^ g ; X : ; + + $ $ $ $ $ $ $ $ $ ; & $ & & ; ; ; ; ; ; & @ + @ ; ; ; ; ; ; ; ; ; + + + + + + + + ; ; ; ; ; ; ; ; : : : : : : : : : : : : : : : : $ $ $ $ + + + + + + $ $ $ $ $ & $ $ $ $ $ + + + + + + + + + + + $ $ $ $ $ $ $ + $ $ ; ; $ $ $ $ + $ $ $ + + + + > : 1 5 ; ; n | Q ^ W w 1 ; 0 ; ; ; ; ; ; & & & $ $ $ $ $ $ $ $ C I ^ W R ! ^ Q Q Q Q Q Q Q Q Q Q W ) Q h + $ 0 $ $ $ $ $ ; ; ; $ & ; ; ; & @ + + ; : = . ; ;...} W 1 > 1 0 q 3 ",
"; > 0 1 1 0 1 0 q q 7 1 0 7 1 5 8 1 1 1 > & & > 1 1 1 1 < < 1 < $ > ; > h u u 0 5 5 5 5 5 5 5 5 1 1 1 1 1 1 1 1 , : : > ; ; ; , ; + 5 5 > 5 1 1 5 5 5 5 5 5 5 5 5 5 5 5 5 5 5 5 5 5 5 5 5 5 5 5 0 5 5 5 5 5 1 , 5 q r 5 > < 1 > 1 1 < < 1 1 1 1 1 1 1 1 < 1 1 1 > > > 1 5 5 1 > 1 1 1 1 1 1 1 1 5 5 5 5 5 5 5 5 1 1 1 1 1 1 1 1 1 1 1 1 1 1 1 1 8 ; ; , > 1 5 1 1 < 1 1 1 1 < < < < : : : : 1 1 1 , : : : 1 1 1 ; ; ; ; ; ; ; ; < < < < < < < < ; ; ; ; ; ; ; ; ; ; ; ; ; ; ; ; ; ; ; ; ; ; ; ; 1 1 1 1 < < < 1 , , , < 1 1 1 1 1 1 1 1 1 < < < > > > > , , > > 1 1 1 1 1 1 > ; > > > < 1 1 1 1 1 1 1 1 1 1 1 1 , ; + ; : ; ; , 1 < 1 ; : + ; + 1 1 1 1 1 1 1 1 1 < < < 1 1 1 1 ; 0 0 < > 1 5 : 5 5 5 5 5 5 5 5 0 > 1 0 1 > > ; > > > > 1 1 < < 1 1 4 1 1 , , < ; 2 7 2 7 7 g 1 q l > e w 7 1 0 ",
"f 0 7 0 0 2 : 0 1 7 7 < : 1 0 0 1 1 > $ & : > : ; ; ; ; ; ; ; ; > 1 > $ ; $ ; 1 1 1 1 1 > > > > , , , , > > , > o : 1 , : , < : 5 $ 1 > ; 5 1 1 > > > > , , > , > > > > > > > > , , , , > > > > 1 1 1 1 5 5 5 1 > $ $ ; ; = $ $ ; ; ; ; ; ; ; ; ; ; ; ; ; ; ; ; 1 > ; ; > 1 1 1 > > > > > > > > > > > > , , , , 1 1 1 1 1 1 1 1 , > > : : : > > + $ ; ; + ; 1 & ; ; ; ; ; ; ; ; & ; ; : : : ; ; , ; & & ; ; ; ; : : : : : , , , ; ; ; ; ; ; ; ; 1 1 1 1 < < 1 1 < < < < < < < < < < < < < < < < : : : : : : : : ; ; ; ; : > : : : : : : ; ; ; ; ; ; ; ; ; ; ; ; ; ; ; ; ; > > ; ; ; $ = ; ; ; $ ; ; ; ; ; ; ; ; ; ; ; ; , 1 > $ 8 > > 1 5 > , 5 ; ; ; ; ; ; ; ; ; ; ; ; ; ; ; ; : < > ; ; < , ; > > > > > > > > 5 > > ; ; > 1 $ ; ; ; ; ; ; ; ; ; ; ; ; ; ; ; : ; > > X : 1 > 1 ; e ; 7 7 1 ; 1 ",
"1 2 > q w 0 0 1 7 < < < ; : 1 < ; , 1 1 5 5 1 < 1 1 1 1 1 < < < 1 1 > ; 5 5 ; ; 1 1 1 1 1 1 1 1 1 1 1 1 < < < , 0 8 > ; : 1 , + 5 ; 5 5 > 5 > ; 1 1 1 1 1 1 1 1 1 1 1 1 1 1 1 1 1 1 1 1 1 1 1 1 ; ; > > > > > > 5 > ; ; ; > 1 0 , , , , , , , > > > , , , , , , ; 1 5 5 > ; ; > 1 1 1 1 1 1 1 1 1 1 1 1 1 1 1 1 > > > > > > > > 1 1 1 1 1 1 1 1 < 1 8 1 ; , 1 $ > > > > > > > > : , 1 1 4 4 1 , 1 < , : : , : : ; ; ; ; ; ; ; ; , > > > > > > > ; ; ; ; ; ; ; ; ; ; ; ; ; ; ; ; ; ; ; ; ; ; ; ; < < < < < < < < < > > > < 1 < > , , , , > > , > , > , , , , > > > > ; > > 1 1 > > > > > > > ; ; > > : > > > > > , 1 5 > $ $ > 1 ; $ $ ; > > < 5 , , , < < 1 1 1 1 1 1 < 1 1 1 1 ; ; ; : , 1 1 1 1 1 1 1 1 1 1 1 ; > 5 1 $ $ 1 1 1 1 1 1 1 1 1 1 > : : : : : , , ; 7 3 7 ; ; 1 e r w 1 1 1 r 1 q ",
"0 w 0 1 1 0 q 1 0 ; : 0 0 1 1 < 1 < > , ; & ; 1 : : : : : : ; ; $ ; > ; > 1 ; 0 1 1 1 1 1 1 1 1 1 1 1 < < , , > $ ; < 1 1 < , , 1 $ 1 ; $ 1 5 0 1 1 1 1 1 1 1 1 1 1 1 1 1 1 1 1 > > > > > > > > 1 1 1 1 > > > > ; 1 5 1 > ; ; ; : : : : : : : : : : : : : : : : 1 > ; ; > 1 5 5 1 1 1 1 1 1 1 1 1 1 1 1 1 1 1 1 > > > > > > > > , , , , > > , , > ; > < ; > , ; ; ; ; ; ; ; ; ; , : : ; ; : : , @ ; ; ; ; ; ; , : : : : : : : : ; ; ; ; ; ; ; ; : : : : : : : : > > > > > > > > > > > > > > > > : : : : : : : : > ; ; ; : : ; ; ; ; ; ; ; ; ; ; : : : : : : : : > > > > > > ; $ $ ; > > ; ; ; > : : : : : : : : ; $ ; , 1 > ; : : 1 < , ; , > ; ; ; ; ; ; ; : : ; ; ; ; ; ; ; ; > : > 1 , ; ; < 1 1 1 1 1 1 1 1 1 ; ; 1 > > 1 > ; ; ; ; ; ; ; ; < > : : : : : ; : > O q ; 2 q 1 > 1 r e ; e ; 0 "
};
