/* XPM */
static char *_0baeb268b264206aa7c524a48314dc1j5hnKtpAfXDp4eXf[] = {
/* columns rows colors chars-per-pixel */
"736 613 153 2 ",
"   c gray23",
".  c #3C3C3C",
"X  c gray24",
"o  c #3E3E3E",
"O  c #3F3F3F",
"+  c gray25",
"@  c #414141",
"#  c gray26",
"$  c #434343",
"%  c #444444",
"&  c gray27",
"*  c #464646",
"=  c gray28",
"-  c #484848",
";  c #494949",
":  c gray29",
">  c #4B4B4B",
",  c #4C4C4C",
"<  c gray30",
"1  c #4E4E4E",
"2  c gray31",
"3  c #505050",
"4  c #515151",
"5  c gray32",
"6  c #535353",
"7  c gray33",
"8  c #555555",
"9  c #565656",
"0  c gray34",
"q  c #585858",
"w  c gray35",
"e  c #5A5A5A",
"r  c #5B5B5B",
"t  c gray36",
"y  c #5D5D5D",
"u  c gray37",
"i  c #5F5F5F",
"p  c #606060",
"a  c gray38",
"s  c #626262",
"d  c gray39",
"f  c #646464",
"g  c #656565",
"h  c gray40",
"j  c #676767",
"k  c #686868",
"l  c DimGray",
"z  c #6A6A6A",
"x  c gray42",
"c  c #6C6C6C",
"v  c #6D6D6D",
"b  c gray43",
"n  c #6F6F6F",
"m  c gray44",
"M  c #717171",
"N  c #727272",
"B  c gray45",
"V  c #747474",
"C  c gray46",
"Z  c #767676",
"A  c #777777",
"S  c gray47",
"D  c #797979",
"F  c gray48",
"G  c #7B7B7B",
"H  c #7C7C7C",
"J  c gray49",
"K  c #7E7E7E",
"L  c gray50",
"P  c #808080",
"I  c #818181",
"U  c gray51",
"Y  c #838383",
"T  c #848484",
"R  c gray52",
"E  c #868686",
"W  c gray53",
"Q  c #888888",
"!  c #898989",
"~  c gray54",
"^  c #8B8B8B",
"/  c gray55",
"(  c #8D8D8D",
")  c #8E8E8E",
"_  c gray56",
"`  c #909090",
"'  c gray57",
"]  c #929292",
"[  c #939393",
"{  c gray58",
"}  c #959595",
"|  c gray59",
" . c #979797",
".. c #989898",
"X. c gray60",
"o. c #9A9A9A",
"O. c #9B9B9B",
"+. c gray61",
"@. c #9D9D9D",
"#. c gray62",
"$. c #9F9F9F",
"%. c #A0A0A0",
"&. c gray63",
"*. c #A2A2A2",
"=. c gray64",
"-. c #A4A4A4",
";. c #A5A5A5",
":. c gray65",
">. c #A7A7A7",
",. c gray66",
"<. c #A9A9A9",
"1. c #AAAAAA",
"2. c gray67",
"3. c #ACACAC",
"4. c gray68",
"5. c #AEAEAE",
"6. c #AFAFAF",
"7. c gray69",
"8. c #B1B1B1",
"9. c #B2B2B2",
"0. c gray70",
"q. c #B4B4B4",
"w. c gray71",
"e. c #B6B6B6",
"r. c #B7B7B7",
"t. c gray72",
"y. c #B9B9B9",
"u. c gray73",
"i. c #BBBBBB",
"p. c #BCBCBC",
"a. c gray74",
"s. c gray",
"d. c gray75",
"f. c #C0C0C0",
"g. c #C1C1C1",
"h. c gray76",
"j. c #C3C3C3",
"k. c gray77",
"l. c #C5C5C5",
"z. c #C6C6C6",
"x. c gray78",
"c. c #C8C8C8",
"v. c gray79",
"b. c #CACACA",
"n. c #CBCBCB",
"m. c gray80",
"M. c #CDCDCD",
"N. c #CECECE",
"B. c gray81",
"V. c #D0D0D0",
"C. c LightGray",
"Z. c gray83",
"A. c #D5D5D5",
/* pixels */
"d e 9 e 9 5 5 e 9 9 e t e e 9 9 e e e e e e e e e e e e e e e e e e e e e e e e e e e e e e e e e e e e e e e e e e e e e e e e e e e e e e e e t 9 5 9 e 9 9 t 9 9 e d t e e t e e e e e e e e e e e e e e e e e e e e e e e e e e e e e e e e e e e e e e e e e e e e e e e e e e e e e e e e e e e e e e e e e e e e e e e e e e e e e e e e 9 9 9 e e t t t t 9 9 e t 9 9 9 t e e e e e e e e e e e e e e e e e e e e e e e e e e e e e e e e e e e e e e e e e e e e e e e e e e e e e e e e e e e e e e e e e e e e e e e 9 9 9 9 e e e e t t 9 5 9 t t t t e e e e e e e e e e e e e e e e e e e e e e e e e e e e e e e e e e e e e e e e e e e e e e e e e e e e e e e e e e e e e e e e e e e e e e e 9 9 9 e e e e e 9 9 e 9 9 9 t h 9 e t e 9 e e 9 e e e e e e e e e e e e e e e e e e e e e e e e e e e e e e e e e e e e e e e e e e e e e e e e e e e e e e e e e e e e e e e e e e e e 9 9 9 e 9 e e 9 9 e t 9 e e e e e e e e e e e e e e e e e e e e e e e e e e e e e e e e e e e e e e e e e e e e e e e e e e e e e e e e e e e e e e e e e e e e e e e e e e e e e e e e 9 9 9 9 e e e t 9 9 e t t e 9 9 e e e e e e e 9 e e e e e e e e e e e e e e e e e e e e e e e e e e e e e e e e e e e e e e e e e e e e e e e e e e e e e e e e e e e e e e e e 9 9 e e e e e e t e e e e e e 9 d t e e 9 9 9 e e e e e e e e e e e e e e e e e e e e e e e e e e e e e e e e e e e e e e e e e e e e e e e e e e e e e e e e e e e e e e e e e 9 9 9 e e e t t e t e 5 5 9 e e 9 9 9 9 9 9 t t e e e e e e e e ",
"9 9 e t t e e t t e e 9 9 9 9 9 9 9 9 9 9 9 9 9 9 9 9 9 9 9 9 9 9 9 9 9 9 9 9 9 9 9 9 9 9 9 9 9 9 9 9 9 9 9 9 9 9 9 9 9 9 9 9 9 9 9 9 9 9 9 9 9 e e t t t 9 9 9 d t e e e 9 9 e 9 9 9 9 9 9 9 9 9 9 9 9 9 9 9 9 9 9 9 9 9 9 9 9 9 9 9 9 9 9 9 9 9 9 9 9 9 9 9 9 9 9 9 9 9 9 9 9 9 9 9 9 9 9 9 9 9 9 9 9 9 9 9 9 9 9 9 9 9 9 9 9 9 9 9 9 9 9 9 9 9 9 9 9 9 9 5 5 e e t t 9 1 5 t 5 5 9 9 e e t t 9 9 9 9 9 9 9 9 9 9 9 9 9 9 9 9 9 9 9 9 9 9 9 9 9 9 9 9 9 9 9 9 9 9 9 9 9 9 9 9 9 9 9 9 9 9 9 9 9 9 9 9 9 9 9 9 9 9 9 9 9 9 9 9 t t e e e 9 9 9 e 9 9 t t 9 5 9 e e e t e e 9 5 9 9 9 9 9 9 9 9 9 9 9 9 9 9 9 9 9 9 9 9 9 9 9 9 9 9 9 9 9 9 9 9 9 9 9 9 9 9 9 9 9 9 9 9 9 9 9 9 9 9 9 9 9 9 9 9 9 9 9 9 9 9 9 9 t t t e e e e e t e 9 e t e 5 > 9 e 9 9 9 t t e 9 9 9 9 9 9 9 9 9 9 9 9 9 9 9 9 9 9 9 9 9 9 9 9 9 9 9 9 9 9 9 9 9 9 9 9 9 9 9 9 9 9 9 9 9 9 9 9 9 9 9 9 9 9 9 9 9 9 9 9 9 9 9 9 9 e e e e e e e e e e e e e e 9 9 9 9 9 9 9 9 9 9 9 9 9 9 9 9 9 9 9 9 9 9 9 9 9 9 9 9 9 9 9 9 9 9 9 9 9 9 9 9 9 9 9 9 9 9 9 9 9 9 9 9 9 9 9 9 9 9 9 9 9 9 9 9 9 9 9 9 9 9 9 9 9 9 9 9 9 9 9 9 9 e e e e e 9 9 9 e t e 5 5 9 9 9 5 9 9 e e e t t 9 9 9 9 9 9 9 9 9 9 9 9 9 9 9 9 9 9 9 9 9 9 9 9 9 9 9 9 9 9 9 9 9 9 9 9 9 9 9 9 9 9 9 9 9 9 9 9 9 9 9 9 9 9 9 9 9 9 9 9 9 9 9 9 t t t e e 9 9 9 9 t d t 9 5 9 e 9 9 e t t t t t 9 9 9 9 9 9 9 9 9 9 9 9 9 9 9 9 9 9 9 9 9 9 9 9 9 9 9 9 9 9 9 9 9 9 9 9 9 9 9 9 9 9 9 9 9 9 9 9 9 9 9 9 9 9 9 9 9 9 9 9 9 9 9 9 t t e e e e 9 9 5 e t e e e 9 5 e e e e e e 9 5 9 9 9 9 9 9 9 9 ",
"5 e t e e e e 9 e 9 9 9 9 e e e e e e e e e e e t t t t t t t t t t t t t t t t t t t t t t t t t t t t t t t t t t t t t t t t e e e e e e e e 9 e t e 9 9 9 9 t e 9 9 e e e e e e e e e e e e t t t t t t t t t t t t t t t t t t t t t t t t t t t t t t t t t t t t t t t t t t t t t t t t t t t t t t t t t t t t t t t t t t t t t t t t e e t t t t t e 9 9 e t e e t h t t t t e 9 9 9 t t t t t t t t t t t t t t t t t t t t t t t t t t t t t t t t t t t t t t t t t t t t t t t t t t t t t t t t t t t t t t t t e e 9 9 9 9 9 9 e 9 9 e e 9 e h e e t t t t t t t t t t t t t t t t t t t t t t t t t t t t t t t t t t t t t t t t t t t t t t t t t t t t t t t t t t t t t t t t t t t t t t e e 9 9 9 e e t e 9 5 9 e d t e t t e 9 e t t e t t t t t t t t t t t t t t t t t t t t t t t t t t t t t t t t t t t t t t t t t t t t t t t t t t t t t t t t e e e e e e e e e e e e e e e e e e e t e 9 9 9 t t t t t t t t t t t t t t t t t t t t t t t t t t t t t t t t t t t t t t t t t t t t t t t t t t t t t t t t t t t t t t t t t t t t t t t t t t t t t t t t e e t t t t t t 5 e t e e d d e t t t e 9 9 9 9 t t t t t t t t t t t t t t t t t t t t t t t t t t t t t t t t t t t t t t t t t t t t t t t t t t t t t t t t t t t t t t t t e e e 9 9 9 e e 9 e t t e e d h 9 e e e 9 9 5 1 t t t t t t t t t t t t t t t t t t t t t t t t t t t t t t t t t t t t t t t t t t t t t t t t t t t t t t t t t t t t t t t t 9 9 e e e e e 9 9 9 9 9 e t t t e e e t t t e 9 t t t t t t t t ",
"e t e 9 9 e e e e e t t t t e e 9 9 9 9 9 9 9 9 9 9 9 9 9 9 9 9 9 9 9 9 9 9 9 9 9 9 9 9 9 9 9 9 9 9 9 9 9 9 9 9 9 9 9 9 9 9 9 9 9 9 9 9 9 9 9 9 9 e e 9 9 e t e e e e t t t e e 9 9 9 9 9 9 9 9 9 9 9 9 9 9 9 9 9 9 9 9 9 9 9 9 9 9 9 9 9 9 9 9 9 9 9 9 9 9 9 9 9 9 9 9 9 9 9 9 9 9 9 9 9 9 9 9 9 9 9 9 9 9 9 9 9 9 9 9 9 9 9 9 9 9 9 9 9 9 9 9 9 9 9 9 9 e e e d e 9 9 e 9 5 1 9 9 e e t t t t 9 9 9 9 9 9 9 9 9 9 9 9 9 9 9 9 9 9 9 9 9 9 9 9 9 9 9 9 9 9 9 9 9 9 9 9 9 9 9 9 9 9 9 9 9 9 9 9 9 9 9 9 9 9 9 9 9 9 9 9 9 9 9 9 9 e e e e e e e d d t e 9 9 9 e e e e 9 5 9 e t 9 9 9 9 9 9 9 9 9 9 9 9 9 9 9 9 9 9 9 9 9 9 9 9 9 9 9 9 9 9 9 9 9 9 9 9 9 9 9 9 9 9 9 9 9 9 9 9 9 9 9 9 9 9 9 9 9 9 9 9 9 9 9 9 9 9 9 9 e e e e d d d t e e e e e e e 9 9 9 9 9 9 9 9 9 9 9 9 9 9 9 9 9 9 9 9 9 9 9 9 9 9 9 9 9 9 9 9 9 9 9 9 9 9 9 9 9 9 9 9 9 9 9 9 9 9 9 9 9 9 9 9 9 9 9 9 9 9 9 9 9 9 9 9 9 e e e e e e 9 9 t e e t t e e t 9 9 9 9 9 9 9 9 9 9 9 9 9 9 9 9 9 9 9 9 9 9 9 9 9 9 9 9 9 9 9 9 9 9 9 9 9 9 9 9 9 9 9 9 9 9 9 9 9 9 9 9 9 9 9 9 9 9 9 9 9 9 9 9 9 9 9 9 9 9 9 9 9 9 9 9 9 9 9 9 9 9 9 9 9 9 9 9 e e e e e 9 5 5 e e e e e t t t 9 9 9 9 9 9 9 9 9 9 9 9 9 9 9 9 9 9 9 9 9 9 9 9 9 9 9 9 9 9 9 9 9 9 9 9 9 9 9 9 9 9 9 9 9 9 9 9 9 9 9 9 9 9 9 9 9 9 9 9 9 9 9 9 e e 9 9 9 e e e d t 9 9 e e 9 5 e e e e e d d d 9 9 9 9 9 9 9 9 9 9 9 9 9 9 9 9 9 9 9 9 9 9 9 9 9 9 9 9 9 9 9 9 9 9 9 9 9 9 9 9 9 9 9 9 9 9 9 9 9 9 9 9 9 9 9 9 9 9 9 9 9 9 9 9 9 9 e e e e e e h d t e e e 9 5 9 9 9 9 9 9 e e 9 9 9 9 9 9 9 9 ",
"e e e 9 t d d e e e t e 9 5 5 9 e e e e e e e e e e e e e e e e e e e e e e e e e e e e e e e e e e e e e e e e e e e e e e e e e e e e e e e e t t e e e d t e 9 e t e 9 5 9 9 e e e e e e e e e e e e e e e e e e e e e e e e e e e e e e e e e e e e e e e e e e e e e e e e e e e e e e e e e e e e e e e e e e e e e e e e e e e e e e e e e e e 9 9 9 9 e e e e t t d t e 5 5 1 5 9 9 5 5 e e e e e e e e e e e e e e e e e e e e e e e e e e e e e e e e e e e e e e e e e e e e e e e e e e e e e e e e e e e e e e e e t t t t e e e e = 5 9 5 5 e 9 1 d d t e 9 e e e e e e e e e e e e e e e e e e e e e e e e e e e e e e e e e e e e e e e e e e e e e e e e e e e e e e e e e e e e e e e e e e e t t t t e e 9 5 1 9 e e e e 9 1 e t d d t e e t e e e e e e e e e e e e e e e e e e e e e e e e e e e e e e e e e e e e e e e e e e e e e e e e e e e e e e e e e e e e e e e e e 9 9 9 e e 9 9 e 9 5 9 9 9 9 e e e e e e e e e e e e e e e e e e e e e e e e e e e e e e e e e e e e e e e e e e e e e e e e e e e e e e e e e e e e e e e e e e e e e e e e e e e e e e e e e d t t e e 9 e e t 9 5 e e e t l 9 9 5 5 9 e 9 9 e e e e e e e e e e e e e e e e e e e e e e e e e e e e e e e e e e e e e e e e e e e e e e e e e e e e e e e e e e e e e e e e t t e e e 9 9 9 t e e e t t t t 5 9 9 5 5 9 9 9 e e e e e e e e e e e e e e e e e e e e e e e e e e e e e e e e e e e e e e e e e e e e e e e e e e e e e e e e e e e e e e e e t t t t e e e e 1 5 9 e t e 9 5 t t d t e 9 e t e e e e e e e e ",
"t e e t t e 5 5 e e e e e t d h e e e e e e e e e e e e e e e e e e e e e e e e e e e e e e e e e e e e e e e e e e e e e e e e e e e e e e e e e 9 e t t e 9 5 e t t e 9 t d h e e e e e e e e e e e e e e e e e e e e e e e e e e e e e e e e e e e e e e e e e e e e e e e e e e e e e e e e e e e e e e e e e e e e e e e e e e e e e e e e 9 9 9 9 e e t t 5 e d t 9 9 e e h d t t t t t t e e e e e e e e e e e e e e e e e e e e e e e e e e e e e e e e e e e e e e e e e e e e e e e e e e e e e e e e e e e e e e e e 5 9 e e 9 9 e t d d t 9 e d h d 5 5 9 e e e e 9 e e e e e e e e e e e e e e e e e e e e e e e e e e e e e e e e e e e e e e e e e e e e e e e e e e e e e e e e e e e e e e e e 9 9 9 e e e 9 9 d t 9 9 t l h t 9 9 e t t e e t e e e e e e e e e e e e e e e e e e e e e e e e e e e e e e e e e e e e e e e e e e e e e e e e e e e e e e e e e e e e e e e e e 9 5 9 e t e e e t t e e t t t e e e e e e e e e e e e e e e e e e e e e e e e e e e e e e e e e e e e e e e e e e e e e e e e e e e e e e e e e e e e e e e e e e e e e e e e e e e e e e e e e e e e e e t t 9 9 e d d e e t d d t t d d t e e e e e e e e e e e e e e e e e e e e e e e e e e e e e e e e e e e e e e e e e e e e e e e e e e e e e e e e e e e e e e e e e 5 5 9 9 9 9 9 9 5 9 t e 9 5 9 e e d d t t t e 5 e e e e e e e e e e e e e e e e e e e e e e e e e e e e e e e e e e e e e e e e e e e e e e e e e e e e e e e e e e e e e e e e 5 5 5 9 9 e e e t t t t t t d l 5 9 e t e e e e e e e e e e e e ",
"t e e t e 1 5 d 1 > > 1 9 9 5 1 9 9 9 9 9 9 9 9 9 9 9 9 9 9 9 9 9 9 9 9 9 9 9 9 9 9 9 9 9 9 9 9 9 9 9 9 9 9 9 9 9 9 9 9 9 9 9 9 9 9 9 9 9 9 9 9 e 9 9 t e 5 9 h 1 5 5 1 9 e 9 > 9 9 9 9 9 9 9 9 9 9 9 9 9 9 9 9 9 9 9 9 9 9 9 9 9 9 9 9 9 9 9 9 9 9 9 9 9 9 9 9 9 9 9 9 9 9 9 9 9 9 9 9 9 9 9 9 9 9 9 9 9 9 9 9 9 9 9 9 9 9 9 9 9 9 9 9 9 9 9 9 5 5 9 9 e 9 9 9 t t e 5 5 9 9 5 1 1 5 5 1 1 9 t 9 9 9 9 9 9 9 9 9 9 9 9 9 9 9 9 9 9 9 9 9 9 9 9 9 9 9 9 9 9 9 9 9 9 9 9 9 9 9 9 9 9 9 9 9 9 9 9 9 9 9 9 9 9 9 9 9 9 9 9 9 9 9 9 9 e e e 9 9 e t d 5 > 5 9 1 > 1 t 9 5 5 e e e 9 9 9 9 9 9 9 9 9 9 9 9 9 9 9 9 9 9 9 9 9 9 9 9 9 9 9 9 9 9 9 9 9 9 9 9 9 9 9 9 9 9 9 9 9 9 9 9 9 9 9 9 9 9 9 9 9 9 9 9 9 9 9 9 9 e e 9 9 9 e t t 9 e e 1 > 1 5 1 t 9 5 5 9 9 9 9 9 9 9 9 9 9 9 9 9 9 9 9 9 9 9 9 9 9 9 9 9 9 9 9 9 9 9 9 9 9 9 9 9 9 9 9 9 9 9 9 9 9 9 9 9 9 9 9 9 9 9 9 9 9 9 9 9 9 9 9 9 9 9 9 d e 9 9 e t t e 1 e e 5 1 9 9 > 9 9 9 9 9 9 9 9 9 9 9 9 9 9 9 9 9 9 9 9 9 9 9 9 9 9 9 9 9 9 9 9 9 9 9 9 9 9 9 9 9 9 9 9 9 9 9 9 9 9 9 9 9 9 9 9 9 9 9 9 9 9 9 9 9 9 9 9 9 9 9 9 9 9 9 9 9 9 9 9 5 5 9 9 e 9 9 9 9 t t 9 9 e 9 > = 1 5 9 5 5 5 9 9 9 9 9 9 9 9 9 9 9 9 9 9 9 9 9 9 9 9 9 9 9 9 9 9 9 9 9 9 9 9 9 9 9 9 9 9 9 9 9 9 9 9 9 9 9 9 9 9 9 9 9 9 9 9 9 9 9 9 9 9 9 9 9 9 9 e t t e e 9 e e e e e 9 5 1 1 9 9 1 5 e t e 9 9 9 9 9 9 9 9 9 9 9 9 9 9 9 9 9 9 9 9 9 9 9 9 9 9 9 9 9 9 9 9 9 9 9 9 9 9 9 9 9 9 9 9 9 9 9 9 9 9 9 9 9 9 9 9 9 9 9 9 9 9 9 9 e 9 9 9 9 e e t e 9 9 9 1 = > 5 t 9 5 5 9 e e 9 9 9 9 9 9 9 9 9 ",
"t 9 9 t 9 5 l ^ :.&.&.:.<.$.W B B B B B B B B B B B B B B B B B B B B B B B B B B B B B B B B B B B B B B B B B B B B B B B B B B B B B B B B B h e e t 9 5 h W :.:.:.:.<.:.( A B B B B B B B B B B B B B B B B B B B B B B B B B B B B B B B B B B B B B B B B B B B B B B B B B B B B B B B B B B B B B B B B B B B B B B B B B B B B B B B B B A A B b d e 5 t 9 1 d W <.6.&.:.:.&.' D b b A B B B B B B B B B B B B B B B B B B B B B B B B B B B B B B B B B B B B B B B B B B B B B B B B B B B B B B B B B B B B B B B B B B B l d e 9 e 9 1 h $.w.:.$.:.<. .P A A A A B B B B B B B B B B B B B B B B B B B B B B B B B B B B B B B B B B B B B B B B B B B B B B B B B B B B B B B B B B B B B B B B B A b h t e e e t 1 D :.6.&.$.&.<.' K B B D D B B B B B B B B B B B B B B B B B B B B B B B B B B B B B B B B B B B B B B B B B B B B B B B B B B B B B B B B B B B B B B B B B B l h e e e e e 9  .<.<.$.$.:.$.^ B B B B B B B B B B B B B B B B B B B B B B B B B B B B B B B B B B B B B B B B B B B B B B B B B B B B B B B B B B B B B B B B B B B B B B B B B B B B B B B B B B A A B l t e 5 d t > t ( <.<.&.<.<.$.W A B B B B B B B B B B B B B B B B B B B B B B B B B B B B B B B B B B B B B B B B B B B B B B B B B B B B B B B B B B B B B B B B B B B B B b l d e 5 e 5 9 B ..6.6.$.<.:.' D b B A B B B B B B B B B B B B B B B B B B B B B B B B B B B B B B B B B B B B B B B B B B B B B B B B B B B B B B B B B B B B B B B B B A B l d t e e e 5 h W &.<.:.&.:.&.( A b B A A B B B B B B B B B ",
"e 9 9 e e e 5 &.f.y.y.p.0.f. .A D D D D D D D D D D D D D D D D D D D D D D D D D D D D D D D D D D D D D D D D D D D D D D D D D D D D D D D D t e 9 t 9 9 9 ' k.0.p.y.w.f.&.A D D D D D D D D D D D D D D D D D D D D D D D D D D D D D D D D D D D D D D D D D D D D D D D D D D D D D D D D D D D D D D D D D D D D D D D D D D D D D D D D A D A A K e e e t 9 t 5 ' p.w.w.y.y.p.:.B K D K D D D D D D D D D D D D D D D D D D D D D D D D D D D D D D D D D D D D D D D D D D D D D D D D D D D D D D D D D D D D D D D D A K A A 9 e e e t e t p.y.y.p.y.w.f.P K D K K D D D D D D D D D D D D D D D D D D D D D D D D D D D D D D D D D D D D D D D D D D D D D D D D D D D D D D D D D D D D D D D D D A P d 9 t e e e 9 P k.w.y.y.0.f.<.B P A D D A D D D D D D D D D D D D D D D D D D D D D D D D D D D D D D D D D D D D D D D D D D D D D D D D D D D D D D D D D D D D D D D D D A 9 e t 9 t e 9 <.f.w.p.y.y.f.' A D K D D D D D D D D D D D D D D D D D D D D D D D D D D D D D D D D D D D D D D D D D D D D D D D D D D D D D D D D D D D D D D D D D D D D D D D D D D D D D A D A D A D 9 e 9 t e e 5 <.w.w.y.y.w.f.' D K K D D D D D D D D D D D D D D D D D D D D D D D D D D D D D D D D D D D D D D D D D D D D D D D D D D D D D D D D D D D D D D D D D D A K l 9 t e t e e b f.0.p.y.w.y.w.K D D D K D D D D D D D D D D D D D D D D D D D D D D D D D D D D D D D D D D D D D D D D D D D D D D D D D D D D D D D D D D D D D D D D D A K e e e e 9 t 9 ..p.y.p.w.y.p.&.B K D K K D D D D D D D D D ",
"e 9 9 e e e 5 &.p.w.w.y.6.p.' B D D D D D D D D D D D D D D D D D D D D D D D D D D D D D D D D D D D D D D D D D D D D D D D D D D D D D D D D t e 9 t 9 9 9 ' p.6.y.w.0.p.$.B D D D D D D D D D D D D D D D D D D D D D D D D D D D D D D D D D D D D D D D D D D D D D D D D D D D D D D D D D D D D D D D D D D D D D D D D D D D D D D D D A D A A K e e e t 9 t 5 ' p.w.w.w.w.y.&.b D A A D D D D D D D D D D D D D D D D D D D D D D D D D D D D D D D D D D D D D D D D D D D D D D D D D D D D D D D D D D D D D D D D A K A A 9 e e e e 9 e y.w.w.w.w.w.p.P D A D K D D D D D D D D D D D D D D D D D D D D D D D D D D D D D D D D D D D D D D D D D D D D D D D D D D D D D D D D D D D D D D D D D A P d 9 t e e e 5 K f.0.w.w.6.y.<.B P A D D A D D D D D D D D D D D D D D D D D D D D D D D D D D D D D D D D D D D D D D D D D D D D D D D D D D D D D D D D D D D D D D D D D A 9 e t 9 t e 9 :.y.0.w.w.w.p.( A D K D D D D D D D D D D D D D D D D D D D D D D D D D D D D D D D D D D D D D D D D D D D D D D D D D D D D D D D D D D D D D D D D D D D D D D D D D D D D D A D A D A D 9 e 9 t e e 5 <.w.w.w.w.0.p.^ A D D D D D D D D D D D D D D D D D D D D D D D D D D D D D D D D D D D D D D D D D D D D D D D D D D D D D D D D D D D D D D D D D D D D A K l 9 t e e e e b f.0.y.w.w.y.w.K D D D D D D D D D D D D D D D D D D D D D D D D D D D D D D D D D D D D D D D D D D D D D D D D D D D D D D D D D D D D D D D D D D D D D A K e e e e 9 e 5  .y.w.y.0.w.p.&.B K D K D D D D D D D D D D ",
"e 9 9 e e e 5 &.y.0.0.w.6.y.' B D D D D D D D D D D D D D D D D D D D D D D D D D D D D D D D D D D D D D D D D D D D D D D D D D D D D D D D D t e 9 t 9 9 9 ' p.<.w.w.0.y...B D D D D D D D D D D D D D D D D D D D D D D D D D D D D D D D D D D D D D D D D D D D D D D D D D D D D D D D D D D D D D D D D D D D D D D D D D D D D D D D D A D A A K e e e t 9 t 5 ' p.w.w.0.0.w.$.l D A A D D D D D D D D D D D D D D D D D D D D D D D D D D D D D D D D D D D D D D D D D D D D D D D D D D D D D D D D D D D D D D D D A K A A 9 e e e e 9 e w.0.0.0.0.0.p.K D A A D A D D D D D D D D D D D D D D D D D D D D D D D D D D D D D D D D D D D D D D D D D D D D D D D D D D D D D D D D D D D D D D D D A P d 9 t e e e 1 D p.6.w.w.6.y.<.B P A D D A D D D D D D D D D D D D D D D D D D D D D D D D D D D D D D D D D D D D D D D D D D D D D D D D D D D D D D D D D D D D D D D D D A 9 e t 9 t e 9 :.y.6.w.w.0.y.( B D K D D D D D D D D D D D D D D D D D D D D D D D D D D D D D D D D D D D D D D D D D D D D D D D D D D D D D D D D D D D D D D D D D D D D D D D D D D D D D A D A D A D 9 e 9 t e e 5 <.w.w.w.w.0.p.^ B A A D D D D D D D D D D D D D D D D D D D D D D D D D D D D D D D D D D D D D D D D D D D D D D D D D D D D D D D D D D D D D D D D D D A K l 9 t e e 9 9 l p.6.w.w.0.w.0.D A A A A D D D D D D D D D D D D D D D D D D D D D D D D D D D D D D D D D D D D D D D D D D D D D D D D D D D D D D D D D D D D D D D D D A K e e e e 9 e 1  .y.0.w.6.w.y.$.b D D D D D D D D D D D D D ",
"e 9 9 e e e 5 &.y.w.w.y.6.p.' B D D D D D D D D D D D D D D D D D D D D D D D D D D D D D D D D D D D D D D D D D D D D D D D D D D D D D D D D t e 9 t 9 9 9 ' p.6.y.w.0.y.$.B D D D D D D D D D D D D D D D D D D D D D D D D D D D D D D D D D D D D D D D D D D D D D D D D D D D D D D D D D D D D D D D D D D D D D D D D D D D D D D D D A D A A K e e e t 9 t 5 ' p.w.w.w.w.y.&.b D A A D D D D D D D D D D D D D D D D D D D D D D D D D D D D D D D D D D D D D D D D D D D D D D D D D D D D D D D D D D D D D D D D A K A A 9 e e e e e e y.w.0.w.0.0.p.K A A A D A D D D D D D D D D D D D D D D D D D D D D D D D D D D D D D D D D D D D D D D D D D D D D D D D D D D D D D D D D D D D D D D D A P d 9 t e e e 5 K f.0.w.w.6.y.<.B K A D D A D D D D D D D D D D D D D D D D D D D D D D D D D D D D D D D D D D D D D D D D D D D D D D D D D D D D D D D D D D D D D D D D D A 9 e t 9 t e 9 :.y.0.w.w.w.y.( B D D D D D D A D D D D D D D D D D D D D D D D D D D D D D D D D D D D D D D D D D D D D D D D D D D D D D D D D D D D D D D D D D D D D D D D D D D D D D D D A D A D A D 9 e 9 t e e 5 <.w.w.w.w.0.p.^ A D D D D D D D D D D D D D D D D D D D D D D D D D D D D D D D D D D D D D D D D D D D D D D D D D D D D D D D D D D D D D D D D D D D D A K l 9 t e e e 9 l p.6.w.0.0.w.0.D A A A A D D D D D D D D D D D D D D D D D D D D D D D D D D D D D D D D D D D D D D D D D D D D D D D D D D D D D D D D D D D D D D D D D A K e e e e 9 e 5  .y.0.y.0.w.y.$.b D A D D D D D D D D D D D ",
"e 9 9 e e e 5 &.p.w.w.y.6.p.' B D D D D D D D D D D D D D D D D D D D D D D D D D D D D D D D D D D D D D D D D D D D D D D D D D D D D D D D D t e 9 t 9 9 9 ' f.6.y.w.0.p.$.B D D D D D D D D D D D D D D D D D D D D D D D D D D D D D D D D D D D D D D D D D D D D D D D D D D D D D D D D D D D D D D D D D D D D D D D D D D D D D D D D A D A A K e e e t 9 t 5 ' p.w.w.w.w.y.&.b D A D D D D D D D D D D D D D D D D D D D D D D D D D D D D D D D D D D D D D D D D D D D D D D D D D D D D D D D D D D D D D D D D D A D A A 9 e e e t e t y.w.0.w.0.0.p.K D A D D A D D D D D D D D D D D D D D D D D D D D D D D D D D D D D D D D D D D D D D D D D D D D D D D D D D D D D D D D D D D D D D D D A P d 9 t e e e 5 K f.0.w.y.6.p.<.B K A D D A D D D D D D D D D D D D D D D D D D D D D D D D D D D D D D D D D D D D D D D D D D D D D D D D D D D D D D D D D D D D D D D D D A 9 e t 9 t e 9 :.p.0.y.w.w.p.( B D D D A D D A D D D D D D D D D D D D D D D D D D D D D D D D D D D D D D D D D D D D D D D D D D D D D D D D D D D D D D D D D D D D D D D D D D D D D D D D A D A D A D 9 e 9 t e e 5 <.w.w.w.w.0.f.( A D D D D D D D D D D D D D D D D D D D D D D D D D D D D D D D D D D D D D D D D D D D D D D D D D D D D D D D D D D D D D D D D D D D D A K l 9 t e e e e b p.6.w.0.0.w.0.D A A A D D D D D D D D D D D D D D D D D D D D D D D D D D D D D D D D D D D D D D D D D D D D D D D D D D D D D D D D D D D D D D D D D D A K e e e e 9 e 5  .p.w.y.0.w.y.$.b D A D D D D D D D D D D D ",
"e 9 9 e e e 5 &.y.w.w.y.6.p.' B A A A A A A A A A A A A A A A A A A A A A A A A A A A A A A A A A A A A A A A A A A A A A A A A A A A A D D A A t e 9 t 9 9 9 ' p.6.y.w.0.y...B A A A A A A A A A A A A A A A A A A A A A A A A A A A A A A A A A A A A A A A A A A A A A A A A A A A A A A A A A A A A A A A A A A A A A A A A A A A A A A A A A D A A K e e e t 9 t 5 ' p.w.w.w.w.y.&.b D A A A A A A A A A A A A A A A A A A A A A A A A A A A A A A A A A A A A A A A A A A A A A A A A A A A A A A A A A A A A A A A A A A A D A A 9 e e e e 9 e y.w.0.w.0.0.p.P D A D D A A A A A A A A A A A A A A A A A A A A A A A A A A A A A A A A A A A A A A A A A A A A A A A A A A A A A A A A A A A A A A A A A A P d 9 t e e e 5 K f.6.w.w.6.y.<.B K B D D A D A A A A A A A A A A A A A A A A A A A A A A A A A A A A A A A A A A A A A A A A A A A A A A A A A A A A A A A A A A A A A A A A A 9 e t 9 t e 9 :.y.0.w.w.w.y.( B D D D A D D A A A A A A A A A A A A A A A A A A A A A A A A A A A A A A A A A A A A A A A A A A A A A A A A A A A A A A A A A A A A A A A A A A A A A A A A A A D A D A D 9 e 9 t e e 5 <.w.w.w.w.0.p.^ B D D A A A A A A A A A A A A A A A A A A A A A A A A A A A A A A A A A A A A A A A A A A A A A A A A A A A A A A A A A A A A A A A A D D A K l 9 t e e e e b p.6.w.w.w.w.0.D A D D D A A A A A A A A A A A A A A A A A A A A A A A A A A A A A A A A A A A A A A A A A A A A A A A A A A A A A A A A A A A A A A A A D A K e e e e 9 e 5  .y.0.y.6.w.y.$.b D A D D D A A A A A A A A ",
"e 9 9 e e e 5 &.y.0.w.y.6.p.' B A A A A A A A A A A A A A A A A A A A A A A A A A A A A A A A A A A A A A A A A A A A A A A A A A A A A A A A A t e 9 t 9 9 9 ' p.6.w.w.0.y...B A A A A A A A A A A A A A A A A A A A A A A A A A A A A A A A A A A A A A A A A A A A A A A A A A A A A A A A A A A A A A A A A A A A A A A A A A A A A A A A A A D A A K e e e t 9 t 5 ' p.w.w.0.w.w.&.b D A A A A A A A A A A A A A A A A A A A A A A A A A A A A A A A A A A A A A A A A A A A A A A A A A A A A A A A A A A A A A A A A A A A K A A 9 e e e e 9 e y.w.0.w.w.0.p.P D A D D A A A A A A A A A A A A A A A A A A A A A A A A A A A A A A A A A A A A A A A A A A A A A A A A A A A A A A A A A A A A A A A A A A P d 9 t e e e 5 K f.6.w.w.6.y.<.B K B D D A D A A A A A A A A A A A A A A A A A A A A A A A A A A A A A A A A A A A A A A A A A A A A A A A A A A A A A A A A A A A A A A A A A 9 e t 9 t e 9 :.y.0.w.w.w.y.( B A D D A D D A A A A A A A A A A A A A A A A A A A A A A A A A A A A A A A A A A A A A A A A A A A A A A A A A A A A A A A A A A A A A A A A A A A A A A A A A A D A D A D 9 e 9 t e e 5 <.w.w.w.w.0.p.^ B A D A A A A A A A A A A A A A A A A A A A A A A A A A A A A A A A A A A A A A A A A A A A A A A A A A A A A A A A A A A A A A A A A D D A K l 9 t e e 9 9 b p.6.y.w.w.w.0.D A D D D A A A A A A A A A A A A A A A A A A A A A A A A A A A A A A A A A A A A A A A A A A A A A A A A A A A A A A A A A A A A A A A A D A K e e e e 9 e 1  .y.0.w.6.w.y.$.b D A D D D A A A A A A A A ",
"e 9 9 e e e 5 &.p.w.w.y.6.p.' B A A A A A A A A A A A A A A A A A A A A A A A A A A A A A A A A A A A A A A A A A A A A A A A A A A A A A A D A t e 9 t 9 9 9 ' f.6.y.w.0.p.$.B A A A A A A A A A A A A A A A A A A A A A A A A A A A A A A A A A A A A A A A A A A A A A A A A A A A A A A A A A A A A A A A A A A A A A A A A A A A A A A A A A D A A K e e e t 9 t 5 ' p.w.w.w.w.y.&.b D A A A A A A A A A A A A A A A A A A A A A A A A A A A A A A A A A A A A A A A A A A A A A A A A A A A A A A A A A A A A A A A A A A A K A A 9 e e e e 9 e y.w.w.y.w.0.p.K D A A D A A A A A A A A A A A A A A A A A A A A A A A A A A A A A A A A A A A A A A A A A A A A A A A A A A A A A A A A A A A A A A A A A A P d 9 t e e e 5 K f.0.w.w.6.y.<.B K B D D A D A A A A A A A A A A A A A A A A A A A A A A A A A A A A A A A A A A A A A A A A A A A A A A A A A A A A A A A A A A A A A A A A A 9 e t 9 t e 9 :.p.0.y.w.w.p.( B A D D A D D A A A A A A A A A A A A A A A A A A A A A A A A A A A A A A A A A A A A A A A A A A A A A A A A A A A A A A A A A A A A A A A A A A A A A A A A A A D A D A D 9 e 9 t e e 5 <.w.w.w.w.0.p.^ A D D A A A A A A A A A A A A A A A A A A A A A A A A A A A A A A A A A A A A A A A A A A A A A A A A A A A A A A A A A A A A A A A A D D A K l 9 t e e 9 9 l p.6.y.w.0.w.0.D A A A D A A A A A A A A A A A A A A A A A A A A A A A A A A A A A A A A A A A A A A A A A A A A A A A A A A A A A A A A A A A A A A A A D A K e e e e 9 e 5  .y.w.y.0.w.y.$.b D D D D D A A A A A A A A ",
"e 9 9 e e e 5 &.y.w.w.y.6.p.' B D D D D D D D D D D D D D D D D D D D D D A D D D D A D A D D D D D D D D D A A D D D D D D D D D D D D D D D D t 9 e t 9 t 5  .p.6.y.w.0.y.$.B D D D D D D A A D D D D D D A A D D D D D D D D D D D D D D D D D D D D D D D D D D D D D A D D D D A D A D D D D D D D D D A A D D D D D D D D D D D D D D D D A D A A K e e e e 5 t 1 ' p.0.w.w.w.y.&.b D A D D D D D D D A A D D D D D D D D D D D D D D D D D D D D D D D D D D D D D A D D D D A D A D D D D D D D D D A A D D D D D D D D A D A B 5 e e e e e e y.w.w.w.w.w.y.W A A K A D D D D D D D A A D D D D D D A A D D D D D D D D D D D D D D D D D D D D D D D D D D D D D A D D D D A D A D D D D D D D D D D D A P d 9 t e e e 5 K f.0.w.w.6.y.<.B K B D D A D D D D D D D D D D D D D D D A A D D D D D D A A D D D D D D D D D D D D D D D D D D D D D D D D D D D D D A D D D D A D A D D D A 9 e t 9 t e 9 :.y.0.w.w.w.y.( B D D D A D D D D D D D D D A A D D D D A D D D D D D D D D A A D D D D D D A A D D D D D D D D D D D D D D D D D D D D D D D D D D D D D A D D D D A D A D D D A D A D A D 9 e 9 t e e 5 :.w.w.w.w.w.f.( A D D D D D D D D A A D D D D A D D D D D D D D D A A D D D D D D A A D D D D D D D D D D D D D D D D D D D D D D D D D D D D D A D D A A A K l 9 t 9 e e 9 l p.0.y.w.w.w.0.D A D D D D D D D D D D D D D D D D D A A D D D D A D D D D D D D D D A A D D D D D D A A D D D D D D D D D D D D D D D D D D D D D D D D D A K e e e e 9 e 5  .y.w.y.0.w.y.$.b D A D D D D D D D D D D D ",
"e 9 9 e e e 5 &.y.w.w.y.6.p.' B D D D D D D D D D D D D D D A A D D D D A A D D D D D D A D D D D A A D D D D D D D D D D D D D D D D D D D D D t 9 e t 9 t 5  .p.6.y.w.0.y.$.B A D A D D D D D D A A D D D D D D D D D D D D D D D D D D D D D D D D D D D A A D D D D A A D D D D D D A D D D D A A D D D D D D D D D D D D D D D D D D D D D A D A A K e e e e 5 t 1 ' p.0.w.w.w.y.&.b D A D D A A D D D D D D D D D D D D D D D D D D D D D D D D D D D A A D D D D A A D D D D D D A D D D D A A D D D D D D D D D D D D D A D A B 5 e e e e e e y.w.w.w.w.w.y.W A A K A D A D A D D D D D D A A D D D D D D D D D D D D D D D D D D D D D D D D D D D A A D D D D A A D D D D D D A D D D D D D D D D D D A P d 9 t e e e 5 K f.0.w.w.6.y.<.B K B D D A D D D D D D D D D A D A D D D D D D A A D D D D D D D D D D D D D D D D D D D D D D D D D D D A A D D D D A A D D D D D D A D D D A 9 e t 9 t e 9 :.y.0.w.w.w.y.( B D D D A D D D A D A D D D D D D D D D A D D D A D A D D D D D D A A D D D D D D D D D D D D D D D D D D D D D D D D D D D A A D D D D A A D D D D D D A D D D A D A D A D 9 e 9 t e e 5 :.w.w.w.w.w.f.( A D D A D A D D D D D D D D D A D D D A D A D D D D D D A A D D D D D D D D D D D D D D D D D D D D D D D D D D D A A D D D D A A D D A A A K l 9 t 9 e e 9 l p.0.y.w.w.w.0.D A D D D D D D D D D D D A D A D D D D D D D D D A D D D A D A D D D D D D A A D D D D D D D D D D D D D D D D D D D D D D D D D D D A A D A K e e e e 9 e 5  .y.w.y.0.w.y.$.b D A D D D D D D D D D D D ",
"e 9 9 e e e 5 &.y.w.w.y.6.p.' B D D D D D D A D D D D D D D D D D D D D D D D D D D D D D D D D D D D D D D D D D D D D D D D D D D D D D D D D t 9 e t 9 t 5  .p.6.y.w.0.y.$.B D D D D D D D D D D D D D D D D D D D D D D D D D D D D D D A D D D D D D D D D D D D D D D D D D D D D D D D D D D D D D D D D D D D D D D D D D D D D D D D D A D A A K e e e e 5 t 1 ' p.0.w.w.w.y.&.b D A D D D D D D D D D D D D D D D D D D D D D D D A D D D D D D D D D D D D D D D D D D D D D D D D D D D D D D D D D D D D D D D D D A D A B 5 e e e e e e y.w.w.w.w.w.y.W A B K A A D D D D D D D D D D D D D D D D D D D D D D D D D D D D D D A D D D D D D D D D D D D D D D D D D D D D D D D D D D D D D D D D A P d 9 t e e e 5 K f.0.w.w.6.y.<.B K A D D A D D D D D D D D D D D D D D D D D D D D D D D D D D D D D D D D D D D D D D D A D D D D D D D D D D D D D D D D D D D D D D D D D A 9 e t 9 t e 9 :.y.0.w.w.w.y.( B D D D A D D D D D D D D D D D D D D D D D D D D D D D D D D D D D D D D D D D D D D D D D D D D D D D D D A D D D D D D D D D D D D D D D D D D D D D D D D D A D A D A D 9 e 9 t e e 5 :.w.w.w.w.0.f.( A D D D D D D D D D D D D D D D D D D D D D D D D D D D D D D D D D D D D D D D D D D D D D D D D A D D D D D D D D D D D D D D D D D A A A K l 9 t 9 e e 9 l p.0.y.w.w.w.0.D A D D D D D D D D D D D D D D D D D D D D D D D D D D D D D D D D D D D D D D D D D D D D D D D D D D D D D D D D D A D D D D D D D D D D A K e e e e 9 e 5  .y.w.y.0.w.y.$.b D A D D D D D D D D D D D ",
"e 9 9 e e e 5 &.y.w.w.y.6.p.' B D D D D D A A D A D D D D D D D D D D A D D D D D D D D D D D D D D D D D D D D D D D A D D D D D D D D D D D D t 9 e t 9 t 5  .p.6.y.w.0.y.$.B D D D D D D D D D D D D D D D D D D D A D D D D D D D D D A A D A D D D D D D D D D D A D D D D D D D D D D D D D D D D D D D D D D D A D D D D D D D D D D D D A D A A K e e e e 5 t 1 ' p.0.w.w.w.y.&.b D A D D D D D D D D D D D D A D D D D D D D D D A A D A D D D D D D D D D D A D D D D D D D D D D D D D D D D D D D D D D D A D D D D A D A B 5 e e e e e e y.w.w.w.w.w.y.W A B K A D D D D D D D D D D D D D D D D D D D D A D D D D D D D D D A A D A D D D D D D D D D D A D D D D D D D D D D D D D D D A A D D D A P d 9 t e e e 5 K f.0.w.w.6.y.<.B K A D D A D D D D D D D D D D D D D D D D D D D D D D D D D D D D A D D D D D D D D D A A D A D D D D D D D D D D A D D D D D D D D D D D D A 9 e t 9 t e 9 :.y.0.w.w.w.y.( B D D D A D D D D D D D D D D D D D D D D D D D D D D D D D D D D D D D D D D D D D D A D D D D D D D D D A A D A D D D D D D D D D D A D D D D D D D D D D D D A D A D A D 9 e 9 t e e 5 :.w.w.w.w.w.f.( A D D D D D D D D D D D D D D D D D D D D D D D D D D D D D D D D D D D D D A D D D D D D D D D A A D A D D D D D D D D D D A D D D D A A A K l 9 t 9 e e 9 l p.0.y.w.w.w.0.D A D D D D D D D D D D D D D D D D D D D D D D D D D D D D D D D D D D D D D D D D D D D D D D A D D D D D D D D D A A D A D D D D D D D D A K e e e e 9 e 5  .y.w.y.0.w.y.$.b D A D D D D D D A D D D D ",
"e 9 9 e e e 5 &.y.w.w.y.6.p.' B D D D D D A D D A D D D D D D D D D D D D D D D D D D D D D D D D D D D D D D D D A D D D D A D D D D D D D D D t 9 e t 9 t 5  .p.6.y.w.0.y.$.B D D D D D D D D D D D D D D D D D A D D D D A D D D D D D A D D A D D D D D D D D D D D D D D D D D D D D D D D D D D D D D D D D A D D D D A D D D D D D D D D A D A A K e e e e 5 t 1 ' p.0.w.w.w.y.&.b D A D D D D D D D D D D A D D D D A D D D D D D A D D A D D D D D D D D D D D D D D D D D D D D D D D D D D D D D D D D A D D D D A D A D A B 5 e e e e e e y.w.w.w.w.0.y.W A B K A D D D D D D D D D D D D D D D D D D A D D D D A D D D D D D A D D A D D D D D D D D D D D D D D D D D D D D D D D D D D D D D D D A P d 9 t e e e 5 K f.0.w.w.6.y.<.B K A D D A D D D A A D A D D D D D D D D D D D D D D D D D D D A D D D D A D D D D D D A D D A D D D D D D D D D D D D D D D D D D D D D D D A 9 e t 9 t e 9 :.y.0.w.w.w.y.( B D D D A D D D D D D D D D D D D D D D D D D D D D D D D D D D D D D D D D D D D A D D D D A D D D D D D A D D A D D D D D D D D D D D D D D D D D D D D D D D A D A D A D 9 e 9 t e e 5 :.w.w.w.w.0.f.( A D D D D D D D D D D D D D D D D D D D D D D D D D D D D D D D D D D D A D D D D A D D D D D D A D D A D D D D D D D D D D D D D D D A A A K l 9 t 9 e e 9 l p.0.y.w.w.w.0.D A D D D D D D D D D D D D D D D D D D D D D D D D D D D D D D D D D D D D D D D D D D D D A D D D D A D D D D D D A D D A D D D D D D D D A K e e e e 9 e 5  .y.w.y.0.w.y.$.b D A D D D D A D D D D A D ",
"e 9 9 e e e 5 &.y.w.w.y.6.p.' B D D D D D D D D A D D D D D D D D D D D D D D D D D D D D D D D D D D D D D D D A A D D D D D D D D D A A D D D t 9 e t 9 t 5  .p.6.y.w.0.y.$.B D D D D D D D D D D D D D D D D A A D D D D D D D D D D D D D D A D D D D D D D D D D D D D D D D D D D D D D D D D D D D D D D A A D D D D D D D D D A A D D D A D A A K e e e e 5 t 1 ' p.0.w.w.w.y.&.b D A A D D D D D D D D A A D D D D D D D D D D D D D D A D D D D D D D D D D D D D D D D D D D D D D D D D D D D D D D A A D D D D D D A D A B 5 e e e e e e y.w.w.w.w.0.y.W A B K A D D D D D D D D D D D D D D D D D A A D D D D D D D D D D D D D D A D D D D D D D D D D D D D D D D D D D D D D D A A D D D D D D A P d 9 t e e e 5 K f.0.w.w.6.y.<.B K A D D A D D D D A D D D D D D D D D D D D D D D D D D D D A A D D D D D D D D D D D D D D A D D D D D D D D D D D D D D D D D D D D D D D A 9 e t 9 t e 9 :.y.0.w.w.w.y.( B D D D A D D D D D D D D D D D D D D A D A D D D D D D D D D D D D D D D D D D A A D D D D D D D D D D D D D D A D D D D D D D D D D D D D D D D D D D D D D D A D A D A D 9 e 9 t e e 5 :.w.w.w.w.0.f.( A D D D D D D D D D D D D D A D A D D D D D D D D D D D D D D D D D D A A D D D D D D D D D D D D D D A D D D D D D D D D D D D D D D A A A K l 9 t 9 e e 9 l p.0.y.w.w.w.0.D A D D D D D D A A D D D D D D D D D D D D D D A D A D D D D D D D D D D D D D D D D D D A A D D D D D D D D D D D D D D A D D D D D D D D A K e e e e 9 e 5  .y.w.y.0.w.y.$.b D A D D D A A D D D D D D ",
"e 9 9 e e e 5 &.y.w.w.y.6.p.' B D D D D D D D D D D D D D D A A D D D D A D D D D D D D D A A D D D D A D D D D D D D D D D D D D D A A D D D D t 9 e t 9 t 5  .p.6.y.w.0.y.$.B D D D D D A D D D D D A D D D D D D D D D D D D D D D D D D D D D D D D D D A A D D D D A D D D D D D D D A A D D D D A D D D D D D D D D D D D D D A A D D D D A D A A K e e e e 5 t 1 ' p.0.w.w.w.y.&.b D A A D D D A D D D D D D D D D D D D D D D D D D D D D D D D D D A A D D D D A D D D D D D D D A A D D D D A D D D D D D D D D D D D A D A B 5 e e e e e e y.w.w.w.w.0.y.P A A K A D D D D D D A D D D D D A D D D D D D D D D D D D D D D D D D D D D D D D D D A A D D D D A D D D D D D D D A A D D D D D D D D D A P d 9 t e e e 5 K f.0.y.y.6.p.<.B K A D D A D D D D D D D D D D D D D D A D D D D D A D D D D D D D D D D D D D D D D D D D D D D D D D D A A D D D D A D D D D D D D D A A D A 9 e t 9 t e 9 :.y.0.w.w.w.y.( B D D D A D D D D D D D D A D D D D D A D D D D D D D D D A D D D D D A D D D D D D D D D D D D D D D D D D D D D D D D D D A A D D D D A D D D D D D D D A A D A D A D A D 9 e 9 t e e 5 :.w.w.w.w.0.f.^ A D A D D D D D A D D D D D A D D D D D D D D D A D D D D D A D D D D D D D D D D D D D D D D D D D D D D D D D D A A D D D D A D D D A A A K l 5 e 9 e e 9 l p.0.y.w.w.w.0.D A D D D D D A A D D D D D D D D D A D D D D D A D D D D D D D D D A D D D D D A D D D D D D D D D D D D D D D D D D D D D D D D D D A A D A K e e e e 9 e 5  .y.w.y.0.w.y.$.b D A D D D D D D D D D D D ",
"e 9 9 e e e 5 &.y.w.w.y.6.p.' B D D D D D D D D D D D D D D D D D D D D D D D D A A D D D D D D D D D A D A D D D D D D D D D D D D D D D D D D t 9 e t 9 e 5  .p.6.y.w.0.y.$.B D D D D D D D D D D D A D A D D D D D D D D D D D D D D D D D D D D D D D D D D D D D D D D D D A A D D D D D D D D D A D A D D D D D D D D D D D D D D D D D D A D A A K e e e e 5 t 1 ' p.0.w.w.w.y.&.b D A D D D D A D A D D D D D D D D D D D D D D D D D D D D D D D D D D D D D D D D D D A A D D D D D D D D D A D A D D D D D D D D D D A D A B 5 e e e e e e y.w.w.w.w.w.y.W A A K A D D D D D D D D D D D D A D A D D D D D D D D D D D D D D D D D D D D D D D D D D D D D D D D D D A A D D D D D D D D D D D D D D A P d 9 t e e e 5 K f.0.y.y.6.p.<.B K A D D A D D D D D D D D D D D D D D D D D D D D A D A D D D D D D D D D D D D D D D D D D D D D D D D D D D D D D D D D D A A D D D D D D A 9 e t 9 t e 9 :.y.0.w.w.w.y.( B D D D A D D D D D D D D D D D D D D D D D D D D D D D D D D D D D D A D A D D D D D D D D D D D D D D D D D D D D D D D D D D D D D D D D D D A A D D D D D D A D A D A D 9 e 9 t e e 5 :.w.w.w.w.0.p.^ A A A D D D D D D D D D D D D D D D D D D D D D D D D D D D A D A D D D D D D D D D D D D D D D D D D D D D D D D D D D D D D D D D D A A A K l 9 e 9 e e 9 l p.0.y.w.w.w.0.D A D D D D D D D D D D D D D D D D D D D D D D D D D D D D D D D D D D D D D D A D A D D D D D D D D D D D D D D D D D D D D D D D D D D D A K e e e e 9 e 5  .y.w.y.0.w.y.$.b D A D D D D D D D D D D D ",
"e 9 9 e e e 5 &.0.w.p.0.w.y.' B D D D D D D D D D D D D D D D D D D D D D D D D D D D D D D D D D D D D D D D D D D D D D D D D D D D D D D D K e 5 e t 9 9 1  .w.y.y.w.0.w.$.b D D D D D D D D D D D D D D D D D D D D D D D D D D D D D D D D D D D D D D D D D D D D D D D D D D D D D D D D D D D D D D D D D D D D D D D D D D D D D D D D B D B D B d t 9 e 5 t 1 ' p.0.w.y.6.y.$.B D P B D D D D D D D D D D D D D D D D D D D D D D D D D D D D D D D D D D D D D D D D D D D D D D D D D D D D D D D D D D D D D D D D A A P l e 9 5 t e e e y.w.w.w.w.6.f.K l K B D D D D D D D D D D D D D D D D D D D D D D D D D D D D D D D D D D D D D D D D D D D D D D D D D D D D D D D D D D D D D D D D D D A D h t 9 9 t 9 5 K p.0.w.w.y.w.<.l P W B K B B D D D D D D D D D D D D D D D D D D D D D D D D D D D D D D D D D D D D D D D D D D D D D D D D D D D D D D D D D D D D D D K K B t 5 5 d 5 e e &.f.6.p.0.6.k.^ A D D D D D D D D D D D D D D D D D D D D D D D D D D D D D D D D D D D D D D D D D D D D D D D D D D D D D D D D D D D D D D D D D D D D D D D D D D D D D D D D D B D B A t 9 9 t e e 5 :.w.w.p.6.0.y.' B P A D D D D D D D D D D D D D D D D D D D D D D D D D D D D D D D D D D D D D D D D D D D D D D D D D D D D D D D D D D D D D D D D A A P A d e 9 9 e e 9 l p.0.y.w.0.6.w.A K b D K D D D D D D D D D D D D D D D D D D D D D D D D D D D D D D D D D D D D D D D D D D D D D D D D D D D D D D D D D D D D D D D D K K A h e e e d e 5  .y.w.y.0.w.y...B D D b A K D D D D D D D D ",
"e 9 9 e e e 5 &.y.w.y.6.w.f...A A A A A A A A A A A A A A B A A A A A A A A A A A A A A A A A A A A A A A B A A A A A A A A A A A A A B A A A A t 5 e t 9 9 1  .y.w.0.6.0.y.&.A A A A A A A A A A A A A A B A A A A A A A A A A A A A A A A A A A A A A A B A A A A A A A A A A A A A A A A A A A A A A A B A A A A A A A A A A A A A A A A A A D P D P D d e 5 e 5 t 5 ' p.0.w.p.w.f.&.B A D B A A A A A B A A A A A A A A A A A A A A A A A A A A A A A B A A A A A A A A A A A A A A A A A A A A A A A B A A A A A A A A A A B b A h e t 9 t e e e y.w.w.w.w.6.f.P B W D K D A A A A A A A A A A A A A B A A A A A A A A A A A A A A A A A A A A A A A B A A A A A A A A A A A A A A A A A A A A A A A B A A K P l e 9 5 d e 5 K p.0.w.w.y.w.<.l K K b K A A A A A A A A A A A A A A A A A A A A A A A B A A A A A A A A A A A A A A A A A A A A A A A B A A A A A A A A A A A A A A A A A A D d 9 5 t 5 t e &.p.6.p.w.0.k.( B A A A A A A A A A A A A A A A A A A A A A A A A A A A A A A A A A A A A B A A A A A A A A A A A A A A A A A A A A A A A B A A A A A A A A A A A A A A A A A A K K D P A D e 9 9 t e e 5 :.w.w.y.0.w.y.^ l A b A A A A A A A A A A A A A A A A A A A A A A A A A A A A A B A A A A A A A A A A A A A A A A A A A A A A A B A A A A A A A A A A A B K D h d d d e e 9 l p.0.y.w.y.y.p.D K B A B A A A A A A A A A A A A A A A A A A A A A A A A A A A A A A A A A A A A A B A A A A A A A A A A A A A A A A A A A A A A A B A A A B B t 5 e e d e 5  .y.w.y.0.w.y...B D P A K K A A A A A A A A ",
"e 9 9 e e e 5 &.p.w.w.6.y.f. .b D D D D D D D D D D D D D D D D D D D D D D D D D D D D D D D D D D D D D D D D D D D D D D D D D D D D D D D D t 9 e t 9 e 1  .y.0.6.0.w.p.&.B D D D D D D D D D D D D D D D D D D D D D D D D D D D D D D D D D D D D D D D D D D D D D D D D D D D D D D D D D D D D D D D D D D D D D D D D D D D D D D D D A K A D D t e e e 5 t 1 ' p.0.w.6.<.y.$.B A K K D D D D D D D D D D D D D D D D D D D D D D D D D D D D D D D D D D D D D D D D D D D D D D D D D D D D D D D D D D D D D D D D W K P B e d 9 9 e e e y.w.w.w.w.0.p.P b K B A A D D D D D D D D D D D D D D D D D D D D D D D D D D D D D D D D D D D D D D D D D D D D D D D D D D D D D D D D D D D D D D D D A K h 9 e e t e 5 K p.0.w.w.y.w.<.B D A l D A A D D D D D D D D D D D D D D D D D D D D D D D D D D D D D D D D D D D D D D D D D D D D D D D D D D D D D D D D D D D D D D D D A e e 5 t 9 t 9 :.p.6.y.w.0.p.( A D D D D D D D D D D D D D D D D D D D D D D D D D D D D D D D D D D D D D D D D D D D D D D D D D D D D D D D D D D D D D D D D D D D D D D D D D D D D D D D A A A D B D 9 e 9 t e e 5 :.w.w.0.0.y.p.' B P P D D D D D D D D D D D D D D D D D D D D D D D D D D D D D D D D D D D D D D D D D D D D D D D D D D D D D D D D D D D D D D D D K D K D d 5 5 5 e e 9 l p.0.y.w.6.6.0.B D A K D D D D D D D D D D D D D D D D D D D D D D D D D D D D D D D D D D D D D D D D D D D D D D D D D D D D D D D D D D D D D D D D D W K P d 9 e 9 9 e 5  .y.w.y.6.w.p. .b B K A A B D D D D D D D D ",
"e 9 9 e e e 5 &.p.w.y.0.y.y.^ l A A A A A A A A A A A A A A A A A A A A A A A A A A A A A A A A A A A A A A A A A A A A A A A A A A A A A A D D d 9 9 t 9 e 5  .y.0.w.w.y.w...l A A A A A A A A A A A A A A A A A A A A A A A A A A A A A A A A A A A A A A A A A A A A A A A A A A A A A A A A A A A A A A A A A A A A A A A A A A A A A A A A A D B A K t d l e 5 t 1 ' p.0.w.p.y.f.&.D A A D A A A A A A A A A A A A A A A A A A A A A A A A A A A A A A A A A A A A A A A A A A A A A A A A A A A A A A A A A A A A A A A A B b A l 1 t e e e e e y.w.w.w.w.p.p.W b D B A A A A A A A A A A A A A A A A A A A A A A A A A A A A A A A A A A A A A A A A A A A A A A A A A A A A A A A A A A A A A A A A A A b D d 9 t t t 9 5 K p.0.w.w.y.w.<.K K D B K D A A A A A A A A A A A A A A A A A A A A A A A A A A A A A A A A A A A A A A A A A A A A A A A A A A A A A A A A A A A A D D D D D B 5 t 9 t e e 1 :.p.6.w.w.6.w.( A A D D A A A D A A A A A A A A A A A A A A A A A A A A A A A A A A A A A A A A A A A A A A A A A A A A A A A A A A A A A A A A A A A A A A A A A A A A A A A A A A A B B K 9 h 9 t e e 5 :.w.w.w.w.w.w.( l B b A A A A A A A A A A A A A A A A A A A A A A A A A A A A A A A A A A A A A A A A A A A A A A A A A A A A A A A A A A A A A A A A A B A K l e d t e e 9 l p.0.y.w.f.p.w.A B A D A A A A A A A A A A A A A A A A A A A A A A A A A A A A A A A A A A A A A A A A A A A A A A A A A A A A A A A A A A A A A A A A A l h D e e d e e e 5  .y.w.y.0.w.f.&.A B A B D B A A A A A A A A ",
"e 9 9 e e e 5 &.y.0.y.w.w.w...W K K K K K K K K K K K K K K K K K K K K K K K K K K K K K K K K K K K K K K K K K K K K K K K K K K K K K K K P d 9 9 t 9 e 5  .y.w.w.y.w.0.&.W K K K K K K K K K K K K K K K K K K K K K K K K K K K K K K K K K K K K K K K K K K K K K K K K K K K K K K K K K K K K K K K K K K K K K K K K K K K K K K K K K W K D ^ 9 5 e e 5 t 1 ' p.0.w.0.6.0...P W K P K K K K K K K K K K K K K K K K K K K K K K K K K K K K K K K K K K K K K K K K K K K K K K K K K K K K K K K K K K K K K K K K W W ( P 1 t e e e e e y.w.w.w.w.0.6.^ D P K K P K K K K K K K K K K K K K K K K K K K K K K K K K K K K K K K K K K K K K K K K K K K K K K K K K K K K K K K K K K K K K K K K W ' l 5 t t t e 5 K p.0.w.w.y.w.$.P P P D P P K K K K K K K K K K K K K K K K K K K K K K K K K K K K K K K K K K K K K K K K K K K K K K K K K K K K K K K K K K K K K K K P P W 9 d 9 e e e 5 :.y.6.w.y.0.w.$.D K K K K K K K K K K K K K K K K K K K K K K K K K K K K K K K K K K K K K K K K K K K K K K K K K K K K K K K K K K K K K K K K K K K K K K K K K K K K K K K K P P K K W > 9 9 t e e 5 :.w.w.w.w.0.0.$.W ^ P K K K K K K K K K K K K K K K K K K K K K K K K K K K K K K K K K K K K K K K K K K K K K K K K K K K K K K K K K K K K K K K K K K D W b > 9 5 e e 9 l p.0.y.w.0.0.6.K K W P K K K K K K K K K K K K K K K K K K K K K K K K K K K K K K K K K K K K K K K K K K K K K K K K K K K K K K K K K K K K K K K K K W K ' e e d e e e 5  .y.w.y.0.w.6.$.P K P D W P K K K K K K K K ",
"e 9 9 e e e 5 &.y.0.y.0.w.p.0.w.y.y.y.y.y.y.y.y.y.y.y.y.y.y.y.y.y.y.y.y.y.y.y.y.y.y.y.y.y.y.y.y.y.y.y.y.y.y.y.y.y.y.y.y.y.y.y.y.y.y.y.y.y.y.p.p.h 9 9 t 9 e 5  .p.0.w.w.0.w.w.6.y.y.y.y.y.y.y.y.y.y.y.y.y.y.y.y.y.y.y.y.y.y.y.y.y.y.y.y.y.y.y.y.y.y.y.y.y.y.y.y.y.y.y.y.y.y.y.y.y.y.y.y.y.y.y.y.y.y.y.y.y.y.y.y.y.y.y.y.y.y.y.y.y.y.y.y.y.y.y.y.0.y.y.0.p.b e d e 5 t 1 ' p.0.w.y.w.p.w.w.f.y.f.y.y.y.y.y.y.y.y.y.y.y.y.y.y.y.y.y.y.y.y.y.y.y.y.y.y.y.y.y.y.y.y.y.y.y.y.y.y.y.y.y.y.y.y.y.y.y.y.y.y.y.y.y.y.y.y.y.y.y.y.y.y.y.y.y.y.y.:.9 t 9 9 e e e y.w.w.w.w.p.p.w.w.p.y.w.w.y.y.y.y.y.y.y.y.y.y.y.y.y.y.y.y.y.y.y.y.y.y.y.y.y.y.y.y.y.y.y.y.y.y.y.y.y.y.y.y.y.y.y.y.y.y.y.y.y.y.y.y.y.y.y.y.y.y.y.y.y.y.y.y.0.w.D 5 e e e t 5 K p.0.w.w.y.w.p.0.0.w.w.y.y.w.y.y.y.y.y.y.y.y.y.y.y.y.y.y.y.y.y.y.y.y.y.y.y.y.y.y.y.y.y.y.y.y.y.y.y.y.y.y.y.y.y.y.y.y.y.y.y.y.y.y.y.y.y.y.y.y.y.y.y.p.p.p.p.p.<.t d 9 9 9 e 9 :.y.0.w.p.w.y.0.y.y.p.p.y.y.y.p.y.y.y.y.y.y.y.y.y.y.y.y.y.y.y.y.y.y.y.y.y.y.y.y.y.y.y.y.y.y.y.y.y.y.y.y.y.y.y.y.y.y.y.y.y.y.y.y.y.y.y.y.y.y.y.y.y.y.y.y.y.y.y.y.y.y.y.y.y.y.y.y.w.y.p.w.y.0.t d 9 t e e 5 :.w.w.0.w.0.y.p.0.y.y.y.y.y.y.y.y.y.y.y.y.y.y.y.y.y.y.y.y.y.y.y.y.y.y.y.y.y.y.y.y.y.y.y.y.y.y.y.y.y.y.y.y.y.y.y.y.y.y.y.y.y.y.y.y.y.y.y.y.y.y.y.y.y.y.f.f.w.y.' e d e e e 9 l p.0.y.w.w.y.f.0.y.f.y.p.y.y.y.y.y.y.y.y.y.y.y.y.y.y.y.y.y.y.y.y.y.y.y.y.y.y.y.y.y.y.y.y.y.y.y.y.y.y.y.y.y.y.y.y.y.y.y.y.y.y.y.y.y.y.y.y.y.y.y.y.y.y.y.y.f.0.p.h 9 e 9 e e 5  .y.w.y.0.w.y.p.0.y.p.w.p.w.y.y.y.y.y.y.y.y.",
"e 9 9 e e e 5 &.p.0.w.0.w.p.y.f.0.0.0.0.0.0.0.0.0.0.0.0.0.0.0.0.0.0.0.0.0.0.0.0.0.0.0.0.0.0.0.0.0.0.0.0.0.0.0.0.0.0.0.0.0.0.0.0.0.0.0.0.0.0.0.w.h 9 9 t 9 t 5  .p.0.0.w.0.w.p.y.0.0.0.0.0.0.0.0.0.0.0.0.0.0.0.0.0.0.0.0.0.0.0.0.0.0.0.0.0.0.0.0.0.0.0.0.0.0.0.0.0.0.0.0.0.0.0.0.0.0.0.0.0.0.0.0.0.0.0.0.0.0.0.0.0.0.0.0.0.0.0.0.0.0.0.0.0.0.0.0.6.y.y.6.p.d > 5 e 9 t 5 ' p.0.w.w.0.w.6.0.w.<.6.0.0.0.0.0.0.0.0.0.0.0.0.0.0.0.0.0.0.0.0.0.0.0.0.0.0.0.0.0.0.0.0.0.0.0.0.0.0.0.0.0.0.0.0.0.0.0.0.0.0.0.0.0.0.0.0.0.0.0.0.0.0.0.0.0.0.w.:.1 d e e e e e y.w.w.w.w.<.6.0.w.w.w.0.w.0.0.0.0.0.0.0.0.0.0.0.0.0.0.0.0.0.0.0.0.0.0.0.0.0.0.0.0.0.0.0.0.0.0.0.0.0.0.0.0.0.0.0.0.0.0.0.0.0.0.0.0.0.0.0.0.0.0.0.0.0.0.0.0.p.f.K 1 e e e t 5 K p.0.w.w.y.w.0.w.0.w.w.w.y.w.0.0.0.0.0.0.0.0.0.0.0.0.0.0.0.0.0.0.0.0.0.0.0.0.0.0.0.0.0.0.0.0.0.0.0.0.0.0.0.0.0.0.0.0.0.0.0.0.0.0.0.0.0.0.0.0.0.0.0.0.0.w.w.w.y.e t 9 9 e 9 e :.y.w.w.y.w.w.y.6.0.0.w.0.0.0.w.0.0.0.0.0.0.0.0.0.0.0.0.0.0.0.0.0.0.0.0.0.0.0.0.0.0.0.0.0.0.0.0.0.0.0.0.0.0.0.0.0.0.0.0.0.0.0.0.0.0.0.0.0.0.0.0.0.0.0.0.0.0.0.0.0.0.0.0.0.0.0.0.w.w.p.0.y.0.1 5 9 t e e 5 :.w.w.w.p.6.w.y.6.0.0.0.0.0.0.0.0.0.0.0.0.0.0.0.0.0.0.0.0.0.0.0.0.0.0.0.0.0.0.0.0.0.0.0.0.0.0.0.0.0.0.0.0.0.0.0.0.0.0.0.0.0.0.0.0.0.0.0.0.0.0.0.0.0.0.6.0.<.w.( 5 t e e e 9 l p.0.y.w.w.0.w.0.w.w.:.6.0.0.0.0.0.0.0.0.0.0.0.0.0.0.0.0.0.0.0.0.0.0.0.0.0.0.0.0.0.0.0.0.0.0.0.0.0.0.0.0.0.0.0.0.0.0.0.0.0.0.0.0.0.0.0.0.0.0.0.0.0.0.0.0.y.<.p.t 5 9 9 d e 5  .y.w.y.0.w.<.0.6.w.y.w.y.0.0.0.0.0.0.0.0.0.",
"e 9 9 e e e 5 &.p.0.y.w.w.y.6.0.w.w.w.w.w.w.w.w.w.w.w.w.w.w.w.w.w.w.w.w.w.w.w.w.w.w.w.w.w.w.w.w.w.w.w.w.w.w.w.w.w.w.w.w.w.w.w.w.w.w.w.w.w.w.y.y.h 9 9 t 9 t 5  .p.w.w.y.w.w.w.6.w.w.w.w.w.w.w.w.w.w.w.w.w.w.w.w.w.w.w.w.w.w.w.w.w.w.w.w.w.w.w.w.w.w.w.w.w.w.w.w.w.w.w.w.w.w.w.w.w.w.w.w.w.w.w.w.w.w.w.w.w.w.w.w.w.w.w.w.w.w.w.w.w.w.w.w.w.w.w.w.0.y.w.<.f.l e h e 5 t 5 ' p.0.w.0.w.y.0.y.p.0.y.w.w.w.w.w.w.w.w.w.w.w.w.w.w.w.w.w.w.w.w.w.w.w.w.w.w.w.w.w.w.w.w.w.w.w.w.w.w.w.w.w.w.w.w.w.w.w.w.w.w.w.w.w.w.w.w.w.w.w.w.w.w.w.w.w.w.y.:.> d e 9 e e e y.w.w.w.w.y.w.y.w.0.0.0.y.w.w.w.w.w.w.w.w.w.w.w.w.w.w.w.w.w.w.w.w.w.w.w.w.w.w.w.w.w.w.w.w.w.w.w.w.w.w.w.w.w.w.w.w.w.w.w.w.w.w.w.w.w.w.w.w.w.w.w.w.w.w.w.w.0.y.D 1 t t e e 5 K p.0.w.w.y.w.0.p.y.w.w.0.w.0.w.w.w.w.w.w.w.w.w.w.w.w.w.w.w.w.w.w.w.w.w.w.w.w.w.w.w.w.w.w.w.w.w.w.w.w.w.w.w.w.w.w.w.w.w.w.w.w.w.w.w.w.w.w.w.w.w.w.w.w.y.y.y.y.0.> 9 e t e 9 9 :.p.w.0.w.6.<.y.0.w.y.y.w.w.w.y.w.w.w.w.w.w.w.w.w.w.w.w.w.w.w.w.w.w.w.w.w.w.w.w.w.w.w.w.w.w.w.w.w.w.w.w.w.w.w.w.w.w.w.w.w.w.w.w.w.w.w.w.w.w.w.w.w.w.w.w.w.w.w.w.w.w.w.w.w.w.w.w.y.w.y.<.y.y.9 t 9 t e e 5 :.w.w.0.y.6.0.y.0.w.y.w.w.w.w.w.w.w.w.w.w.w.w.w.w.w.w.w.w.w.w.w.w.w.w.w.w.w.w.w.w.w.w.w.w.w.w.w.w.w.w.w.w.w.w.w.w.w.w.w.w.w.w.w.w.w.w.w.w.w.w.w.w.w.w.0.p.0.f.' 1 t e e e 9 l p.0.y.w.p.0.0.0.y.y.6.p.w.w.w.w.w.w.w.w.w.w.w.w.w.w.w.w.w.w.w.w.w.w.w.w.w.w.w.w.w.w.w.w.w.w.w.w.w.w.w.w.w.w.w.w.w.w.w.w.w.w.w.w.w.w.w.w.w.w.w.w.w.w.w.w.w.<.v.h 9 e 9 t e 5  .y.w.y.0.w.y.p.0.w.w.0.y.6.w.w.w.w.w.w.w.w.",
"5 t 9 e 5 l 1 &.y.y.w.w.w.w.w.w.w.w.w.w.w.w.w.w.w.w.w.w.w.w.w.w.w.w.w.w.w.w.w.w.w.w.w.w.w.w.w.w.w.w.w.w.w.w.w.w.w.w.w.w.w.w.w.w.w.w.w.w.w.w.y.y.l 9 d 1 t h 1 ' p.y.0.0.w.y.w.0.w.w.w.w.w.w.w.w.w.w.w.w.w.w.w.w.w.w.w.w.w.w.w.w.w.w.w.w.w.w.w.w.w.w.w.w.w.w.w.w.w.w.w.w.w.w.w.w.w.w.w.w.w.w.w.w.w.w.w.w.w.w.w.w.w.w.w.w.w.w.w.w.w.w.w.w.w.w.w.w.6.y.p.6.f.b 9 e 9 t t > ( v.<.w.w.w.w.w.w.w.w.w.w.w.w.w.w.w.w.w.w.w.w.w.w.w.w.w.w.w.w.w.w.w.w.w.w.w.w.w.w.w.w.w.w.w.w.w.w.w.w.w.w.w.w.w.w.w.w.w.w.w.w.w.w.w.w.w.w.w.w.w.w.w.w.w.0.w.y.:.1 d e 9 5 t t p.6.w.p.<.w.w.w.w.w.w.w.w.w.w.w.w.w.w.w.w.w.w.w.w.w.w.w.w.w.w.w.w.w.w.w.w.w.w.w.w.w.w.w.w.w.w.w.w.w.w.w.w.w.w.w.w.w.w.w.w.w.w.w.w.w.w.w.w.w.w.w.w.w.w.w.w.6.k.A 1 e 5 d t 1 B m.<.y.y.w.0.w.w.w.w.w.w.w.w.w.w.w.w.w.w.w.w.w.w.w.w.w.w.w.w.w.w.w.w.w.w.w.w.w.w.w.w.w.w.w.w.w.w.w.w.w.w.w.w.w.w.w.w.w.w.w.w.w.w.w.w.w.w.w.w.w.w.w.w.w.w.w.w.6.5 l 5 t e t 1 :.y.y.0.w.y.w.w.w.w.w.w.w.w.w.w.w.w.w.w.w.w.w.w.w.w.w.w.w.w.w.w.w.w.w.w.w.w.w.w.w.w.w.w.w.w.w.w.w.w.w.w.w.w.w.w.w.w.w.w.w.w.w.w.w.w.w.w.w.w.w.w.w.w.w.w.w.w.w.w.w.w.w.w.w.w.w.w.6.y.y.y.w.y.> e h 9 5 d > &.y.w.w.w.w.w.w.w.w.w.w.w.w.w.w.w.w.w.w.w.w.w.w.w.w.w.w.w.w.w.w.w.w.w.w.w.w.w.w.w.w.w.w.w.w.w.w.w.w.w.w.w.w.w.w.w.w.w.w.w.w.w.w.w.w.w.w.w.w.w.w.w.w.w.0.w.0.p.P 5 l 5 e e 9 h f.6.w.y.w.w.w.w.w.w.w.w.w.w.w.w.w.w.w.w.w.w.w.w.w.w.w.w.w.w.w.w.w.w.w.w.w.w.w.w.w.w.w.w.w.w.w.w.w.w.w.w.w.w.w.w.w.w.w.w.w.w.w.w.w.w.w.w.w.w.w.w.w.w.w.w.y.:.y.h t e e e d > ..f.w.y.6.w.w.w.w.w.w.w.w.w.w.w.w.w.w.w.w.w.",
"e t 5 t 1 t > :.y.y.w.w.w.w.w.w.w.w.w.w.w.w.w.w.w.w.w.w.w.w.w.w.w.w.w.w.w.w.w.w.w.w.w.w.w.w.w.w.w.w.w.w.w.w.w.w.w.w.w.w.w.w.w.w.w.w.w.w.w.w.w.y.l 1 t 5 e e > ..p.y.0.0.w.y.w.0.w.w.w.w.w.w.w.w.w.w.w.w.w.w.w.w.w.w.w.w.w.w.w.w.w.w.w.w.w.w.w.w.w.w.w.w.w.w.w.w.w.w.w.w.w.w.w.w.w.w.w.w.w.w.w.w.w.w.w.w.w.w.w.w.w.w.w.w.w.w.w.w.w.w.w.w.w.w.w.w.w.y.0.<.y.d 5 t 9 e e > ( v.6.y.w.w.w.w.w.w.w.w.w.w.w.w.w.w.w.w.w.w.w.w.w.w.w.w.w.w.w.w.w.w.w.w.w.w.w.w.w.w.w.w.w.w.w.w.w.w.w.w.w.w.w.w.w.w.w.w.w.w.w.w.w.w.w.w.w.w.w.w.w.w.w.w.w.w.y.:.> e e e t e 9 w.6.0.p.w.w.w.w.w.w.w.w.w.w.w.w.w.w.w.w.w.w.w.w.w.w.w.w.w.w.w.w.w.w.w.w.w.w.w.w.w.w.w.w.w.w.w.w.w.w.w.w.w.w.w.w.w.w.w.w.w.w.w.w.w.w.w.w.w.w.w.w.w.w.w.w.w.6.f.D 9 d e t 5 9 D v.:.0.0.w.y.w.w.w.w.w.w.w.w.w.w.w.w.w.w.w.w.w.w.w.w.w.w.w.w.w.w.w.w.w.w.w.w.w.w.w.w.w.w.w.w.w.w.w.w.w.w.w.w.w.w.w.w.w.w.w.w.w.w.w.w.w.w.w.w.w.w.w.w.w.w.w.w.0.1 e 1 t 9 t 9 :.y.y.0.w.y.w.w.w.w.w.w.w.w.w.w.w.w.w.w.w.w.w.w.w.w.w.w.w.w.w.w.w.w.w.w.w.w.w.w.w.w.w.w.w.w.w.w.w.w.w.w.w.w.w.w.w.w.w.w.w.w.w.w.w.w.w.w.w.w.w.w.w.w.w.w.w.w.w.w.w.w.w.w.w.w.w.w.0.0.6.6.6.y.9 h e 9 e h 9 6.p.0.w.w.w.w.w.w.w.w.w.w.w.w.w.w.w.w.w.w.w.w.w.w.w.w.w.w.w.w.w.w.w.w.w.w.w.w.w.w.w.w.w.w.w.w.w.w.w.w.w.w.w.w.w.w.w.w.w.w.w.w.w.w.w.w.w.w.w.w.w.w.w.w.w.w.0.f.^ 1 d 9 e 9 9 l f.0.w.w.w.w.w.w.w.w.w.w.w.w.w.w.w.w.w.w.w.w.w.w.w.w.w.w.w.w.w.w.w.w.w.w.w.w.w.w.w.w.w.w.w.w.w.w.w.w.w.w.w.w.w.w.w.w.w.w.w.w.w.w.w.w.w.w.w.w.w.w.w.w.w.w.y.0.p.d 9 e t e t 1  .w.<.w.0.p.w.w.w.w.w.w.w.w.w.w.w.w.w.w.w.w.",
"t e 5 t 9 t 5 6.y.w.0.0.0.w.0.0.w.w.w.w.w.w.w.w.w.w.w.w.w.w.w.w.w.w.w.w.w.w.w.w.w.w.w.w.w.w.w.w.w.w.w.w.w.w.w.w.w.w.w.w.w.w.w.w.0.0.0.0.0.w.w.w.b 5 t 9 e e 5 $.y.w.0.0.0.w.0.0.w.w.w.w.w.w.w.w.w.w.w.w.w.w.w.w.w.w.w.w.w.w.w.w.w.w.w.w.w.w.w.w.w.w.w.w.w.w.w.w.w.w.w.w.w.w.w.w.w.w.w.w.w.w.w.w.w.w.w.w.w.w.w.w.w.w.w.w.w.w.w.w.w.w.w.w.w.w.w.w.6.0.0.w.k.l 5 e t t e 1 ( f.<.0.w.w.w.w.w.w.w.w.w.w.w.w.w.w.w.w.w.w.w.w.w.w.w.w.w.w.w.w.w.w.w.w.w.w.w.w.w.w.w.w.w.w.w.w.w.w.w.w.w.w.w.w.w.w.w.w.w.w.w.w.w.w.w.w.w.w.w.w.w.w.w.w.0.0.w.$.1 t e t t 9 t y.y.0.0.<.w.w.w.w.w.w.w.w.w.w.w.w.w.w.w.w.w.w.w.w.w.w.w.w.w.w.w.w.w.w.w.w.w.w.w.w.w.w.w.w.w.w.w.w.w.w.w.w.w.w.w.w.w.w.w.w.w.w.w.w.w.w.w.w.w.w.w.w.w.w.w.w.0.y.B 1 e 9 t e > B f.6.w.0.0.0.w.w.w.w.w.w.w.w.w.w.w.w.w.w.w.w.w.w.w.w.w.w.w.w.w.w.w.w.w.w.w.w.w.w.w.w.w.w.w.w.w.w.w.w.w.w.w.w.w.w.w.w.w.w.w.w.w.w.w.w.w.w.w.w.w.w.w.w.w.w.w.w.y.9 e 9 d 9 e e :.w.w.0.w.w.0.0.w.w.w.w.w.w.w.w.w.w.w.w.w.w.w.w.w.w.w.w.w.w.w.w.w.w.w.w.w.w.w.w.w.w.w.w.w.w.w.w.w.w.w.w.w.w.w.w.w.w.w.w.w.w.w.w.w.w.w.w.w.w.w.w.w.w.w.w.w.w.w.w.w.w.w.w.w.w.w.w.w.y.y.y.w.w.5 5 t e e 9 > :.p.0.w.w.w.w.w.w.w.w.w.w.w.w.w.w.w.w.w.w.w.w.w.w.w.w.w.w.w.w.w.w.w.w.w.w.w.w.w.w.w.w.w.w.w.w.w.w.w.w.w.w.w.w.w.w.w.w.w.w.w.w.w.w.w.w.w.w.w.w.w.w.w.w.0.6.6.f.^ 1 t t t e 9 b p.0.0.6.w.w.w.w.w.w.w.w.w.w.w.w.w.w.w.w.w.w.w.w.w.w.w.w.w.w.w.w.w.w.w.w.w.w.w.w.w.w.w.w.w.w.w.w.w.w.w.w.w.w.w.w.w.w.w.w.w.w.w.w.w.w.w.w.w.w.w.w.w.w.w.w.6.6.w.t 1 9 t e e 5 $.p.0.w.6.w.w.w.w.w.w.w.w.w.w.w.w.w.w.w.w.w.",
"e e 5 t e t e ..y.y.w.w.y.y.w.w.y.y.y.y.y.y.y.y.y.y.y.y.y.y.y.y.y.y.y.y.y.y.y.y.y.y.y.y.y.y.y.y.y.y.y.y.y.y.y.y.y.y.y.y.y.y.y.y.y.w.w.w.w.y.y.y.l 9 d e e t 9 ^ p.y.w.w.y.y.y.w.y.y.y.y.y.y.y.y.y.y.y.y.y.y.y.y.y.y.y.y.y.y.y.y.y.y.y.y.y.y.y.y.y.y.y.y.y.y.y.y.y.y.y.y.y.y.y.y.y.y.y.y.y.y.y.y.y.y.y.y.y.y.y.y.y.y.y.y.y.y.y.y.y.y.y.y.y.y.y.y.y.p.y.w.w.l 5 1 5 e e t ' f.y.f.y.y.y.y.y.y.y.y.y.y.y.y.y.y.y.y.y.y.y.y.y.y.y.y.y.y.y.y.y.y.y.y.y.y.y.y.y.y.y.y.y.y.y.y.y.y.y.y.y.y.y.y.y.y.y.y.y.y.y.y.y.y.y.y.y.y.y.y.y.y.y.y.f.p.y.&.t d 9 9 1 5 d 6.w.y.y.y.y.y.y.y.y.y.y.y.y.y.y.y.y.y.y.y.y.y.y.y.y.y.y.y.y.y.y.y.y.y.y.y.y.y.y.y.y.y.y.y.y.y.y.y.y.y.y.y.y.y.y.y.y.y.y.y.y.y.y.y.y.y.y.y.y.y.y.y.y.y.y.y.f.f.P t e 5 9 5 d P f.w.p.y.w.w.y.y.y.y.y.y.y.y.y.y.y.y.y.y.y.y.y.y.y.y.y.y.y.y.y.y.y.y.y.y.y.y.y.y.y.y.y.y.y.y.y.y.y.y.y.y.y.y.y.y.y.y.y.y.y.y.y.y.y.y.y.y.y.y.y.y.y.y.y.y.y.y.$.e t 9 t 9 e 9 6.y.y.w.y.y.w.y.y.y.y.y.y.y.y.y.y.y.y.y.y.y.y.y.y.y.y.y.y.y.y.y.y.y.y.y.y.y.y.y.y.y.y.y.y.y.y.y.y.y.y.y.y.y.y.y.y.y.y.y.y.y.y.y.y.y.y.y.y.y.y.y.y.y.y.y.y.y.y.y.y.y.y.y.y.y.y.y.0.0.w.0.0.<.e e 9 5 9 e e <.f.f.y.y.y.y.y.y.y.y.y.y.y.y.y.y.y.y.y.y.y.y.y.y.y.y.y.y.y.y.y.y.y.y.y.y.y.y.y.y.y.y.y.y.y.y.y.y.y.y.y.y.y.y.y.y.y.y.y.y.y.y.y.y.y.y.y.y.y.y.y.y.y.y.p.y.w.w.^ 9 e 9 5 e e B y.w.p.p.y.y.y.y.y.y.y.y.y.y.y.y.y.y.y.y.y.y.y.y.y.y.y.y.y.y.y.y.y.y.y.y.y.y.y.y.y.y.y.y.y.y.y.y.y.y.y.y.y.y.y.y.y.y.y.y.y.y.y.y.y.y.y.y.y.y.y.y.y.y.y.y.p.y.y.B t e 9 5 1 1 ( 0.0.p.p.f.y.y.y.y.y.y.y.y.y.y.y.y.y.y.y.y.",
"e t e 9 9 e 1 h t t e e t t t t t t t t t t t t t t t t t t t t t t t t t t t t t t t t t t t t t t t t t t t t t t t t t t t t t t t t t t t t e 5 t 5 9 t 5 h t t t t t t t t t t t t t t t t t t t t t t t t t t t t t t t t t t t t t t t t t t t t t t t t t t t t t t t t t t t t t t t t t t t t t t t t t t t t t t t t t t t t t t t t 9 d e 9 l e d d t d e > e h 9 e t t t t t t t t t t t t t t t t t t t t t t t t t t t t t t t t t t t t t t t t t t t t t t t t t t t t t t t t t t t t t t t t t t t t t t t t 9 9 h d > t t t d d e h e t t e t t t t t t t t t t t t t t t t t t t t t t t t t t t t t t t t t t t t t t t t t t t t t t t t t t t t t t t t t t t t t t t t t t t t t t t t > t 1 1 e e e t > 5 h 9 e e t t t t t t t t t t t t t t t t t t t t t t t t t t t t t t t t t t t t t t t t t t t t t t t t t t t t t t t t t t t t t t t t t t t t t t t t t t l 5 e 9 e e t 5 9 t t e t t e t t t t t t t t t t t t t t t t t t t t t t t t t t t t t t t t t t t t t t t t t t t t t t t t t t t t t t t t t t t t t t t t t t t t t t t t t t t t t t t t t d d d t d b > e d 9 e t 1 t 9 5 t t t t t t t t t t t t t t t t t t t t t t t t t t t t t t t t t t t t t t t t t t t t t t t t t t t t t t t t t t t t t t t t t t t t t t t t 9 t d h t e d t d d 9 9 b 9 e e t t t t t t t t t t t t t t t t t t t t t t t t t t t t t t t t t t t t t t t t t t t t t t t t t t t t t t t t t t t t t t t t t t t t t t t t t 9 d 5 e 9 t d l e h l t t e e t t t t t t t t t t t t t t t t ",
"9 d e 9 9 t 5 1 t e e e e t e e e e e e e e e e e e e e e e e e e e e e e e e e e e e e e e e e e e e e e e e e e e e e e e e e e e e e e e t t 9 9 t 9 9 d 9 5 e e e e e e e e e e e e e e e e e e e e e e e e e e e e e e e e e e e e e e e e e e e e e e e e e e e e e e e e e e e e e e e e e e e e e e e e e e e e e e e e e e e e e e e e e l e 5 9 5 t 5 1 e e 9 e t t t e e e e e e e e e e e e e e e e e e e e e e e e e e e e e e e e e e e e e e e e e e e e e e e e e e e e e e e e e e e e e e e e e e e e e e e e d e d t 5 t 5 1 1 e e 9 1 e d d e e e e e e e e e e e e e e e e e e e e e e e e e e e e e e e e e e e e e e e e e e e e e e e e e e e e e e e e e e e e e e e e e e e e e e e e e d d t e 9 9 e t t d e e e t e e e e e e e e e e e e e e e e e e e e e e e e e e e e e e e e e e e e e e e e e e e e e e e e e e e e e e e e e e e e e e e e e e e e e e e e e 5 9 t e 9 e t 5 9 t e e t t 9 t e e e e e e e e e e e e e e e e e e e e e e e e e e e e e e e e e e e e e e e e e e e e e e e e e e e e e e e e e e e e e e e e e e e e e e e e e e e e e e e e 9 9 e 5 9 t 5 d t 1 e h t d 9 t e e e e e e e e e e e e e e e e e e e e e e e e e e e e e e e e e e e e e e e e e e e e e e e e e e e e e e e e e e e e e e e e e e e e e e e e e d t 9 9 e e 1 5 e 5 9 d 9 t d e e e e e e e e e e e e e e e e e e e e e e e e e e e e e e e e e e e e e e e e e e e e e e e e e e e e e e e e e e e e e e e e e e e e e e e e d e t d d 5 1 5 e 5 5 9 9 t d t e e e e e e e e e e e e e e e e ",
"9 t e 9 t t t 9 e 9 9 9 9 e 9 9 9 9 9 9 9 9 9 9 9 9 9 9 9 9 9 9 9 9 9 9 9 9 9 9 9 9 9 9 9 9 9 9 9 9 9 9 9 9 9 9 9 9 9 9 9 9 9 9 9 9 9 9 9 9 e e e 9 d e 9 t e 9 9 9 9 9 9 9 9 9 9 9 9 9 9 9 9 9 9 9 9 9 9 9 9 9 9 9 9 9 9 9 9 9 9 9 9 9 9 9 9 9 9 9 9 9 9 9 9 9 9 9 9 9 9 9 9 9 9 9 9 9 9 9 9 9 9 9 9 9 9 9 9 9 9 9 9 9 9 9 9 9 9 9 9 9 9 9 9 9 1 e 9 e t e t 5 9 t e 9 9 9 9 9 9 9 9 9 9 9 9 9 9 9 9 9 9 9 9 9 9 9 9 9 9 9 9 9 9 9 9 9 9 9 9 9 9 9 9 9 9 9 9 9 9 9 9 9 9 9 9 9 9 9 9 9 9 9 9 9 9 9 9 9 9 9 9 9 9 9 9 9 9 9 9 9 9 5 e 9 9 t 9 9 1 e t 9 e e 1 5 9 9 9 9 9 9 9 9 9 9 9 9 9 9 9 9 9 9 9 9 9 9 9 9 9 9 9 9 9 9 9 9 9 9 9 9 9 9 9 9 9 9 9 9 9 9 9 9 9 9 9 9 9 9 9 9 9 9 9 9 9 9 9 9 9 9 9 9 9 9 9 9 e 9 9 5 5 9 9 d 1 9 9 e t e 9 5 9 9 9 9 9 9 9 9 9 9 9 9 9 9 9 9 9 9 9 9 9 9 9 9 9 9 9 9 9 9 9 9 9 9 9 9 9 9 9 9 9 9 9 9 9 9 9 9 9 9 9 9 9 9 9 9 9 9 9 9 9 9 9 9 9 9 9 9 9 9 9 9 e t t t e e e 5 9 e 9 9 e 9 5 e 9 9 9 9 9 9 9 9 9 9 9 9 9 9 9 9 9 9 9 9 9 9 9 9 9 9 9 9 9 9 9 9 9 9 9 9 9 9 9 9 9 9 9 9 9 9 9 9 9 9 9 9 9 9 9 9 9 9 9 9 9 9 9 9 9 9 9 9 9 9 9 9 9 9 9 9 9 9 9 9 9 9 t e e e 1 1 h 9 e 9 5 9 5 t 9 9 9 9 9 9 9 9 9 9 9 9 9 9 9 9 9 9 9 9 9 9 9 9 9 9 9 9 9 9 9 9 9 9 9 9 9 9 9 9 9 9 9 9 9 9 9 9 9 9 9 9 9 9 9 9 9 9 9 9 9 9 9 9 9 9 9 9 9 9 9 9 5 9 9 5 9 e 9 9 e t 5 e e 5 9 9 9 9 9 9 9 9 9 9 9 9 9 9 9 9 9 9 9 9 9 9 9 9 9 9 9 9 9 9 9 9 9 9 9 9 9 9 9 9 9 9 9 9 9 9 9 9 9 9 9 9 9 9 9 9 9 9 9 9 9 9 9 9 9 9 9 9 9 9 9 9 9 9 5 9 5 e e 5 9 9 9 e e t t e e 5 9 9 9 9 9 9 9 9 9 9 9 9 9 9 9 9 ",
"t t 9 e e 5 e e e e e e e e e e e e e e e e e e e e e e e e e e e e e e e e e e e e e e e e e e e e e e e e e e e e e e e e e e e e e e e e e e t 5 e t 5 9 e t e e e e e e e e e e e e e e e e e e e e e e e e e e e e e e e e e e e e e e e e e e e e e e e e e e e e e e e e e e e e e e e e e e e e e e e e e e e e e e e e e e e e e e e e e e 1 e e 9 t e t t 9 e e 9 t e e e e e e e e e e e e e e e e e e e e e e e e e e e e e e e e e e e e e e e e e e e e e e e e e e e e e e e e e e e e e e e e e e e e e e e e e e 9 t 9 9 t e t t e e 9 t e 5 t e e e e e e e e e e e e e e e e e e e e e e e e e e e e e e e e e e e e e e e e e e e e e e e e e e e e e e e e e e e e e e e e e e e e e e e e e 5 e e e t 9 e e t e t 9 9 e t e e e e e e e e e e e e e e e e e e e e e e e e e e e e e e e e e e e e e e e e e e e e e e e e e e e e e e e e e e e e e e e e e e e e e e e e e e 5 e e 9 e e e t 9 9 t e 9 e e e e e e e e e e e e e e e e e e e e e e e e e e e e e e e e e e e e e e e e e e e e e e e e e e e e e e e e e e e e e e e e e e e e e e e e e e e e e e e e e e 5 9 5 e t t t e 9 d e t d 9 9 e e e e e e e e e e e e e e e e e e e e e e e e e e e e e e e e e e e e e e e e e e e e e e e e e e e e e e e e e e e e e e e e e e e e e e e e 9 9 e e t e 5 d e d 9 d t 9 e 9 e e e e e e e e e e e e e e e e e e e e e e e e e e e e e e e e e e e e e e e e e e e e e e e e e e e e e e e e e e e e e e e e e e e e e e e e 9 t e e 9 9 e e 9 t e e 9 9 t e e e e e e e e e e e e e e e e e ",
"e t 9 9 e e d e t 9 t 9 e t 5 5 e e e e e e e e e e e e e e e e e e e e e e e e t 9 t e e d 9 9 9 9 e t t e 9 5 d t e t 5 t 1 e e e e e e e e e e e e e e e e e e e e e e e e e e e e e e e e e e e e e e e e e e e e e e e e e e e e e e e e e e t e 9 e e 5 e 9 e e t t t 1 9 t e t 5 e t 5 t e e e e e e e e e e e e e e e e e e e e e e e e e e e e e e e e e e e e e e e e e e e e e e e e e e e e e e e e e e e e e e e e e e e e e e e e 9 d e 9 t e e e 9 e t t t e 9 5 e e e e e e e e e e e e e e e e e e e e e e e e e e e e e e e e e e e e e e e e e e e e e e e e e e e e e e e e e e e e e e e e e 9 e e 5 9 t e t e t e 1 e e e 9 e e e e e e e e e e e e e e e e e e e e e e e e e e e e e e e e e e e e e e e e e e e e e e e e e e e e e e e e e e e e e e e t e e t e 9 9 e d 9 e 9 9 e 9 t 9 5 e t e t 9 9 e e e e e e e e e e e e e e e e e e e e e e e e e e e e e e e e e e e e e e e e e e e e e e e e e e e e e e e e e e e e e e e e e e e e e e e e e e e e e e e e d e t e e t 5 9 5 9 t e e e 9 1 d t e 5 e e 5 t e e e e e e e e e e e e e e e e e e e e e e e e e e e e e e e e e e e e e e e e e e e e e e e e e e e e e e e e e e e e e e e e e e e e e e e e e e t t 9 9 e 5 e e 9 t h 9 5 9 9 9 e e e 9 e e e e e e e e e e e e e e e e e e e e e e e e e e e e e e e e e e e e e e e e e e e e e e e e e e e e e e e e e e e e e e e e e 9 1 d e e > e t d e t 5 d 9 e 9 9 e e e e e e e e e e e e e e e e e e e e e e e e e e e e e e e e e e e e e e e e e e e e e e e e e e e e e e e e ",
"e e 9 e t 9 9 5 t 9 t 9 e h t h e e e e e e e e e e e e e e e e e e e e e e e e 9 1 e 5 9 t 9 9 h t t t t t d d 5 9 9 d 9 t 5 e e e e e e e e e e e e e e e e e e e e e e e e e e e e e e e e e e e e e e e e e e e e e e e e e e e e e e e e e 5 e 9 9 t e 9 t d t t e t d e d 5 5 t e t t 5 t e e e e e e e e e e e e e e e e e e e e e e e e e e e e e e e e e e e e e e e e e e e e e e e e e e e e e e e e e e e e e e e e e e e e e e e e 5 t 9 9 e 9 9 e e e t e 9 e t t e e e e e e e e e e e e e e e e e e e e e e e e e e e e e e e e e e e e e e e e e e e e e e e e e e e e e e e e e e e e e e e e e 9 t t 9 e t e e 5 9 e t h d 5 h h t t t e t d e e e e e e e e e e e e e e e e e e e e e e e e e e e e e e e e e e e e e e e e e e e e e e e e e e e e e e e e e e e e t t t t 9 5 e t t t e e l d d t t t t d e e e e e e e e e e e e e e e e e e e e e e e e e e e e e e e e e e e e e e e e e e e e e e e e e e e e e e e e e e e e e e e e e e e e e e e e e e e e e e e e e 5 e 9 9 t 5 e d t t t t t h h 5 5 9 9 t e 9 t e e e e e e e e e e e e e e e e e e e e e e e e e e e e e e e e e e e e e e e e e e e e e e e e e e e e e e e e e e e e e e e e e e e e e e e e e 9 e e 9 e t 9 t d 9 9 t e e t 9 e e e e e e e e e e e e e e e e e e e e e e e e e e e e e e e e e e e e e e e e e e e e e e e e e e e e e e e e e e e e e e e e e e e e e e 9 9 t 5 t 9 d 9 5 e t 5 t 9 t d h e e e e e e e e e e e e e e e e e e e e e e e e e e e e e e e e e e e e e e e e e e e e e e e e e e e e e e e e ",
"e 9 9 t d 9 5 t 5 1 9 1 1 e 5 5 e e e e 9 e e e 9 9 e e e e e e 9 9 e e e e e e e 9 t 5 5 t 9 e 9 1 5 9 1 > 1 > e e 5 t 9 e 9 e e e e e e e 9 9 e e e e 9 e e e e e e e e e 9 9 e e e e 9 e e e e e e e e e e e e e e e e e e e 9 9 e e e e e e e t e 9 t e 9 t 9 1 e 1 1 1 = 1 t 5 e e e e 5 e e e e e e e e e e e e e e e e e e e e e e e 9 9 e e e e 9 e e e e e e e e e 9 9 e e e e 9 e e e 9 9 e e e e e e e e e e e e 9 9 e e e e 9 e e e 9 e e 9 e 9 9 t 5 5 5 1 > 5 9 1 e e e e e e 9 9 e e e e 9 e e e 9 9 e e e e e e e e e e e e 9 9 e e e e 9 e e e e e e e e e 9 9 e e e e 9 e e e e e e e e e e e 9 9 e e 9 e t 5 t 5 9 9 9 9 e 1 > 1 > 1 9 5 5 e e e e e 9 e e e 9 9 e e e e e e e e e e e e e e e e e e e e e e e e e e e e 9 9 e e e e 9 e e e e e e e e e 9 9 e 9 9 9 e e e 9 e e e e 5 5 e 5 5 1 1 5 5 1 9 e e e e e 9 e e e 9 9 e e e e e e 9 9 e e e e e e e e e e e e 9 9 e e e e 9 e e e 9 9 e e e e e e e e e e e e 9 9 e e e e 9 e e e e e e e e e 9 9 e e e e 9 e e e e 9 t 9 9 t 9 e 9 > > e 5 > 1 5 e t 9 e e e 5 e e e e e e e 9 9 e e e e 9 e e e 9 9 e e e e e e e e e e e e e e e e e e e e e e e e e e e e 9 9 e e e e 9 e e e e e e e e e 9 9 e e e e 9 e e e d 9 9 e 9 t t 9 > e 1 > 5 1 9 1 9 9 e e 9 9 9 e 9 9 e e e e e e 9 9 e e e e e e e e e e e e 9 9 e e e e 9 e e e 9 9 e e e e e e e e e e e e 9 9 e e e e 9 e e e e 9 9 9 e e 9 9 e e 5 d t t 5 d 5 5 1 9 > 9 1 5 e e e 9 e e e e 9 9 e e e e e e e e e e e e 9 9 e e e e 9 e e e 9 9 e e e e e e e e e e e e e e e e e e e e e e ",
"t e 5 t e e 9 W $...:.$.&.&.W B B B B B B B B B B B b b B B B B B B b b B B B B b b b t 9 t 9 e t t D ..$.$.&.$...( l B l b b B B B B B B B B b B B B B B B B B B B B B B B B B B B B B B B B B B B B B B B B B b B B B B B B B b b B b B B B B l b h e t e e t t h ....&.:.$.:. .D B b b B b A B B B B B B B B b B B B B B B B B B B B B B B B B B B B B B B B B B B B B B B B B B B B B B B B b b B b B B B B B B B B B B B B B B B B B B B B t t t 9 e e 9 l &...&.&.$.&. .D B B B B B B B B B B B B B B B B B B b b B B B B B B B B B B B b B B B B B B B B B B B B B B B B B B B B B B B B B B B B B B B B b b B B b B b t 9 9 t t e e ^ $.$.&.$.&.&.^ b B B B B B B B B B B B b b B B B B B B B B B B B B b B B B B B B B B B B B B B B b B B B B B B B B B B B B B B B B b B b b b b d e e 9 9 e e B  . .&.$.&.$. .A B b B B B B B B B B B B b b B B B B b b B b B B B B B B B B B B B B B B B B B B B B B B b b B B B B B B B B B B B B B B B B B B B B B B B B B B B B B B B B B B B B B l B d e t 9 e d e B :.&.$.$.:.$. .B B b B b B B B B B B B B B B B B B B B B B B B b b B B B B B B B B B B B B b B B B B B B B B B B B B B B B B B B B B B B B B B B B B B B B B B B B B B B B B t 9 9 9 e e 5 K :.$.$.&.$.&.( b b B B b b b B B B b b B B B B b b B b B B B B B B B B B B B b B B B B B B B B B B b b B B B B B B B B B B B B B B B B B B B B B b b b B B b b e e e d 9 9 e ' $.$.$.:.$.&.K B B B b b B B B B b b B b B B B B B B B B B B B B B B B B B B B B B B b b B B B B B B B B B B B B b B B B B B B B ",
"t e 9 t 9 e e &.p.w.p.y.p.p.' B D D D D D D D D D D D D D D D D D D D D D D D D K K K h 9 t 9 e 5 9 W y.p.p.f.y.k.<.A K A D K D D D D D D D D D D D D D D D D D D D D D D D D D D D D D D D D D D D D D D D D D D D D D D D D D D D D D D D D D D D l e e e e t 5 h y.y.p.p.p.f.y.^ D A A K K K D D D D D D D D D D D D D D D D D D D D D D D D D D D D D D D D D D D D D D D D D D D D D D D D D D D D D D D D D D D D D D D D D D D D D D D D l t t 9 9 e 9 A f.w.y.p.y.f.6.K D D D D D D D D D D D D D D D D D D D D D D D D D D D D D D D D D D D D D D D D D D D D D D D D D D D D D D D D D D D D D D D D D D K K D K A d 9 e d e e 9 :.k.y.p.y.p.f...B A D D D D D D D D D D D D D D D D D D D D D D D D D D D D D D D D D D D D D D D D D D D D D D D D D D D D D D D D D K K D K D l e e e 5 e e K p.p.y.y.p.y.0.D D b D D D D D D D D D D D D D D D D D D D D D D D D D D D D D D D D D D D D D D D D D D D D D D D D D D D D D D D D D D D D D D D D D D D D D D D D D D D D D D D D K D K l t t 9 e 9 5 A f.y.p.w.p.f.w.K K D K D D D D D D D D D D D D D D D D D D D D D D D D D D D D D D D D D D D D D D D D D D D D D D D D D D D D D D D D D D D D D D D D D D D D D D D D D D K d 9 e e e e 5 ( p.y.y.p.y.f.&.A D K K D D D K D D D D D D D D D D D D D D D D D D D D D D D D D D D D D D D D D D D D D D D D D D D D D D D D D D D D D D D D K D D D K K D A 9 e e d 5 9 t w.p.y.y.f.y.p.W B D D D D D D D D D D D D D D D D D D D D D D D D D D D D D D D D D D D D D D D D D D D D D D D D D D D D D D D D ",
"9 t e d 5 e 1 :.p.0.w.6.y.p.' B A A A A A A A A A A A A A A A A A A A A A A A A D D K d 5 e 9 9 d e ^ p.y.6.w.<.y.&.l D A A D B A A A A A A A A A A A A A A A A A A A A A A A A A A A A A A A A A A A A A A A A A A A A A A A A A A A A A A A A D K l 9 9 e e t t l k.w.0.0.6.0.w.D b A B D B B A A A A A A A A A A A A A A A A A A A A A A A A A A A A A A A A A A A A A A A A A A A A A A A A A A A A A A A A A A A A A A A A A A A A A A A A l 9 t 5 9 9 5 D f.6.0.0.6.p.0.A A A A A A A A A A A A A A A A A A A A A A A A A A A A A A A A A A A A A A A A A A A A A A A A A A A A A A A A A A A A A A A A A A A D A B D b 9 d e e 9 e > ..0.6.w.6.w.f...A W A A A A A A A A A A A A A A A A A A A A A A A A A A A A A A A A A A A A A A A A A A A A A A A A A A A A A A A A A A A A D A h 1 t t 9 e 1 B w.6.0.0.0.0.0.B W K A A A A A A A A A A A A A A A A A A A A A A A A A A A A A A A A A A A A A A A A A A A A A A A A A A A A A A A A A A A A A A A A A A A A A A A A A A A A A A A A D D K h 9 e 9 e e 9 A f.0.w.6.6.w.6.b D B D A B A A A A A A A A A A A A A A A A A A A A A A A A A A A A A A A A A A A A A A A A A A A A A A A A A A A A A A A A A A A A A A A A A A A A A A A A K d 9 e e e e 9 ^ p.6.w.w.6.p.&.B B A A A B A A A A A A A A A A A A A A A A A A A A A A A A A A A A A A A A A A A A A A A A A A A A A A A A A A A A A A A A A A A A B A A A B B 9 9 9 e e t e 6.p.0.w.w.0.f.W B A A A A A A A A A A A A A A A A A A A A A A A A A A A A A A A A A A A A A A A A A A A A A A A A A A A A A A A A ",
"9 t e t 5 d > &.y.0.w.6.w.y. .A D D D D D D D D D D D D D D D D D D D D D D D D B D K d 5 e 9 e e 1 P p.w.0.f.y.y.:.b W K A P D D D D D D D D D D D D D D D D D D D D D D D D D D D D D D D D D D D D D D D D D D D D D D D D D D D D D D D D D A D l 9 9 e e e 9 e f.6.0.y.y.y.w.D A P D D D A D D D D D D D D D D D D D D D D D D D D D D D D D D D D D D D D D D D D D D D D D D D D D D D D D D D D D D D D D D D D D D D D D D D D D D D D h 5 t 9 9 e 1 A p.6.w.0.:.p.0.A D D D D D D D D D D D D D D D D D D D D D D D D D D D D D D D D D D D D D D D D D D D D D D D D D D D D D D D D D D D D D D D D D D K D D P D t e 9 9 e l 9 <.p.y.p.6.w.f.' l D D D D D D D D D D D D D D D D D D D D D D D D D D D D D D D D D D D D D D D D D D D D D D D D D D D D D D D D D K K D D K K b 9 5 t e d 9 K v.y.p.y.y.w.0.h K A D D D D D D D D D D D D D D D D D D D D D D D D D D D D D D D D D D D D D D D D D D D D D D D D D D D D D D D D D D D D D D D D D D D D D D D D D D D D D D D D A A K d 9 e 9 t 5 1 b p.<.p.y.y.0.0.b P A D D D D D D D D D D D D D D D D D D D D D D D D D D D D D D D D D D D D D D D D D D D D D D D D D D D D D D D D D D D D D D D D D D D D D D D D D D D D t 5 e e e e 9 W p.<.0.w.:.p.&.A D K K D D D K D D D D D D D D D D D D D D D D D D D D D D D D D D D D D D D D D D D D D D D D D D D D D D D D D D D D D D D D K D D D D D D A e 9 9 9 e d 5 <.w.6.w.0.6.f.W D D D D D D D D D D D D D D D D D D D D D D D D D D D D D D D D D D D D D D D D D D D D D D D D D D D D D D D D D ",
"e t 9 9 1 l 1 :.y.y.f.w.w.y.' A D D D D D D D D D D D D D D D D D D D D D D D D B D P d 5 t e e d 5 W f.w.6.y.w.y.<.b P A l D D D D D D D D D D D D D D D D D D D D D D D D D D D D D D D D D D D D D D D D D D D D D D D D D D D D D D D D D D A K b e e e 9 9 e e f.6.w.y.y.0.w.D D P B B A D D D D D D D D D D D D D D D D D D D D D D D D D D D D D D D D D D D D D D D D D D D D D D D D D D D D D D D D D D D D D D D D D D D D D D D D D h 1 d e e e > A p.0.p.p.<.p.0.A D D D D D D D D D D D D D D D D D D D D D D D D D D D D D D D D D D D D D D D D D D D D D D D D D D D D D D D D D D D D D D D D A A A A A K A e e 9 e e d # $.y.0.y.6.w.k...l K D D D D D D D D D D D D D D D D D D D D D D D D D D D D D D D D D D D D D D D D D D D D D D D D D D D D D D D D K D A B A D l 5 9 d e t 1 B f.6.0.0.w.w.y.l P D D D D D D D D D D D D D D D D D D D D D D D D D D D D D D D D D D D D D D D D D D D D D D D D D D D D D D D D D D D D D D D D D D D D D D D D D D D D D D D D D A D K h 9 t e d e 9 A k.:.y.w.6.0.y.B P l B D K D D D D D D D D D D D D D D D D D D D D D D D D D D D D D D D D D D D D D D D D D D D D D D D D D D D D D D D D D D D D D D D D D D D D D D D D D t 5 e 9 9 9 5 ^ p.6.p.p.:.p.:.A A D D D A D D D D D D D D D D D D D D D D D D D D D D D D D D D D D D D D D D D D D D D D D D D D D D D D D D D D D D D D D D D D A A D D A A e t t 9 5 e 5 0.w.0.f.y.0.f.W D D D D D D D D D D D D D D D D D D D D D D D D D D D D D D D D D D D D D D D D D D D D D D D D D D D D D D D D D ",
"e 9 9 e e e 5 &.y.w.w.y.6.p.' B D D D D D D D D D D D D D D D D D D D D D D D D A D K d 9 t 9 e e 5 W p.0.y.0.w.y.<.b D D A A A D D D D D D D D D D D A A D D D D D D D D A D D D D A D A D D D D D D D D D A A D D D D D D D D D D D D D D D D A D B 5 e 9 t 9 9 h y.0.y.0.y.0.w.K A D A D A D D D D D D D A A D D D D D D D D D D D D D D D D D D D A A D D D D D D D D A D D D D A D A D D D D D D D D D D D D D D D D D D D A D D D A A D D h 5 t 9 e t 5 A p.w.w.0.y.0.0.D D D D D D D D D D D D D D D D D D D D D D D D D D D D D D D D D D D D A A D D D D D D D D A D D D D A D A D D D D D D D D D D D D D B D D D A e e 9 t 9 t 1 &.y.w.w.w.w.w...B D D D D D D A D D D D A D A D D D D D D D D D A A D D D D D D D D D D D D D D D D D D D A A D D D D D D D D A D D A D D A D D l 9 e t 9 e 5 A p.0.w.w.0.y.6.B K A D D D D D D D D D D D D D D D D D D D D D D D D D D D D D D D D D D D D D D D D D D D D D D D D D D D D D D D D D D D A A D D D D D D D D A D D D D A D A D D D D A K l 9 e e e t 5 D p.w.w.w.w.w.0.B D K D D D D D D D D D D D D D D D D A D D D D A D A D D D D D D D D D A A D D D D D D D D D D D D D D D D D D D A A D D D D D D D D A D D D D A D A D D D K t 9 t 9 e e 1 ^ p.w.0.y.0.w.:.B D D D A D D D D D D D D D D D D D D D D D D D D D D D D D D D D D D D D D D D D D D D D D D D D D D D D D D D D D D A A D D D D D D A D D D B e e e t 9 e e 6.w.w.y.w.0.p.P A D D D D D D D D D D D D D D D D D D D A A D D D D D D D D A D D D D A D A D D D D D D D D D A A D D D D D D D D ",
"e 9 9 e e e 5 &.y.w.w.y.6.p.' B D D D D D D D D D D D D A A D D D D D D D D D D A D K d 9 t 9 e e 5 W p.0.y.0.w.y.<.b D D A A A D D D D D D A A D D D D D D D D D D D D A A D D D D D D A D D D D A A D D D D D D D D D D D D D D D D D D D A A A D B 5 e 9 t 9 9 h y.0.y.0.y.0.w.K A D A D A D D A A D D D D D D D D D D D D D D D D D D D A A D D D D D D D D D D D D A A D D D D D D A D D D D D D D D D D D D D D D A A D D A D D D A A D D h 5 t 9 e t 5 A p.w.w.0.y.0.0.D D D D D A A D D D D D D D D A A D D D D A A D D D D D D D D A A D D D D D D D D D D D D A A D D D D D D A D D D A D A D D D D D D D B D D D A e e 9 t 9 t 1 &.y.w.w.w.w.w...B D D D D D A A D D D D D D A D D D D A A D D D D D D D D D D D D D D D D D D D A A D D D D D D D D D D D D A A D D A D D A D D l 9 e t 9 e 5 A p.0.w.w.0.y.6.B K A D D D D D D D D D D D D A A D D D D D D D D D D D D D D A A D D D D D D D D A A D D D D A A D D D D D D D D A A D D D D D D D D D D D D A A D D D D D D A D D D D A K l 9 e e e t 5 D p.w.w.w.w.w.0.B D K D D D D D D D D D D D D D D D A A D D D D D D A D D D D A A D D D D D D D D D D D D D D D D D D D A A D D D D D D D D D D D D A A D D D D D D A D D D K t 9 t 9 e e 1 ^ p.w.0.y.0.w.&.B D D D A D D D D D D D A A D D D D D D D D D D D D D D A A D D D D D D D D A A D D D D A A D D D D D D D D A A D D D D D D D D D D D A D D D B e e e t 9 e e 6.w.w.y.w.0.p.P A D D D D D D D D D D D D D D A A D D D D D D D D D D D D A A D D D D D D A D D D D A A D D D D D D D D D D D D D ",
"e 9 9 e e e 5 &.y.w.w.y.6.p.' B D D D D D D D D D D D A A D D D D D D D D D D D A D K d 9 t 9 e e 5 W p.0.y.0.w.y.<.b D D A A A D D D D D D D D D D D D D D D D D D D D D D D D D D D D D D D D D D D D D D D D D D D D D D D D D D D D D D D D A D B 5 e 9 e 9 9 h y.0.y.0.y.0.w.K A D A D A D D D D D D D D D D D D D D D D D D D D D D D D D D D D D D D D D D D D D D D D D D D D D D D D D D D D D D D D D D D D A A D D D A D D D A A D D h 5 t 9 e t 5 A p.w.w.0.y.0.0.D D D D A A D D D D D D D D D D D D D D A A D D D D D D D D D D D D D D D D D D D D D D D D D D D D D D D D D D D D D D D D D D D D D B D D D A e e 9 t 9 t 1 &.y.w.w.w.w.w...B D D D D D D D D D D D D D D D D D D D D D D D D D D D D D D D D D D D D D D D D D D D D D D D D D D D D D D D D D A D D A D D l 9 e t 9 e 5 A p.0.w.w.0.y.6.B K A D D D D D D D D D D D A A D D D D D D D D D D D D D D A A D D D D D D D D D D D D D D A A D D D D D D D D D D D D D D D D D D D D D D D D D D D D D D D D D D D D A K l 5 e e e t 5 D p.w.w.w.w.w.0.B D K D A D A D D D D D D D D D D D D D D D D D D D D D D D D D D D D D D D D D D D D D D D D D D D D D D D D D D D D D D D D D D D D D D D D D D D D D D D K t 9 t 9 e e 1 ^ p.w.0.y.0.w.:.B D D D A D D D D D D A A D D D D D D D D D D D D D D A A D D D D D D D D D D D D D D A A D D D D D D D D D D D D D D D D D D D D D D A D D D B e e e t 9 e e 6.w.w.w.w.0.p.P A D D D D D D D D D D D D D D D D D D D D D D D D D D D D D D D D D D D D D D D D D D D D D D D D D D D D D D D D ",
"e 9 9 e e e 5 &.y.w.w.y.6.p.' B D D D A D D D D D D D D D D D D D D D D D D D D A D K d 9 t 9 e e 5 W p.0.y.0.w.y.<.b D D A A A D D D D D D D D D D D D D D D D D D D A D D D D D D D D D D D D D D D D D D D D D D D A D D D D D D D D D D D D A D B 5 e 9 t 9 9 h y.0.y.0.y.0.w.K A D A D A D D D D D D D D D D D D A D D D D D D D D D D D D D D D D D D D D D D D A D D D D D D D D D D D D D D D D D D D D D D D D D D D D A D D D A A D D h 5 t 9 e t 5 A p.w.w.0.y.0.0.D D D D D D D D D A D D D D D D D D D D D D D D D D D D D D D D D D D D D D D D D D D D A D D D D D D D D D D D D D D D D D D D D D D B D D D A e e 9 t 9 t 1 &.y.w.w.w.w.w...B D D D D A D D D D D D D D D D D D D D D D D D D D D D D A D D D D D D D D D D D D D D D D D D D D D D D A D D D D A D D A D D l 9 e t 9 e 5 A p.0.w.w.0.y.6.B K A D D D D D A A D D D D D D D D D D D D D D D D D D D D D D D D D A D D D D D D D D D D D D D D D D D D D D D D D D D D D D D D D D D D A D D D D D D D D D D D D D A K h 5 e e e t 5 D p.w.w.w.w.w.0.B D K D A D A A D D D D D D D D D A D D D D D D D D D D D D D D D D D D D D D D D A D D D D D D D D D D D D D D D D D D D D D D D A D D D D D D D D D D D D K t 9 t 9 e e 1 ^ p.w.6.w.0.w.:.B D D D A D D D D D D D D D D D D D D D D D D D D D D D D D D D A D D D D D D D D D D D D D D D D D D D D D D D D D D D D D D D D D D A D D D B e e e t 9 e e 6.w.w.w.w.0.p.P A D D D A D D D D D D D D D D D D D D D D D D D D D D D A D D D D D D D D D D D D D D D D D D D D D D D A D D D D ",
"e 9 9 e e e 5 &.y.w.w.y.6.p.' B D D A A D A D D D D D D D D D D D D D D D D D D A D K d 9 t 9 e e 5 W p.0.y.0.w.y.<.b D D A A A D D D D D D D D D D D D D D D D D D D D D D D D D D D D D D D D D D D D D D D D D A D D D D D D D D D D D D D D A D B 5 e 9 t 9 9 h y.0.y.0.y.0.w.K A D A D A D D D D D D D D D D A D D D D D D D D D D D D D D D D D D D D D D D D D D D D D D D D D D D D D D D D D D D D D D D D D D D D D D A D D D A A D D h 5 t 9 e t 5 A p.w.w.0.y.0.0.D D D D D D D D D A D D D D D D D D D D D D D D D D D D D D D D D D D D D D D D D D D D D D D D D D D D D D D D D D D D D D D D D D D B D D D A e e 9 t 9 t 1 &.y.w.w.w.w.w...B D D D D D D D D D D D D D D D D D D D D D D D D D D A D D D D D D D D D D D D D D D D D D D D D D D D D D D D D D A D D A D D l 9 e t 9 e 5 A p.0.w.w.0.y.6.B K A D D D D D D D D D D D D D D D D D D D D D D D D D D D D D D D D A D D D D D D D D D D D D D D D D D D D D D D D D D D D D D D D D D D D D D D D D D D D D D D D D B K h 9 e e e t 5 D p.w.w.w.w.w.0.B D K D D D D D D D D D D A D D D D D D D D D D D D D D D D D D D D D D D D D A D D D D D D D D D D D D D D D D D D D D D D D D D D D D D D D D D D D D D D K t 9 t 9 e e 1 ^ p.w.6.y.0.w.:.B D D D A D D D D D D D D D D D D D D D D D D D D D D D D D D D A D D D D D D D D D D D D D D D D D D D D D D D D D D D D D D D D D D A D D D B e e e t 9 e e 6.w.w.w.w.0.p.P A D A D D D D D D D D D D D D D D D D D D D D D D D D D D D D D D D D D D D D D D D D D D D D D D D A D D D D D D ",
"e 9 9 e e e 5 &.y.w.w.y.6.p.' B D D D A D D D D D D D D D D D D D D D D D D D D A D K d 9 t 9 e e 5 W p.0.y.0.w.y.<.b D D A A A D D D D D D D A D D D D A D D D D D D D D D D D D D D D D D D D D D D D D D D D A A D D D D D D D D D D D D D A A D B 5 e 9 t 9 9 h y.0.y.0.y.0.w.K A D A D A D D D D D D D D D A A D D D D D D D D D D D D D A D D D D A D D D D D D D D D D D D D D D D D D D D D D D D D D D D D D D D D D D A D D D A A D D h 5 t 9 e t 5 A p.w.w.0.y.0.0.D D D D D D D D D A D D D D D D D D D D D D D D D D D D D D D D A D D D D A D D D D D D D D D D D D D D D D D D D D D D D D D D D D D B D D D A e e 9 t 9 t 1 &.y.w.w.w.w.w...B D D D D D D D D D D D D D D D D D D D D D D D D D A A D D D D D D D D D D D D D A D D D D A D D D D D D D D D D D A D D A D D l 9 e t 9 e 5 A p.0.w.w.0.y.6.B K A D D D D D D D D D D D D D D D D D D D D D D D D D D D D D D D D A D D D D D D D D D D D D D D D D D D D D D D A D D D D A D D D D D D D D D D D D D D D D D D D A B K h 9 e e e t 5 D p.w.w.w.w.w.0.B D K D D D D A D D D D A A D D D D D D D D D D D D D D D D D D D D D D D D A A D D D D D D D D D D D D D A D D D D A D D D D D D D D D D D D D D D D D D D K t 9 t 9 e e 1 ^ p.0.6.y.0.w.:.B D D D A D D D D D D D D D D D D D D D D D D D D D D D D D D D A D D D D D D D D D D D D D D D D D D D D D D A D D D D A D D D D D D A D D D B e e e e 9 e e 6.w.w.w.w.0.p.P A A A D D D D D D D D D D D D D A D D D D A D D D D D D D D D D D D D D D D D D D D D D D D D D D A A D D D D D D ",
"e 9 9 e e e 5 &.y.w.w.y.6.p.' B D D D D D D D D D D D D D D D D A A D D D D D A A D K d 9 t 9 e e 5 W p.0.y.0.w.y.<.b D D A A A D D D D D D D D D D A A D D D D D D D D D D D D D D D D D A A D D D D A D D D D D D D D D D D D D D D D D D D D A D B 5 e 9 t 9 9 h y.0.y.0.y.0.w.K A D A D A D D D D A D D D D D D D D D D D D D D D D D D D D D D A A D D D D D D D D D D D D D D D D D A A D D A D D D D D D D D D D D D D D A D D D A A D D h 5 t 9 e e 5 A p.w.w.0.y.0.0.D D D D D D D D D D D D D D D A A D D D D D D D D D D D D D D D D D D A A D D D D D D D D D D D D D D D D D A A D D A D D D D D D D D B D D D A e e 9 t 9 t 1 &.y.w.w.w.w.w.$.B D D D D D D D D D D D D D D A A D D D D A D D D D D D D D D D D D D D D D D D D D D D A A D D D D D D D D D D D D A D D A D D l 9 e t 9 e 5 A p.0.w.w.0.y.6.B K A D D D D A A D D D D D D D D D D D A D D D D D D D D D D D D D D D D D D D D A A D D D D D D D D D D D D D D D D D D A A D D D D D D D D D D D D D D D D D A A D D A K h 9 e e e t 5 D p.w.w.w.w.w.0.B D K D D D D D D D D D D D D D D D D D D D D D D D D A A D D D D A D D D D D D D D D D D D D D D D D D D D D D A A D D D D D D D D D D D D D D D D D A A D K t 9 t 9 e e 1 ^ p.w.0.y.0.w.:.B D D D A D D D D D D D D D D D D A D D D D D D D D D D D D D D D D D D D D A A D D D D D D D D D D D D D D D D D D A A D D D D D D D A D D D B e e e t 9 e e 6.w.w.w.w.0.p.P A D D D D D D D D D D D D D D D D D D A A D D D D D D D D D D D D D D D D D A A D D D D A D D D D D D D D D D D D ",
"e 9 9 e e e 5 &.y.w.w.y.6.p.' B D D D D D D D D D D D D D D D D D D D D D D A D A D K d 9 t 9 e e 5 W p.0.y.0.w.y.<.b D D A A A D D D D D D D A D D D D D D D D D D D D D D D D A A D D D D D D D D D A D A D D D D D D D D D D D D D D D D D A A D B 5 e 9 t 9 9 h y.0.y.0.y.0.w.K A D A D A D D D D A D A D D D D D D D D D D D D D D D D D A D D D D D D D D D D D D D D D D A A D D D D D D D A D D D A D A D D D D D D D D A D D D A A D D h 5 t 9 e e 5 A p.w.w.0.y.0.0.D D D D D D D D D D D D D D D D D D D D D D D D D D D D D D D D A D D D D D D D D D D D D D D D D A A D D D D D D D A D D D D D D D D B D D D A e e 9 t 9 t 1 &.y.w.w.w.w.w.$.B D D D D D D D D D A A D D D D D D D D D A D A D D D D D D D D D D D D D D D D D A D D D D D D D D D D D D D D D D A D D A D D l 9 e t 9 e 5 A p.0.w.w.0.y.6.B K A A D D D D D D D D D D D D D D D D A D D D A D A D D D D D D D D D D D D D D D D D D D D D D D D D D D D D D D A D D D D D D D D D D D D D D D D A A D D D D D D D A K l 9 e e e t 5 D p.w.w.w.w.w.0.B D K D D D D D D D D D D D D D D D D D D D A A D D D D D D D D D A D A D D D D D D D D D D D D D D D D D A D D D D D D D D D D D D D D D D A A D D D D D D K t 9 t 9 e e 1 ^ p.w.0.y.0.w.:.B D D D A D D D D D D D D D D D D A D D D A D A D D D D D D D D D D D D D D D D D D D D D D D D D D D D D D D A D D D D D D D D D D D A D D D B e e e t 9 e e 6.w.w.w.w.0.p.P A D D D D D D D D D D D D D D D A D D D D D D D D D D D D D D D D A A D D D D D D D D D A D A D D D D D D D D D D ",
"e 9 9 e e e 5 &.y.w.w.y.6.p.' B D D D D D D D D D D D D D D D D D D D D D D D D A D K d 9 t 9 e e 5 W p.0.y.0.w.y.<.b D D A A A D D D D D D D D D D D D D D D D D D D D D D D D D D D D D D D D D D D D D D D D D D D D D D D D D D D D D D D D A D B 5 e 9 t 9 9 h y.0.y.0.y.0.w.K A D A D A D D D D D D D D D D D D D D D D D D D D D D D D D D D D D D D D D D D D D D D D D D D D D D D D D D D D D D D D D D D D D D D D D D D D D D D D K h 5 t 9 e e 1 A p.w.w.0.y.0.0.D D D D D D D D D D D D D D D D D D D D D D D D D D D D D D D D D D D D D D D D D D D D D D D D D D D D D D D D D D D D D D D D D A D A A A D D e e 9 t 9 t 1 &.y.w.w.y.w.w...B D D D D D D D D D D D D D D D D D D D D D D D D D D D D D D D D D D D D D D D D D D D D D D D D D D D D D D D D D A D D A D D l 9 e t 9 e 5 A p.0.w.w.0.y.6.B K A D D D D D D D D D D D D D D D D D D D D D D D D D D D D D D D D D D D D D D D D D D D D D D D D D D D D D D D D D D D D D D D D D D D D D D D D D D A A D D D D D A K h 5 e e e t 5 D p.w.w.w.w.w.0.B A D A A D D D D D D D D D D D D D D D D D D D D D D D D D D D D D D D D D D D D D D D D D D D D D D D D D D D D D D D D D D D D D D D D D D D D D D D D D K t 9 t 9 e e 1 ^ p.w.0.y.0.w.:.B D D D A D D A D D D D D D D D D D D D D D D D D D D D D D D D D D D D D D D D D D D D D D D D D D D D D D D D D D D D D D D D D D D A D D D B e e e t 9 e e 6.w.w.w.w.0.p.P A D D D D D D D D D D D D D D D D D D D D D D D D D D D D D D D D D D D D D D D D D D D D D D D D D D D D D D D D ",
"e 9 9 e e e 5 &.y.w.w.y.6.p.' B D D D D D D D D D D D D D D D D D D D D D D D D A D K d 9 t 9 e e 5 W p.0.y.0.w.y.<.b D D A A A D D D D D D D D D D D D D D D D D D D D D D D D D D D D D D D D D D D D D D D D D D D D D D D D D D D D D D D D A D B 5 e 9 t 9 9 h y.0.y.0.y.0.w.K A D A D A D D D D D D D D D D D D D D D D D D D D D D D D D D D D D D D D D D D D D D D D D D D D D D D D D D D D D D D D D D D D D D D D D A D D D A D D K h 5 t 9 e e 1 A p.w.w.0.y.0.0.D D D D D D D D D D D D D D D D D D D D D D D D D D D D D D D D D D D D D D D D D D D D D D D D D D D D D D D D D D D D D D D D D A K A A A D D e e 9 t 9 t 1 &.y.w.w.y.w.w...B D D D D D D D D D D D D D D D D D D D D D D D D D D D D D D D D D D D D D D D D D D D D D D D D D D D D D D D D D A D D A D D l 9 e t 9 e 5 A p.0.w.w.0.y.6.B K A D D D D D D D D D D D D D D D D D D D D D D D D D D D D D D D D D D D D D D D D D D D D D D D D D D D D D D D D D D D D D D D D D D D D D D D D D D D A D D D D D A K h 5 e e e t 5 D p.w.w.w.w.w.0.B A D A A D D D D D D D D D D D D D D D D D D D D D D D D D D D D D D D D D D D D D D D D D D D D D D D D D D D D D D D D D D D D D D D D D D D D D D D D D K t 9 t 9 e e 1 ^ p.w.0.y.0.w.:.B D D D A D D A D D D D D D D D D D D D D D D D D D D D D D D D D D D D D D D D D D D D D D D D D D D D D D D D D D D D D D D D D D D A D D D B e e e t 9 e e 6.w.w.w.w.0.p.P A D D D D D D D D D D D D D D D D D D D D D D D D D D D D D D D D D D D D D D D D D D D D D D D D D D D D D D D D ",
"e 9 9 e e e 5 &.y.w.w.y.6.p.' B D D D D D D D D D D D D D D D D D D D D D D D D A D K d 9 t 9 e e 5 W p.0.y.0.w.y.<.b D D A A A D D D D D D D D D D D D D D D D D D D D D D D D D D D D D D D D D D D D D D D D D D D D D D D D D D D D D A D D A D B 5 e 9 t 9 9 h y.0.y.0.y.0.w.K A D A D A D D D D D D D D D D D D D D D D D D D D D D D D D D D D D D D D D D D D D D D D D D D D D D D D D D D D D D D D D D D D D D D D D A D D D A A D K h 5 t 9 e e 5 A p.w.w.0.y.0.0.D D D D D D D D D D D D D D D D D D D D D D D D D D D D D D D D D D D D D D D D D D D D D D D D D D D D D D D D D D D D D D D D D A K A A A D D e e 9 t 9 t 1 &.y.w.w.y.w.w...B D D D D D D D D D D D D D D D D D D D D D D D D D D D D D D D D D D D D D D D D D D D D D D D D D D D D D D D D D A D D A D D l 9 e t 9 e 5 A p.0.w.w.0.y.6.B K A D D D D D D D D D D D D D D D D D D D D D D D D D D D D D D D D D D D D D D D D D D D D D D D D D D D D D D D D D D D D D D D D D D D D D D D D D D D D D D D D D B K h 9 e e e t 5 D p.w.w.w.w.w.0.B A D A A D D D D D D D D D D D D D D D D D D D D D D D D D D D D D D D D D D D D D D D D D D D D D D D D D D D D D D D D D D D D D D D D D D D D D D D D D K t 9 t 9 e e 1 ^ p.w.0.y.0.w.:.B D D D A D D A D D D D D D D D D D D D D D D D D D D D D D D D D D D D D D D D D D D D D D D D D D D D D D D D D D D D D D D D A D D A A D D B e e e t 9 e e 6.w.w.w.w.0.p.P A D D D D D D D D D D D D D D D D D D D D D D D D D D D D D D D D D D D D D D D D D D D D D D D D D D D D D D D D ",
"e 9 9 e e e 5 &.y.w.w.y.6.p.' B D D D D D D D D D D D D D D D D D D D D D D D D A D K d 9 t 9 e e 5 W p.0.y.0.w.y.<.b D D A A A D D D D D D D D D D D D D D D D D D D D D D D D D D D D D D D D D D D D D D D D D D D D D D D D A D D D D A D D A D B 5 e 9 t 9 9 h y.0.y.0.y.0.w.K A D A D A D D D D D D D D D D D D D D D D D D D D D D D D D D D D D D D D D D D D D D D D D D D D D D D D D D D D D D D D D D D D D D D D D A D D D A A D D h 5 t 9 e t 5 A p.w.w.0.y.0.0.D D D D D D D D D D D D D D D D D D D D D D D D D D D D D D D D D D D D D D D D D D D D D D D D D D D D D D D D D D D D D D D D D A K A A A D D e e 9 t 9 t 1 &.y.w.w.y.w.w...B D D D D D D D D D D D D D D D D D D D D D D D D D D D D D D D D D D D D D D D D D D D D D D D D D D D D D D D D D A D D A D D l 9 e t 9 e 5 A p.0.w.w.0.y.6.B K A D D D D D D D D D D D D D D D D D D D D D D D D D D D D D D D D D D D D D D D D D D D D D D D D D D D D D D D D D D D D D D D D D D D D D D D D D D D D D D D D D A K h 9 e e e t 5 D p.w.w.w.w.w.0.B A D A A D D D D D D D D D D D D D D D D D D D D D D D D D D D D D D D D D D D D D D D D D D D D D D D D D D D D D D D D D D D D D D D D D D D D D D D D D K t 9 t 9 e e 1 ^ p.w.0.y.0.w.:.B A D D A D D A D D D D D D D D D D D D D D D D D D D D D D D D D D D D D D D D D D D D D D D D D D D D D D D D D D D D D D D D A D D A A D D B e e e t 9 e e 6.w.w.w.w.0.p.P A D D D D D D D D D D D D D D D D D D D D D D D D D D D D D D D D D D D D D D D D D D D D D D D D D D D D D D D D ",
"e 9 9 e e e 5 &.y.w.w.y.6.p.' B D D D D D D D D D D D D D D D D D D D D D D D D A D K d 9 t 9 e e 5 W p.0.y.0.w.y.<.b D D A A A D D D D D D D D D D D D D D D D D D D D D D D D D D D D D D D D D D D D D D D D D D D D D D D D A D D D D D D D A D B 5 e 9 t 9 9 h y.0.y.0.y.0.w.K A D A D A D D D D D D D D D D D D D D D D D D D D D D D D D D D D D D D D D D D D D D D D D D D D D D D D D D D D D D D D D D D D D D D D D A D D D A A D D h 5 t 9 e t 5 A p.w.w.0.y.0.0.D D D D D D D D D D D D D D D D D D D D D D D D D D D D D D D D D D D D D D D D D D D D D D D D D D D D D D D D D D D D D D D D D A K A A A D D e e 9 t 9 t 1 &.y.w.w.y.w.w...B D D D D D D D D D D D D D D D D D D D D D D D D D D D D D D D D D D D D D D D D D D D D D D D D D D D D D D D D D A D D A D D l 9 e t 9 e 5 A p.0.w.w.0.y.6.B K A D D D D D D D D D D D D D D D D D D D D D D D D D D D D D D D D D D D D D D D D D D D D D D D D D D D D D D D D D D D D D D D D D D D D D D D D D D D D D D D D D B K l 9 e e 9 t 5 D p.w.w.w.w.w.0.B A D A A D D D D D D D D D D D D D D D D D D D D D D D D D D D D D D D D D D D D D D D D D D D D D D D D D D D D D D D D D D D D D D D D D D D D D D D D D K t 9 t 9 e e 1 ^ p.0.0.y.0.w.:.B A D A A D D A D D D D D D D D D D D D D D D D D D D D D D D D D D D D D D D D D D D D D D D D D D D D D D D D D D D D D D D D A D D A A D A B e e e t 9 e e 6.w.w.w.w.0.p.P A D D D D D D D D D D D D D D D D D D D D D D D D D D D D D D D D D D D D D D D D D D D D D D D D D D D D D D D D ",
"e 9 9 e e e 5 &.y.w.w.y.6.p.' B A A A A A A A A A A A A A A A A A A A A A A A A A D K d 9 t 9 e e 5 W p.0.y.0.w.y.<.b D D A A A A A A A A A A A A A A A A A A A A A A A A A A A A A A A A A A A A A A A A A A A A A A A A A A A D D D D D D D D A D B 5 e 9 t 9 9 h y.0.y.0.y.0.w.K A D A D A D A A A A A A A A A A A A A A A A A A A A A A A A A A A A A A A A A A A A A A A A A A A A A A A A A A A A A A A A A A A A A A A A A A D A A A D D h 5 t 9 e t 5 A p.w.w.0.y.0.0.D A A A A A A A A A A A A A A A A A A A A A A A A A A A A A A A A A A A A A A A A A A A A A A A A A A A A A A A A A A A A A A A A A K A A A D D e e 9 t 9 t 1 &.y.w.w.y.w.w...B D A A A A A A A A A A A A A A A A A A A A A A A A A A A A A A A A A A A A A A A A A A A A A A A A A A A A A A A A A D D A D D l 9 e t 9 e 5 A p.0.w.w.0.y.6.B K A A A A A A A A A A A A A A A A A A A A A A A A A A A A A A A A A A A A A A A A A A A A A A A A A A A A A A A A A A A A A A A A A A A A A A A A A D D A D D D D D D A K l 9 e e e t 5 D p.w.w.w.w.w.0.B A D A A D A A A A A A A A A A A A A A A A A A A A A A A A A A A A A A A A A A A A A A A A A A A A A A A A A A A A A A A A A A A A A A A A A A A A A A A A K t 9 t 9 e e 1 ^ p.w.0.y.0.w.:.B A D A A D D A A A A A A A A A A A A A A A A A A A A A A A A A A A A A A A A A A A A A A A A A A A A A A A A A A A A A A A A A A D A A A D A B e e e t 9 e e 6.w.w.w.w.w.f.P A A A A A A A A A A A A A A A A A A A A A A A A A A A A A A A A A A A A A A A A A A A A A A A A A A A A A A A A A ",
"e 9 9 e e e 5 &.y.w.w.y.6.p.' B A A A A A A A A A A A A A A A A A A A A A A A A A D K d 9 t 9 e e 5 W p.0.y.0.w.y.<.b D D A A A A A A A A A A A A A A A A A A A A A A A A A A A A A A A A A A A A A A A A A A A A A A A A A A A D D D D D D D D A D B 5 e 9 t 9 9 h y.0.y.0.y.0.w.K A D A D A D A A A A A A A A A A A A A A A A A A A A A A A A A A A A A A A A A A A A A A A A A A A A A A A A A A A A A A A A A A A A A A A A A A D A A A D D h 5 t 9 e t 5 A p.w.w.0.y.0.0.D A A A A A A A A A A A A A A A A A A A A A A A A A A A A A A A A A A A A A A A A A A A A A A A A A A A A A A A A A A A A A A A A A K A A A D D e e 9 t 9 t 1 &.y.w.w.y.w.w...B D A A A A A A A A A A A A A A A A A A A A A A A A A A A A A A A A A A A A A A A A A A A A A A A A A A A A A A A A A D D A D D l 9 e t 9 e 5 A p.0.w.w.0.y.6.B K A A A A A A A A A A A A A A A A A A A A A A A A A A A A A A A A A A A A A A A A A A A A A A A A A A A A A A A A A A A A A A A A A A A A A A A A A D D D D D D D D D A K l 9 e e e t 5 D p.w.w.w.w.w.0.B A D A A D A A A A A A A A A A A A A A A A A A A A A A A A A A A A A A A A A A A A A A A A A A A A A A A A A A A A A A A A A A A A A A A A A A A A A A A A K t 9 t 9 e e 1 W p.w.0.y.0.w.&.B A D A A D D A A A A A A A A A A A A A A A A A A A A A A A A A A A A A A A A A A A A A A A A A A A A A A A A A A A A A A A A A A D A A A D A B e e e t 9 e e 6.w.w.w.w.0.p.P A A A A A A A A A A A A A A A A A A A A A A A A A A A A A A A A A A A A A A A A A A A A A A A A A A A A A A A A A ",
"e 9 9 e e e 5 &.y.w.w.y.6.p.' B A A A A A A A A A A A A A A A A A A A A A A A A A D K d 9 t 9 e e 5 W p.0.y.0.w.y.<.b D D A A A A A A A A A A A A A A A A A A A A A A A A A A A A A A A A A A A A A A A A A A A A A A A A A A A D D D D D D D D A D B 5 e 9 t 9 9 h y.0.y.0.y.0.w.K A D A D A D A A A A A A A A A A A A A A A A A A A A A A A A A A A A A A A A A A A A A A A A A A A A A A A A A A A A A A A A A A A A A A A A A A A A A A D D h 5 t 9 e t 5 A p.w.w.0.y.0.0.D A A A A A A A A A A A A A A A A A A A A A A A A A A A A A A A A A A A A A A A A A A A A A A A A A A A A A A A A A A A A A A A A A K A A A D D e e 9 t 9 t 1 &.y.w.w.y.w.w...B D A A A A A A A A A A A A A A A A A A A A A A A A A A A A A A A A A A A A A A A A A A A A A A A A A A A A A A A A A D D A D D l 9 e t 9 e 5 A p.0.w.w.0.y.6.B K A A A A A A A A A A A A A A A A A A A A A A A A A A A A A A A A A A A A A A A A A A A A A A A A A A A A A A A A A A A A A A A A A A A A A A A A A D D D D A A D D A B K l 9 e e e t 5 D p.w.w.w.w.w.0.B A D A A D A A A A A A A A A A A A A A A A A A A A A A A A A A A A A A A A A A A A A A A A A A A A A A A A A A A A A A A A A A A A A A A A A A A A A A A A K t 9 t 9 e e 1 W p.w.0.y.0.w.&.B A D A A A A A A A A A A A A A A A A A A A A A A A A A A A A A A A A A A A A A A A A A A A A A A A A A A A A A A A A A A A A A A D A A A D A B e e e t 9 e e 6.w.w.w.w.0.f.P A A A A A A A A A A A A A A A A A A A A A A A A A A A A A A A A A A A A A A A A A A A A A A A A A A A A A A A A A ",
"e 9 9 e e e 5 &.w.w.w.w.y.0. .D K K K K K K K K K K K K K K K K K K K K K K K K P D ^ e 5 t e 9 e 9 W p.0.y.0.y.y.&.W A D K P K K K K K K K K K K K K K K K K K K K K K K K K K K K K K K K K K K K K K K K K K K K K K K K K K P D W D B K D A A D B 5 e 9 t 9 9 h y.0.y.w.y.0.6.( D K P D A K K K K K K K K K K K K K K K K K K K K K K K K K K K K K K K K K K K K K K K K K K K K K K K K K K K K K K K K K K K K K K K K K D K K D K D D W b > t t 9 9 5 B p.y.w.0.0.w.:.P K K K K K K K K K K K K K K K K K K K K K K K K K K K K K K K K K K K K K K K K K K K K K K K K K K K K K K K K K K K K K K K K D K K D D D ' 9 e 5 d 5 t 5 $.y.0.0.y.p.0...P D K K K K K K K K K K K K K K K K K K K K K K K K K K K K K K K K K K K K K K K K K K K K K K K K K K K K K K K K K K K K A W h e e e 9 t 9 A p.w.w.0.w.p.<.W A K K K K K K K K K K K K K K K K K K K K K K K K K K K K K K K K K K K K K K K K K K K K K K K K K K K K K K K K K K K K K K K K K K K K K K K K K P K A ' A B D A D A K h 5 e e e e 5 A p.w.w.w.w.y.&.W A D K K K K K K K K K K K K K K K K K K K K K K K K K K K K K K K K K K K K K K K K K K K K K K K K K K K K K K K K K K K K K K K K K K K K K K K K K K K P e 5 t e 9 9 5 ^ f.0.y.w.0.0.<.K K K K K K K K K K K K K K K K K K K K K K K K K K K K K K K K K K K K K K K K K K K K K K K K K K K K K K K K K K K K K K K K K P K P K K W B 9 e 9 t e 9 t 6.y.0.0.y.y.6.' D K K K K K K K K K K K K K K K K K K K K K K K K K K K K K K K K K K K K K K K K K K K K K K K K K K K K K K K K ",
"e 9 9 e e e 5 &.w.w.0.0.y.p.y.6.w.w.w.w.w.w.w.w.p.p.p.p.p.p.p.p.p.p.p.p.p.p.p.p.w.<.y.D t d t t e 9 W p.0.y.0.y.y.w.0.0.w.y.w.w.p.p.p.p.p.p.p.p.p.p.p.p.p.p.p.p.p.p.p.p.p.p.p.p.p.p.p.p.p.p.p.p.p.p.p.p.p.p.p.p.p.p.p.p.p.p.p.p.p.w.y...K D A A A D B 5 e 9 t 9 9 h y.0.y.w.y.0.y.6.<.0.y.0.0.w.p.p.p.p.p.p.p.p.p.p.p.p.p.p.p.p.p.p.p.p.p.p.p.p.p.p.p.p.p.p.p.p.p.p.p.p.p.p.p.p.p.p.p.p.p.p.p.p.p.p.p.p.p.p.p.p.p.p.p.p.p.p.p.p.y.p.y.y.p.y.y.k.D 5 t t 9 9 9 A y.w.w.0.0.p.p.6.p.p.p.p.p.p.p.p.p.p.p.p.p.p.p.p.p.p.p.p.p.p.p.p.p.p.p.p.p.p.p.p.p.p.p.p.p.p.p.p.p.p.p.p.p.p.p.p.p.p.p.p.p.p.p.p.p.p.p.p.p.p.p.p.y.y.w.w.y.6.w.h e 5 d 5 t 5 $.y.w.w.w.y.y.0.0.0.p.p.p.p.p.p.p.p.p.p.p.p.p.p.p.p.p.p.p.p.p.p.p.p.p.p.p.p.p.p.p.p.p.p.p.p.p.p.p.p.p.p.p.p.p.p.p.p.p.p.p.p.p.p.p.p.w.w.w.w.6.0.D e e e 9 t 9 A p.w.0.6.w.f.p.0.w.k.p.p.p.p.p.p.p.p.p.p.p.p.p.p.p.p.p.p.p.p.p.p.p.p.p.p.p.p.p.p.p.p.p.p.p.p.p.p.p.p.p.p.p.p.p.p.p.p.p.p.p.p.p.p.p.p.p.p.p.p.p.p.p.p.p.p.p.p.p.p.p.p.p.y.0.y.^ A D A D A K l 5 e e e e 5 A p.w.w.w.w.p.w.0.0.0.w.w.w.p.p.p.p.p.p.p.p.p.p.p.p.p.p.p.p.p.p.p.p.p.p.p.p.p.p.p.p.p.p.p.p.p.p.p.p.p.p.p.p.p.p.p.p.p.p.p.p.p.p.p.p.p.p.p.p.p.p.p.p.p.p.p.p.p.p.p.p.p.p.p.p.0.A e t e 9 9 5 ^ f.0.y.w.0.w.6.p.p.p.p.p.p.p.p.p.p.p.p.p.p.p.p.p.p.p.p.p.p.p.p.p.p.p.p.p.p.p.p.p.p.p.p.p.p.p.p.p.p.p.p.p.p.p.p.p.p.p.p.p.p.p.p.p.p.p.p.p.p.p.p.w.p.w.y.w.w.p.<.9 e 9 t e 9 t 6.w.0.0.w.y.y.w.6.w.w.w.w.w.w.w.w.p.p.p.p.p.p.p.p.p.p.p.p.p.p.p.p.p.p.p.p.p.p.p.p.p.p.p.p.p.p.p.p.p.p.p.p.p.p.p.p.p.p.p.p.p.p.p.p.",
"e 9 9 e e e 5 &.y.y.w.0.0.y.p.f.0.0.0.0.0.0.0.0.6.6.6.6.6.6.6.6.6.6.6.6.6.6.6.6.y.0.p.A 5 5 9 e e 9 W p.0.y.0.y.6.0.y.p.p.y.y.y.6.6.6.6.6.6.6.6.6.6.6.6.6.6.6.6.6.6.6.6.6.6.6.6.6.6.6.6.6.6.6.6.6.6.6.6.6.6.6.6.6.6.6.6.6.6.6.6.0.6.w. .B A A P A D B 5 e 9 e 9 9 h y.0.y.w.y.0.0.0.w.p.y.w.w.y.6.6.6.6.6.6.6.6.6.6.6.6.6.6.6.6.6.6.6.6.6.6.6.6.6.6.6.6.6.6.6.6.6.6.6.6.6.6.6.6.6.6.6.6.6.6.6.6.6.6.6.6.6.6.6.6.6.6.6.6.6.6.6.6.6.0.6.6.0.<.<.w.W 9 t e 5 e 9 A p.w.w.w.0.w.p.p.6.6.6.6.6.6.6.6.6.6.6.6.6.6.6.6.6.6.6.6.6.6.6.6.6.6.6.6.6.6.6.6.6.6.6.6.6.6.6.6.6.6.6.6.6.6.6.6.6.6.6.6.6.6.6.6.6.6.6.6.6.6.6.6.0.0.0.w.p.0.6.9 e 5 d 5 t 5 $.y.y.w.0.0.w.w.p.f.6.6.6.6.6.6.6.6.6.6.6.6.6.6.6.6.6.6.6.6.6.6.6.6.6.6.6.6.6.6.6.6.6.6.6.6.6.6.6.6.6.6.6.6.6.6.6.6.6.6.6.6.6.6.6.6.y.w.w.p.p.p.D 1 e t 9 t 9 A p.w.y.w.0.0.6.6.0.y.6.6.6.6.6.6.6.6.6.6.6.6.6.6.6.6.6.6.6.6.6.6.6.6.6.6.6.6.6.6.6.6.6.6.6.6.6.6.6.6.6.6.6.6.6.6.6.6.6.6.6.6.6.6.6.6.6.6.6.6.6.6.6.6.6.6.6.6.6.6.6.6.6.w.0.y.W B K K D A K l 9 e e e e 5 A p.w.w.w.w.6.w.y.p.p.y.y.y.6.6.6.6.6.6.6.6.6.6.6.6.6.6.6.6.6.6.6.6.6.6.6.6.6.6.6.6.6.6.6.6.6.6.6.6.6.6.6.6.6.6.6.6.6.6.6.6.6.6.6.6.6.6.6.6.6.6.6.6.6.6.6.6.6.6.6.6.6.6.6.6.f.D 5 9 e e e 5 ( f.0.y.w.w.y.w.6.6.6.6.6.6.6.6.6.6.6.6.6.6.6.6.6.6.6.6.6.6.6.6.6.6.6.6.6.6.6.6.6.6.6.6.6.6.6.6.6.6.6.6.6.6.6.6.6.6.6.6.6.6.6.6.6.6.6.6.6.6.6.6.0.w.0.w.0.0.y.&.9 e 9 t e 9 t 6.y.w.w.0.0.w.p.f.0.0.0.0.0.0.0.0.6.6.6.6.6.6.6.6.6.6.6.6.6.6.6.6.6.6.6.6.6.6.6.6.6.6.6.6.6.6.6.6.6.6.6.6.6.6.6.6.6.6.6.6.6.6.6.6.",
"e 9 9 e e e 5 &.y.y.y.w.0.0.0.w.w.w.w.w.w.w.w.w.y.y.y.y.y.y.y.y.y.y.y.y.y.y.y.y.0.6.p.B 5 9 t d e 9 W p.0.y.0.y.w.w.y.w.0.6.6.0.y.y.y.y.y.y.y.y.y.y.y.y.y.y.y.y.y.y.y.y.y.y.y.y.y.y.y.y.y.y.y.y.y.y.y.y.y.y.y.y.y.y.y.y.y.y.y.y.w.w.y. .B B A K A D B 5 e 9 t 9 9 h y.0.y.w.y.0.w.y.y.0.6.0.0.w.y.y.y.y.y.y.y.y.y.y.y.y.y.y.y.y.y.y.y.y.y.y.y.y.y.y.y.y.y.y.y.y.y.y.y.y.y.y.y.y.y.y.y.y.y.y.y.y.y.y.y.y.y.y.y.y.y.y.y.y.y.y.y.y.y.p.y.y.y.w.w.f.^ 9 e e 9 e 9 A y.0.w.p.0.6.0.0.y.y.y.y.y.y.y.y.y.y.y.y.y.y.y.y.y.y.y.y.y.y.y.y.y.y.y.y.y.y.y.y.y.y.y.y.y.y.y.y.y.y.y.y.y.y.y.y.y.y.y.y.y.y.y.y.y.y.y.y.y.y.y.y.y.w.w.w.f.p.p.h e 5 d 5 t 5 $.y.w.0.0.0.0.0.0.0.y.y.y.y.y.y.y.y.y.y.y.y.y.y.y.y.y.y.y.y.y.y.y.y.y.y.y.y.y.y.y.y.y.y.y.y.y.y.y.y.y.y.y.y.y.y.y.y.y.y.y.y.y.y.y.y.0.6.6.0.w.p.K 5 e t 9 t 9 A p.w.w.w.w.0.0.w.0.6.y.y.y.y.y.y.y.y.y.y.y.y.y.y.y.y.y.y.y.y.y.y.y.y.y.y.y.y.y.y.y.y.y.y.y.y.y.y.y.y.y.y.y.y.y.y.y.y.y.y.y.y.y.y.y.y.y.y.y.y.y.y.y.y.y.y.y.y.y.y.y.y.0.w.0.y.P B D D D B K l 9 e e e e 5 A p.w.w.w.w.w.y.y.w.0.6.6.0.y.y.y.y.y.y.y.y.y.y.y.y.y.y.y.y.y.y.y.y.y.y.y.y.y.y.y.y.y.y.y.y.y.y.y.y.y.y.y.y.y.y.y.y.y.y.y.y.y.y.y.y.y.y.y.y.y.y.y.y.y.y.y.y.y.y.y.y.y.y.y.y.y.B 1 9 t t e 5 ^ f.6.y.0.w.y.w.y.y.y.y.y.y.y.y.y.y.y.y.y.y.y.y.y.y.y.y.y.y.y.y.y.y.y.y.y.y.y.y.y.y.y.y.y.y.y.y.y.y.y.y.y.y.y.y.y.y.y.y.y.y.y.y.y.y.y.y.y.y.y.y.w.y.w.y.w.w.p.:.9 e 9 t e 9 t 6.y.y.y.w.0.0.0.0.w.w.w.w.w.w.w.w.y.y.y.y.y.y.y.y.y.y.y.y.y.y.y.y.y.y.y.y.y.y.y.y.y.y.y.y.y.y.y.y.y.y.y.y.y.y.y.y.y.y.y.y.y.y.y.y.",
"e 9 9 e e e 5 &.w.w.w.y.y.y.w.0.0.0.0.0.0.0.0.0.0.0.0.0.0.0.0.w.0.0.0.0.0.0.0.0.y.w.f.A 9 e t t e 9 W p.0.y.0.y.y.y.w.w.w.w.y.y.0.0.0.0.0.0.0.0.w.w.w.0.0.0.0.0.0.w.w.0.0.0.0.0.0.0.0.0.0.0.0.0.w.w.w.0.0.0.0.0.w.w.w.w.0.0.0.0.y.y.p...A D D D A D B 5 e 9 t 9 9 h y.0.y.w.y.0.y.y.w.0.0.y.p.y.w.w.w.0.0.0.0.0.w.w.w.w.0.0.0.0.0.0.0.0.0.0.0.0.w.w.w.0.0.0.0.0.w.w.w.w.0.0.0.0.0.0.0.0.0.0.0.0.0.0.0.0.w.w.w.w.0.0.0.0.0.0.0.w.0.w.w.0.w.0.0.p.W 5 9 e e e 9 B y.6.0.p.y.w.w.w.0.0.0.0.0.0.0.w.0.0.0.0.w.w.w.w.0.0.0.0.0.0.0.w.w.w.w.0.0.0.0.0.w.w.w.w.0.0.0.0.0.0.0.0.0.0.0.0.w.w.w.0.0.0.0.0.w.w.w.w.0.0.0.0.0.w.0.6.0.0.0.t e 5 d 5 t 5 $.y.0.w.y.y.y.y.w.w.w.w.w.0.0.0.0.0.w.w.w.w.0.0.0.0.0.0.0.0.0.0.0.0.w.w.w.0.0.0.0.0.w.w.w.w.0.0.0.0.0.0.0.0.0.0.0.0.w.w.w.0.0.0.0.0.y.y.w.w.0.p.P 9 e t 9 t 9 A p.w.0.w.w.w.y.p.y.0.0.0.0.0.w.w.w.w.0.0.0.0.0.0.0.w.0.0.0.0.w.w.w.w.0.0.0.0.0.0.0.w.0.0.0.0.w.w.w.w.0.0.0.0.0.0.0.w.0.0.0.0.0.0.0.0.w.w.w.0.0.0.0.0.w.w.w.w.0.0.0.0.y.p.w.p.^ A D A D A K l 9 e e 9 e 5 A p.w.w.w.w.y.y.w.0.0.w.y.y.w.w.w.0.0.0.0.0.w.w.w.w.0.0.0.0.0.0.0.0.0.0.0.0.w.w.w.0.0.0.0.0.w.w.w.w.0.0.0.0.0.0.0.0.0.0.0.0.w.w.w.0.0.0.0.0.w.w.w.w.0.0.0.0.0.0.0.0.0.0.0.0.p.A 5 t t e e 1 ^ p.6.w.0.w.y.w.w.w.w.w.w.w.w.w.0.0.0.0.0.0.0.w.0.0.0.0.w.w.w.w.0.0.0.0.0.0.0.w.0.0.0.0.w.w.w.w.0.0.0.0.0.0.0.0.w.w.w.0.0.0.0.0.w.w.w.w.0.0.0.0.0.w.6.0.6.6.w.&.9 e 9 t e 9 t 6.w.w.w.w.y.y.w.0.0.0.0.0.0.0.0.0.w.w.w.0.0.0.0.0.w.w.w.w.0.0.0.0.w.w.w.0.0.0.0.0.w.w.w.w.0.0.0.0.0.0.0.0.0.0.0.0.w.w.w.0.0.0.0.0.",
"e 9 9 e e e 5 &.y.0.6.0.y.y.w.w.y.y.y.y.y.y.y.y.w.w.w.w.w.w.w.w.w.w.w.w.w.w.w.w.w.6.y.b 5 9 9 5 e 9 W p.0.y.0.y.0.0.0.0.w.w.w.0.w.w.w.w.w.w.w.w.w.w.w.w.w.w.w.w.w.w.w.w.w.w.w.w.w.w.w.w.w.w.w.w.w.w.w.w.w.w.w.w.w.w.w.w.w.w.w.w.6.6.0.' A K D A A D B 5 e 9 t 9 9 h y.0.y.w.y.0.0.0.0.0.w.w.0.6.w.w.w.w.w.w.w.w.w.w.w.w.w.w.w.w.w.w.w.w.w.w.w.w.w.w.w.w.w.w.w.w.w.w.w.w.w.w.w.w.w.w.w.w.w.w.w.w.w.w.w.w.w.w.w.w.w.w.w.w.w.w.w.w.w.y.w.w.w.0.0.p.P 1 9 t e e 5 A f.0.6.w.w.w.y.w.w.w.w.w.w.w.w.w.w.w.w.w.w.w.w.w.w.w.w.w.w.w.w.w.w.w.w.w.w.w.w.w.w.w.w.w.w.w.w.w.w.w.w.w.w.w.w.w.w.w.w.w.w.w.w.w.w.w.w.w.w.w.w.w.0.y.p.y.p.w.y.d e 5 d 5 t 5 $.y.w.w.w.w.w.y.y.w.w.w.w.w.w.w.w.w.w.w.w.w.w.w.w.w.w.w.w.w.w.w.w.w.w.w.w.w.w.w.w.w.w.w.w.w.w.w.w.w.w.w.w.w.w.w.w.w.w.w.w.w.w.w.w.w.0.w.w.w.0.y.D 1 e t 9 t 9 A p.w.w.w.0.6.6.6.6.6.w.w.w.w.w.w.w.w.w.w.w.w.w.w.w.w.w.w.w.w.w.w.w.w.w.w.w.w.w.w.w.w.w.w.w.w.w.w.w.w.w.w.w.w.w.w.w.w.w.w.w.w.w.w.w.w.w.w.w.w.w.w.w.w.w.w.w.w.w.w.w.w.6.6.<.w.W A D A D A K l 9 e e 9 e 5 A p.w.w.w.w.0.0.6.0.w.w.w.0.w.w.w.w.w.w.w.w.w.w.w.w.w.w.w.w.w.w.w.w.w.w.w.w.w.w.w.w.w.w.w.w.w.w.w.w.w.w.w.w.w.w.w.w.w.w.w.w.w.w.w.w.w.w.w.w.w.w.w.w.w.w.w.w.w.w.w.w.w.w.w.w.p.A 5 e e 9 e 9 ^ p.6.w.0.w.y.w.w.w.w.w.w.w.w.w.w.w.w.w.w.w.w.w.w.w.w.w.w.w.w.w.w.w.w.w.w.w.w.w.w.w.w.w.w.w.w.w.w.w.w.w.w.w.w.w.w.w.w.w.w.w.w.w.w.w.w.w.w.w.w.w.w.p.w.y.w.w.p.<.9 e 9 t e 9 t 6.y.0.6.0.w.y.w.w.y.y.y.y.y.y.y.y.w.w.w.w.w.w.w.w.w.w.w.w.w.w.w.w.w.w.w.w.w.w.w.w.w.w.w.w.w.w.w.w.w.w.w.w.w.w.w.w.w.w.w.w.w.w.w.w.",
"e 9 9 e e e 5 &.f.w.0.0.w.0.0.w.0.0.0.0.0.0.0.0.w.w.w.w.w.w.w.w.w.w.w.w.w.w.w.w.w.0.p.B 5 t t e e 9 W p.0.y.0.y.w.w.y.y.y.w.0.0.w.w.w.w.y.w.w.w.y.y.w.w.w.w.w.w.w.w.w.w.w.w.w.w.w.w.w.w.y.w.w.w.y.y.w.w.w.w.w.w.w.w.w.w.w.w.w.w.p.p.f. .A D A B A D B 5 e 9 t 9 9 h y.0.y.w.y.0.y.y.y.y.y.w.0.6.y.y.w.w.w.w.w.w.w.w.w.w.w.w.w.w.w.w.w.w.y.w.w.w.y.y.w.w.w.w.w.w.w.w.w.w.w.w.w.w.w.w.w.w.y.w.w.w.w.w.w.w.y.y.w.w.w.w.w.w.w.w.w.w.w.y.w.w.y.0.0.p.W 5 9 t e 9 5 A f.w.0.0.0.0.w.0.w.w.w.w.w.w.w.w.w.w.w.w.y.y.w.w.w.w.w.w.w.w.w.w.y.y.w.w.w.w.w.w.w.w.w.w.w.w.w.w.w.w.w.w.y.w.w.w.y.y.w.w.w.w.w.w.w.w.w.w.w.w.w.w.6.w.w.0.y.w.w.t e 5 d 5 t 5 $.y.w.w.w.6.6.0.w.0.y.y.w.w.w.w.w.w.w.w.w.w.w.w.w.w.w.w.w.w.y.w.w.w.y.y.w.w.w.w.w.w.w.w.w.w.w.w.w.w.w.w.w.w.y.w.w.w.y.y.w.w.w.w.w.w.0.w.w.y.y.k.P 5 e t 9 t 9 A p.w.0.0.0.w.w.y.p.f.w.w.w.w.y.y.w.w.w.w.w.w.w.w.w.w.w.w.w.w.y.y.w.w.w.w.w.w.w.w.w.w.w.w.w.w.y.y.w.w.w.w.w.w.w.w.w.w.w.w.w.w.y.w.w.w.y.y.w.w.w.w.w.w.w.w.w.w.w.w.w.w.p.p.w.p.^ A A B D A K l 9 e e e e 5 A p.w.w.w.w.w.w.w.y.y.y.w.0.y.y.w.w.w.w.w.w.w.w.w.w.w.w.w.w.w.w.w.w.y.w.w.w.y.y.w.w.w.w.w.w.w.w.w.w.w.w.w.w.w.w.w.w.y.w.w.w.y.y.w.w.w.w.w.w.w.w.w.w.w.w.w.w.w.w.w.w.y.w.w.w.p.B > 9 e 9 e e ( f.0.y.w.w.y.w.w.w.w.w.y.y.w.w.w.w.w.w.w.w.w.w.w.w.w.w.y.y.w.w.w.w.w.w.w.w.w.w.w.w.w.w.y.y.w.w.w.w.w.w.w.w.w.w.y.y.w.w.w.w.w.w.w.w.w.w.w.w.w.w.0.w.0.0.6.0.y.&.9 e 9 t e 9 t 6.p.y.0.6.0.0.w.0.0.0.0.0.0.0.0.0.y.y.w.w.w.w.w.w.w.w.w.w.w.w.w.w.y.y.w.w.w.w.w.w.w.w.w.w.w.w.w.w.w.w.w.w.y.w.w.w.y.y.w.w.w.w.w.w.",
"e 9 9 e e e 5 &.p.y.w.y.y.w.w.p.y.y.y.y.y.y.y.y.w.w.w.w.w.w.w.w.w.w.w.w.w.w.w.w.y.w.f.B 1 9 t e e 9 W p.0.y.0.y.w.w.y.y.w.w.w.w.w.w.w.w.y.y.w.w.y.y.w.w.w.w.w.w.w.w.w.y.y.w.w.w.w.w.w.w.y.y.w.w.y.y.w.w.w.w.w.w.w.w.w.y.w.w.w.w.w.y.p. .B D K K A D B 5 e 9 t 9 9 h y.0.y.w.y.0.w.0.w.y.y.0.w.p.y.y.w.w.w.w.w.w.w.w.w.y.w.w.w.w.w.w.w.w.y.y.w.w.y.y.w.w.w.w.w.w.w.w.w.w.w.w.w.w.w.w.w.w.y.y.w.w.w.w.w.w.w.w.w.w.w.w.w.w.w.w.w.w.w.y.w.w.y.0.0.p.^ 5 e t e 9 5 D w.w.y.y.w.y.p.y.w.w.w.w.w.w.w.w.w.w.w.w.w.w.w.w.w.w.w.w.w.w.w.w.y.y.w.w.w.w.w.w.w.w.w.y.w.w.w.w.w.w.w.w.y.y.w.w.y.y.w.w.w.w.w.w.w.w.w.y.w.w.w.w.p.f.y.0.w.w.y.t e 5 d 5 t 5 $.y.w.y.y.0.w.y.y.w.y.y.w.w.w.w.w.w.w.w.w.y.w.w.w.w.w.w.w.w.y.y.w.w.y.y.w.w.w.w.w.w.w.w.w.w.w.w.w.w.w.w.w.w.y.y.w.w.y.y.w.w.w.w.w.w.w.w.0.w.w.k.P 1 e t 9 t 9 A p.w.y.w.y.p.y.0.6.0.w.w.w.w.w.w.w.w.w.w.w.w.w.w.w.w.w.w.w.w.w.w.w.w.w.w.w.w.w.w.w.w.w.w.w.w.w.w.w.w.w.w.w.w.w.w.w.w.w.w.w.w.y.y.w.w.y.y.w.w.w.w.w.w.w.w.w.y.w.w.w.w.0.w.w.p.^ A D D A B K l 9 e e e e 5 A p.w.w.w.w.w.w.w.w.w.w.w.w.y.y.w.w.w.w.w.w.w.w.w.y.w.w.w.w.w.w.w.w.y.y.w.w.y.y.w.w.w.w.w.w.w.w.w.w.w.w.w.w.w.w.w.w.y.y.w.w.y.y.w.w.w.w.w.w.w.w.w.y.w.w.w.w.w.w.w.w.y.y.w.w.k.A 1 t d e 9 1 ( f.0.y.w.w.y.w.w.w.w.w.w.w.w.w.w.w.w.w.w.w.w.w.w.w.w.w.w.w.w.w.w.w.w.w.w.w.w.w.w.w.w.w.w.w.w.w.w.w.w.w.w.w.w.w.y.y.w.w.w.w.w.w.w.w.w.y.w.w.w.w.w.y.w.y.w.w.p.:.9 e 9 t e 9 t 6.y.y.y.w.w.w.y.y.y.y.y.y.y.y.y.y.y.y.w.w.w.w.w.w.w.w.w.w.w.w.w.w.y.y.w.w.w.w.w.w.w.w.w.y.w.w.w.w.w.w.w.w.y.y.w.w.y.y.w.w.w.w.w.w.",
"d e 9 e e e e t t d h h h h h h d d d d d h h h d h h d t h h d l l h h h d d t h h d t t e 9 9 e e t d d h h l d d d d d d d d d d d d d d d d d d d d d d h h t d h l h h d t t d h h h d d d d d d d d d d d d d d d d d d d h h d d d t t t e e e e e e e e e t t d h h h h d d d d d d d d d d d d d d d d d d d d d d d d d d d d d d d d d d d d d h h h l h h l l d d h l l h d h d d d d d d d d d d d d d d d d d d d d d d d d d d d e e e e e e e e d d d d d d d d d d d d d d d d d d d d d d d d d d d d d d d d t t t d h h h h h d d h h t t d l h h d d d h l d d d d d d d d d d d d d d d d d d d d d d d d e 9 9 9 e t d d d d d d d d d d d d d d d d d d d d d d d d d d d d d d d d h h l h d t t d d d d d d d d h l b d d d d d d d d d d d d d d d d h h h d d d t t 9 9 9 e t d d h d d d d d d d d d d d d d d d d d d d d d d d d d d d d d d d d d d d d d d d d d d d d d d d d h h h h h l h d t t d h h h h h d d d d d d d d d d d d d d d d h h h d t t t e e e e e e e e e e e t t d h h l d d d d d d d d d d d d d d d d d d d d d d d d d d d d d d d d h h d d d d h h d h h d d h h d l h h h h d d t d d d d d d d d d d d d d d d d d d d d d d d d t t t t e e e 9 d d d d d d d d d d d d d d d d d d d d d d d d d d d d d d d d t t d d d h h h h h l l h d d h l h h l l d d h d d d d d d d d d d d d d d d d d d d d d d d d e e e e e e e e d d d d d d d d d d d d d d d d d d d d d d d d t t t d h h h h d d h l l h d l h h h h h h h h d d d d d d d d d d d d d d d d ",
"e e e t e 9 9 9 d t e 9 9 9 9 9 9 9 9 9 9 9 9 5 9 9 e e e e 9 5 1 5 5 9 9 9 e e e e e e e e e e 9 9 9 9 9 9 9 9 9 9 9 9 9 9 9 9 9 9 9 9 9 9 9 9 9 9 9 9 9 9 e e e 9 1 1 9 e e 9 e e 9 9 9 9 9 e 9 9 9 9 9 9 9 9 9 9 9 9 9 9 9 9 e e e 9 9 9 5 5 9 9 9 9 9 9 9 9 5 5 9 9 9 9 9 9 9 9 9 9 9 9 9 9 9 9 9 9 9 9 9 9 9 9 9 9 9 9 9 9 9 9 9 9 9 9 9 9 9 9 9 9 9 9 9 5 9 5 5 5 9 5 5 9 1 5 5 5 9 9 e e 9 9 9 9 9 9 9 9 9 9 9 9 9 9 9 9 9 9 9 9 9 9 9 9 e e e e e e e 9 9 9 9 9 9 9 9 9 9 9 9 9 9 9 9 9 9 9 9 9 9 9 9 9 9 9 9 9 9 9 9 9 e e 9 9 9 9 9 5 e 9 9 5 5 5 5 9 5 9 9 9 9 9 5 5 9 9 9 9 9 9 9 9 9 9 9 9 9 9 9 9 9 9 9 9 9 9 9 9 9 9 9 9 9 9 e e 9 9 9 9 9 9 9 9 9 9 9 9 9 9 9 9 9 9 9 9 9 9 9 9 e e 9 9 9 9 9 9 5 9 9 9 9 9 5 1 9 9 9 9 9 9 5 1 9 9 9 9 9 9 9 9 9 9 9 9 9 9 9 9 e e e 9 9 9 5 5 e e 9 9 9 e e e 9 9 9 9 9 9 9 9 9 9 9 9 9 9 9 9 9 9 9 9 9 9 9 9 9 9 9 9 9 9 9 9 9 9 9 9 9 9 9 9 9 9 9 9 9 9 9 9 9 e 9 9 5 5 9 9 t e 9 5 5 9 9 9 9 9 9 9 9 9 9 9 9 9 9 9 9 9 9 9 e e 9 9 9 9 9 5 9 9 9 9 9 9 9 9 9 9 9 9 9 9 9 9 9 9 9 9 9 9 9 9 9 9 9 9 9 9 9 9 9 9 9 9 9 9 9 9 9 9 9 9 9 9 9 9 5 9 9 9 9 9 9 9 e e 9 5 5 9 e e 1 5 5 9 9 9 e e 9 9 9 9 9 9 9 9 9 9 9 9 9 9 9 9 9 9 9 9 9 9 9 9 e e e 9 9 9 9 9 9 9 9 9 9 9 9 9 9 9 9 9 9 9 9 9 9 9 9 9 9 9 9 9 9 9 9 9 9 9 9 9 9 9 9 9 9 5 5 5 9 9 9 9 9 9 9 5 e 9 5 9 5 1 5 9 9 9 9 9 9 9 9 9 9 9 9 9 9 9 9 9 9 9 9 9 9 9 9 9 9 9 9 9 9 9 9 9 9 9 9 9 9 9 9 9 9 9 9 9 9 9 9 9 9 9 9 9 9 9 9 9 e e 9 9 9 9 9 5 e 9 5 5 5 5 5 5 5 9 9 e 9 9 5 5 9 9 9 9 9 9 9 9 9 9 9 9 9 9 9 9 ",
"9 e t e 9 9 e e t e 9 9 e e e e e e e t t t t t e 5 9 e t t t t t d d t e 9 e e e e e e t t t t t t t t e e e 9 e e e e e e e e e e e e e e e e e e e e e e e e t e e e t t e 5 9 9 9 9 9 9 e e e e e e e e e e e e e e e e e e t t e e e e e e e e e e e e e e e e e e e e e e e e e e e e e e e e e e e e e e e e e e e e e e e e e e e e e e e e e t t t t t t e 9 e d d d h t d d d t e e e e e e e e e e e e e e e e e e e e e e e e e e e t t t t t t t t e e e e e e e e e e e e e e e e e e e e e e e e e e e e e e e e t t t e e e e e 9 e e e e t d d e e t t t t t t e e e e e e e e e e e e e e e e e e e e e e e e t t e e e e e e e e e e e e e e e e e e e e e e e e e e e e e e e e e t t t t t e e e e t t d h t e e t d d t e e e e e e e e e e e e e e e e e e e e e e e e 9 t t t e e e e e e e e e e e e e e e e e e e e e e e e e e e e e e e e e e e e e e e e e e e e e e e e e e e e e t t t e 9 9 e t e 9 5 5 9 e e 9 e e e e e e e e e e e e e e e e e e e e e e e t e e e e e e e e t t t e e e 9 e e e e e e e e e e e e e e e e e e e e e e e e e e e e e e e e e e e t t t t t e 5 5 9 t d t t t d d d t e e e t e e e e e e e e e e e e e e e e e e e e e e e e e e e e e e e e e e e e e e e e e e e e e e e e e e e e e e e e e e e e e e e e e e e e e e e e e e 9 e t d d d t e e e e e t d e e e e e e e e e e e e e e e e e e e e e e e e e e e e e e e e e e e e e e e e e e e e e e e e e e e e e e e e t t t e e e e e t e e 9 e d d t e e t t t t t t e e e e e e e e e e e e e e e e ",
"e t e 9 9 t d t t t t d d d t t e e e e e e e e l d e e 9 5 5 9 5 5 9 9 9 e e e 9 9 9 9 9 9 9 9 e e e e e e e e e e e e e e e e e e e e e e e e e e e e e e e e 9 e t t e 9 9 e t t t d d d t e e e e e e e e e e e e e e e e e e e e e e e e e 9 9 9 9 9 9 9 9 e e e e e e 9 9 e e e e e e e e e e e e e e e e e e e e e e e e e e e e e e e e e e e e e e e e d t e e 9 5 5 5 5 5 9 9 e e e e e e e e e e e e e e e e e e e e e e e e e e e e 9 9 9 9 9 9 9 9 e e e e e e e e e e e e e e e e e e e e e e e e e e e e e e e e 9 e e e e 9 e e 9 e e 9 9 9 1 = 9 9 5 5 5 9 9 9 e e e e e e e e e e e e e e e e 9 9 e e e e e e e e 9 9 9 9 9 9 e e e e e e e e e e e e e e e e e e e e e e e e 9 9 e e e e e e t t e 9 5 5 5 5 9 9 5 5 5 9 9 e e e e e e e e e e e e e e e e e 9 e e e e e e e 9 9 9 9 9 9 e e e e e e e e e e e e e e e e e e e e e e e e e e e e e e e e e e e e e e e e e e e e e e e e e e e 9 9 e e e e t e e t d d d t t e e e e e e e e e e e e e e e e 9 e e e e e e e 9 9 9 9 9 9 9 9 e e e e e e e e e e e e e e e e e e e e e e e e e e e e e e e e e e e e e e e e e e e e e e e 9 t e e t t 5 1 5 5 5 9 9 9 e e t e e e e e e e e e e e e e e e e e e e e e e e e 9 9 9 9 9 9 9 9 e e e e e e e e e e e e e e e e e e e e e e e e e e e e e e e e e e e e e e e e t t e 9 5 5 1 1 9 9 9 9 9 9 9 9 e e e e e e e e e e e e e e e e e e e e e e e e 9 9 9 9 9 9 9 9 e e e e e e e e e e e e e e e e e e e e e e e e 9 e e e e 9 e e 9 t t 9 9 9 5 > 9 9 5 5 5 9 9 e e e e e e e e e e e e e e e e e ",
"t e 9 9 e t t e 9 e e e 9 5 5 9 t t e 9 9 9 9 9 e e e e e 9 t h t t e e t t t e t t t t e e e e 9 9 e e e e e e e e e e e e e e e e e e e e e e e e e e e e e e e 9 9 9 9 9 t h t e 9 9 9 9 5 1 e e e e e e e e e e e e e e e e e e e e e e e e e e e e e e e e e e e e e e e e e e e e e e e e e e e e e e e e e e e e e e e e e e e e e e e e t t e 9 9 9 9 9 5 e t t e e e e e e 9 e t t e 9 e e e e e e e e e e e e e e e e e e e e e e e e e e e e e e e e e e e e e e e e e e e e e e e e e e e e e e e e e e e e e e e e e e t e 9 9 9 9 9 9 e e t d t e t t e e e e 9 9 e e e e e e e e e e e e e e e e e e e e e e e e e e e e e e e e e e e e e e e e e e e e e e e e e e e e e e e e t t e e e 9 9 5 5 9 t d d t t t e t t e 9 9 9 e e e e e e e e e e e e e e e e e e e e e e e e e e e e e e t t t e e e e e e e e e e e e e e e e e e e e e e e e e e e e e e e e e e e e e e e e e e e e e e e e e 5 5 e t e 9 9 5 9 e e 9 5 5 9 e e e e e e e e e e e e e e e e e e e e e e e e e e e e e e e e 9 9 e e e e e t e e e e e e e e e e e e e e e e e e e e e e e e e e e e e e e e e e e 9 9 9 e e t e 9 9 9 e t h t e e e t t t e e e e e e e e e e e e e e e e e e e e e e e e e e e e e e e e e e e e e e e e e e e e e e e e e e e e e e e e e e e e e e e e e t t e e e e 9 9 9 e t e e 9 e t t t t e e e 9 5 e e e e e e e e e e e e e e e e e e e e e e e e e e e e e e e e e e e e e e e e e e e e e e e e e e e e e e e e e e t e 9 9 9 9 5 9 e e e e t t t t e e 9 9 e e e e e e e e e e e e e e e e e e ",
"e 9 9 t t e 5 5 t t t e e e d h e e e e e e t t 1 9 e e e e e e d t e e e e e 9 e e e e e e e e 9 9 9 e e e 9 9 e e e e e e e e e e e e e e e e e e e e e e e e d e 9 t d t 5 5 d e 9 e t d d d e e e e e e e e e e e e e e e e 9 9 9 e e e e e e e e e e e e e 9 9 e e e e e e e e e e e e e e e e e e e e e e e e e e e e e e e e e e e e e e e e e e e e t t 9 e t t t t t t d t e e e e e 9 e e e e e e e e e e e e e e e e e e e e e e e e e e e e e e e e e e e e e e e e e e e e e e e e e e e e e e e e e e e e e e e e 9 e t t e e t d t 9 5 9 t t t d 9 9 e t d h d t e e e e e e e e e e e e e e e e e e e e e e e e e e e e e e e e e e e e e e e e e e e e e e e e e e e e e e e e e e e e e t t t 9 e e 9 9 e t h 9 e t d t t t t e e e e e e e e e e e e e e e e e e e e e e e e e e e e e e e e e e e e e e e e e e e e e e e e e e e e e e e e e e e e e e e e e e e e e e e e e e e e e e e e d e e t d e 9 e e e e e e e t d e e e e e e e e e e e e e e e e e e e e 9 9 9 9 e e e e e e e e e e e e e e e 9 e e e e e e e e e e e e e e e e e e e e e e e e e e e e e e e e e e e e e e t t 5 9 e e e t t e t e e e e e 9 5 e e e e e e e e e e e e e e e e e e e e e e e e e e e e e e e e e e e e e e e e e e e e e e e e e e e e e e e e e e e e e e e e e e e e t t t t e e t t t t t d 9 e e e e t t t e e e e e e e e e e e e e e e e e e e e e e e e e e e e e e e e e e e e e e e e e e e e e e e e e e e e e e e e 9 e t t e e t d e e e e e 9 t h 9 e e t d d d t e e e e e e e e e e e e e e e e ",
"e 9 e d t 5 9 h 5 1 1 5 9 9 5 1 5 9 9 e e e e 9 t d e 1 5 e 9 > > 1 5 5 5 5 9 e 5 5 9 9 9 9 9 9 9 9 9 9 9 9 9 9 9 9 9 9 9 9 9 9 9 9 9 9 9 9 9 9 9 9 9 9 9 9 9 9 9 5 9 t e 5 1 9 1 1 1 5 9 9 5 1 9 9 9 9 9 9 9 9 9 9 9 9 9 9 9 9 9 9 9 9 9 9 9 9 9 9 9 9 9 9 9 9 9 9 9 9 9 9 9 9 9 9 9 9 9 9 9 9 9 9 9 9 9 9 9 9 9 9 9 9 9 9 9 9 9 9 9 9 9 9 9 9 5 9 9 e e e e 9 t t 9 1 5 9 5 > 1 5 9 5 5 5 e d 9 9 9 9 9 9 9 9 9 9 9 9 9 9 9 9 9 9 9 9 9 9 9 9 9 9 9 9 9 9 9 9 9 9 9 9 9 9 9 9 9 9 9 9 9 9 9 9 9 9 9 9 9 9 9 9 9 9 9 9 9 9 9 9 5 9 e 9 9 9 e t t 5 1 e e 1 > 1 9 5 1 1 9 9 9 9 9 9 9 9 9 9 9 9 9 9 9 9 9 9 9 9 9 9 9 9 9 9 9 9 5 5 9 9 9 9 9 9 9 9 9 9 9 9 9 9 9 9 9 9 9 9 9 9 9 9 9 9 9 9 9 9 9 9 5 5 9 9 e e t t e 5 > > > 1 9 5 1 1 5 9 5 5 9 9 9 9 9 9 9 9 9 9 9 9 9 9 9 9 9 9 9 9 9 9 9 9 9 9 9 9 9 9 9 9 9 9 9 9 9 9 9 9 9 9 9 9 9 9 9 9 9 9 9 9 9 9 9 9 9 9 9 9 9 9 9 9 9 9 9 9 9 9 9 9 9 9 9 9 9 9 9 9 e 9 9 e 9 5 9 d 5 1 1 1 9 9 5 1 9 9 9 9 9 9 9 9 9 9 9 9 9 9 9 9 9 9 9 9 9 9 9 9 9 9 9 9 9 9 9 9 9 9 9 9 9 9 9 9 9 9 9 9 9 9 9 9 9 9 9 9 9 9 9 9 9 9 9 9 9 9 9 9 9 9 9 9 9 9 9 9 9 e e e e 9 9 5 9 d d e 9 e 5 = = 1 9 9 9 5 9 e 9 9 9 9 9 9 9 9 9 9 9 9 9 9 9 9 9 9 9 9 9 9 9 9 9 9 9 9 9 9 9 9 9 9 9 9 9 9 9 9 9 9 9 9 9 9 9 9 9 9 9 9 9 9 9 9 9 9 9 9 9 9 9 9 5 5 9 9 9 e e e e 9 9 9 9 9 1 = 9 9 9 1 1 9 9 9 9 9 9 9 9 9 9 9 9 9 9 9 9 9 9 9 9 9 9 9 9 9 9 9 9 9 9 9 9 9 9 9 9 9 9 9 9 9 9 9 9 9 9 9 9 9 9 9 9 9 9 9 9 9 9 9 5 9 e 9 9 9 e t d 9 5 e e 1 > > 9 5 5 5 5 9 9 9 9 9 9 9 9 9 9 9 9 9 9 9 9 9 9 9 ",
"t 9 9 t e 1 d P .. . .$.&. .K l b b B B b h e 9 e t 9 5 b  .&. ...$.$.' D l l B b b b b b b b b b b b B B B B B b b b b b b b b b b b b b b b b b b b b b b b b e e t e 1 5 A $. . ...$...^ D l b b b b b b b b b b b b b b b b B B B B b b b b b b b b b b b b b b b b b b b b b b b b b b b b b b b b b b b b b b b b b b b b b b b b b b b b b b B B b h e 9 t e 9 d K  .&.....$...^ B h l B b b b b b b b b b b b b b b b b b b b b b b b b b b b b b b b b b b b b b b b b b b b b b b b b b b b b b b b b b b b b b b b b b b b h t 9 9 e t 9 l ( $... .$.&.' K b l b b B b b b b b b b b b b b b b b b b b b b b b b b b b b b b b b b b b b b b b b b b b b b b b b b b b b b b b b b b B b h d t e e e 1 d P  .&.$... .$.^ B l b B B l b b b b b b b b b b b b b b b b b b b b b b b b b b b b b B B B b b b b b b b b b b b b b b b b b b b b b b b b b b b b b b b b b b b b b b b b b b b b b b b b e e t t e 9 h D $... ...$. .P b b b b b b b b b b b b b b b b b b b b b b B B B b b b b b b b b b b b b B B B B b b b b b b b b b b b b b b b b b b b b b b b b b b b b b b b b l b B B b h t e 9 d t 5 t W $.$. .$.&. .K b l b b b b b b b b b b b b b b b b b b b b b b b b b b b b b b b b b b b b b b b b b b b b b b b b b b b b b b b b b b b b b b b b b B B b h d t e 9 9 9 t B ( $.$. ... .^ D B B B b b b b b b b b b b b b b b b b b b b b b b b b b b b b b b b b b b b b b b b b b b b b b b b b b b b b b b b b b b b b h t 9 9 e e 1 t W &.$. ...$.' P B l l b B b b b b b b b b b b b b b b b b ",
"e 9 9 e e e 5 &.f.y.y.f.w.k...A D A D D D b 9 e 9 e e t h f.p.p.y.p.y.p.K K A K D D D D D D D D D D D D D D D D D D D D D D D D D D D D D D D D D K A D D D K h 9 e t 9 t 5 K p.y.y.p.p.y.w.D P D D D D D D D D D D D D D D D D D D D D D D D D D D D D D D D D D D D D D D D D D D D D D D D D D D D D D D D D D D D D D D D D D D D D D D D D A D A A K e e e t 9 t 5 ..k.p.p.p.y.p.<.B K D D D D D D D D D D D D D D D D D D D D D D D D D D D D D D D D D D D D D D D D D D D D D D D D D D D D D D D D D D D D D D D D D D A K A A 9 e e e e e t p.y.p.f.p.w.f.W K D K K D D D D D D D D D D D D D D D D D D D D D D D D D D D D D D D D D D D D D D D D D D D D D D D D D D D D D D D D D D A K e e e e 9 t 5 ..p.y.p.w.p.p.&.B P K K K K D D D D D D D D D D D D D D D D D D D D D D D D D D D D D D D D D D D D D D D D D D D D D D D D D D D D D D D D D D D D D D D D D D D D D D D D D D D D D D D D t e 9 t 9 9 9 ' k.0.p.y.y.f.&.D D D D D D D D D D D D D D D D D D D D D D D D D D D D D D D D D D D D D D D D D D D D D D D D D D D D D D D D D D D D D D D D D D D D D D D D D A D A D A D 9 e 5 e 9 e 5 <.y.y.p.p.y.k.' D D D D D D D D D D D D D D D D D D D D D D D D D D D D D D D D D D D D D D D D D D D D D D D D D D D D D D D D D D D D D D D D D D D D D A K l 9 t e e e e b k.y.f.p.y.p.w.K D K K K D D D D D D D D D D D D D D D D D D D D D D D D D D D D D D D D D D D D D D D D D D D D D D D D D D D D D D D D D D A A 9 e 9 e e e 5 0.y.p.p.p.y.p.' D K K K K D D D D D D D D D D D D D D D D ",
"e 9 9 e e e 5 &.y.0.w.y.6.p.' b D A D D D b 9 e 9 e e e d p.y.y.w.y.0.y.D D B D D D D D D D D D D D D D D D D D D D D D D D D D D D D D D D D D D K A D D D K h 9 e t 9 t 5 K p.0.0.w.w.0.6.B D D D D D D D D D D D D D D D D D D D D D D D D D D D D D D D D D D D D D D D D D D D D D D D D D D D D D D D D D D D D D D D D D D D D D D D D D A D A A K e e e t 5 t 1 ' f.w.w.y.w.y.:.b D A D D D D D D D D D D D D D D D D D D D D D D D D D D D D D D D D D D D D D D D D D D D D D D D D D D D D D D D D D D D D D D D D D A K A A 9 e e e e e t y.w.w.y.w.0.p.P D A D D A D D D D D D D D D D D D D D D D D D D D D D D D D D D D D D D D D D D D D D D D D D D D D D D D D D D D D D D D D A K e e e e 9 e 1  .y.w.y.0.y.y.$.b D A D D D D D D D D D D D D D D D D D D D D D D D D D D D D D D D D D D D D D D D D D D D D D D D D D D D D D D D D D D D D D D D D D D D D D D D D D D D D D D D D D D D t e 9 t 9 9 9 ' p.<.w.w.0.y...B D D D D D D D D D D D D D D D D D D D D D D D D D D D D D D D D D D D D D D D D D D D D D D D D D D D D D D D D D D D D D D D D D D D D D D D D A D A D A D 9 e 9 t e e 5 <.y.w.w.w.0.p.^ B A A D D D D D D D D D D D D D D D D D D D D D D D D D D D D D D D D D D D D D D D D D D D D D D D D D D D D D D D D D D D D D D D D D D A K l 9 t e e e e l p.0.y.w.w.w.0.D A D D D D D D D D D D D D D D D D D D D D D D D D D D D D D D D D D D D D D D D D D D D D D D D D D D D D D D D D D D D D D A A 9 e 9 e e 9 5 6.w.w.w.y.w.y.( A D D D D D D D D D D D D D D D D D D D D ",
"e 9 9 e e e 5 &.y.0.w.y.6.p.' B D A D D D b 9 e e e e e t y.w.0.0.w.0.y.D D B D D D D D D D D D D D D D D D D D D D D D D D D D D D D D D D D D A D A D D D K h 9 e e 9 t 5 K p.0.0.w.w.0.6.B D D D D D D D D D D D D D D D D D D D D D D D D D D D D D D D D D D D D D D D D D D D D D D D D D D D D D D D D D D D D D D D D D D D D D D D D D A D A A K e e e t 5 t 1 ' y.0.0.w.0.w.&.b A A A D D D D D D D D D D D D D D D D D D D D D D D D D D D D D D D D D D D D D D D D D D D D D D D D D D D D D D D D D D D D D D D D A K A A 9 e e e e e t w.0.0.w.0.0.y.K A A A D A D D D D D D D D D D D D D D D D D D D D D D D D D D D D D D D D D D D D D D D D D D D D D D D D D D D D D D D D D A K e e e e 9 e 1  .y.0.w.6.w.y.$.b D A D A A D D D D D D D D D D D D D D D D D D D D D D D D D D D D D D D D D D D D D D D D D D D D D D D D D D D D D D D D D D D D D D D D D D D D D D D D D D D D D D D D t e 9 t 9 9 9 ' p.6.w.w.0.y...B D D D D D D D D D D D D D D D D D D D D D D D D D D D D D D D D D D D D D D D D D D D D D D D D D D D D D D D D D D D D D D D D D D D D D D D D A D A D A D 9 e 9 t e e 5 <.y.w.w.w.0.p.^ B A A D D D D D D D D D D D D D D D D D D D D D D D D D D D D D D D D D D D D D D D D D D D D D D D D D D D D D D D D D D D D D D D D D D A K l 9 t e e e e l p.6.w.0.0.w.0.D A A A A D D D D D D D D D D D D D D D D D D D D D D D D D D D D D D D D D D D D D D D D D D D D D D D D D D D D D D D D D D A A 9 e 9 e e e 5 6.0.0.0.0.w.w.^ B D A D A D D D D D D D D D D D D D D D D ",
"e 9 9 e e e 5 &.p.w.w.y.0.p.' B D A D D D b 9 e e e e e t y.0.0.0.w.0.y.D D B D D D D D D D D D D D D D D D D D D D D D D D D D D D D D D D D D A D A D D D K h 9 e e 5 t 5 K p.w.w.y.w.w.0.A K D D D D D D D D D D D D D D D D D D A A D D D D D D D D D D D D D D D D D D D D D D D D D D D D D D D D D D D D D D D D D D D D D D D D D D D D A D A A K e e e t 9 t 5 ' p.0.0.w.0.w.&.b D A D D D D D D D D D D D D D D D D D D D D D D D D D D D D D D D D D D D D D D D D D D D D D D D D D D D D D D D D D D D D D D D D D A K A A 9 e e e e t t y.0.w.w.0.0.p.K D A D D A D D D D D D D D D D D D D D D D D D D D D D D D D D D D D D D D D D D D D D D D D D D D D D D D D D D D D D D D D A K e e e e 9 t 5  .y.0.w.6.w.y.$.b D A D D D D D D D D D D D D D D D D D D D D D D D D D D D D D D D D D D D D D D D D D D D D D D D D D D D D D D D D D D D D D D D D D D D D D D D D D D D D D D D D D D D t e 9 t 9 9 9 ' f.6.y.w.w.p.$.B D D D D D D D D D D D D D D D D D D D D D D D D D D D D D D D D D D D D D D D D D D D D D D D D D D D D D D D D D D D D D D D D D D D D D D D D A D A D A D 9 e 9 t e e 5 <.w.w.w.w.0.f.( A D D D D D D D D D D D D D D D D D D D D D D D D D D D D D D D D D D D D D D D D D D D D D D D D D D D D D D D D D D D D D D D D D D D D A K l 9 t e t t e l p.0.y.0.w.w.0.D A A D D D D D D D D D D D D D D D D D D D D D D D D D D D D D D D D D D D D D D D D D D D D D D D D D D D D D D D D D D D D A A 9 e 9 e t e 5 6.w.w.0.0.w.y.( A D D D D D D D D D D D D D D D D D D D D ",
"e 9 9 e e e 5 &.y.0.w.y.6.p.' B D A D D D b 9 e e e e e t p.w.w.0.w.0.y.D K A K D D D D D D D D D D D D D D D D D D D D D D D D D D D D D D D D A D A D A A K d 9 e t 9 t 5 K p.w.0.w.w.0.6.B D D D D D D D D D D D D D D D D D D D D D D D D D D D D D D D D D D D D D D D D D D D D D D D D D D D D D D D D D D D D D D D D D D D D D D D D D A D A A K e e e t 9 t 5 ' p.w.w.w.0.w.:.B D D K D D D D D D D D D D D D D D D D D D D D D D D D D D D D D D D D D D D D D D D D D D D D D D D D D D D D D D D D D D D D D D D D A D A A 9 e e e e e t y.w.w.y.w.0.p.P D A D D A D D D D D D D D D D D D D D D D D D D D D D D D D D D D D D D D D D D D D D D D D D D D D D D D D D D D D D D D D A K e e e e 9 t 5 ..p.w.y.6.w.y.$.b K D D D D D D D D D D D D D D D D D D D D D D D D D D D D D D D D D D D D D D D D D D D D D D D D D D D D D D D D D D D D D D D D D D D D D D D D D D D D D D D D D D D D t e 9 t e e 9 ' p.6.w.w.0.y...B D D D D D D D D D D D D D D D D D D D D D D D D D D D D D D D D D D D D D D D D D D D D D D D D D D D D D D D D D D D D D D D D D D D D D D D D A D A D A D 9 e 9 t e e 5 :.w.0.0.w.0.p.^ A D D D D D D D D D D D D D D D D D D D D D D D D D D D D D D D D D D D D D D D D D D D D D D D D D D D D D D D D D D D D D D D D D D D D A K l 9 t e t e e l p.0.y.w.w.y.0.D A D D D D D D D D D D D D D D D D D D D D D D D D D D D D D D D D D D D D D D D D D D D D D D D D D D D D D D D D D D D D D A A 9 e 9 e t e 5 6.w.w.w.w.y.y.( A D D D D D D D D D D D D D D D D D D D D ",
"e 9 9 e e e 5 &.y.0.w.y.6.p.' B D A D D D b 9 e 9 e e e d p.w.w.0.w.0.y.D D B D A A A A A A A A A A A A A A A A A A A A A A A A A A A A A A A A A D A D A A K d 9 e t 9 t 5 K p.w.0.w.w.0.6.B D A A A A A A A A A A A A A A A A A A A A A A A A A A A A A A A A A A A A A A A A A A A A A A A A A A A A A A A A A A A A A A A A A A A A A A A A A D A A K e e e e 5 t 1 ' p.w.w.w.0.w.&.b D A D A A A A A A A A A A A A A A A A A A A A A A A A A A A A A A A A A A A A A A A A A A A A A A A A A A A A A A A A A A A A A A A A A K A A 9 e e e e e e w.0.w.y.w.0.p.K D A A D A A A A A A A A A A A A A A A A A A A A A A A A A A A A A A A A A A A A A A A A A A A A A A A A A A A A A A A A A D A K e e e e 9 e 5  .y.0.w.6.w.y.$.b D A D D D A A A A A A A A A A A A A A A A A A A A A A A A A A A A A A A A A A A A A A A A A A A A A A A A A A A A A A A A A A A A A A A A A A A A A A A A A A A A A A A A t e 9 t e 9 9 ' p.6.w.w.0.y...B A A A A A A A A A A A A A A A A A A A A A A A A A A A A A A A A A A A A A A A A A A A A A A A A A A A A A A A A A A A A A A A A A A A A A A A A A D A D A D 9 e 9 t e e 5 :.w.0.0.w.0.p.^ A D D A A A A A A A A A A A A A A A A A A A A A A A A A A A A A A A A A A A A A A A A A A A A A A A A A A A A A A A A A A A A A A A A D D A K l 9 t e e e e l p.0.y.w.0.w.0.D A A A D A A A A A A A A A A A A A A A A A A A A A A A A A A A A A A A A A A A A A A A A A A A A A A A A A A A A A A A A D D A A 9 e 9 e e 9 1 6.w.w.w.w.w.y.( A D A D D A A A A A A A A A A A A A A A A ",
"e 9 9 e e e 5 &.y.w.w.y.0.p.' B D A D D D b 9 e e e e e d p.w.w.0.w.0.y.D D B D A A A A A A A A A A A A A A A A A A A A A A A A A A A A A A A A A D A D A A D d 9 e t 9 d 5 K p.w.w.w.w.w.0.A K A A A A A A A A A A A A A A A A A A A A A A A A A A A A A A A A A A A A A A A A A A A A A A A A A A A A A A A A A A A A A A A A A A A A A A A A A D A A K e e e t 5 t 1 ' p.0.0.w.0.w.&.b D A D A A A A A A A A A A A A A A A A A A A A A A A A A A A A A A A A A A A A A A A A A A A A A A A A A A A A A A A A A A A A A A A A A K A A 9 e e e e e t w.0.w.w.0.0.p.K D A A D A A A A A A A A A A A A A A A A A A A A A A A A A A A A A A A A A A A A A A A A A A A A A A A A A A A A A A A A A D A K e e e e 9 e 5  .y.0.w.6.w.y.$.b D A D D D A A A A A A A A A A A A A A A A A A A A A A A A A A A A A A A A A A A A A A A A A A A A A A A A A A A A A A A A A A A A A A A A A A A A A A A A A A A A A A A A t e 9 t 9 9 9 ' f.6.y.w.0.p.$.B A A A A A A A A A A A A A A A A A A A A A A A A A A A A A A A A A A A A A A A A A A A A A A A A A A A A A A A A A A A A A A A A A A A A A A A A A D A D A D 9 e 9 t e e 1 :.w.0.w.w.0.f.( A D D A A A A A A A A A A A A A A A A A A A A A A A A A A A A A A A A A A A A A A A A A A A A A A A A A A A A A A A A A A A A A A A A D D A K l 9 t e e e e l p.0.y.0.0.w.0.D A A A A A A A A A A A A A A A A A A A A A A A A A A A A A A A A A A A A A A A A A A A A A A A A A A A A A A A A A A A A D D A A 9 e 9 e e 9 5 6.w.w.0.w.w.y.^ B D A D D A A A A A A A A A A A A A A A A ",
"e 9 9 e e e 5 &.y.0.w.y.6.p.' B D A D D D b 9 e e e e e t y.w.0.w.y.0.y.D D B D A A A A A A A A A A A A A A A A A A A A A A A A A A A A A A A A A D A D A A D d 9 e t 9 t 5 K p.w.0.w.w.0.6.B D A A A A A A A A A A A A A A A A A A A A A A A A A A A A A A A A A A A A A A A A A A A A A A A A A A A A A A A A A A A A A A A A A A A A A A A A A D A A K e e e t 9 t 5 ' p.0.0.y.w.y.:.B D A D A A A A A A A A A A A A A A A A A A A A A A A A A A A A A A A A A A A A A A A A A A A A A A A A A A A A A A A A A A A A A A A A A K A A 9 e e e e t t y.w.w.w.0.0.p.P D A D D A A A A A A A A A A A A A A A A A A A A A A A A A A A A A A A A A A A A A A A A A A A A A A A A A A A A A A A A A D A K e e e e 9 e 5  .y.w.y.0.w.y.$.b D D D D D A A A A A A A A A A A A A A A A A A A A A A A A A A A A A A A A A A A A A A A A A A A A A A A A A A A A A A A A A A A A A A A A A A A A A A A A A A A A A A A A t e 9 t 9 9 9 ' p.6.y.w.0.y...B A A A A A A A A A A A A A A A A A A A A A A A A A A A A A A A A A A A A A A A A A A A A A A A A A A A A A A A A A A A A A A A A A A A A A A A A A D A D A D 9 e 9 e 9 e 1 :.w.w.w.w.0.p.^ B A A A A A A A A A A A A A A A A A A A A A A A A A A A A A A A A A A A A A A A A A A A A A A A A A A A A A A A A A A A A A A A A A A D D A K l 9 t e t t e l p.0.y.0.w.w.0.D A D D D A A A A A A A A A A A A A A A A A A A A A A A A A A A A A A A A A A A A A A A A A A A A A A A A A A A A A A A A D D A A 9 e 9 e t e 5 6.w.w.0.w.w.y.( A D D D D A A A A A A A A A A A A A A A A ",
"e 9 9 e e e 5 &.y.w.w.y.6.p.' B D A D D D b 9 e e e 9 e d y.0.0.w.w.w.w.K A A D D D D D D D D D D D D D D D D A D D D A D D D D D D D D D D D D A D A D A A D d 9 e t 9 t 5 K p.w.0.w.w.0.6.B D D D D D D D D D D D D A D D D D D D D D D D A A D D D D D D D D D D D A A D D D D A D D D D A D D D D D D D D D D D D D D D D D D D A A A A A A A K B D B t d 5 e e t 5 ' 0.w.w.f.6.p.&.B D P b D D D D D D A A D D D D D D D D D D D D D D D D D D D D D D D D D D D D D D A A D D D D D D D D D D D D D D D A D D D A D D D D A D A B 5 e e e e e e y.w.w.w.w.0.y.P A B K A A D D D D D D D D D D D A A D D D D A D D D D A D D D D D D D D D D D D D D D D D D D D D D D D D D D D D D D D D D A K e e e e 9 e 5  .y.w.y.0.w.y.$.b D A D D D D A D D D D A D D D D D D D D D D D D D D D D D D D D D D D A A D D D D D D D D D D D D D D D D D D D D D D D D D D D D D D A A D D D D D D D D D D A D D D A D t 9 e t 9 t 5  .p.6.y.w.0.y.$.B D D D D D D D D D D D D D D D D D D A D A D D D D D D D D D D D D D D A D D D D D D D D D D A A D D D D D D D D D D D A A D D D A A D D D D D D D D A A D B d 9 e 5 d 5 5 6.w.w.f.6.w.f.( B P b D D D D D D D D D D D D D D D D D D A D A D D D D D D D D D A A D D D D D D D D D D A D D D A A D D A A D D D D D D D D D D D D A A A K l 9 t 9 e e 9 l p.0.y.w.w.w.0.D A D D D D D D D D D D D D D D A D D D D D D D D D D A A D D D D D D D D D D D A A D D D D A D D D D A D D D D D D D D D D D A A 9 e 9 e e e 9 0.w.w.w.w.w.y.^ A D A D A D D D D D D A A D D D D D D D D ",
"e 9 9 e e e 5 &.y.w.w.y.6.p.' B D A D D D b 9 e e e 9 e d y.0.0.w.w.w.w.K A A D D D D D D D D D D D A A D D D D D D A D D D D D D D D D D D D D A D A D A A D d 9 e t 9 t 5 K p.w.0.w.w.0.6.B D D D D D D D D D D D D A D D D D D A A D D D D D D D D D D D D D D D D D D D D D D A D D D D A D D D D D D D D D D D D D D D D D A A A D D D K K b A B D K t t 9 d e 9 > ..k.w.0.0.:.y.$.b D W A D A A D D D D D D D D D D D D D D D D D D D D D D D D D D D D D D A A D D D D D D D D D D D D D D D A A D D D D D D A D D D D D A D A B 5 e e e e e e y.w.w.w.w.0.y.P A A K A A D D D D D D D D D D D D D D D D D A D D D D A D D D D D D D D D D D D D D D D D D D D D D D D D D D D D D D D D D A K e e e e 9 e 5  .y.w.y.0.w.y.$.b D A D D D D A D D D D A D D D D D D D D D D D D D D D D D D A A D D D D D D D D D D D D D D D D D D D D D D D D D D D D D D A A D D D D D D D D D D D D D A D D D D D A D t 9 e t 9 t 5  .p.6.y.w.0.y.$.B D A D D D D D D D D D D D D D D D D D D A D D D D D D D D D D D D D D A D D D D D A A D D D D D D D D D D D D D D D D D D D D D D D D D D A D D B A A D D D t e h 9 t e 1 <.0.0.0.:.0.y.( B P A D D D D D A D D D D D D D D D D D D D D A D D D D A A D D D D D D D D D D D D D D D A D D D D D D D D D D D D A D D D D D D D D A A A K l 9 e 9 e e 9 l p.0.y.w.w.w.0.D A D D D D D D D D D D D D D D A D D D D D A A D D D D D D D D D D D D D D D D D D D D D D A D D D D A D D D D D D D D D D D A A 9 e 9 e e e 9 0.w.w.w.w.w.y.^ A D A D A D A A D D D D D D D D D D D D D ",
"e 9 9 e e e 5 &.y.w.w.y.6.p.' B D A D D D b 9 e e e 9 e d y.0.0.w.w.w.w.K A A D D D D D D D D D D D D D D D D D D D D D D D D D D D D D D D A A A D A D A A D d 9 e t 9 t 5 K p.w.0.w.w.0.6.B K D D D D D D D D D D D D D D D D D D D D D D D D D D D D D D D D D D D D D D D D D D D D D D D D D D D D D D D D D A D D D D A D A D D D A A A A K K A B P 5 9 t 5 9 d = ' f.<.w.p.0.f.&.B A K A D D D D D D D D D D D D D D D D D D D D D D D D D D D D A A D D D D D D D D D D D D D D D D D D D D D D D D D D D D D D D D D D A D A B 5 e e e e e e y.w.w.w.w.0.y.W A A K A A D D D D D D D D D D D D D D D D D D D D D D D D D D D D D D D D D D D A D D D D D D D D D D D D A D D D D A A D D A K e e e e 9 e 5  .y.w.y.0.w.y.$.b D A D D D D D D D D D D D D D D D D D D D D D D A D D D D D D D D D D D D D D D D D D D D D D D D D D D D D D D D A A D D D D D D D D D D D D D D D D D D D D D D D D D D t 9 e t 9 e 5  .p.6.y.w.0.y.$.B D D D D A D D D D D D D D D A A D D D D D D D D D D D D D D D D D D D D D D D D D D D D D D D D D D D D D D D D D D D D D D D D K K K D A A D D K P D A b D 1 d e > 9 h 5 0.w.6.p.w.p.f.( b K B D D D D A A D D D D D D D D A A D D D D D D D D D D D D D D D D D D D D D D D D D D D D D D D D D D D D D D D D D D D D D A D D A A A K l 9 e 9 e e 9 l p.0.y.w.w.w.0.D A D D D D D D D D D D D D D D D D D D D D D D D D D D D D D D D D D D D D D D D D D D D D D D D D D D D D D D D D D D D D D A A 9 e 9 e e e 9 0.w.w.w.w.w.y.( A D A D A D D D D D D D D D D D D D D D D ",
"e 9 9 e e e 5 &.y.w.w.y.6.p.' B D A D D D b 9 e e e 9 e d y.0.0.w.w.w.w.K A A D D D D D D D D D D D D D D D D D D D D D D D D D D D D D D D A D A D A D A A D d 9 e t 9 t 5 K p.w.0.w.w.0.6.B K D D D D D D D D D D D D D D D D D D D D D D D D D D D D D D D D D D D D D D D D D D D D D D D D D D D D D D D D A D D D D D A D D D D D A B A A A B A B W 9 5 h e h b 5 ( f.:.p.0.<.y...b B D D D D D D D D D D D D D D D D D D D A A D A A D D A A D D D D D D D D D D D D D D D D D D D D D D D D D D D D D D D D D D D D D D A D A B 5 e e e e e e y.w.w.w.w.w.y.W A A K A A D D D D D D D D D D D D D D D D D D D D D D D D D D D D D D D D D A D D A A D D D D D D D D D D A D D D D D D D D A K e e e e 9 e 5  .y.w.y.0.w.y.$.b D A D D D D D D D D D D D D D D D D D D D D A D D A A D D D D D D D D D D D D D D D D D D D A A D A A D D A A D D D D D D D D D D D D D D D D D D D D D D D D D D D D D D t 9 e t 9 e 5  .p.6.y.w.0.y.$.B D A D D A A D D D D D D D D A D D D D D D D D D D D D D D D D D D D D D D D D D D D D D D D D D D D D D D D D D D D D D D D D D D K K A B A D D A D D A A P 1 d d e t h 1 0.p.6.6.6.y.y.( B K D D D D D D D D D D D D D D D A D D D D D D D D D D D D D D D D D D D D D D D D D D D D D D D D D D D D D D D D D D D D D A D D D A A A K l 9 t 9 e e 9 l p.0.y.w.w.w.0.D A D D D D D D D D D D D D D D D D D D D D D D D D D D D D D D D D D D D D D D D D D D D D D D D D D D D D D D D D D D D D D A A 9 e 9 e e e 9 0.w.w.w.w.w.y.( A D A D A D D D D D D D D D D D D D D D D ",
"e 9 9 e e e 5 &.y.w.w.y.6.p.' B D A D D D b 9 e e e 9 e d y.0.0.w.w.w.w.K A A D D D D D A D D D D D A D A D D D D D D D D D D D D D D D A D D D A D A D A A D d 9 e t 9 t 5 K p.w.0.w.w.w.6.B K D D D D D D D D D D A D D D D D D D D D D D D D D D D D A D D D D D D D D D D D D D D D D D D D D D D D D D D D D D D D D D D D A A D D D D K P A A K D P e = 1 1 1 1 > ' m.0.p.y.w.p.&.D A D D D D D D D D D D D D D D A D D D D D D D D D D D D D D D D A D D D D D D D D D D D D D D A D D D D D A D A D D D D D D D D D D D A D A B 5 e e e e e e y.w.w.w.w.w.y.W A A K A A D D D D A D D D D D D D D D D D D D D D D D D D D D D D D D D D D D D D D D D D D D D D D D D D D D D D D D D D D A K e e e e 9 e 5  .y.w.y.0.w.y.$.b D A D D D D D D D D D D D D D D D D D D D D D D D D D D D D D D D D D D D D D D D A D D D D D D D D D D D D D D D D A D D D D D D D D D D D D D D A D D D D D D D D D D D t 9 e t 9 t 5  .p.6.y.w.0.y.$.B D D D D D D D D D D D D A D D D D D D D D D D D D D D D D D D D D D A D D D D D D D D D D D D D D D D D A D D D D D D D D D D D A D D A A D D A A K P P K D > > 9 9 1 5 # :.k.w.y.y.p.y.' A K D D D D D D D D D D D D D A D D D D D D D D D D D D D D D D D D D D D D D A D D D D A D D A A D D D D D D D D D D A D D D D D D D A A A K l 9 t 9 e e 9 l p.0.y.w.w.w.0.D A D D D D D D D D D D D D D A D D D D D D D D D D D D D D D D D A D D D D D D D D D D D D D D D D D D D D D D D D D D D D D A A 9 e 9 e e e 9 0.w.w.w.w.w.y.( A D A D A D D D D D D D D D D D D A D D D ",
"e 9 9 e e e 5 &.y.w.w.y.6.p.' B D A D D D b 9 e e e 9 e d y.0.0.w.w.w.w.K A A D D D D D D D D D D D D D A D D D D D D D D D D D D D D D D D D D A D A D A A D d 9 9 t 9 t 5 K p.w.0.w.w.w.6.B K D D D A A D D D D D A D A D D D D D D D D D D D D D D D D D D D D D A A D D D D D D D D D D D D D D D A A D D D D D D D D D D D D D D D D A A B A B B b l A B A b B l b ^ 6.$.:.6.<.6. .D D A A D D D D D D D D D D D D D D D D D D D D D D D D D D D D D D D D D D D D D D D D D D D D D D D D D D D D A D D D D D D D D D D D A D A B 5 e e e e e e y.w.w.w.w.w.y.W A A K A D D D D D D D D D D D A A D D D D D D D D D D D D D D D A A D D D D D D D D D D D D D D A A D D D D D D D D D D D D A K e e e e 9 e 5  .y.w.y.0.w.y.$.b D A D D D D D D D D D D D D D D A A D D D D D D D D D D D D D D D D D D D D D D D D D D D D D D D D D D D D D D D D D D D D D D D D D D D D D D D D D D D D D D D D D D D t 9 e t 9 t 5  .p.6.y.w.0.y.$.B D D D D A D D D D D D D D D D D D D D D D D D D D D D A A D D D D D A D A D D D D D D D D D D D D D D D D D D D D D A A D D D D A D D A A D A l A B B b b l B B b B A A b ..<.$.<.6.:.:.^ B D A D D D D D D D D D D D D D D D D D D D D D D D D D D D D D D D D D D D D D D D D D D D D D D D D D D A D D D D D A D D D D D D D A A A K l 9 t 9 e e 9 l p.0.y.w.w.w.0.D A D D D D D D A A D D D D D A D A D D D D D D D D D D D D D D D D D D D D D A A D D D D D D D D D D D D D D D A A D D D D D A A 9 e 9 e e e 9 0.w.w.w.w.w.y.( A D A D A D D D D D D D D D D D D D D D D ",
"e 9 9 e e e 5 &.y.w.w.y.6.p.' B D A D D D b 9 e e e 9 e d y.0.0.w.w.w.w.K A A D D D A A D D D D D D D D D D D D D D A A D D D D D D D D D D D D A D A D A A D d 9 e t 9 t 5 K p.w.0.w.w.w.6.B K D D A A D D D D D D D D D D D D D D D A D D D D D D A A D D D D D D D D A D D D D D D D D D D D D D A A D D D D D D D D D D D D K D D D A b d 9 e 5 9 e 5 :.p.f.y.v.y.y.^ D D K B b D B B D A K D D D A D D D D D D A A D D D D D D A D D D D D D D D D D D D D D D D A D D D D D D A A D D D D D D D D D D D D D D A A D D D D A D A B 5 e e e e e e y.w.w.w.w.w.y.W A A K A D D D A A D D D D D D D D A D D D D D D D D D D D D D A A D D D D D D D D D D D D D D A A D D D D D D D D D D A A D A K e e e e 9 e 5  .y.w.y.0.w.y.$.b D A D D D D D D D D D D D D D A A D D D D D D D D D D D D D D D A D D D D D D A A D D D D D D A D D D D D D D D D D D D D D D D A D D D D D D A A D D D D D D D D D D D D t 9 e t 9 t 5  .p.6.y.w.0.y.$.B D D D D D D D D D D D D D D D D D D D D D A A D D D A A D D D D D D D D D D D D D D D A D D D D D D A A D D D D D D D D D D D D A D D A D K B t 9 5 5 5 e d y.p.y.y.p.p.0.^ D B l B b D A B K D D D D D D D D D D D D D D D D D D D D D D A A D D D D A D D D D D D A A D D D D D D D D D D D D D D A D D D A D D D D D D D D D A A A K l 9 t 9 e e 9 l p.0.y.w.w.w.0.D A D D D D D A A D D D D D D D D D D D D D D D A D D D D D D A A D D D D D D D D A D D D D D D D D D D D D D A A D D D D D D A A 9 e 9 e e e 9 0.w.w.w.w.w.y.( A D A D A D D D A D D D D D D A A D D D D ",
"e 9 9 e e e 5 &.y.w.w.y.6.p.' B D A D D D b 9 e e e 9 e d y.0.0.w.w.w.w.K A A D D D A D D D D D D D D D D D D D D D D D D D D D D D D D D D D D A D A D A A D d 9 e t 9 t 5 K p.w.0.w.w.w.6.B K D D D D D D D D D D D D D D D D D D D A D A D D D D A D D D D D D D D D D D D D D D A A A D D D D D D D D D D D D D D D D D D D D A D K K A d 1 e 9 e d > 6.y.<.0.p.<.f.( B D B K A K A A K B A D D D A D A D D D D A D D D D D D D D D D D A A D D D D D D D D D D D A D A D D D D A D D D D D D D D D D D D D D D D D D D D D A D A B 5 e e e e e e y.w.w.w.w.w.y.W A B K A D D D A D D D D D D D D D D D D D D D A A A D D D D D D D D D D D D D D D D D D D D D D D D D D D D A D D D D A D D A K e e e e 9 e 5  .y.w.y.0.w.y.$.b D A D D D D D A A A D D D D D D D D D D D D D D D D D D D D D D A D A D D D D A D D D D D D D D D D D A A D D D D D D D D D D D A D A D D D D A D D D D D D D D D D D D D t 9 e t 9 t 5  .p.6.y.w.0.y.$.A D D D D D D D D D D D D D D D D A A D D D D D D D D D D D D D D D D D D D D D D D D D A D A D D D D A D D D D D D D D D D D D D D D D A K K l 5 t e d t 9 > y.0.y.6.0.w.y.B l K D K B D D A K A D D D D A D D D D D D D D D D D A A D D D D D D D D D A D A D D D D A D D D D D D D D D D D D D D D D D D D A D D D D D D D D D A A A K l 9 t 9 e e 9 l p.0.y.w.w.w.0.D A D D D D D D D D D D D D D D D D D D D D D D A D A D D D D A D D D D D D D D D D D D D D D A A A D D D D D D D D D D D D D A A 9 e 9 e e e 9 0.w.w.w.w.w.y.( A D A D A D D D A D A D D D D A D D D D D ",
"e 9 9 e e e 5 &.w.w.p.6.w.p.' b K A K A B b e e e e 9 e d y.0.0.w.0.0.p.B K D A D D D D D D D D D D D D D D D D D D D D D D D D D D D D D D D D D b D B K A B l 9 t e t e 9 D f.0.0.y.6.f.6.l K D D D D D D D D D D D D D D D D D D D D D D D D D D D D D D D D D D D D D D D D D D D D D D D D D D D D D D D D D D D D D D D D K D B K B D t 9 9 t e e 5 :.w.w.y.6.w.p.' B P D D D D D D D D D D D D D D D D D D D D D D D D D D D D D D D D D D D D D D D D D D D D D D D D D D D D D D D D D D D D D D D D D D D D D D D D D K D P l t e 5 t e e e y.w.w.w.w.6.f.K l K B D D D D D D D D D D D D D D D D D D D D D D D D D D D D D D D D D D D D D D D D D D D D D D D D D D D D D D D D D D A P A h e t d 9 e 5  .y.w.y.0.w.p...B A K b A D D D D D D D D D D D D D D D D D D D D D D D D D D D D D D D D D D D D D D D D D D D D D D D D D D D D D D D D D D D D D D D D D D D D D D D D D D D D D D D D D e 5 e t 9 e 1  .y.y.y.0.w.y.$.b D D D D D D D D D D D D D D D D D D D D D D D D D D D D D D D D D D D D D D D D D D D D D D D D D D D D D D D D D D D D D D D D A P A A D D A e 9 e t 5 t t 0.w.w.p.f.6.k.K D D D D D D D D D D D D D D D D D D D D D D D D D D D D D D D D D D D D D D D D D D D D D D D D D D D D D D D D D D D D D D D D D D D D D D D D D D D D W D d e 9 9 e e 9 l p.0.y.w.y.0.w.B K b D D D D D D D D D D D D D D D D D D D D D D D D D D D D D D D D D D D D D D D D D D D D D D D D D D D D D D D D D D A K K b d 9 e e e e 9 0.w.w.w.w.0.f.( l D D A D D D D D D D D D D D D D D D D D ",
"e 9 9 e e e 5 &.y.w.y.6.w.p...D K A K D A b 9 9 e e 9 e d y.0.0.y.w.w.p.B A A B A A A A A A A A A A A A A A A A A A A A A A A A A A A A A A A A K A K A K A A h 9 t e t e 9 D f.w.w.y.6.f.6.B W A A A A A A A A A A A A A A A A A A A A A A A A A A A A A A A A A A A A A A A A A A A A A A A A A A A A A A A A A A A A A A A A D D D P A D e 9 9 t e e 5 :.w.w.p.w.y.p.( b D B A A A A A A A A A A A A A A A A A A A A A A A A A A A A A A A A A A A A A A A A A A A A A A A A A A A A A A A A A A A A A A A A A A A A A A A A A B D l e e 9 t e e e y.w.w.w.w.6.f.P b P A D D A A A A A A A A A A A A A A A A A A A A A A A A A A A A A A A A A A A A A A A A A A A A A A A A A A A A A A A A A D b e 1 5 9 5 e 5  .y.w.y.0.w.y. .B D P A D D A A A A A A A A A A A A A A A A A A A A A A A A A A A A A A A A A A A A A A A A A A A A A A A A A A A A A A A A A A A A A A A A A A A A A A A A A A A A A A A A t 5 e t 9 e 1  .y.w.w.0.w.p.:.A A A A A A A A A A A A A A A A A A A A A A A A A A A A A A A A A A A A A A A A A A A A A A A A A A A A A A A A A A A A A A A A A A K D K K D B 9 9 e t 5 t t 0.w.6.0.0.:.y.A B D A A A A A A A A A A A A A A A A A A A A A A A A A A A A A A A A A A A A A A A A A A A A A A A A A A A A A A A A A A A A A A A A A A A A A A A A B B K D h t t t e e 9 l p.0.y.w.0.0.w.A K A D A A A A A A A A A A A A A A A A A A A A A A A A A A A A A A A A A A A A A A A A A A A A A A A A A A A A A A A A A B A A b t e e e e e 9 0.w.w.w.w.6.f.( b K K A D A A A A A A A A A A A A A A A A ",
"e 9 9 e e e 5 &.y.w.y.6.w.p. .B D A D A A b 9 e e e 9 e d y.0.0.6.6.6.w.A D K D D D D D D D D D D D D D D D D D D D D D D D D D D D D D D D D D D A K B D B A d 9 t e t e 9 D f.y.w.y.0.p.<.B D D D D D D D D D D D D D D D D D D D D D D D D D D D D D D D D D D D D D D D D D D D D D D D D D D D D D D D D D D D D D D D D D A A A D A K e t 9 t e e 5 :.w.w.0.6.0.y.' B P D D D D D D D D D D D D D D D D D D D D D D D D D D D D D D D D D D D D D D D D D D D D D D D D D D D D D D D D D D D D D D D D D D D D D D D D D K D K b 5 9 1 1 e e e y.w.w.w.w.0.p.P b K B A A D D D D D D D D D D D D D D D D D D D D D D D D D D D D D D D D D D D D D D D D D D D D D D D D D D D D D D D D K K A d t e t t e 5  .y.w.y.0.w.y...B A K A D D D D D D D D D D D D D D D D D D D D D D D D D D D D D D D D D D D D D D D D D D D D D D D D D D D D D D D D D D D D D D D D D D D D D D D D D D D D D D D D K K t 9 e t 9 e 1  .y.w.w.0.w.y.$.B D D D D D D D D D D D D D D D D D D D D D D D D D D D D D D D D D D D D D D D D D D D D D D D D D D D D D D D D D D D D D D D D A D B D D A B e 9 e t 5 t t 0.w.p.y.y.w.f.K D K D D D D D D D D D D D D D D D D D D D D D D D D D D D D D D D D D D D D D D D D D D D D D D D D D D D D D D D D D D D D D D D D D D D D D D D D K D K D h 9 9 5 e e 9 l p.0.y.w.w.w.w.B D A D B D D D D D D D D D D D D D D D D D D D D D D D D D D D D D D D D D D D D D D D D D D D D D D D D D D D D D D D D K K D B 9 5 5 1 e e 9 0.w.w.w.w.w.p.( b D A A D D D D D D D D D D D D D D D D D ",
"e 9 9 e e e 5 &.w.0.y.0.w.w.^ l D A A B D B e h e e 9 e d y.0.0.f.f.p.y.K A B B A A A A A A A A A A A A A A A A A A A A A A A A A A A A A A A A A A K A D A P d 9 t e t e 9 D f.w.w.y.0.p.:.b b A A A A A A A A A A A A A A A A A A A A A A A A A A A A A A A A A A A A A A A A A A A A A A A A A A A A A A A A A A A A A A A A A A A A A P e h 9 t e e 5 :.w.w.f.p.p.y. .B A B A A A A A A A A A A A A A A A A A A A A A A A A A A A A A A A A A A A A A A A A A A A A A A A A A A A A A A A A A A A A A A A A A A A A A A A A A B K A 9 h t d e e e y.w.w.w.w.p.p.W b D B A A A A A A A A A A A A A A A A A A A A A A A A A A A A A A A A A A A A A A A A A A A A A A A A A A A A A A A A A A B b A t t e e 9 e 5  .y.w.y.0.w.f.&.A A D B D D A A A A A A A A A A A A A A A A A A A A A A A A A A A A A A A A A A A A A A A A A A A A A A A A A A A A A A A A A A A A A A A A A A A A A A A A A A A A A A D A d 9 9 t 9 e 5  .y.w.w.y.y.w. .b A A A A A A A A A A A A A A A A A A A A A A A A A A A A A A A A A A A A A A A A A A A A A A A A A A A A A A A A A A A A A A A A K D B D A A D t 9 e t 5 t t 0.w.w.w.w.w.y.D B B A A A A A A A A A A A A A A A A A A A A A A A A A A A A A A A A A A A A A A A A A A A A A A A A A A A A A A A A A A A A A A A A A A A A A A A A A B A K b e d d e e 9 l p.0.y.w.p.p.w.A A D D A A A A A A A A A A A A A A A A A A A A A A A A A A A A A A A A A A A A A A A A A A A A A A A A A A A A A A A A A B A A A e d h d e e 9 0.w.w.w.w.p.f.' B A B A D A A A A A A A A A A A A A A A A ",
"e 9 9 e e e 5 &.y.0.w.0.w.w. .P K K D A P b = 5 e e 9 e d y.0.0.0.0.6.<.P K D D D D D D D D D D D D D D D D D D D D D D D D D D D D D D D D D D D D K K K A ^ e 9 t e t e 9 D f.w.w.w.0.y.<.W W D D D D D D D D D D D D D D D D D D D D D D D D D D D D D D D D D D D D D D D D D D D D D D D D D D D D D D D D D D D D D D D D D K K D K P = 9 9 t e e 5 :.w.w.6.0.<.<.' A D D D D D D D D D D D D D D D D D D D D D D D D D D D D D D D D D D D D D D D D D D D D D D D D D D D D D D D D D D D D D D D D D D D D D D D D D D D A K A = e 5 5 e e e y.w.w.w.w.6.<.W A K K K K D D D D D D D D D D D D D D D D D D D D D D D D D D D D D D D D D D D D D D D D D D D D D D D D D D D D D D D D W K ^ t t 9 5 5 e 5  .y.w.y.0.w.6...D D K D P D D D D D D D D D D D D D D D D D D D D D D D D D D D D D D D D D D D D D D D D D D D D D D D D D D D D D D D D D D D D D D D D D D D D D D D D D D D D D D D D K d 9 9 t 9 e 5  .p.w.w.y.w.w.&.P D D D D D D D D D D D D D D D D D D D D D D D D D D D D D D D D D D D D D D D D D D D D D D D D D D D D D D D D D D D D D D D D P D D P D D D > 9 e t 5 t t 0.w.w.0.6.w.w.^ W W D D D D D D D D D D D D D D D D D D D D D D D D D D D D D D D D D D D D D D D D D D D D D D D D D D D D D D D D D D D D D D D D D D D D D D D D D D A P l > 5 5 e e 9 l p.0.y.w.<.<.<.D D P K K D D D D D D D D D D D D D D D D D D D D D D D D D D D D D D D D D D D D D D D D D D D D D D D D D D D D D D D D D D D D > 5 9 5 e e 9 0.w.w.w.w.<.6.^ D D A K K D D D D D D D D D D D D D D D D ",
"e 9 9 e e e 5 &.p.0.w.6.w.p.6.6.0.w.w.0.y. .e d e e 9 e d y.0.0.0.w.p.f.w.w.p.f.w.w.w.w.w.w.w.w.w.w.w.w.w.w.w.w.w.w.w.w.w.w.w.w.w.w.w.w.w.w.w.w.0.0.w.w.0.6.p.P 9 t e t e 9 D f.w.w.0.0.y.w.6.6.w.w.w.w.w.w.w.w.w.w.w.w.w.w.w.w.w.w.w.w.w.w.w.w.w.w.w.w.w.w.w.w.w.w.w.w.w.w.w.w.w.w.w.w.w.w.w.w.w.w.w.w.w.w.w.w.w.w.w.w.w.w.w.w.0.w.p.0.w.0.e d 9 t e e 5 :.w.w.0.p.y.f.p.0.y.y.w.w.w.w.w.w.w.w.w.w.w.w.w.w.w.w.w.w.w.w.w.w.w.w.w.w.w.w.w.w.w.w.w.w.w.w.w.w.w.w.w.w.w.w.w.w.w.w.w.w.w.w.w.w.w.w.w.w.w.w.w.w.w.w.w.w.w.w.w.w.w.w.y.y.y.:.e l t e e e e y.w.w.w.w.y.p.w.0.y.w.0.w.w.w.w.w.w.w.w.w.w.w.w.w.w.w.w.w.w.w.w.w.w.w.w.w.w.w.w.w.w.w.w.w.w.w.w.w.w.w.w.w.w.w.w.w.w.w.w.w.w.w.w.w.w.w.w.w.w.:.0.h t e t e e 5  .y.w.y.0.w.p.y.6.0.y.w.y.6.w.w.w.w.w.w.w.w.w.w.w.w.w.w.w.w.w.w.w.w.w.w.w.w.w.w.w.w.w.w.w.w.w.w.w.w.w.w.w.w.w.w.w.w.w.w.w.w.w.w.w.w.w.w.w.w.w.w.w.w.w.w.w.w.w.w.w.w.w.w.w.w.w.w.w.w.w.w.y.y.h 9 9 t 9 e 5  .p.0.0.0.0.y.w.<.w.w.w.w.w.w.w.w.w.w.w.w.w.w.w.w.w.w.w.w.w.w.w.w.w.w.w.w.w.w.w.w.w.w.w.w.w.w.w.w.w.w.w.w.w.w.w.w.w.w.w.w.w.w.w.w.w.w.w.w.w.w.w.w.0.6.w.p.0.0.&.t 9 e t 5 t t 0.w.p.y.0.y.y.<.w.0.w.w.w.w.w.w.w.w.w.w.w.w.w.w.w.w.w.w.w.w.w.w.w.w.w.w.w.w.w.w.w.w.w.w.w.w.w.w.w.w.w.w.w.w.w.w.w.w.w.w.w.w.w.w.w.w.w.w.w.w.w.w.w.w.w.w.w.w.w.w.w.w.p.p.0.y.' e t e e e 9 l p.0.y.w.w.p.k.0.w.y.6.0.w.w.w.w.w.w.w.w.w.w.w.w.w.w.w.w.w.w.w.w.w.w.w.w.w.w.w.w.w.w.w.w.w.w.w.w.w.w.w.w.w.w.w.w.w.w.w.w.w.w.w.w.w.w.w.w.f.p.w.6.d d t 9 e e 9 0.w.w.w.w.w.f.0.0.y.w.y.0.w.w.w.w.w.w.w.w.w.w.w.w.w.w.w.w.",
"e 9 9 e e e 5 &.p.0.w.0.w.p.w.p.0.y.w.0.p.' 1 5 e e 9 e d y.0.0.0.0.w.w.0.0.0.0.0.0.0.0.6.0.0.0.0.6.0.0.0.0.0.0.0.0.0.0.0.0.0.0.0.0.0.0.0.0.0.0.w.w.w.w.w.6.f.A 9 t e t e 9 D f.0.y.0.0.w.w.p.p.0.6.0.0.0.0.0.0.0.0.0.0.0.0.0.0.0.0.0.0.0.0.0.0.0.6.0.0.0.0.0.0.0.0.0.0.0.0.0.0.0.0.0.0.0.0.0.0.0.6.0.0.0.0.0.0.0.0.0.0.0.0.0.0.w.w.p.0.y.0.1 9 9 t e e 5 :.w.w.w.p.6.0.w.<.6.6.0.0.0.0.0.0.0.0.0.6.0.0.0.0.0.0.0.0.0.0.0.0.0.0.0.0.0.0.0.0.0.0.0.6.0.0.0.0.0.0.0.0.0.0.0.0.0.0.0.0.0.0.0.0.0.0.0.6.0.0.0.0.0.0.0.0.0.0.0.0.0.0.6.6.0.&.> t e e e e e y.w.w.w.w.6.6.w.w.y.y.0.w.0.0.0.0.0.0.0.0.0.0.0.0.6.0.0.0.0.6.0.0.0.0.0.0.0.0.0.0.0.0.0.0.0.0.0.0.0.0.0.0.0.0.0.0.6.0.0.0.0.6.0.0.0.0.0.0.y.0.p.t 5 9 e 9 e 5  .y.w.y.0.w.6.w.6.w.y.w.p.0.0.6.0.0.0.0.0.0.0.0.0.0.0.0.0.0.0.0.0.0.0.0.0.0.0.6.0.0.0.0.0.0.0.0.0.0.0.0.0.0.0.0.0.0.0.0.0.0.0.6.0.0.0.0.0.0.0.0.0.0.0.0.0.0.0.0.0.0.0.0.0.0.0.0.6.6.0.0.0.0.h 9 9 e 9 t 5  .p.0.0.w.0.w.p.y.0.0.0.0.0.0.0.0.0.0.0.0.0.6.0.0.0.0.0.0.0.0.0.0.0.6.0.0.0.0.0.0.0.0.0.0.0.0.0.0.0.0.0.0.0.0.0.0.0.6.0.0.0.0.0.0.0.0.0.0.0.0.0.0.0.0.w.p.0.w.&.> 9 e t 5 t t 0.w.w.w.6.w.0.0.f.w.0.0.0.0.0.6.0.0.0.0.0.0.0.0.0.0.0.0.0.0.0.6.0.0.0.0.0.0.0.0.0.0.0.6.0.0.0.0.0.0.0.0.0.0.0.0.0.0.0.0.0.0.0.0.0.0.0.6.0.0.0.0.0.0.0.0.0.0.0.0.0.0.6.w.<.y.( 5 t e e e 9 l p.0.y.w.6.6.w.0.y.y.6.y.0.0.0.0.6.0.0.0.0.6.0.0.0.0.0.0.0.0.0.0.0.0.0.0.0.0.0.0.0.0.0.0.0.0.0.0.6.0.0.0.0.6.0.0.0.0.0.0.0.0.0.0.0.0.0.0.0.0.6.<.5 e e 9 e e 9 0.w.w.w.w.<.w.6.w.y.w.y.0.0.0.0.0.0.0.0.0.0.0.0.0.0.0.0.0.",
"e 9 9 e e e 5 &.y.0.y.y.w.w.6.w.0.y.0.6.p. .9 d e e 9 e d y.0.0.w.0.w.0.y.w.w.0.y.y.y.y.y.y.y.y.y.y.y.y.y.y.y.y.y.y.y.y.y.y.y.y.y.y.y.y.y.y.y.y.w.0.0.y.y.0.k.B 9 t e t e 9 D f.6.y.y.y.w.0.w.0.y.y.y.y.y.y.y.y.y.y.y.y.y.y.y.y.y.y.y.y.y.y.y.y.y.y.y.y.y.y.y.y.y.y.y.y.y.y.y.y.y.y.y.y.y.y.y.y.y.y.y.y.y.y.y.y.y.y.y.y.y.y.y.y.w.0.w.<.y.y.9 d 9 t e e 5 :.w.w.w.p.6.0.y.w.y.w.y.y.y.y.y.y.y.y.y.y.y.y.y.y.y.y.y.y.y.y.y.y.y.y.y.y.y.y.y.y.y.y.y.y.y.y.y.y.y.y.y.y.y.y.y.y.y.y.y.y.y.y.y.y.y.y.y.y.y.y.y.y.y.y.y.y.y.y.y.y.y.y.y.y.y.:.= e 9 9 e e e y.w.w.w.w.y.w.y.w.0.0.0.y.y.y.y.y.y.y.y.y.y.y.y.y.y.y.y.y.y.y.y.y.y.y.y.y.y.y.y.y.y.y.y.y.y.y.y.y.y.y.y.y.y.y.y.y.y.y.y.y.y.y.y.y.y.y.y.y.6.6.f.t 9 e t e e 5  .y.w.y.0.w.y.f.w.w.0.0.p.y.y.y.y.y.y.y.y.y.y.y.y.y.y.y.y.y.y.y.y.y.y.y.y.y.y.y.y.y.y.y.y.y.y.y.y.y.y.y.y.y.y.y.y.y.y.y.y.y.y.y.y.y.y.y.y.y.y.y.y.y.y.y.y.y.y.y.y.y.y.y.y.y.w.w.w.w.w.y.y.y.h 9 9 e 9 t 5  .y.0.w.p.w.0.w.0.y.y.y.y.y.y.y.y.y.y.y.y.y.y.y.y.y.y.y.y.y.y.y.y.y.y.y.y.y.y.y.y.y.y.y.y.y.y.y.y.y.y.y.y.y.y.y.y.y.y.y.y.y.y.y.y.y.y.y.y.y.y.y.y.w.0.w.w.<.p.6.1 9 e t 5 t t 0.w.0.y.w.p.w.w.y.:.y.y.y.y.y.y.y.y.y.y.y.y.y.y.y.y.y.y.y.y.y.y.y.y.y.y.y.y.y.y.y.y.y.y.y.y.y.y.y.y.y.y.y.y.y.y.y.y.y.y.y.y.y.y.y.y.y.y.y.y.y.y.y.y.y.y.y.y.y.y.y.y.0.y.0.f.( > e 9 e e 9 l p.0.y.w.p.w.w.0.w.w.<.f.y.y.y.y.y.y.y.y.y.y.y.y.y.y.y.y.y.y.y.y.y.y.y.y.y.y.y.y.y.y.y.y.y.y.y.y.y.y.y.y.y.y.y.y.y.y.y.y.y.y.y.y.y.y.y.y.w.y.w.0.5 9 e e e e 9 0.w.w.w.w.w.p.0.w.w.0.y.0.y.y.y.y.y.y.y.y.y.y.y.y.y.y.y.y.",
"5 t 9 t 5 h > &.y.w.w.0.w.w.0.0.w.0.y.0.p. .= t 9 e e d h y.<.y.w.w.w.w.w.w.w.w.w.w.w.w.w.w.w.w.w.w.w.w.w.w.w.w.w.w.w.w.w.w.w.w.w.w.w.w.w.w.w.w.y.0.y.0.y.:.v.A 5 e 5 9 t 9 D f.w.w.w.w.w.w.w.w.w.w.w.w.w.w.w.w.w.w.w.w.w.w.w.w.w.w.w.w.w.w.w.w.w.w.w.w.w.w.w.w.w.w.w.w.w.w.w.w.w.w.w.w.w.w.w.w.w.w.w.w.w.w.w.w.w.w.w.w.w.w.w.w.0.y.y.w.0.w.= e d 5 5 d 1 :.y.w.w.w.w.w.w.w.w.w.w.w.w.w.w.w.w.w.w.w.w.w.w.w.w.w.w.w.w.w.w.w.w.w.w.w.w.w.w.w.w.w.w.w.w.w.w.w.w.w.w.w.w.w.w.w.w.w.w.w.w.w.w.w.w.w.w.w.w.w.w.w.w.w.w.w.w.w.w.w.w.w.0.0.w.:.> t 9 5 5 9 e y.6.0.p.6.w.w.w.w.w.w.w.w.w.w.w.w.w.w.w.w.w.w.w.w.w.w.w.w.w.w.w.w.w.w.w.w.w.w.w.w.w.w.w.w.w.w.w.w.w.w.w.w.w.w.w.w.w.w.w.w.w.w.w.w.w.w.w.w.y.<.y.h d e e 9 t =  .p.0.y.0.w.w.w.w.w.w.w.w.w.w.w.w.w.w.w.w.w.w.w.w.w.w.w.w.w.w.w.w.w.w.w.w.w.w.w.w.w.w.w.w.w.w.w.w.w.w.w.w.w.w.w.w.w.w.w.w.w.w.w.w.w.w.w.w.w.w.w.w.w.w.w.w.w.w.w.w.w.w.w.w.w.w.w.w.w.w.w.w.w.h 9 h 1 t h 1 ' p.y.w.w.w.w.w.w.w.w.w.w.w.w.w.w.w.w.w.w.w.w.w.w.w.w.w.w.w.w.w.w.w.w.w.w.w.w.w.w.w.w.w.w.w.w.w.w.w.w.w.w.w.w.w.w.w.w.w.w.w.w.w.w.w.w.w.w.w.w.w.w.f.<.w.y.0.y...1 t 9 9 9 t e k.w.w.w.w.w.w.w.w.w.w.w.w.w.w.w.w.w.w.w.w.w.w.w.w.w.w.w.w.w.w.w.w.w.w.w.w.w.w.w.w.w.w.w.w.w.w.w.w.w.w.w.w.w.w.w.w.w.w.w.w.w.w.w.w.w.w.w.w.w.w.w.w.w.w.w.w.w.w.w.w.w.w.y.0.p.W 1 h 5 9 9 5 d f.6.w.y.w.w.w.w.w.w.w.w.w.w.w.w.w.w.w.w.w.w.w.w.w.w.w.w.w.w.w.w.w.w.w.w.w.w.w.w.w.w.w.w.w.w.w.w.w.w.w.w.w.w.w.w.w.w.w.w.w.w.w.w.w.w.w.w.w.y.w.6.5 e e 5 5 h 5 :.6.w.w.y.w.w.w.w.w.w.w.w.w.w.w.w.w.w.w.w.w.w.w.w.w.w.w.w.",
"e t 9 t 1 e = :.p.y.w.w.w.w.w.w.y.6.0.<.p.$.9 l e t e 9 t y.6.w.w.w.w.w.y.w.w.w.y.w.w.w.w.w.w.w.w.w.w.w.w.w.w.w.w.w.w.w.w.w.w.w.w.w.w.w.w.y.w.w.y.0.y.0.p.0.m.D > t t t t 1 b w.w.w.w.w.y.w.w.w.w.w.w.w.w.w.w.w.w.w.w.w.w.w.w.w.y.w.w.w.w.w.w.w.w.w.w.w.w.y.w.w.w.w.w.w.y.w.w.w.y.w.w.w.w.w.w.w.w.w.w.w.w.w.w.w.w.w.w.w.w.w.w.w.0.w.0.0.0.p.e l e 9 e h 5 <.y.6.w.w.w.w.w.y.w.w.w.w.w.w.y.w.w.w.w.w.w.w.w.w.w.w.w.w.w.w.w.w.w.w.y.w.w.w.w.w.w.w.w.w.w.w.w.y.w.w.w.w.w.w.y.w.w.w.y.w.w.w.w.w.w.w.w.w.w.w.w.w.w.w.w.w.w.w.w.w.w.w.w.y.p.:.1 t e e h e 9 y.0.w.p.y.w.w.w.w.y.w.w.w.y.w.w.w.w.w.w.w.y.w.w.w.w.w.w.w.w.w.w.w.w.y.w.w.w.w.w.w.y.w.w.w.y.w.w.w.w.w.w.w.y.w.w.w.w.w.w.w.w.w.w.w.w.y.w.w.w.6.y.t 9 e t e l 9 $.p.<.0.6.y.y.w.w.w.w.w.w.w.w.w.w.w.w.y.w.w.w.w.w.w.y.w.w.w.y.w.w.w.w.w.w.w.w.w.w.w.w.w.w.w.w.w.w.w.w.w.w.w.y.w.w.w.w.w.w.w.w.w.w.w.w.y.w.w.w.w.w.w.y.w.w.w.y.w.w.w.w.w.w.w.y.y.w.w.y.y.y.y.l 5 t 5 e e > ..p.p.y.w.w.y.y.y.w.w.w.w.y.w.w.w.w.w.w.w.w.y.w.w.w.w.w.w.y.w.w.w.w.w.w.w.w.w.w.w.w.w.w.w.w.w.w.w.y.w.w.w.w.w.w.w.w.w.w.w.w.y.w.w.w.w.w.w.y.w.w.w.p.6.0.0.6.f.<.9 e 9 e t e 1 0.&.w.w.w.w.w.w.w.w.w.w.w.w.w.y.w.w.w.w.w.w.y.w.w.w.w.w.w.w.w.y.w.w.w.w.w.w.y.w.w.w.w.w.w.w.w.w.w.w.w.w.w.w.w.w.w.w.y.w.w.w.w.w.w.w.w.w.w.w.w.y.w.w.w.w.w.w.y.w.w.w.y.w.w.k.( 5 d t t e 9 l k.w.y.w.w.w.w.w.w.w.w.w.y.w.w.w.w.w.w.w.w.w.w.w.w.y.w.w.w.w.w.w.y.w.w.w.y.w.w.w.w.w.w.w.y.w.w.w.w.w.w.w.w.w.w.w.w.y.w.w.w.w.w.w.y.w.w.w.0.y.w.6.5 e t 9 e d 9 0.y.y.w.w.w.w.w.w.w.y.w.y.w.w.w.w.y.w.w.w.y.w.w.w.w.w.w.w.",
"e e 5 t 9 e 9 0.w.0.6.6.6.0.6.6.y.0.w.0.p. .> 1 t d e 5 t y.0.0.6.6.6.6.6.6.6.6.0.0.6.6.6.6.6.6.6.6.6.6.6.6.6.6.6.0.6.6.6.6.6.6.6.6.6.6.6.6.6.6.p.w.y.0.y.6.p.B 1 t t 9 9 5 K v.6.6.6.6.6.6.6.6.6.6.6.6.6.6.6.6.6.0.6.6.6.6.6.6.0.0.6.6.6.6.6.6.6.6.6.6.6.6.6.0.6.6.6.6.6.6.6.6.0.0.6.6.6.6.6.6.6.6.6.6.6.6.6.6.6.0.6.6.6.6.6.6.0.w.w.w.w.0.1 1 d t e 9 = &.y.6.6.6.6.6.6.6.6.0.6.6.6.6.6.6.6.6.6.6.6.6.6.6.6.6.6.0.6.6.6.6.6.6.0.0.6.6.6.6.6.6.6.6.6.6.6.6.6.0.6.6.6.6.6.6.6.6.0.0.6.6.6.6.6.6.6.6.6.6.6.6.6.6.6.0.6.6.6.6.6.6.0.w.y.&.1 t e t t 5 9 y.y.6.6.:.6.6.6.6.6.6.6.6.0.0.6.6.6.6.6.6.0.0.6.6.6.6.6.6.6.6.6.6.6.6.6.0.6.6.6.6.6.6.6.6.0.0.6.6.6.6.6.6.0.0.6.6.6.6.6.6.6.6.6.6.6.6.6.0.0.0.y.t 5 e d t 1 >  .p.0.w.0.y.0.0.6.6.6.6.6.6.6.6.6.6.6.6.6.0.6.6.6.6.6.6.6.6.0.0.6.6.6.6.6.6.6.6.6.6.6.6.6.6.6.0.6.6.6.6.6.6.0.0.6.6.6.6.6.6.6.6.6.6.6.6.6.0.6.6.6.6.6.6.6.6.0.0.6.6.6.6.6.6.6.6.6.6.6.0.0.0.b 5 t 9 e 9 5 $.w.0.6.6.6.0.0.6.6.6.6.6.6.6.6.6.6.6.6.6.6.6.6.6.6.6.6.6.6.6.6.6.6.6.6.6.6.6.6.6.6.0.6.6.6.6.6.6.0.0.6.6.6.6.6.6.6.6.6.6.6.6.6.0.6.6.6.6.6.6.6.6.0.0.y.w.0.f.$.> e e e 9 e e f.p.6.6.6.6.6.6.6.6.6.6.6.6.6.6.6.6.6.6.6.6.6.6.6.6.6.6.6.6.6.6.6.6.6.6.6.6.6.6.6.6.6.6.6.6.6.6.6.6.6.0.6.6.6.6.6.6.0.0.6.6.6.6.6.6.6.6.6.6.6.6.6.0.6.6.6.6.6.6.6.6.6.:.<.p.^ > e t e 9 5 l y.6.6.:.6.6.6.6.6.6.6.6.0.0.6.6.6.6.6.6.6.6.6.6.6.6.6.0.6.6.6.6.6.6.6.6.0.0.6.6.6.6.6.6.0.0.6.6.6.6.6.6.6.6.6.6.6.6.6.0.6.6.6.6.6.6.6.6.<.0.0.<.9 e t e 9 9 1 <.w.6.:.<.6.6.6.6.6.6.6.0.6.6.6.6.6.6.6.6.0.0.6.6.6.6.6.6.",
"9 e 9 t 9 t e $.k.f.p.p.f.f.f.p.y.y.p.y.p...t e 5 e e t A p.f.v.p.p.p.p.p.p.p.p.f.f.p.p.p.p.p.p.p.p.p.p.p.p.p.p.p.p.p.p.p.p.p.p.p.p.p.p.p.p.p.p.f.y.y.w.y.6.y.P 9 t e 9 9 e P y.p.p.p.p.p.p.p.p.p.p.p.p.p.p.p.p.p.p.p.p.p.p.p.p.f.f.p.p.p.p.p.p.p.p.p.p.p.p.p.p.p.p.p.p.p.p.p.p.f.f.p.p.p.p.p.p.p.p.p.p.p.p.p.p.p.p.p.p.p.p.p.p.y.y.p.p.y.0.t t e 5 9 e e <.k.k.p.p.p.p.p.p.p.p.p.p.p.p.p.p.p.p.p.p.p.p.p.p.p.p.p.p.p.p.p.p.p.p.f.f.p.p.p.p.p.p.p.p.p.p.p.p.p.p.p.p.p.p.p.p.p.p.f.f.p.p.p.p.p.p.p.p.p.p.p.p.p.p.p.p.p.p.p.p.p.p.k.f.p.&.e t 5 5 5 5 d w.f.f.f.f.p.p.p.p.p.p.p.p.f.f.p.p.p.p.p.p.f.f.p.p.p.p.p.p.p.p.p.p.p.p.p.p.p.p.p.p.p.p.p.p.f.f.p.p.p.p.p.p.f.f.p.p.p.p.p.p.p.p.p.p.p.p.p.p.v.f.p.A t e e 5 e t ..p.y.p.y.y.f.f.p.p.p.p.p.p.p.p.p.p.p.p.p.p.p.p.p.p.p.p.p.p.f.f.p.p.p.p.p.p.p.p.p.p.p.p.p.p.p.p.p.p.p.p.p.p.f.f.p.p.p.p.p.p.p.p.p.p.p.p.p.p.p.p.p.p.p.p.p.p.f.f.p.p.p.p.p.p.p.p.p.p.p.p.f.f.l 9 d e e e 9 ^ k.f.p.p.f.f.f.p.p.p.p.p.p.p.p.p.p.p.p.p.p.p.p.p.p.p.p.p.p.p.p.p.p.p.p.p.p.p.p.p.p.p.p.p.p.p.p.p.f.f.p.p.p.p.p.p.p.p.p.p.p.p.p.p.p.p.p.p.p.p.p.p.w.w.p.p.y.p.$.t e e 9 9 e d w.w.p.p.p.p.p.p.p.p.p.p.p.p.p.p.p.p.p.p.p.p.p.p.p.p.p.p.p.p.p.p.p.p.p.p.p.p.p.p.p.p.p.p.p.p.p.p.p.p.p.p.p.p.p.p.p.p.f.f.p.p.p.p.p.p.p.p.p.p.p.p.p.p.p.p.p.p.p.p.p.p.v.f.y.p.( 9 e 9 9 e e A p.y.k.k.p.p.p.p.p.p.p.p.f.f.p.p.p.p.p.p.p.p.p.p.p.p.p.p.p.p.p.p.p.p.p.p.f.f.p.p.p.p.p.p.f.f.p.p.p.p.p.p.p.p.p.p.p.p.p.p.p.p.p.p.p.p.p.p.f.f.y.<.h t 9 5 5 e t :.y.p.p.k.p.p.p.p.p.p.p.p.p.p.p.p.p.p.p.p.f.f.p.p.p.p.p.p.",
"9 t e 9 5 e 1 h l h h h h h h h l l l h b h 5 t d e 9 9 5 d e d h h h h h h h h h h h h h h h h h h h h h h h h h h h h h h h h h h h h h h h h l h b l l l A e 9 9 e t t e d B h h h h h h h h h h h h h h h h h h h h h h h h h h h h h h h h h h h h h h h h h h h h h h h h h h h h h h h h h h h h h h h h h h h h h h h h l l b h l B 1 t d 9 e t 1 d e e h h h h h h h h h h h h h h h h h h h h h h h h h h h h h h h h h h h h h h h h h h h h h h h h h h h h h h h h h h h h h h h h h h h h h h h h h h h h h h h h t t l h 1 d t d h h t b h h h d h h h h h h h h h h h h h h h h h h h h h h h h h h h h h h h h h h h h h h h h h h h h h h h h h h h h h h h h h h h h h h h h d e d 5 9 9 e d t 5 h b h l l l h h h h h h h h h h h h h h h h h h h h h h h h h h h h h h h h h h h h h h h h h h h h h h h h h h h h h h h h h h h h h h h h h h h h h h h h h h h h h h h h h d d d d h h h e 5 t 5 9 t 5 h h h h h h h h d h h h h h h h h h h h h h h h h h h h h h h h h h h h h h h h h h h h h h h h h h h h h h h h h h h h h h h h h h h h h h h h h B h h l h l h 5 e e e t e 5 A h h h h h h h h h h h h h h h h h h h h h h h h h h h h h h h h h h h h h h h h h h h h h h h h h h h h h h h h h h h h h h h h h h h h h h h h h h h h h h h h h t d h b d e d d d d 9 e B t d d h h h h h h h h h h h h h h h h h h h h h h h h h h h h h h h h h h h h h h h h h h h h h h h h h h h h h h h h h h h h h h h h t d h l 5 t d t t h t b l l d t h h h h h h h h h h h h h h h h h h h h h h h h ",
"5 d e 9 9 t 9 5 e 9 9 9 9 e e 9 1 5 5 5 e 9 9 d e 5 9 d d t e h 9 9 9 9 9 9 9 9 9 9 9 9 9 9 9 9 9 9 9 9 9 9 9 9 9 9 9 9 9 9 9 9 9 9 9 9 9 9 e e 5 5 9 5 5 5 t 5 t 9 5 e t e 5 5 9 9 9 9 9 9 9 9 9 9 9 9 9 9 9 9 9 9 9 9 9 9 9 9 9 9 9 9 9 9 9 9 9 9 9 9 9 9 9 9 9 9 9 9 9 9 9 9 9 9 9 9 9 9 9 9 9 9 9 9 9 9 9 9 9 9 9 9 9 9 9 9 5 5 9 5 9 t 5 t t 1 e d t d e d 9 9 9 9 9 9 9 9 9 9 9 9 9 9 9 9 9 9 9 9 9 9 9 9 9 9 9 9 9 9 9 9 9 9 9 9 9 9 9 9 9 9 9 9 9 9 9 9 9 9 9 9 9 9 9 9 9 9 9 9 9 9 9 9 9 9 9 9 9 9 9 9 9 9 9 9 9 9 9 9 t e d t 9 d e 9 1 9 9 5 5 e e t 9 9 9 9 9 9 9 9 9 9 9 9 9 9 9 9 9 9 9 9 9 9 9 9 9 9 9 9 9 9 9 9 9 9 9 9 9 9 9 9 9 9 9 9 9 9 9 9 9 9 9 9 9 9 9 9 9 9 9 9 9 9 9 9 h e t d d 9 5 e d 9 9 e 5 5 5 1 9 9 9 9 9 9 9 9 9 9 9 9 9 9 9 9 9 9 9 9 9 9 9 9 9 9 9 9 9 9 9 9 9 9 9 9 9 9 9 9 9 9 9 9 9 9 9 9 9 9 9 9 9 9 9 9 9 9 9 9 9 9 9 9 9 9 9 9 9 9 9 9 9 9 9 9 9 9 9 9 9 9 9 9 9 9 e e 5 9 d 9 9 d 9 5 e e 9 9 e e e 9 9 9 9 9 9 9 9 9 9 9 9 9 9 9 e e 9 9 9 9 9 9 9 9 9 9 9 9 9 9 9 9 9 9 9 9 9 9 9 9 9 9 9 9 9 9 9 9 9 9 9 9 9 9 9 9 9 9 9 9 9 9 9 9 9 > 1 e 5 1 9 e e e 9 e e 1 e 1 9 9 9 9 9 9 9 9 9 9 9 9 9 9 e e 9 9 9 9 9 9 9 9 9 9 9 9 9 9 e e 9 9 9 9 9 9 9 9 9 9 9 9 9 9 9 9 9 9 9 9 9 9 9 9 9 9 9 9 9 9 9 9 9 9 9 9 9 9 9 9 9 9 9 9 9 9 9 9 e t e 5 5 9 5 1 5 9 > 5 t 5 e t 9 9 9 9 9 9 9 9 9 9 9 9 9 9 9 9 9 9 9 9 9 9 9 9 9 9 9 9 9 9 9 9 9 9 9 9 9 9 9 9 9 9 9 9 9 9 9 9 9 9 9 9 9 9 9 9 9 9 9 9 9 9 9 9 d t e t 9 e 9 5 1 e 9 5 5 t t e 9 9 9 9 9 9 9 9 9 9 9 9 9 9 9 9 9 9 9 9 9 9 9 9 ",
"9 t e e e t t e e e 9 9 e e e e 9 t t d d e 9 5 e e 9 t t 9 9 5 e e e e e e e e e e e e e e e e e e e e e e e e e e e e e e e e e e e e e e e e t t t t e t e e d 9 9 9 9 e t e e e e e e e e e e e e e e e e e e e e e e e e e e e e e e e e e e e e e e e e e e e e e e e e e e e e e e e e e e e e e e e e e e e e e e e e e e e d t t t 5 9 d 5 e 5 5 9 5 t e e e e e e e e e e e e e e e e e e e e e e e e e e e e e e e e e e e e e e e e e e e e e e e e e e e e e e e e e e e e e e e e e e e e e e e e e e e e e e e e 9 1 e 5 9 t 9 9 9 e t e t e 5 9 e e e e e e e e e e e e e e e e e e e e e e e e e e e e e e e e e e e e e e e e e e e e e e e e e e e e e e e e e e e e e e e e 5 9 9 t t 9 e e 5 9 e d d t t 9 e e e e e e e e e e e e e e e e e e e e e e e e e e e e e e e e e e e e e e e e e e e e e e e e e e e e e e e e e e e e e e e e e e e e e e e e e e e e e e e e e e e 9 e e e e e 9 d e 9 t e 9 e e e e e e e e e e e e e e e e e e e e e e e e e e e e e e e e e e e e e e e e e e e e e e e e e e e e e e e e e e e e e e e e e e e e e e e e e 9 t h d e 9 e e e 5 9 9 e d d e e e e e e e e e e e e e e e e e e e e e e e e e e e e e e e e e e e e e e e e e e e e e e e e e e e e e e e e e e e e e e e e e e e e e e e e e e e e e e e e 9 e e 9 e t e t t d 9 t t 5 e e e e e e e e e e e e e e e e e e e e e e e e e e e e e e e e e e e e e e e e e e e e e e e e e e e e e e e e e e e e e e e e e e 5 1 5 9 9 9 9 9 t t t 9 9 t e e e e e e e e e e e e e e e e e e e e e e e e e e ",
"t t e e e 1 e e e 9 9 9 e e e e e t 5 5 9 e t 9 e e 9 5 e e t 5 e e e e e e e e e e e e e e e e e e e e e e e e e e e e e e e e e e e e e e e e e 5 9 e e d 9 9 9 9 t d e 9 e 9 e e e e e e e e e e e e e e e e e e e e e e e e e e e e e e e e e e e e e e e e e e e e e e e e e e e e e e e e e e e e e e e e e e e e e e e e t 9 9 5 9 e e t 9 9 d e t d e e e e e e e e e e e e e e e e e e e e e e e e e e e e e e e e e e e e e e e e e e e e e e e e e e e e e e e e e e e e e e e e e e e e e e e e e e e e e e e e e e d e d 9 9 t 9 e t 9 5 5 t e 5 d e e e e e e e e e e e e e e e e e e e e e e e e e e e e e e e e e e e e e e e e e e e e e e e e e e e e e e e e e e e e e e e e 5 t e e 5 9 e e 9 t e 9 5 5 t e e e e e e e e e e e e e e e e e e e e e e e e e e e e e e e e e e e e e e e e e e e e e e e e e e e e e e e e e e e e e e e e e e e e e e e e e e e e e e e e e e e e e e e e e e 5 t t 5 9 e d e e e e t t e e e e e e e e e e e e e e e e e e e e e e e e e e e e e e e e e e e e e e e e e e e e e e e e e e e e e e e e e e e e e e e e e e 9 e 9 5 5 e e e 5 e e d e 9 9 9 e e e e e e e e e e e e e e e e e e e e e e e e e e e e e e e e e e e e e e e e e e e e e e e e e e e e e e e e e e e e e e e e e e e e e e e e e e e e e e e e e 9 e e t 9 1 t 9 t 5 t t e t 9 e e e e e e e e e e e e e e e e e e e e e e e e e e e e e e e e e e e e e e e e e e e e e e e e e e e e e e e e e e e e e e e e e e t t t e e e t 5 9 9 t t e e e e e e e e e e e e e e e e e e e e e e e e e e ",
"9 t e 5 e e h e t 9 d e e t 5 5 e e e e e e e e e e e e e e e e e e e e e e e e e e e e e e e e t d e e t e 9 e 9 5 5 d e 9 e 1 e t 9 e e 9 e e e e e e e e e e e e e e e e e e e e e e e e e e e e e e e e e e e e e e e e e e e e e e e e e e t t e e t e 5 e 9 e e e e 9 > 5 t t t 5 9 e 1 t e e e e e e e e e e e e e e e e e e e e e e e e e e e e e e e e e e e e e e e e e e e e e e e e e e e e e e e e e e e e e e e e e e e e e e e e 9 d e 9 t e e e e e t t t e 9 9 e e e e e e e e e e e e e e e e e e e e e e e e e e e e e e e e e e e e e e e e e e e e e e e e e e e e e e e e e e e e e e e e e 9 e e 5 9 t 9 t 9 9 9 1 e e 9 5 e e e 9 9 9 5 e e e e e e e e e e e e e e e e e e e e e e e e e e e e e e e e e e e e e e e e e e e e e e e e e e e e e e e e e e e e e e e e e e e e e e e e t e 9 9 9 9 9 e e e 9 9 e d e 9 9 e 9 e 9 5 e 9 e e e e e e e e e e e e e e e e e e e e e e e e e e e e e e e e e e e e e e e e e e e e e e e e e e e e e e e e e e e e e e e e d 9 t e e t 5 9 5 e t 9 e e e 1 t t e 5 e t 5 9 e e e e e e e e e e e e e e e e e e e e e e e e e e e e e e e e e e e e e e e e e e e e e e e e e e e e e e e e e e e e e e e e e e e e e e e e 9 9 t d 9 e e 5 e t 9 e t e e e 9 e e e 9 9 9 9 e e e e e e e e e e e e e e e e e e e e e e e e e e e e e e e e e e e e e e e e e e e e e e e e e e e e e e e e 9 9 9 9 e e e 9 9 d 5 e 5 d d e e t 5 d 9 e 9 9 e e e e e e e e e e e e e e e e e e e e e e e e e e e e e e e e e e e e e e e e e e e e e e e e e e e e e e e e ",
"9 e e e t e 9 1 e 9 t 9 9 d t h t t t t t t t t t t t t t t t t e e t t t t t t t t t t t t t t 9 e 9 9 t e 9 e d e 9 t e e d t e e 9 t e e t t t t t t t t t t e e t t t t t t t t t t t t t t t t t t t e e t t t t t e e e t t t t t t t t t 5 e 9 9 e e 9 t e e e 9 e d t h 5 5 t e t t 5 t t t t t t e e t t t t t e e e t t t t t t t t t t t t t t t t t e e t t t t t t t t t t t t t t t t t t t e e t t t t t e e e t t t e e e e t t 5 t 9 9 e 9 9 e e e e 9 9 e d d t t t t t t t t t t t t t e e t t t t t e e e t t t t t t t t t e e t t t t t t t t t t t t t t e e t t t t t t t t t t t t t t t e t t 9 e d t e 9 t t t d t 9 e t e 9 e t d h t t t t t t t t e e t t t t t t t t t t t t t t e e t t t t t t t t t t t t t t e e t t t t t t t t t t t t t t e e t t t t t t t t t t t e e t t e e e t t t d 1 e t e 9 e t d t d t t t t t e e e t t t t t t t t t t t t t t t t t t t e e t t t t t e e e t t t t t t t t t t t t t t t t t e e t t t t t t t t t t t t t t 9 1 9 9 9 t 5 9 e e e e e d h h 5 9 e 9 d d 9 e t t t t t t t t e e t t t t t t t t t t t t t t t t t t t e e t t t t t e e e t t t t t t t t t t t t t t t t t e e t t t t t t t t t t t t t t 9 5 e t 9 e t 9 e d e e t e e e e t t t t e e t t t t t t t t t e e t t t t t t t t t t t t t t t t t t t e e t t t t t t e e t t t t t t t t t e e t t t t t t t e e t t t t e 9 t 5 t 9 t 5 5 e t 5 t 9 d d l e e t t t t t t t t t t t t t t e e t t t t t t t t t t t t t t e e t t t t t t t t t t t t t t e e t t t t t t ",
"e e 9 t t e 1 e 5 1 9 > 1 e 5 5 9 9 9 9 9 9 9 9 9 9 9 9 9 9 9 9 9 9 9 9 9 9 9 9 9 9 9 9 9 9 9 9 9 e 9 9 t t 9 e t 9 e 9 1 1 5 > e 5 5 9 5 5 e e 9 9 9 9 9 9 9 9 9 9 9 9 9 9 9 9 9 9 9 9 9 9 9 9 9 9 9 9 9 9 9 9 9 9 9 9 9 9 9 9 9 9 9 9 9 9 9 9 9 e 9 9 t e 9 t e 9 t 5 5 5 = 1 9 1 9 9 9 e 1 e 9 9 9 9 9 9 9 9 9 9 9 9 9 9 9 9 9 9 9 9 9 9 9 9 9 9 9 9 9 9 9 9 9 9 9 9 9 9 9 9 9 9 9 9 9 9 9 9 9 9 9 9 9 9 9 9 9 9 9 9 9 9 9 9 9 9 9 9 9 9 9 9 9 e e 9 e 9 9 t 5 5 5 5 1 9 e 5 9 9 9 9 9 9 9 9 9 9 9 9 9 9 9 9 9 9 9 9 9 9 9 9 9 9 9 9 9 9 9 9 9 9 9 9 9 9 9 9 9 9 9 9 9 9 9 9 9 9 9 9 9 9 9 9 9 9 9 9 9 9 9 9 e 9 e 9 5 9 t 9 t 9 e e 5 1 5 1 9 9 5 5 9 5 5 9 9 9 9 9 9 9 9 9 9 9 9 9 9 9 9 9 9 9 9 9 9 9 9 9 9 9 9 9 9 9 9 9 9 9 9 9 9 9 9 9 9 9 9 9 9 9 9 9 9 9 9 9 9 9 9 9 9 9 9 9 9 9 9 9 9 9 9 9 9 9 9 9 5 5 5 9 e 9 9 9 e d t 5 9 1 1 5 > 1 1 1 1 9 e 9 9 9 9 9 9 9 9 9 9 9 9 9 9 9 9 9 9 9 9 9 9 9 9 9 9 9 9 9 9 9 9 9 9 9 9 9 9 9 9 9 9 9 9 9 9 9 9 9 9 9 9 9 9 9 9 9 9 9 9 9 9 9 9 9 e 5 t 9 9 t 9 e t 5 5 e 1 > > 1 5 e 5 5 e e 5 9 9 9 9 9 9 9 9 9 9 9 9 9 9 9 9 9 9 9 9 9 9 9 9 9 9 9 9 9 9 9 9 9 9 9 9 9 9 9 9 9 9 9 9 9 9 9 9 9 9 9 9 9 9 9 9 9 9 9 9 9 9 9 9 9 9 9 9 9 9 9 9 9 t 9 9 e e t t 9 1 t 5 5 9 5 9 1 5 9 9 9 9 9 9 9 9 9 9 9 9 9 9 9 9 9 9 9 9 9 9 9 9 9 9 9 9 9 9 9 9 9 9 9 9 9 9 9 9 9 9 9 9 9 9 9 9 9 9 9 9 9 9 9 9 9 9 9 9 9 9 9 9 9 9 9 9 9 9 5 e e 5 t e e 1 t 5 9 1 e 1 e 5 9 9 9 9 9 9 9 9 9 9 9 9 9 9 9 9 9 9 9 9 9 9 9 9 9 9 9 9 9 9 9 9 9 9 9 9 9 9 9 9 9 9 9 9 9 9 9 9 9 9 9 9 9 9 9 9 9 ",
"t e 9 t e e 9 P ' (  .( ( ' A h l l l l l l l l l l l l l l l l l l l l l l l l l l l l l l l l l b d 9 e e 9 e 9 h ( ( ' '  .( ^ l l b l b l l l l l l l l l l l l l l l l l l l l l l l l l l l l l l l l l l l l l l l l l l l l l l l l l l l b d e t e e t e d ' ( ' ' ( ' ( B b l l b l B l l l l l l l l l l l l l l l l l l l l l l l l l l l l l l l l l l l l l l l l l l l l l l l l l l l l l l l l l l l l l l l l b b l l l l b b t t t 9 e e 9 l ' ( '  .'  .( b l l l l l l l l l l l l l l l l l l l l l l l l l l l l l l l l l l l l l l l l l l l l l l l l l l l l l l l l l l l l l l l l l l b b h b l t 9 5 9 9 e t W  .(  .' ' ' K l l l l l l l l l l l l l l l l l l l l l l l l l l l l l l l l l l l l l l l l l l l l l l l l l l l l l l l l l l l l l l l l l l l l l l l l l l b l l b l t e e t e 9 e ^ ' ' ^ ' ' ' D l l h h l l l l l l l l l l l l l l l l l l l l l l l l l l l l l l l l l l l l l l l l l l l l l l l l l l l l l l l l l l l l l l l l b l b d e t 9 e t 9 l  .( ( ^ (  .( l l l b l b l l l l l l l l l l l l l l l l l l l l l l l l l l l l l l l l l l l l l l l l l l l l l l l l l l l l l l l l l l l l l l l l l l l l l l l l b t 9 e e e e 5 D  .( '  .(  .W h l l l l l l l l l l l l l l l l l l l l l l l l l l l l l l l l l l l l l l l l l l l l l l l l l l l l l l l l l l l l l l l l l l l l l l h t e 5 t 9 e e ^ ( ' ' ..(  .B l l l l l l l l l l l l l l l l l l l l l l l l l l l l l l l l l l l l l l l l l l l l l l l l l l l l l l l l l ",
"e e 9 t 5 e e &.k.p.f.y.f.f. .D K K K K K K D D K K K K K K K K K K K K K K K K K K K K K K D D D D l e e e e e e A p.p.f.p.f.p.w.K D K D P K D K K K K K K K K K K K K K K K K K K K K K K D D K K K K K K K K K K K K K K K K K K K K K K D D D K b e e e e t 9 h y.y.f.f.f.k.y.^ D D D K D K K K K K K K K K K K K K K K K K K K K K K K D D K K K K K K K K K K K K K K K K K K K K K K D D K K K K K K K K K K K K K K K K K K D D D D K K l t t 9 e e 9 A k.y.p.f.p.k.0.K K K K K K K D D K K K K K K K K K K K K K K K K K K K K K K K K K K K K K K K K K K K K K K K K K K K K K K K K K K K K K K K K D D K K D K A d e 9 e e t t <.k.y.f.p.p.f.$.D K K K K K K K K K K K K K K K K K K K K K K K K K K K K K K K K K K K K K K K K K K K K K K K K K K K K K K K K K K K K K K K K K K K K K K K K K P K K P A h e t e 9 5 t 6.k.k.p.f.f.k...D K D P K K K K K K K K K K K K K K D D K K K K K K K K K K K K K K K K K K K K K K D D K K K K K K K K K K K K K K K K K K K K K K D D D D K l t t 9 e e 9 K k.f.k.f.f.f.0.A K D K D K K K K K K K K K K K K K K K K K K K K K K K D D K K K K K K K K K K K K K K K K K K K K K K D D K K K K K K K K K K K K K K K K K K K K K K D D D d 9 e e e e 1 ..f.y.f.k.y.k.0.A D D D D D D D K K K K K K K K K K K K K K K K K K K K K K D D K K K K K K K K K K K K K K K K K K K K K K K K K K K K K K K K D D D D D D D A e e 9 t 9 e t 6.f.y.p.k.p.f.( D K K K K K K K K K K K K K K K K K K K K K K K K K K K K K K K K K K K K K K K K K K K K K K K K K K K K K K K K ",
"5 e e d 5 t 5 :.y.0.0.<.0.w.( b A A A A A A A A A A A A A A A A A A A A A A A A A A A A A A A A K K l 9 9 e e e 5 b f.6.6.<.6.<.w.B B A B K A A A A A A A A A A A A A A A A A A A A A A A A A A A A A A A A A A A A A A A A A A A A A A A A A A K K b e 9 e e t 5 t p.0.6.<.<.6.w.K B A A D B b A A A A A A A A A A A A A A A A A A A A A A A A A A A A A A A A A A A A A A A A A A A A A A A A A A A A A A A A A A A A A A A A A A A A A A A A l 9 t 5 9 e 5 D p.6.6.0.<.y.<.b A A A A A A A A A A A A A A A A A A A A A A A A A A A A A A A A A A A A A A A A A A A A A A A A A A A A A A A A A A A A A A A A A A D D A D b 9 e e t 9 e = ..w.6.w.<.6.y.' b D A A A A A A A A A A A A A A A A A A A A A A A A A A A A A A A A A A A A A A A A A A A A A A A A A A A A A A A A A A A A A A A A A A A A A A A A D A A D b e 5 9 e e e e <.0.0.0.<.6.w.W l D B K A A A A A A A A A A A A A A A A A A A A A A A A A A A A A A A A A A A A A A A A A A A A A A A A A A A A A A A A A A A A A A A A D D K h 9 e 5 e 9 5 A p.6.w.6.6.w.6.l K A D A A A A A A A A A A A A A A A A A A A A A A A A A A A A A A A A A A A A A A A A A A A A A A A A A A A A A A A A A A A A A A A A A A A A A A A A A A K d 9 e e e e 5 P w.<.w.w.<.y.&.B B A A A A A A A A A A A A A A A A A A A A A A A A A A A A A A A A A A A A A A A A A A A A A A A A A A A A A A A A A A A A A A A A A A A A B B 9 e t t 9 e e 0.w.<.6.0.6.p.P b A A A A A A A A A A A A A A A A A A A A A A A A A A A A A A A A A A A A A A A A A A A A A A A A A A A A A A A A ",
"5 t e t 5 h 1 &.p.w.y.6.w.p. .D D D D D D D D D D D D D D D D D D D D D D D D D D D D D D D D D D D l 9 e t e e 1 l f.<.w.y.p.p.y.b D K B P D K D D D D D D D D D D D D D D D D D D D D D D D D D D D D D D D D D D D D D D D D D D D D D D D D A D l 9 9 e e e e t f.6.0.w.y.y.w.D A K A D A A D D D D D D D D D D D D D D D D D D D D D D D D D D D D D D D D D D D D D D D D D D D D D D D D D D D D D D D D D D D D D D D D D D D D D D D D h 5 t 9 9 e 1 A f.0.w.w.<.p.0.A D D D D D D D D D D D D D D D D D D D D D D D D D D D D D D D D D D D D D D D D D D D D D D D D D D D D D D D D D D D D D D D D D D K D D P A e 5 5 9 e h 1 :.f.0.y.6.w.f...B P D D D D D D D D D D D D D D D D D D D D D D D D D D D D D D D D D D D D D D D D D D D D D D D D D D D D D D D D D D D D D D D D D D D D D D D D D A D K B t 9 t 9 t t e 6.0.y.y.p.p.k.( B P b B D D D D D D D D D D D D D D D D D D D D D D D D D D D D D D D D D D D D D D D D D D D D D D D D D D D D D D D D D D D D D D D D A A K d 5 e 5 e e 9 A f.<.f.p.y.0.0.b W D D D D D D D D D D D D D D D D D D D D D D D D D D D D D D D D D D D D D D D D D D D D D D D D D D D D D D D D D D D D D D D D D D D D D D D D D D D D D t 9 e e e e 5 ^ f.0.y.y.6.f.:.A A D D D D D K D D D D D D D D D D D D D D D D D D D D D D D D D D D D D D D D D D D D D D D D D D D D D D D D D D D D D D D D K D D D D D A A 9 e t e 9 e 5 6.y.0.y.w.0.f.^ D D D D D D D D D D D D D D D D D D D D D D D D D D D D D D D D D D D D D D D D D D D D D D D D D D D D D D D D D ",
"e d 9 9 1 l 1 &.w.w.p.0.w.w.' B D D D D D D D D D D D D D D D D D D D D D D D D D D D D D D D D A D b e e t e 9 9 b k.<.w.w.w.6.w.b P W B D B D D D D D D D D D D D D D D D D D D D D D D D D D D D D D D D D D D D D D D D D D D D D D D D D D B D b e e e 9 9 t e f.6.0.w.w.6.w.D D K B B D K D D D D D D D D D D D D D D D D D D D D D D D D D D D D D D D D D D D D D D D D D D D D D D D D D D D D D D D D D D D D D D D D D D D D D D D D h 1 d e e e > A y.0.p.p.<.p.0.B D D D D D D D D D D D D D D D D D D D D D D D D D D D D D D D D D D D D D D D D D D D D D D D D D D D D D D D D D D D D D D D D D D D B A P D t t 9 9 9 h = $.w.0.y.6.w.k. .l D D D D D D D D D D D D D D D D D D D D D D D D D D D D D D D D D D D D D D D D D D D D D D D D D D D D D D D D D D D D D D D D D D D D D D D D D D B A K B e 5 e t t e 5 0.w.w.w.0.6.y.W B ^ B B D D D D D D D D D D D D D D D D D D D D D D D D D D D D D D D D D D D D D D D D D D D D D D D D D D D D D D D D D D D D D D D D A D K h 9 e 9 t 9 9 A p.&.y.w.6.w.w.b W B B A K D D D D D D D D D D D D D D D D D D D D D D D D D D D D D D D D D D D D D D D D D D D D D D D D D D D D D D D D D D D D D D D D D D D D D D D D D t 9 e 9 9 9 5 ^ k.0.w.w.<.f.:.B A A D A A D D D D D D D D D D D D D D D D D D D D D D D D D D D D D D D D D D D D D D D D D D D D D D D D D D D D D D D D D D D D A A D A A B t t e 5 9 t 5 6.w.0.f.y.6.p.P A D D D D D D D D D D D D D D D D D D D D D D D D D D D D D D D D D D D D D D D D D D D D D D D D D D D D D D D D ",
"e 9 9 e e e 5 &.y.w.w.y.6.p.' B D D D D D D D D D D D D D D D D D D D D D D D D D D D D D D D D A K l 5 e t 9 e 9 b f.6.y.0.w.w.0.B K A D D A D D D D D D D D D D D D D D D D D D D D D D D D D A A D D D D D D D D D D D D D D D D D D D D D D A D B 5 e 9 t 9 9 h y.0.y.0.y.0.w.K A D A D A D A A D D D D D D D D D D D D D D D D D D D D D D D D D D D D D D D D D D D D D D D D D D D D D D A A D D D D D D D D D A A D D D A D D D A A D D h 5 t 9 e t 5 A p.w.w.0.y.0.0.D D D D D D D D D A A D D D D D D D D D D D D D A D A A A A A D D D D D D D D D D D A A A A A D D D D D D D D D D D A A A A A D D D D B D D D A e e 9 t 9 t 1 &.y.w.w.w.w.w...B D D A A A A A D D D D D D D D D D D A A A A A D D D D D D D D D D D A A A A A D D D D D D D D D D D A A A A A D D D D D D D D D D A A D D D D D D D A A D D 9 t e e 9 e e 6.w.y.0.w.0.p.W A D A D D D D D D D D D D D D D D D D D A A D D D D D D D D D D D D D D D D D D D D D D D D D D D D D D D D D D A A D D A A D D D D D D D A K h 5 e e 9 t 5 D p.w.w.w.w.w.0.B D K D A D D D D D D D D D D D D D D D D D D D D D D D D D A A D D D D D D D D D D D D D D D D D D D D D D D D D D D D D D D D D D D D D A D D A D D D D D K t 9 t 9 e e 1 ^ p.w.0.y.0.w.:.B D D D A D D D D D D D D D D D D D D D D D D D D D D D D D D D A A D D D D D D A D D D D D D D D A A A A A D D D D D D D D D D D D D A D D D B e e e t 9 e e 6.w.0.w.w.0.p.P A D D D D D D D D D A A A A A D D D D D D D D D D D A A A A A D D D D D D D D D D D A A A A A D D D D D D D D D D ",
"e 9 9 e e e 5 &.y.w.w.y.6.p.' B D D D D D D D D A A D D D D D D D D D D D D D D D D D D D D D D A K l 9 e t 9 e 9 b f.6.y.0.w.w.0.B K A D D A D A A D D D D D D D D D D D D D D D D D D D D D D A A D D D D D D D D D D D D D D D D D D D D D D A D B 5 e 9 t 9 9 h y.0.y.0.y.0.w.K A D A D A D A A D D D D D D D D D D D D D D D D D D D D D D A A D D D D D D D D D D D D D D D D D D D D D D A A D D D D D D D D D D D D D D A D D D A A D D h 5 t 9 e t 5 A p.w.w.0.y.0.0.D D D D D D D D D A A D D D D D D D D A A D D D D D A A A A D D D D D D D D D D D D A A A A D D D D D D D D D D D D A A A A D D D D D B D D D A e e 9 t 9 t 1 &.y.w.w.w.w.w...B D D A A A A D D D D D D D D D D D D A A A A D D D D D D D D D D D D A A A A D D D D D D D D D D D D A A A A D D D D D D D D D D D A A D D D D D D D A A D D 9 t e e 9 e e 6.w.y.0.w.0.p.W A D A D D D D D D D D D D D D D D D D D A A D D D D D D D D D D D D D D D D D D D D D D A A D D D D D D D D D D D D D D D A D D D D D D D A K l 5 e e 9 t 5 D p.w.w.w.w.w.0.B D K D D D A A D D D D D D D D D D D D D D D D D D D D D D A A D D D D D D D D D D D D D D D D D D D D D D A A D D D D D D D D A A D D D D D D D D D D D D K t 9 t 9 e e 1 W p.w.0.y.0.w.&.B D D D A D D D A A D D D D D D D D D D D D D D D D D D D D D D A A D D D D D D A D D D D D D A D A A A A D D D D D D D D D D D D D D A D D D B e e e t 9 e e 6.w.0.w.w.0.p.P A D D D D D D D D D A A A A D D D D D D D D D D D D A A A A D D D D D D D D D D D D A A A A D D D D D D D D D D D ",
"e 9 9 e e e 5 &.y.w.w.y.6.p.' B D D D D D A D D A A D D D D D D D D D D A D D D D A D D A D D D A K l 9 e t 9 e 9 b f.6.y.0.w.w.0.B K A D D A D A A D D D D D D A D D D D A A D D D D D D D D D D D D D D D D D D D D D D A D D D D D D D A D D A D B 5 e 9 t 9 9 h y.0.y.0.y.0.w.K A D A D A D D D D D D D D D D D D D D A D D D D D D D A D D A A D D D D D D A D D D D A A D D D D D D D D D D D D D D D D D D D D D D D D D A D D D A A D D h 5 t 9 e t 5 A p.w.w.0.y.0.0.D D D D D D D D D D D D D D D D D D D D D D D D D D D D D D D D D D D D D D D D D D D D D D D D D D D D D D D D D D D D D D D D D D D B D D D A e e 9 t 9 t 1 &.y.w.w.w.w.w...B D D D D D D D D D D D D D D D D D D D D D D D D D D D D D D D D D D D D D D D D D D D D D D D D D D D D D D D D D D D D D D D D D D D D D D D D D D A A D D 9 t e e e e e 6.w.y.0.w.0.p.W A D A D A D D D D A A D D D D D D D D D D D D D D D D D D D D D D A D D D D D D D A D D A A D D D D D D D D D D D D D D D D D D D D D D D A K l 9 e e e t 5 D p.w.w.w.w.w.0.B D K D A D A A D D D D D D A D D D D A A D D D D D D D D D D D D D D D D D D D D D D A D D D D D D D A D D A A D D D D D D D D D D D D D D D D D D D D D D K t 9 t 9 e e 1 ^ p.w.0.y.0.w.:.B D D D A D D D A A D D D D D D A D D D D A A D D D D D D D D D D D D D D D D D D D D D D D D A D D D D D D D D D D D D D D D D D D D A D D D B e e e t 9 e e 6.w.0.w.w.w.f.W D D D D D D D D D D D D D D D D D D D D D D D D D D D D D D D D D D D D D D D D D D D D D D D D D D D D D D D D D ",
"e 9 9 e e e 5 &.y.w.w.y.6.p.' B A D D D D A D D A A D D D D D D D D A D A D D D D A D D D D D D A K l 9 e t 9 e 9 b f.6.y.0.w.w.0.B K A D D A D A A D D D D D D A D D D D D D D D D D D A A D D D D D D D D D D A A D D D A D D A D D D D A D D A D B 5 e 9 t 9 9 h y.0.y.0.y.0.w.K A D A D A D D D D D D D D D A A D D D A D D A D D D D A D D A A D D D D D D A D D D D D D D D D D D A A D D D D D D D D D D D D D D D D D D A D D D A D D D h 5 t 9 e t 5 A p.w.w.0.y.0.0.D D D D D A A D D D D D D D D D D D D D D D D D D D D D D D D D D D A D D D D D A D D D D D D D D D A D D D D D A D D D D D D D D D D B D D D A e e 9 t 9 t 1 &.y.w.w.w.w.w...B D D D D D D D D D D A D D D D D A D D D D D D D D D A D D D D D A D D D D D D D D D A D D D D D A D D D D D D D D D A D D D D D A D D D D D D D D D A A D D 9 t e e e e e 6.w.y.0.w.0.p.W A D A D A D D D D D D D D D D D A A D D D D D D D D D D A A D D D A D D A D D D D A D D A A D D D D D D D D D D D D D D D D D D D D D D D A K l 9 e e e t 5 D p.w.w.w.w.w.0.B D K D D D A A D D D D D D A D D D D D D D D D D D A A D D D D D D D D D D A A D D D A D D A D D D D A D D A A D D D D D D D D D D D D D D D D D D D D D D K t 9 t 9 e e 1 ^ p.w.6.y.0.w.&.B D D D A D D D A A D D D D D D A D D D D D D D D D D D A A D D D D D D D D D D D D D D D D D D D D D D D D D D D A D D D D D A D D D A D D D B e e e t 9 e e 6.w.0.w.w.w.p.P D D D D D D D D D D D D D D D D D D A D D D D D A D D D D D D D D D A D D D D D A D D D D D D D D D A D D D D D A ",
"e 9 9 e e e 5 &.y.w.w.y.6.p.' B A D D D D D A D A A D D D D D D D D D D D D D D D D D D A A D D A K l 9 e t 9 e 9 b f.6.y.0.w.w.0.B K A D D A D A A D D D D D D D D D D D D D D A D D D D D D D A D D D D D D D D D D D D D D D A D D D D D D D A D B 5 e 9 t 9 9 h y.0.y.0.y.0.w.K A D A D A D A D D D D D D D D D D D D D D D A D D D D D A D A A D D D D D D D D D D D D D D A D D D D D D D A D D D D D D D D A D D D D D D A D D D A A D D h 5 t 9 e t 1 A p.w.w.0.y.0.0.D A D D D D D D D A D D D D D D D D D A D A D D D D D D D D D D D D D A D D D D A D D D D D D D D D D A D D D D A D D D D D D D D D D B D D D A e e 9 t 9 t 1 &.y.w.w.w.w.w...B D D D D D D D D D D D A D D D D A D D D D D D D D D D A D D D D A D D D D D D D D D D A D D D D A D D D D D D D D D D A D D D D A A D D D D D D D D A A D D 9 t e e e e e 6.w.y.0.w.0.p.W A D A D D D D D D D D D A D D D D D D D A D D D D D D D D D D D D D D D A D D D D D A D A A D D D D D D D D D A D D D D D D D D D D D D D A K h 9 e e e t 5 D p.w.w.w.w.w.0.B D K D D D A A D D D D D D D D D D D D D D A D D D D D D D A D D D D D D D D D D D D D D D A D D D D D A D A A D D D D D D D A A D A D D D D D D D D D D D K t 9 t 9 e e 1 ^ p.w.6.y.0.w.:.B D D D A D D D A A D D D D D D D D D D D D D D A D D D D D D D A D D D D D D D D D D D D D A D D D D D D D D D D D A D D D D A D D D A D D D B e e e t 9 e e 6.w.0.w.w.0.p.P A D D D D D D D D D D D D D D D D D D A D D D D A D D D D D D D D D D A D D D D A D D D D D D D D D D A D D D D A ",
"e 9 9 e e e 5 &.y.w.w.y.6.p.' B D D D D D D D D A D D D D D D D D D D D D D D D D D D D A D D D A K l 9 e t 9 e 9 b f.6.y.0.w.w.0.B K A D D A D A D D D D D D D D D D D D D D D A D D D D D A D A D D D D D D D D D D D D D D D D D D D D D D D A D B 5 e 9 t 9 9 h y.0.y.0.y.0.w.K A D A D A D A D D D D D D D D D D D D D D D D D D D D D D D A D D D D D D D D D D D D D D D A D D D D D A D A D D D D D D D D D D A D D D D A D D D A A D D h 5 t 9 e t 5 A p.w.w.0.y.0.0.A A D D D D D A D A D D D D D D D D D D D A D D D D D D D D D D D D D A D D D D D D D D D D D D D D D A D D D D D D D D D D D D D D D B D D D A e e 9 t 9 t 1 &.y.w.w.w.w.w...B D D D D D D D D D D D A D D D D D D D D D D D D D D D A D D D D D D D D D D D D D D D A D D D D D D D D D D D D D D D A D D D D D A D D D D D D D D A A D D 9 t e e e e e 6.w.w.0.w.0.p.W A D A D D D D D D D D D A D D D D D A D A D D D D D D D D D D D D D D D D D D D D D D D A D D D D D D D D D D A D D D D D D D D A A D D D A K h 9 e e e t 5 D p.w.w.w.w.w.0.B D K D D D A D D D D D D D D D D D D D D D A D D D D D A D A D D D D D D D D D D D D D D D D D D D D D D D A D D D D D D D D D D D D D D D D D A D D D D D K t 9 t 9 e e 1 ^ p.w.0.y.0.w.:.B D D D A D D D A D D D D D D D D D D D D D D D A D D D D D A D A D D D D D D D D A D D D D D D D D D D D D D D D D A D D D D D D D D A D D D B e e e e 9 e e 6.w.0.w.w.0.p.W A D D D D D D D D D D D D D D D D D D A D D D D D D D D D D D D D D D A D D D D D D D D D D D D D D D A D D D D D ",
"e 9 9 e e e 5 &.y.w.w.y.6.p.' B D D D D D D D D D D D D D D A D D D A A D D D D D D D D D D D D A K l 9 e t 9 e 9 b f.6.y.0.w.w.0.B K A D D A D D D D D D D A D D D D D D D A A D D D D D D D D A D D D D D D A D D D D D D A D D D D D D D D D A D B 5 e 9 t 9 9 h y.0.y.0.y.0.w.K A D A D A D A D D D D D D A D D D D D D A D D D D D D D D D D D D D D D A D D D D D D D A A D D D D D D D D A D D D D D D A D D D D D D D D A D D D A A D D h 5 t 9 e t 5 A p.w.w.0.y.0.0.A D D D D D D D D A D D D D D D A D D D D D D D D D D D D D D A D D D D D D D D D D D D D D D A D D D D D D D D D D D D D D D A D D D B D D D A e e 9 t 9 t 1 &.y.w.w.w.w.w...B D D D D D D D A D D D D D D D D D D D D D D D A D D D D D D D D D D D D D D D A D D D D D D D D D D D D D D D A D D D D D D D D D A D D D D D D A D A A D D 9 t e e e e e 6.w.y.0.w.0.p.W A D A D D D D D D D A A D D D D D D D D A D D D D D D A D D D D D D A D D D D D D D D D D D D D D D A D D D D D A A D D D D D D A A D D D A K l 9 e e e t 5 D p.w.w.w.w.w.0.B D K D D D D D D D D D A D D D D D D D A A D D D D D D D D A D D D D D D A D D D D D D A D D D D D D D D D D D D D D D A D D D D D D D D D D D A A D D D D K t 9 t 9 e e 1 ^ p.w.0.y.0.w.:.B D D D A D D D D D D D D D A D D D D D D D A A D D D D D D D D A D D D D D D A D A D D D D D D D D D D D D A D D D D D D D D D D D D A D D D B e e e t 9 e e 6.w.0.w.w.0.p.P A D D D D D D D D D D D D D D A D D D D D D D D D D D D D D D A D D D D D D D D D D D D D D D A D D D D D D D D D ",
"e 9 9 e e e 5 &.y.w.w.y.6.p.' B D D D D D D D D D D D D D D D D D D D D D D D A A D D D D D D D A K l 9 e t 9 e 9 b f.6.y.0.w.w.0.B K A D D A D D D D D D D D D D A D D D D D D D D D D D D D D D D D D D D D D D D A D D D A D D D D D D D D D A D B 5 e 9 t 9 9 h y.0.y.0.y.0.w.K A D A D A D D D D D D D D D D D A D D D A D D D D D D D D D D D D D D D D D D A D D D D D D D D D D D D D D D D D D D D D D D D D D D D D D A D D D A A D D h 5 t 9 e t 5 A p.w.w.0.y.0.0.D D D D D D D D D D D D D D D D D D D D D D D D D D D D D D D D D D D D D D D D D D D D D D D D D D D D D D D D D D D D D D D D D D D B D D D A e e 9 t 9 t 1 &.y.w.w.w.w.w...B D D D D D D D D D D D D D D D D D D D D D D D D D D D D D D D D D D D D D D D D D D D D D D D D D D D D D D D D D D D D D D D D D D D D D D D D D D A A D D 9 t e e e e e 6.w.y.0.w.0.p.W A D A D D A D D D D D D D D D D D D D D D D D D D D D D D D A D D D A D D D D D D D D D D D D D D D D D D D D D D D D D D D A D D D D D D B K l 9 e e e t 5 D p.w.w.w.w.w.0.B D K D D D D D D D D D D D D A D D D D D D D D D D D D D D D D D D D D D D D D A D D D A D D D D D D D D D D D D D D D D D D D D D D D D D D D D D D D D D K t 9 t 9 e e 1 ^ p.w.0.y.0.w.:.B D D D A D D D D D D D D D D D D A D D D D D D D D D D D D D D D D D D D D D D D D D D D D D D D D D D D D D D D D D D D D D D D D D A D D D B e e e t 9 e e 6.w.0.w.w.0.p.P A D D D D D D D D D D D D D D D D D D D D D D D D D D D D D D D D D D D D D D D D D D D D D D D D D D D D D D D D ",
"e 9 9 e e e 5 &.y.w.w.y.6.p.' B D D D D D A D D D A A D D D D D D D D D D D D D D D D D D D D D A K l 9 e t 9 e 9 b f.6.y.0.w.w.0.B K B D A A D D D D D D D D D D D D D D D D A D D D D D D D D D D D D D A A D D D D D D D D D D D D D D A D D D A b 5 t 9 e e 9 h y.0.y.0.y.0.w.K A D A D A D D D D D D A D D D A A D D D D D D D D D D D D D D D D D D D D D D D D D D A A D D D D D D D D D D D D D D A D D D A A D D D D D A D D D A A D D h 5 t 9 e t 5 A p.w.w.0.y.0.0.D D D D D D D D D D D D D D A D D D A A D D D D D D D A D D D D A D D D D D D D D D D A D D D D A D D D D D D D D A A D D D D D D A D D A D K b e 9 e 9 9 h . &.p.y.y.6.k.k.' B D D K A b D A W B D D D D D D D D D D A D D D D A D D D D D D D D D D A D D D D A D D D D D D D D D D A D D D D A D D D D D D D D D A A B D K B P D A D K K > e 9 e 9 5 9 <.y.y.0.0.f.y.( b A K D D D D D D A D D D A A D D D D D D D D D D D D D D D D D D D D D D D D D D A A D D D D D D D D D D D D D D A D D D A A D D D D D D A K h 5 e e e t 5 D p.w.w.w.w.w.0.B A D A A D D D D D D D D D D D D D D A D D D A A D D D D D D D D D D D D D D D D D D D D D D D D D D A A D D D D D D D D D D D D D D A D D D A A D D D D D K t 9 t 9 e e 1 ^ p.w.0.y.0.w.:.B D D D A D D D D D D D D D D D D D D D D A D D D A A D D D D D D D D D D D D D D D D D D D D D D D A D D D D A D D D D D D D D D D D D D D D D t > t 5 e 9 5 p.p.6.w.w.6.v.^ b A A B b B K K A D D A D D D D A D D D D D D D D D D A D D D D A D D D D D D D D D D A D D D D A D D D D D D D D ",
"e 9 9 e e e 5 &.y.w.w.y.6.p.' B D D D D D A D D D D D D A A D D D D D D D D D D D D D D A D D D A K l 5 e t 9 e 9 b f.6.y.0.w.w.0.B K B D D A D D D D D D D D D D D D D D D D A D D D D A D D D D D D A D D D D D D A D D D D D D D D D D A D D D D B 5 t 9 e e 9 h y.0.y.0.y.0.w.K A D A D A D D D D D D A D D D D D D A A D D D D D D D D D D D D D D A D D D D D D A D D D D D D A D D D D D D D D D D A D D D D D D A A D D A D D D A A D D h 5 t 9 e t 5 A p.w.w.0.y.0.0.D D D A A D D D D D D D D D A D D D D D D A A D D D D A D D D D D D D D D D D D D D D A D D D D D D D D D D D D D A D D D D A D D A D D B D K A h t t 9 e b e  .:.:.<.&.:.:.' ^ P D P P K W B P D D D D D D D D D D D A D D D D D D D D D D D D D D D A D D D D D D D D D D D D D D D A D D D D D D D D D D D D D D A A B D D h b A A B h l l l d t h l B $.0.w.y.6.w.6.^ A D D B D D D D D A D D D D D D A A D D D D D D D D D D D D D D A D D D D D D A D D D D D D A D D D D D D D D D D A D D D D D D A A D D D A K h 5 e e e t 5 D p.w.w.w.w.w.0.B A D A A D D D D D D D D D D D D D D A D D D D D D A A D D D D D D D D D D D D D D A D D D D D D A D D D D D D A D D D D D D D D D D A D D D D D D A A D D K t 9 t 9 e e 1 W p.w.0.y.0.w.&.B D D D A D D D D D D D D D D D D D D D D A D D D D D D A A D D D D D D D D D D D D D D A D D D D D A D D D D D D D D D D D D D D D D D D D D D h d l t h h t ' 0.<.0.6.$.:.( P W W W W W K B l D D A D D D D D D D D D D D D D D D A D D D D D D D D D D D D D D D A D D D D D D D D D D D D D ",
"e 9 9 e e e 5 &.y.w.w.y.6.p.' B D D D D D D D D D D D D D D D D D D D A D D D D D D A D A D D D A K l 5 e t 9 e 9 b f.6.y.0.w.w.0.B K A D D A D D D D D D D A A A D D D D D D D D D A D A D D D D D D D D D D D D D D D A D D D D D D D D D D D D D B 5 t 9 e e 9 h y.0.y.0.y.0.w.K A D A D A D D D D D D D D D D D D D D D D D D D D A D D D D D D A D A D D D D D D D D D D D D D D D A D D D D D D D D D D D D D D D D D D D A D D D A A D D h 5 t 9 e t 5 A p.w.w.0.y.0.0.D D D D D D D D D D D D D D D D D D D D D D D D D D D D D D D D D D D D D D D D D D D D D D D D D D D D D D D D D D D D D D D D D A D D B A K D A A A D K P b d 5 > 5 > = 5 ^ f.p.p.f.f.w.<.D K D D D D D D D D D D D D D D D D D D D D D D D D D D D D D D D D D D D D D D D D D D D D D D D D D D D D D D D D D D A D A D B e t 1 9 t 9 B f.f.p.k.k.y.<.K B h h B A A B A D K A D D D D D D D D D D D D D D D D D D D A D D D D D D A D A D D D D D D D D D D D D D D D A D D D D D D D D D D D D D D D D D D D D A K h 9 e e e t 5 D p.w.w.w.w.w.0.B A D A A D D D D D D D D D D D D D D D D D D D D D D D D D D D D A D D D D D D A D A D D D D D D D D D D D D D D D A D D D D D D D D D D D D D D D D D D D K t 9 t 9 e e 1 ^ p.w.0.y.0.w.:.B D D D A D D D D D D D D D D D D D D D D D D D D D D D D D D D D D D A D D D D D D A D A D D D D D D D D D D D D D D D D D D D D D D D D D D D A D D B A K B h 1 > 1 = 1 t $.p.w.w.w.y.y.$.P K D D D D D D D D D D D D D D D D D D D D D D D D D D D D D D D D D D D D D D D D D D D D D D D D ",
"e 9 9 e e e 5 &.y.w.w.y.6.p.' B D D D A D D D D D D D D D D D D D D D A D A D D D D D D A D D D A K l 9 e t 9 e 9 b f.6.y.0.w.w.0.B K B D D A D D D D D D D A D D D D D D D D D D D D D A D D D D D D D D D D D D D D D A D D D D D D A D D D D D D B 5 t 9 e e 9 h y.0.y.0.y.0.w.K A D A D A D D D D A D D D D D D D D D D D D D D D A D A D D D D D D A D D D D D D D D D D D D D D D A D D D D D D A D D D D D D D D D D D D A D D D A A D D h 5 t 9 e t 5 A p.w.w.0.y.0.0.D D D D D D D D D D D D A D D D D D D D D D D D D D D D D D D D D D D D A A D D D D D D D D D D D D D D A A D D D D D D D D D D D A D D A A D K D P D D A b K t e t h l t 9 ( k.<.6.6.w.0.&.l b B D D D A A D D D D D D D D D D D D D D A A D D D D D D D D D D D D D D A A D D D D D D D D D D D D D D A A D D D D A D A A b 5 9 d d d 1 e k.<.6.0.w.w.y.D K D K A B B D D D A A D D D A D D D D D D D D D D D D D D D A D A D D D D D D A D D D D D D D D D D D D D D D A D D D D D D A D D D D D D D D D D D D D A K h 9 e e e t 5 D p.w.w.w.w.w.0.B A D A A D D D D D D D D D D D D A D D D D D D D D D D D D D D D A D A D D D D D D A D D D D D D D D D D D D D D D A D D D D D D A D D D D D D D D D D D D K t 9 t 9 e e 1 ^ p.w.6.y.0.w.&.B D D D A D D D D D D D D D D D D D D A D D D D D D D D D D D D D D D A D A D D D D D D A D D D D D D D D D D D D D D A A D D D D D D A A D D D A P D K D P P 5 t d h d h > $.0.6.6.6.w.w.' b B D D D D D D D D D D D A A D D D D D D D D D D D D D D A A D D D D D D D D D D D D D D A A D D D ",
"e 9 9 e e e 5 &.y.w.w.y.6.p.' B D D D A D D D D D D D D D D D D D D D D D D D D D D D D D D D D A K l 5 e t 9 e 9 b f.6.y.0.w.w.0.B K A D D A D D D D D A D D D A A D D D D D D D D D D D D D D D D D D D D D D D D D D D D D D D D D A D D D D D D B 5 t 9 e e 9 h y.0.y.0.y.0.w.K A D A D A D D D D A D D D D D D D D D D D D D D D D D D D D D D D D D D D D D D D D D D D D D D D D D D D D D D D A D D D D D D D D D D D D A D D D A A D D h 5 t 9 e t 5 A p.w.w.0.y.0.0.D D D D D D D D D D D D A D D D D D D D D D D D D D D D D D D D D D D D D D D D D D D D D D D D D D D D D D D D D D D D D D D D D B D D D A D D D B B D A h W d h 1 5 e t 5 W k.6.0.6.w.y.6.A K P D D D D D D D D D D D D D D D D D D D D D D D D D D D D D D D D D D D D D D D D D D D D D D D D D D D D D D D D D A D A D B 9 t 1 1 9 1 e k.<.y.0.0.6.y.B K A A P K K P K A B A D D D A D D D D D D D D D D D D D D D D D D D D D D D D D D D D D D D D D D D D D D D D D D D D D D D A D D D D D D D D D D D D D B K l 9 e e 9 t 5 D p.w.w.w.w.w.0.B A D A A D A D D D D D D D D D D A D D D D D D D D D D D D D D D D D D D D D D D D D D D D D D D D D D D D D D D D D D D D D D D A D D D D D D D D D D D D K t 9 t 9 e e 1 ^ p.w.6.y.0.w.:.B D D D A D D D A D D D D D D D D D D A D D D D D D D D D D D D D D D D D D D D D D D D D D D D D D D D D D D D D D D D D D D D D D D D D D D D B D B K A B K 5 5 5 9 t b > <.y.y.y.0.y.p. .A K D D D D D D D D D D D D D D D D D D D D D D D D D D D D D D D D D D D D D D D D D D D D D D D D ",
"e 9 9 e e e 5 &.y.w.w.y.6.p.' B D D D D D D D D D D D D D D D D D D D D D D D D D D D D D D D D A K l 5 e t 9 e 9 b f.6.y.0.w.w.0.B K A D D A D D D D D D D D D D D D D D D A D D D D D D D D D D D D D D D D D D D D D D D D D D D D D D D D D D D B 5 t 9 e e 9 h y.0.y.0.y.0.w.K A D A D A D D D D D D D D D D D D D D D D D D D D D D D D D D D D D D D D D D D D D D D D D D D D D D D D D D D D D D D D D D D D D D D D D A D D D A A D D h 5 t 9 e t 5 A p.w.w.0.y.0.0.D D D D D D D D D D D D D D D D D D D D D D D D D D D D D D D D D A A D D D D D D D D D D D D D D A A D D D D D D D D D D D D D D A A D D D A A A b D ^ W B K 5 > b t e 9 1 K f.y.p.w.w.w.:.b B B A A D D D D D D D D D D D D D D A A D D D D D D D D D D D D D D A A D D D D D D D D D D D D D D A A D D D D D D D A D A D B e d t 9 d d h f.:.p.y.w.6.y.A K A A b b B A D A D K D D D D D D D D D D D D D D D D D D D D D D D D D D D D D D D D D D D D D D D D D D D D D D D D D D D D D D D D D D D D D D D D D A K l 9 e e e t 5 D p.w.w.w.w.w.0.B A D A A D A D D D D D A D D D D D D D D D D D D D D D D D D D D D D D D D D D D D D D D D D D D D D D D D D D D D D D D D D D D D D D D D D D D D D D D D K t 9 t 9 e e 1 ^ p.w.0.y.0.w.:.B D D D A D D D A D D D D D D A D D D D D D D D D D D D D D D D D D D D D D D D D D D D D D D D D D D D D D D D A A D D D D D D A A D D D D D D D D A P A b D t l t 9 1 e = &.p.w.y.6.6.y.' b D D D D D D D D D A A D D D D D D D D D D D D D D A A D D D D D D D D D D D D D D A A D D D D D D ",
"e 9 9 e e e 5 &.y.w.w.y.6.p.' B D D D D D D D D D D D D D A D D D D D D A A D D D D D D D D D D A K l 5 e t 9 e 9 b f.6.y.0.w.w.0.B K A D D A D D D D D D D D D D D D D D D A D D D D D D D D D D A A D D D D D D D D D D D D D D D D D D D D D D A B 5 t 9 e e 9 h y.0.y.0.y.0.w.K A D A D A D D D D D D D D D D D D D D A D D D D D D A A D D D D D D D D D D D A A D D D D D D D D D D D D D D D D D D D D D D D D D D A D D A D D D A A D D h 5 t 9 e e 5 A p.w.w.0.y.0.0.D D D D D A A D D D D D D D D D D D D D D D A D D D D A A D D D D D D D D D D D D D D A A D D D D D D D D D D D D D D D D D D D D D D A D D D A D D D A B b D h d 5 1 5 t t W y.6.w.w.y.y.<.A K K D D D D D D D D D D A A D D D D D D D D D D D D D D A A D D D D D D D D D D D D D D A A D D D D D D D D D D D D D A D A D B e t 5 1 9 e l y.6.p.y.y.w.y.K D A K K D D K K D D D D D D D D D D D D D D D D A D D D D D D A A D D D D D D D D D D D A A D D D D D D D D D D D D D D D D D D D D D D D D D D A D D D A K l 9 e e e t 5 D p.w.w.w.w.w.0.B A D A A D D D D D D D D A D D D D D D D D D D D D D A D D D D D D A A D D D D D D D D D D D A A D D D D D D D D D D D D D D D D D D D D D D D D D D A D D K t 9 t 9 e e 1 ^ p.w.0.y.0.w.:.B D D D A D D D D D D D D D D A D D D D D D D D D D D D D A D D D D D D A A D D D D D D D D D D D D A A D D D D D D D D D D D D D D D D D D D D P K A K K A A d 5 5 t t h 9 $.y.0.f.0.0.p...B K D D A A D D D D D D D D D D D D D D A A D D D D D D D D D D D D D D A A D D D D D D D D D D D D ",
"e 9 9 e e e 5 &.y.w.w.y.6.p.' B D D D D D D D D A D D D D A D D A D D D D D D D D D D D D D D D A K l 5 e t 9 e 9 b f.6.y.0.w.w.0.B K A D D A D D D D D D D D D D D D D D D D D D D D D D D D D D D D D D D A A D D A A D D D D D D D D D D D D D D B 5 t 9 e e 9 h y.0.y.0.y.0.w.K A D A D A D D D D D D D D D A D D D D A D D A D D D D D D D D D D D D D D D D D D D D D A A D D A A D D D D D D D D D D D D A D D D D A D D A D D D A A D D h 5 t 9 e t 5 A p.w.w.0.y.0.0.D A D D D D A D D D D D D D D D D A D D D D A D D D D D D D A A D D D D D D D D D D D D D D A A D D D D D D D D D D A D D D D D D K D A A D D D D K D B D K D h 5 t t 9 5 e P y.w.6.0.y.w.:.b A D D D D D D D D D D D D D D A A D D D D D D D D D D D D D D A A D D D D D D D D D D D D D D A A D D D D D D D D D A A D D D B 5 9 t t t 9 l w.0.y.0.y.y.w.K B b K D A A A K K D B D D D D D D D D A D D D D A D D A D D D D D D D D D D D D D D D D D D D D D A A D D A A D D D D D D D D D D D D A D D D D A D D A B K l 9 e e e t 5 D p.w.w.w.w.w.0.B A D A A D D D D D D D D D D D D D D D D D A D D D D A D D A D D D D D D D D D D D D D D D D D D D D D A A D D A A D D D D D D D D D D D D A D D D D A D D K t 9 t 9 e e 1 ^ p.w.0.y.0.w.:.B D D D A D D D D D D D D D D D D D D D D D D D A D D D D A D D A D D D D D D D D D D D D D D D D D D D D A A D D D D D D D D D D D D D D D D D K A B B K P B t e 9 d e 5 5 ..f.:.p.0.6.p...B D D D D D D A A D D D D D D D D D D D D D D A A D D D D D D D D D D D D D D A A D D D D D D D D D ",
"e 9 9 e e e 5 &.y.w.0.w.y.0.' B D D D D D D D D D D D D D D D D D D D D D D D D D D D D D D D D B W l 1 h e e 9 9 b f.0.y.0.y.w.<.^ B A K A A K D D D D D D D D D D D D D D D D D D D D D D D D D D D D D D D D D D D D D D D D D D D D D D D D B W A 1 d e 9 9 9 d y.0.y.0.y.0.w.( B A K D A P D D D D D D D D D D D D D D D D D D D D D D D D D D D D D D D D D D D D D D D D D D D D D D D D D D D D D D D D D D D D D D D D D K D D K A A P b > t t 9 9 5 B y.w.w.0.w.y.:.D D D D D D D D D D D D D D D D D D D D D D D D D D D D D D D D D D D D D D D D D D D D D D D D D D D D D D D D D D D D D D D D D D D D D D D D D K D D B b P 9 t e t 9 t 5 ^ p.w.0.0.w.y.&.K B P D D D D D D D D D D D D D D D D D D D D D D D D D D D D D D D D D D D D D D D D D D D D D D D D D D D D D D D D K D D b K A 1 d 9 e 9 e t p.w.0.0.y.p.<.^ A A P D D D D D D D D D D D D D D D D D D D D D D D D D D D D D D D D D D D D D D D D D D D D D D D D D D D D D D D D D D D D D D D D D D D D D D D D K B W l 1 d t e e 1 A p.w.w.w.w.y.&.W A A D D D D D D D D D D D D D D D D D D D D D D D D D D D D D D D D D D D D D D D D D D D D D D D D D D D D D D D D D D D D D D D D D D D D D D D D D D D K t 9 t e e e 1 ^ f.6.y.w.0.6.:.D D D D D D D D D D D D D D D D D D D D D D D D D D D D D D D D D D D D D D D D D D D D D D D D D D D D D D D D D D D D D D D D D D D D D D D D A A D K D B ( e e e t 9 t 1 &.y.0.0.w.y.6. .K B D D D D D D D D D D D D D D D D D D D D D D D D D D D D D D D D D D D D D D D D D D D D D D D D ",
"e 9 9 e e e 5 &.w.w.0.0.y.p.w.<.0.0.0.0.0.0.0.0.0.0.0.0.0.0.0.0.0.0.0.0.0.0.0.0.0.0.0.0.0.0.0.0.6.w.W 9 d 9 t t 9 b f.0.y.0.w.w.p.6.<.0.w.6.<.0.0.0.0.0.0.0.0.0.0.0.0.0.0.0.0.0.0.0.0.0.0.0.0.0.0.0.0.0.0.0.0.0.0.0.0.0.0.0.0.0.0.0.0.0.0.0.0.0.<.w.' 9 d e e e 9 d y.6.w.0.y.0.p.6.:.6.w.0.0.w.0.0.0.0.0.0.0.0.0.0.0.0.0.0.0.0.0.0.0.0.0.0.0.0.0.0.0.0.0.0.0.0.0.0.0.0.0.0.0.0.0.0.0.0.0.0.0.0.0.0.0.0.0.0.0.0.0.0.0.0.0.0.0.0.0.w.w.0.w.0.0.p.D 5 t t 9 9 9 B y.0.0.0.w.p.p.<.0.0.0.0.0.0.0.0.0.0.0.0.0.0.0.0.0.0.0.0.0.0.0.0.0.0.0.0.0.0.0.0.0.0.0.0.0.0.0.0.0.0.0.0.0.0.0.0.0.0.0.0.0.0.0.0.0.0.0.0.0.0.0.0.0.0.0.0.0.0.0.0.6.6.y.y.0.0.l 9 e t 9 t 5 ^ y.0.w.0.w.p.y.:.:.6.0.0.0.0.0.0.0.0.0.0.0.0.0.0.0.0.0.0.0.0.0.0.0.0.0.0.0.0.0.0.0.0.0.0.0.0.0.0.0.0.0.0.0.0.0.0.0.0.0.0.0.0.0.0.0.0.:.6.y.0.w. .5 9 9 e 9 e t p.w.0.0.w.y.w.<.:.<.6.0.0.0.0.0.0.0.0.0.0.0.0.0.0.0.0.0.0.0.0.0.0.0.0.0.0.0.0.0.0.0.0.0.0.0.0.0.0.0.0.0.0.0.0.0.0.0.0.0.0.0.0.0.0.0.0.0.0.0.0.0.0.0.0.0.0.0.0.0.0.0.0.w.<.w.P 9 t 9 5 e 1 A p.w.0.0.w.y.w.6.6.0.w.w.0.0.0.0.0.0.0.0.0.0.0.0.0.0.0.0.0.0.0.0.0.0.0.0.0.0.0.0.0.0.0.0.0.0.0.0.0.0.0.0.0.0.0.0.0.0.0.0.0.0.0.0.0.0.0.0.0.0.0.0.0.0.0.0.0.0.0.0.0.0.0.0.0.6.A e e 9 9 e 5 ( f.6.y.w.w.w.6.0.0.0.0.0.0.0.0.0.0.0.0.0.0.0.0.0.0.0.0.0.0.0.0.0.0.0.0.0.0.0.0.0.0.0.0.0.0.0.0.0.0.0.0.0.0.0.0.0.0.0.0.0.0.0.0.0.0.0.0.0.0.0.0.0.0.0.0.0.0.0.0.0.0.w.w.0.:.6.h e 9 t 9 t 1 &.y.w.w.w.y.y.0.6.6.0.0.0.0.0.0.0.0.0.0.0.0.0.0.0.0.0.0.0.0.0.0.0.0.0.0.0.0.0.0.0.0.0.0.0.0.0.0.0.0.0.0.0.0.0.0.0.0.",
"e 9 9 e e e 5 &.y.y.0.6.0.y.p.p.0.0.0.0.0.0.0.0.0.0.0.0.0.0.0.0.0.0.0.0.0.0.0.0.0.0.0.0.0.0.0.0.p.f.^ 1 e 5 t t 9 b f.0.y.0.w.w.6.0.w.p.y.w.w.y.0.0.0.0.0.0.0.0.0.0.0.0.0.0.0.0.0.0.0.0.0.0.0.0.0.0.0.0.0.0.0.0.0.0.0.0.0.0.0.0.0.0.0.0.0.0.0.0.p.f. .5 e 9 e t 9 d y.6.w.0.y.0.0.0.w.y.y.w.w.y.0.0.0.0.0.0.0.0.0.0.0.0.0.0.0.0.0.0.0.0.0.0.0.0.0.0.0.0.0.0.0.0.0.0.0.0.0.0.0.0.0.0.0.0.0.0.0.0.0.0.0.0.0.0.0.0.0.0.0.0.0.0.0.0.0.w.0.0.w.6.6.y.W 9 t e 9 e 9 A p.0.w.w.0.w.p.y.0.0.0.0.0.0.0.0.0.0.0.0.0.0.0.0.0.0.0.0.0.0.0.0.0.0.0.0.0.0.0.0.0.0.0.0.0.0.0.0.0.0.0.0.0.0.0.0.0.0.0.0.0.0.0.0.0.0.0.0.0.0.0.0.0.0.0.0.0.0.0.0.y.w.y.y.y.p.b 5 e t 9 t 5 ^ y.0.w.0.0.w.y.y.y.y.0.0.0.0.0.0.0.0.0.0.0.0.0.0.0.0.0.0.0.0.0.0.0.0.0.0.0.0.0.0.0.0.0.0.0.0.0.0.0.0.0.0.0.0.0.0.0.0.0.0.0.0.0.0.0.0.w.w.f.w.y...5 9 e e e e t p.w.0.0.w.w.w.w.y.y.p.0.0.0.0.0.0.0.0.0.0.0.0.0.0.0.0.0.0.0.0.0.0.0.0.0.0.0.0.0.0.0.0.0.0.0.0.0.0.0.0.0.0.0.0.0.0.0.0.0.0.0.0.0.0.0.0.0.0.0.0.0.0.0.0.0.0.0.0.0.0.0.0.p.w.f.^ 5 e 9 t e 1 A p.w.0.0.w.6.0.y.p.y.y.y.y.0.0.0.0.0.0.0.0.0.0.0.0.0.0.0.0.0.0.0.0.0.0.0.0.0.0.0.0.0.0.0.0.0.0.0.0.0.0.0.0.0.0.0.0.0.0.0.0.0.0.0.0.0.0.0.0.0.0.0.0.0.0.0.0.0.0.0.0.0.0.0.0.f.D 5 9 e e e 9 ^ p.6.y.w.w.y.w.0.0.0.0.0.0.0.0.0.0.0.0.0.0.0.0.0.0.0.0.0.0.0.0.0.0.0.0.0.0.0.0.0.0.0.0.0.0.0.0.0.0.0.0.0.0.0.0.0.0.0.0.0.0.0.0.0.0.0.0.0.0.0.0.0.0.0.0.0.0.0.0.w.y.y.y.p.w.w.t e 9 t 9 t 1 &.y.y.w.0.0.w.w.y.f.0.0.0.0.0.0.0.0.0.0.0.0.0.0.0.0.0.0.0.0.0.0.0.0.0.0.0.0.0.0.0.0.0.0.0.0.0.0.0.0.0.0.0.0.0.0.0.0.",
"e 9 9 e e e 5 &.y.y.y.w.0.0.6.6.y.y.y.y.y.y.y.y.y.y.y.y.y.y.y.y.y.y.y.y.y.y.y.y.y.y.y.y.y.y.y.y.6.w.W 1 e 5 t e 9 b f.0.y.0.y.w.6.w.w.0.0.0.w.w.y.y.y.y.y.y.y.y.y.y.y.y.y.y.y.y.y.y.y.y.y.y.y.y.y.y.y.y.y.y.y.y.y.y.y.y.y.y.y.y.y.y.y.y.y.y.y.y.6.w.( 1 e 9 9 e 9 d y.0.y.0.y.0.w.y.y.0.6.0.0.0.y.y.y.y.y.y.y.y.y.y.y.y.y.y.y.y.y.y.y.y.y.y.y.y.y.y.y.y.y.y.y.y.y.y.y.y.y.y.y.y.y.y.y.y.y.y.y.y.y.y.y.y.y.y.y.y.y.y.y.y.y.y.y.y.y.p.y.y.y.w.w.f.^ 9 e e 9 e 9 A p.0.w.p.w.6.0.w.y.y.y.y.y.y.y.y.y.y.y.y.y.y.y.y.y.y.y.y.y.y.y.y.y.y.y.y.y.y.y.y.y.y.y.y.y.y.y.y.y.y.y.y.y.y.y.y.y.y.y.y.y.y.y.y.y.y.y.y.y.y.y.y.y.y.y.y.y.y.y.y.y.0.6.<.0.p.A e e t 9 t 5 ^ y.0.y.w.0.6.6.0.0.6.y.y.y.y.y.y.y.y.y.y.y.y.y.y.y.y.y.y.y.y.y.y.y.y.y.y.y.y.y.y.y.y.y.y.y.y.y.y.y.y.y.y.y.y.y.y.y.y.y.y.y.y.y.y.y.y.y.w.y.6.w...e d e e e e t p.w.0.w.w.0.0.0.0.0.0.y.y.y.y.y.y.y.y.y.y.y.y.y.y.y.y.y.y.y.y.y.y.y.y.y.y.y.y.y.y.y.y.y.y.y.y.y.y.y.y.y.y.y.y.y.y.y.y.y.y.y.y.y.y.y.y.y.y.y.y.y.y.y.y.y.y.y.y.y.y.y.y.6.<.y.P 1 e t d t 5 D p.w.w.0.w.w.y.y.w.0.0.0.w.y.y.y.y.y.y.y.y.y.y.y.y.y.y.y.y.y.y.y.y.y.y.y.y.y.y.y.y.y.y.y.y.y.y.y.y.y.y.y.y.y.y.y.y.y.y.y.y.y.y.y.y.y.y.y.y.y.y.y.y.y.y.y.y.y.y.y.y.y.y.y.y.y.b > e d e e 5 ^ p.6.w.0.w.y.w.y.y.y.y.y.y.y.y.y.y.y.y.y.y.y.y.y.y.y.y.y.y.y.y.y.y.y.y.y.y.y.y.y.y.y.y.y.y.y.y.y.y.y.y.y.y.y.y.y.y.y.y.y.y.y.y.y.y.y.y.y.y.y.y.y.y.y.y.y.y.y.y.6.w.0.6.w.y.p.d e 9 t 9 t 1 &.y.w.w.w.w.0.0.6.6.y.y.y.y.y.y.y.y.y.y.y.y.y.y.y.y.y.y.y.y.y.y.y.y.y.y.y.y.y.y.y.y.y.y.y.y.y.y.y.y.y.y.y.y.y.y.y.y.",
"e 9 9 e e e 5 &.w.w.w.y.y.w.0.0.0.0.0.0.0.0.0.0.0.0.0.0.0.0.0.0.0.0.0.0.0.0.0.0.0.0.0.0.0.0.0.0.0.p.( 9 d 9 t 9 9 b f.0.y.0.w.w.w.y.y.0.0.w.y.w.0.0.0.0.0.0.0.0.0.0.0.0.0.0.0.0.0.0.0.0.0.0.0.0.0.0.0.0.0.0.0.0.0.0.0.0.0.0.0.0.0.0.0.0.0.0.0.0.0.p...9 t e e 9 9 d y.0.y.0.y.0.w.y.y.0.0.y.y.y.0.0.0.0.0.0.0.0.0.0.0.0.0.0.0.0.0.0.0.0.0.0.0.0.0.0.0.0.0.0.0.0.0.0.0.0.0.0.0.0.0.0.0.0.0.0.0.0.0.0.0.0.0.0.0.0.0.0.0.0.0.0.0.0.0.w.0.0.w.6.6.p.W 5 9 e e e 9 B p.6.0.p.y.0.w.w.0.0.0.0.0.0.0.0.0.0.0.0.0.0.0.0.0.0.0.0.0.0.0.0.0.0.0.0.0.0.0.0.0.0.0.0.0.0.0.0.0.0.0.0.0.0.0.0.0.0.0.0.0.0.0.0.0.0.0.0.0.0.0.0.0.0.0.0.0.0.0.0.w.w.y.w.w.p.B 5 e t 9 t 5 ^ y.0.0.w.w.0.0.w.y.w.0.0.0.0.0.0.0.0.0.0.0.0.0.0.0.0.0.0.0.0.0.0.0.0.0.0.0.0.0.0.0.0.0.0.0.0.0.0.0.0.0.0.0.0.0.0.0.0.0.0.0.0.0.0.0.0.w.0.p.w.p...5 e e e e e d p.w.0.w.w.w.w.w.0.w.w.0.0.0.0.0.0.0.0.0.0.0.0.0.0.0.0.0.0.0.0.0.0.0.0.0.0.0.0.0.0.0.0.0.0.0.0.0.0.0.0.0.0.0.0.0.0.0.0.0.0.0.0.0.0.0.0.0.0.0.0.0.0.0.0.0.0.0.0.0.0.0.0.y.w.p.W 5 t e 9 e 1 A p.w.w.0.w.y.y.w.0.w.y.y.p.0.0.0.0.0.0.0.0.0.0.0.0.0.0.0.0.0.0.0.0.0.0.0.0.0.0.0.0.0.0.0.0.0.0.0.0.0.0.0.0.0.0.0.0.0.0.0.0.0.0.0.0.0.0.0.0.0.0.0.0.0.0.0.0.0.0.0.0.0.0.0.0.y.B 5 h h e 9 5 ( f.0.y.0.w.y.y.0.0.0.0.0.0.0.0.0.0.0.0.0.0.0.0.0.0.0.0.0.0.0.0.0.0.0.0.0.0.0.0.0.0.0.0.0.0.0.0.0.0.0.0.0.0.0.0.0.0.0.0.0.0.0.0.0.0.0.0.0.0.0.0.0.0.0.0.0.0.0.0.w.p.y.6.0.w.y.d e 9 e 9 t 1 &.y.0.w.y.y.y.y.w.0.0.0.0.0.0.0.0.0.0.0.0.0.0.0.0.0.0.0.0.0.0.0.0.0.0.0.0.0.0.0.0.0.0.0.0.0.0.0.0.0.0.0.0.0.0.0.0.0.",
"e 9 9 e e e 5 &.y.0.0.w.w.w.w.w.w.w.w.w.w.w.w.w.w.w.w.w.w.w.w.w.w.w.w.w.w.w.w.w.w.w.w.w.w.w.w.w.w.f.( 5 t 9 t e 5 b f.6.w.6.w.w.0.0.0.0.w.w.0.6.w.w.w.w.w.w.w.w.w.w.w.w.w.w.w.w.w.w.w.w.w.w.w.w.w.w.w.w.w.w.w.w.w.w.w.w.w.w.w.w.w.w.w.w.w.w.w.w.w.f...5 e e e e 5 d w.6.w.0.w.0.0.0.w.0.w.w.0.6.w.w.w.w.w.w.w.w.w.w.w.w.w.w.w.w.w.w.w.w.w.w.w.w.w.w.w.w.w.w.w.w.w.w.w.w.w.w.w.w.w.w.w.w.w.w.w.w.w.w.w.w.w.w.w.w.w.w.w.w.w.w.w.w.w.y.y.w.y.w.w.f.P 1 9 t e e 5 A f.0.6.w.0.0.w.w.w.w.w.w.w.w.w.w.w.w.w.w.w.w.w.w.w.w.w.w.w.w.w.w.w.w.w.w.w.w.w.w.w.w.w.w.w.w.w.w.w.w.w.w.w.w.w.w.w.w.w.w.w.w.w.w.w.w.w.w.w.w.w.w.w.w.w.w.w.w.w.w.0.w.y.0.0.y.l 1 e t 9 t 5 ^ p.w.0.w.y.w.w.w.w.w.w.w.w.w.w.w.w.w.w.w.w.w.w.w.w.w.w.w.w.w.w.w.w.w.w.w.w.w.w.w.w.w.w.w.w.w.w.w.w.w.w.w.w.w.w.w.w.w.w.w.w.w.w.w.w.w.w.6.w.0.y. .> 5 e e e e d p.w.w.0.w.w.w.0.0.0.w.w.w.w.w.w.w.w.w.w.w.w.w.w.w.w.w.w.w.w.w.w.w.w.w.w.w.w.w.w.w.w.w.w.w.w.w.w.w.w.w.w.w.w.w.w.w.w.w.w.w.w.w.w.w.w.w.w.w.w.w.w.w.w.w.w.w.w.w.w.w.w.w.y.0.p.P 5 t e 9 9 1 A y.0.0.0.w.0.6.6.6.0.w.w.0.w.w.w.w.w.w.w.w.w.w.w.w.w.w.w.w.w.w.w.w.w.w.w.w.w.w.w.w.w.w.w.w.w.w.w.w.w.w.w.w.w.w.w.w.w.w.w.w.w.w.w.w.w.w.w.w.w.w.w.w.w.w.w.w.w.w.w.w.w.w.w.w.p.B 5 t t 9 9 9 ^ f.6.w.6.6.w.0.w.w.w.w.w.w.w.w.w.w.w.w.w.w.w.w.w.w.w.w.w.w.w.w.w.w.w.w.w.w.w.w.w.w.w.w.w.w.w.w.w.w.w.w.w.w.w.w.w.w.w.w.w.w.w.w.w.w.w.w.w.w.w.w.w.w.w.w.w.w.w.w.<.w.w.0.0.0.0.e 9 9 e 9 t 1 &.y.0.w.w.w.w.y.y.w.w.w.w.w.w.w.w.w.w.w.w.w.w.w.w.w.w.w.w.w.w.w.w.w.w.w.w.w.w.w.w.w.w.w.w.w.w.w.w.w.w.w.w.w.w.w.w.w.",
"e 9 9 e e e 5 &.p.y.w.w.w.0.0.w.0.0.0.0.0.0.0.0.0.0.0.0.0.0.0.0.0.0.0.0.0.0.0.0.0.0.0.0.0.0.0.0.0.p.^ > 9 9 t e 9 b f.0.y.0.w.w.w.0.w.y.y.y.y.w.0.0.0.0.0.0.0.0.0.0.0.0.0.0.0.0.0.0.0.0.0.0.0.0.0.0.0.0.0.0.0.0.0.0.0.0.0.0.0.0.0.0.0.0.0.0.0.0.0.p.' > 9 9 e e 9 d y.0.y.0.y.0.y.y.y.p.y.w.0.0.0.0.0.0.0.0.0.0.0.0.0.0.0.0.0.0.0.0.0.0.0.0.0.0.0.0.0.0.0.0.0.0.0.0.0.0.0.0.0.0.0.0.0.0.0.0.0.0.0.0.0.0.0.0.0.0.0.0.0.0.0.0.0.0.0.w.0.0.w.0.0.p.W 5 9 t e 9 5 A f.w.w.0.6.6.w.0.0.0.0.0.0.0.0.0.0.0.0.0.0.0.0.0.0.0.0.0.0.0.0.0.0.0.0.0.0.0.0.0.0.0.0.0.0.0.0.0.0.0.0.0.0.0.0.0.0.0.0.0.0.0.0.0.0.0.0.0.0.0.0.0.0.0.0.0.0.0.0.0.y.y.w.6.0.p.A e 9 e 5 t 5 ^ p.w.w.w.w.y.w.0.0.0.0.0.0.0.0.0.0.0.0.0.0.0.0.0.0.0.0.0.0.0.0.0.0.0.0.0.0.0.0.0.0.0.0.0.0.0.0.0.0.0.0.0.0.0.0.0.0.0.0.0.0.0.0.0.0.0.f.w.y.0.p...9 d 9 e 9 e d p.y.w.w.w.w.w.0.0.0.0.0.0.0.0.0.0.0.0.0.0.0.0.0.0.0.0.0.0.0.0.0.0.0.0.0.0.0.0.0.0.0.0.0.0.0.0.0.0.0.0.0.0.0.0.0.0.0.0.0.0.0.0.0.0.0.0.0.0.0.0.0.0.0.0.0.0.0.0.0.0.0.0.0.6.y.K 1 t t e e 1 A p.w.w.w.y.y.y.y.y.y.y.w.0.0.0.0.0.0.0.0.0.0.0.0.0.0.0.0.0.0.0.0.0.0.0.0.0.0.0.0.0.0.0.0.0.0.0.0.0.0.0.0.0.0.0.0.0.0.0.0.0.0.0.0.0.0.0.0.0.0.0.0.0.0.0.0.0.0.0.0.0.0.0.0.0.y.B > 9 e e t 9 ^ f.0.y.0.0.w.w.0.0.0.0.0.0.0.0.0.0.0.0.0.0.0.0.0.0.0.0.0.0.0.0.0.0.0.0.0.0.0.0.0.0.0.0.0.0.0.0.0.0.0.0.0.0.0.0.0.0.0.0.0.0.0.0.0.0.0.0.0.0.0.0.0.0.0.0.0.0.0.0.0.w.w.y.p.y.y.d 9 9 e 9 d 5 &.y.w.y.w.0.0.w.w.0.0.0.0.0.0.0.0.0.0.0.0.0.0.0.0.0.0.0.0.0.0.0.0.0.0.0.0.0.0.0.0.0.0.0.0.0.0.0.0.0.0.0.0.0.0.0.0.0.",
"e 9 9 e e e 5 &.p.y.y.p.y.w.w.p.p.p.p.p.p.p.p.p.p.p.p.p.p.p.p.p.p.p.p.p.p.p.p.p.p.p.p.p.p.p.p.p.w.f.' 5 t e d e e B k.w.p.w.p.y.y.w.w.y.y.w.y.f.p.p.p.p.p.p.p.p.p.p.p.p.p.p.p.p.p.p.p.p.p.p.p.p.p.p.p.p.p.p.p.p.p.p.p.p.p.p.p.p.p.p.p.p.p.p.p.p.w.f...5 e e t e e h p.w.p.w.p.w.w.w.w.y.w.0.w.f.p.p.p.p.p.p.p.p.p.p.p.p.p.p.p.p.p.p.p.p.p.p.p.p.p.p.p.p.p.p.p.p.p.p.p.p.p.p.p.p.p.p.p.p.p.p.p.p.p.p.p.p.p.p.p.p.p.p.p.p.p.p.p.p.p.f.p.p.f.y.y.k.^ 5 e t e 9 5 D y.y.p.p.w.y.f.y.p.p.p.p.p.p.p.p.p.p.p.p.p.p.p.p.p.p.p.p.p.p.p.p.p.p.p.p.p.p.p.p.p.p.p.p.p.p.p.p.p.p.p.p.p.p.p.p.p.p.p.p.p.p.p.p.p.p.p.p.p.p.p.p.p.p.p.p.p.p.p.p.w.w.y.w.y.k.B 1 9 e 5 t 5 ^ p.w.f.y.y.p.p.y.y.p.p.p.p.p.p.p.p.p.p.p.p.p.p.p.p.p.p.p.p.p.p.p.p.p.p.p.p.p.p.p.p.p.p.p.p.p.p.p.p.p.p.p.p.p.p.p.p.p.p.p.p.p.p.p.p.p.y.0.y.y.f...1 9 9 e 9 e d f.y.y.y.y.w.y.p.p.p.p.p.p.p.p.p.p.p.p.p.p.p.p.p.p.p.p.p.p.p.p.p.p.p.p.p.p.p.p.p.p.p.p.p.p.p.p.p.p.p.p.p.p.p.p.p.p.p.p.p.p.p.p.p.p.p.p.p.p.p.p.p.p.p.p.p.p.p.p.p.p.p.p.k.f.v.W 1 t e e e 5 D f.y.y.y.p.y.y.p.y.y.y.y.y.p.p.p.p.p.p.p.p.p.p.p.p.p.p.p.p.p.p.p.p.p.p.p.p.p.p.p.p.p.p.p.p.p.p.p.p.p.p.p.p.p.p.p.p.p.p.p.p.p.p.p.p.p.p.p.p.p.p.p.p.p.p.p.p.p.p.p.p.p.p.p.p.f.D 5 9 t t e 1 ( k.y.f.y.y.f.p.p.p.p.p.p.p.p.p.p.p.p.p.p.p.p.p.p.p.p.p.p.p.p.p.p.p.p.p.p.p.p.p.p.p.p.p.p.p.p.p.p.p.p.p.p.p.p.p.p.p.p.p.p.p.p.p.p.p.p.p.p.p.p.p.p.p.p.p.p.p.p.p.f.p.w.w.p.w.w.t 9 9 e 9 d 5 :.y.w.y.y.w.y.p.p.y.p.p.p.p.p.p.p.p.p.p.p.p.p.p.p.p.p.p.p.p.p.p.p.p.p.p.p.p.p.p.p.p.p.p.p.p.p.p.p.p.p.p.p.p.p.p.p.p.",
"t 9 9 e e 5 e l h l b B B B B B b b B B B B b b A b l b b b B B b b b b b b b b B B B b B B B B B l d e 9 9 9 e e d h b B B b l B B B B B B B b B B B B B B B B B B B B B B b b l b B B B B B B b b b b b b b b B B B B B B B b B B B B B B B B B l d e 9 9 9 e 9 e h b B B b b B B B B B B B b B B B B B B B B B B B B B B B b A A B B B B B B B b b b b b B A l b b b b b b b B B B B B B B B B B B B B B B b B B B B B B B B B B B b B B B B e e e e e e e e B B B B B B B B B B B B B B B b B B B B B B B B B B B B B B B b B B B B B B B B b b b b b b B B l b b l l b B A b b b b b b B A B B B B B B B B B B B b B B B B l b B B b h d e e 9 9 9 e d l B B B B B B B B B B B B b B B B B B B B B B B B b B B B B B B B B b b b b l l b b B b b b B b b B B B B B B B B b B B B B B B B B b b B b l d e 9 e e e e t h b B B B B B B B B B B B B b B B B B B B B B B B B b B B B B B B B B B B B b B B B B B B B b B B B B b B b b b B B l h l b B B B B B B B b b B B B B B B B B B B B b b b l h t e 9 9 9 e d l b b b l B B B B B B B B B B b b B B B B B B B B B B B b b b B B B B B B b b B B A A A B b b l l l b b b B B B B B B B B B B B B B B B b B B B B B B B B B B B B B B B b l d e 9 9 e 9 9 b b b b b b b b B B B B B B B B B B B b B B B B B B B B B B B b B B B B B B B B b b b b B B B B l b B B B B b l b b b b b b B B B B B B B B B B B B B B B B B b b B B B B l h d e e 9 9 e t h l B B B B B B B B B B B B B B B b B B B B B B B B B B B B B B B B b b b b b b b b B B b l b b b b b B B B b b b b ",
"e 9 9 t t 9 9 e e 9 5 5 5 5 5 5 5 5 9 9 9 9 9 9 5 5 5 9 9 9 5 5 9 9 9 9 5 5 5 5 5 5 5 5 5 5 5 5 9 9 5 5 5 9 e e 9 9 9 e e e 9 9 5 5 5 5 5 5 5 5 5 5 5 5 5 5 5 5 1 5 5 5 5 5 5 5 e 9 5 1 > 1 1 5 9 9 9 9 9 5 5 5 5 5 5 5 5 5 5 5 5 5 5 5 5 5 5 5 9 9 5 5 5 9 e e 9 9 e e e 9 5 5 5 5 5 5 5 5 5 5 5 5 5 5 5 5 5 5 5 5 5 5 5 5 5 5 5 5 5 5 5 5 5 5 5 5 5 9 9 5 5 5 9 9 9 9 5 5 5 5 5 5 5 5 5 5 5 5 5 5 5 5 5 5 5 5 5 5 5 5 5 5 5 5 5 5 5 5 5 5 5 5 e e e e e e e e 5 5 5 5 5 5 5 5 5 5 5 5 5 5 5 5 5 5 5 5 5 5 5 5 5 5 5 5 5 5 5 5 5 5 5 5 5 5 5 5 9 9 5 5 5 5 5 5 9 9 e e e 5 1 > 9 9 9 9 9 9 5 1 5 5 5 5 5 5 5 5 5 5 5 5 5 5 5 5 9 9 e e e 9 9 9 e e 9 5 5 5 9 9 5 5 5 5 5 5 5 5 5 5 5 5 5 5 5 5 5 5 5 5 5 5 5 5 5 5 5 5 5 5 5 5 5 5 5 5 5 5 9 9 9 9 9 9 9 5 5 5 5 5 5 5 5 5 5 5 5 5 5 5 5 5 5 5 5 5 9 9 e 9 9 9 t e 9 9 9 9 9 e 5 5 5 5 5 5 5 5 5 5 5 5 5 5 5 5 5 5 5 5 5 5 5 5 5 5 5 5 5 5 5 5 5 5 5 5 5 5 5 5 5 5 5 5 5 5 5 5 9 e 9 5 5 9 e e e e 9 5 5 5 9 9 5 5 5 5 5 5 5 5 5 5 5 5 5 5 5 5 9 9 9 9 e e e e 9 9 e e 9 9 5 5 5 5 5 5 5 5 5 5 5 5 5 5 5 5 5 5 5 5 5 5 5 5 5 5 5 5 5 5 5 5 5 5 e 9 5 1 > 1 1 5 9 9 9 9 9 9 5 5 5 5 5 5 5 5 5 5 5 5 5 5 5 5 5 5 5 5 5 5 5 5 5 5 5 5 5 5 5 5 5 5 t 9 5 5 9 e e 9 5 5 5 5 5 5 5 5 5 5 5 5 5 5 5 5 5 5 5 5 5 5 5 5 5 5 5 5 5 5 5 5 5 5 5 5 5 5 5 5 9 9 9 5 5 5 5 5 9 9 5 5 5 5 9 9 1 5 5 9 9 5 1 1 5 5 5 5 5 5 5 5 5 5 5 5 5 5 5 5 5 5 9 9 9 5 1 1 e 9 9 9 9 9 e e 5 5 5 5 5 5 5 5 5 5 5 5 5 5 5 5 5 5 5 5 5 5 5 5 5 5 5 5 5 5 5 5 5 5 5 5 9 9 9 9 1 5 9 e e 9 9 9 5 5 5 5 5 5 9 9 ",
"e e e e e e e 9 t e 9 9 e t e e e e 9 9 9 9 e e 9 e t t t d d d e e t t t t t d t t t t t t t t 9 e e e t e e e t t e e e e e e t t t t t t t t t t t t t t t t t t t t t t t t 9 9 e t t d d d 9 e e e t e e e t t t t t t t t t t t t t t t t 9 e e e t e e e t e e e 9 9 e e t t t t t t t t t t t t t t t t t t t t t t t t e e t t t t e e 9 e e t t t t t t e e e t t t t t t t t t t t t t t t t t t t t t t t t t t t t t t t t t t t t t t t t t t t t t t t t t t t t t t t t t t t t t t t t t t t t t t t t t t t t t t t t t t t t 9 9 9 9 e e e e 9 9 9 9 e t t t t e e e t d t e t t t t t t t t t t t t t t t t e e e e e e t t e e e t e e e 9 t t t t t t t t t t t t t t t t t t t t t t t t t t t t t t t t e e e e e e e e e t t t e e e e t t t t t t t t t t t t t t t t e e 9 9 9 e e e t t t e e e e t t t t t t t t t t t t t t t t t t t t t t t t t t t t t t t t t t t t t t t t t t t t t t t t t 5 e t t e e 9 9 t e e e e e t t t t t t t t t t t t t t t t t t 9 e e e e t t t t e e e e e e e t t t t t t t t t t t t t t t t t t t t t t t t t t t t e e e t 5 9 t t t t d d 9 e e t t t t e t t t t t t t t t t t t t t t t t t t t t t t t t t t t t t t t t e e e t d d t t t t t t t t t t t t t t t t t t t t t t t t t t t t t t t t t t t t t t t t t 9 9 9 9 e e e e e 9 9 e e t d d e e e t t t t t t t t t t t t t t t t t t t t t e e t t t t t t t t t t t e e e t t t t t t t t t t t t t t t t t t t t t t t t t t t t t t t t 9 e e e e e e e t t t e 9 9 e t t t t e t t t t ",
"t t e 9 9 t t e 9 9 e e t e 9 9 t t t e e e e e d d t 9 5 5 9 9 e e e e e e e e e e e e e e e e e e e e e 9 5 5 t e e e e e e t e e e e e e e e e e e e e e e e t t e e e e e e t e e e t e 9 5 e e e 9 9 9 9 9 e e e e e e e e e e e e e e e e e e e e e 9 5 5 9 9 9 9 e e t d e e e e e e e e e e e e e e e e e e e e e e e e e e e e e e 9 9 d d t 9 5 5 5 1 e e 9 9 e e e e e e e e e e e e e e e e e e e e e e e e e e e e e e e e e e e e 9 9 9 9 9 9 9 9 e e e e e e e e e e e e e e e e e e e e e e e e e e e e e e e e e e e e e e e e e e e t t t t t t e 9 9 9 9 9 9 e 9 9 5 5 9 e t e e e e e e e e e e e e e e e e t e e e e e e t 5 5 9 e e e e e e e e e e e e e e e e e e e e e e e e e e e e e e e e e e e e e t e e e e e e 9 9 e e e e e t e e e e e e e e e e e e e e e e e t t e e 9 9 9 9 5 9 9 e e e t t e e e e e e e e e e e e e e e e e e e e e e e e e e e e e e e e e e e e e e e e e e e e e e e e 9 e t t t t e 9 5 9 9 e e e e e e e e e e e e e e e e e e e e e e e e e 9 9 9 9 9 9 9 9 e e t d e e e e e e e e e e e e e e e e e e e e e e e e e e e e e e e e e e t t e e 9 9 e e e e e 9 9 9 e e e e e e e e e e e e e e e e e e e e e e e e e e e e e e e e e e 9 9 e e e 9 e e e e e e e e e e e e e e e e e e e e e e e e e e e e e e e e e e e e e e e e e e e e e t t t t t e t e 5 1 1 t e 9 9 9 9 e t e e e e e e e e e e e e e e e e 9 9 9 e e e e e 9 9 e e e e 9 9 e e e e e e e e e e e e e e e e e e e e e e e e e e e e e e e e t t t t e e e e e e 9 9 9 9 e e t e e e e e 9 9 ",
"e t e 9 e e e 9 t t d t e e e e t e e e e e e e 9 e e 9 9 e t e t t e e e e 9 9 9 9 9 9 9 9 9 9 e e e e e e e e e e e e e e t t 9 9 9 9 9 9 9 9 9 9 9 9 9 9 9 9 e e 9 9 9 9 9 9 e e 9 5 5 9 e t d d t e e e e e 9 9 9 9 9 9 9 9 9 9 9 9 9 9 9 9 9 9 9 e e e e e t t e e e e e e 9 9 9 9 9 9 9 9 9 9 9 9 9 9 9 9 9 9 9 9 9 9 9 9 e e 9 9 9 9 e e 5 9 e 9 9 t t e t t e e e e 9 9 9 9 9 9 9 9 9 9 9 9 9 9 9 9 9 9 9 9 9 9 9 9 9 9 9 9 9 9 9 9 9 9 e e e e e e e e 9 9 9 9 9 9 9 9 9 9 9 9 9 9 9 9 9 9 9 9 9 9 9 9 9 9 9 9 9 9 9 9 9 9 9 9 9 9 9 9 t t e e e 9 9 5 e e t d d d t e e t t e 5 5 9 9 9 9 9 9 9 9 9 9 9 9 9 9 9 9 9 9 t t e e e e e e e e e e e e e e 9 9 9 9 9 9 9 9 9 9 9 9 9 9 9 9 9 9 9 9 9 9 9 9 9 9 9 9 9 9 9 9 9 9 9 9 e e 9 5 t t e 9 e d d e 9 9 9 9 9 9 9 9 9 9 9 9 9 9 9 9 9 e e e e e e e e e e e e e e 9 9 9 9 9 9 9 9 9 9 9 9 9 9 9 9 9 9 9 9 9 9 9 9 9 9 9 9 9 9 9 9 9 9 9 9 9 9 9 9 9 9 9 9 9 9 9 9 9 t 9 5 5 9 e t d t t t t t t e e 9 9 9 9 9 9 9 9 9 9 9 9 9 9 9 9 e e e e e e e e e e e e e e 9 9 9 9 9 9 9 9 9 9 9 9 9 9 9 9 9 9 9 9 9 9 9 9 9 9 9 9 9 9 9 e e e t e 5 5 9 e e e d d t e e 9 e e 9 9 9 9 9 9 9 9 9 9 9 9 9 9 9 9 9 9 9 9 9 9 9 9 9 9 9 9 9 9 9 9 e e e e e e 9 9 e e e e e e e e 9 9 9 9 9 9 9 9 9 9 9 9 9 9 9 9 9 9 9 9 9 9 9 9 9 9 9 9 9 9 9 9 t e e e 9 9 9 5 e 9 9 e t e e t t t e 9 9 9 9 9 9 9 9 9 9 9 9 9 9 9 9 9 9 9 9 9 e e e 9 9 e e e 9 9 e e e e e e 9 9 9 9 9 9 9 9 9 9 9 9 9 9 9 9 9 9 9 9 9 9 9 9 9 9 9 9 9 9 9 9 9 e e e e 9 9 9 5 9 e d h h t 9 e 9 9 e e e 9 9 ",
"9 e t t e 9 5 5 9 9 9 9 5 9 t d 9 e e e e t e e 9 t t t d h d e 9 9 9 9 t t t t t t t t t t t t e e e 9 e e e t e e e t t e e e t t t t t t t t t t t t t t t t e e t t t t t t 5 e t d d t t t 9 9 9 9 e e t t t t t t t t t t t t t t t t t t e e e 9 e e t t e t t t t e e 9 t t t t t t t t t t t t t t t t t t t t t t t t t t e e t t d d 5 e t t t h d t 5 9 e e e e t t t t t t t t t t t t t t t t t t t t t t t t t t t t t t t t t t e e e e e e e e t t t t t t t t t t t t t t t t t t t t t t t t t t t t t t t t t t t t t t t t e e e e e t t t e e e 9 9 e t h 9 e d d d t t t t t t t t t t t t t t t t t t t e e e t t e e e t t e e 9 e e e t t t t t t t t t t t t t t t t t t t t t t t t t t t t t t t t e e 9 e t t t t e t e 9 9 t e 9 t t t t t t t t t t t t t t t t 9 e e e t t e e e e e e e e e 9 t t t t t t t t t t t t t t t t t t t t t t t t t t t t t t t t t t t t t t t t t t t t t t t t t e e t t e 5 5 e e 9 9 9 e t d t t t t t t t t t t t t t t t t e e e e e e e e e e e e e e 9 9 t t t t t t t t t t t t t t t t t t t t t t t t e t t t t t t t 9 e t d h h t e 9 9 9 9 9 e t t t t t t t t t t t t t t t t t t t t t t t t t t t t t t t t t t e e e e e e e e t t t t t t t t t t t t t t t t t t t t t t t t t t t t t t t t t t t t t t t t e e e e e t t t t 9 9 e e 9 e d 9 9 e t t t t t t t t t t t t t t t t t t t t t t t t t t e t t t e e e e e e t t t t t t t t t t t t t t t t t t t t t t t t t t t t t t t t t e e e e t t t t d t e e e e e 9 e e e t d d d t ",
"e 9 e t e 5 e d 5 1 1 1 9 9 9 5 9 9 e e e 9 9 5 t t e 5 5 9 1 # 1 5 9 9 5 5 5 e 9 9 9 9 9 9 9 9 e e 9 9 9 9 9 9 9 9 e e 9 9 9 9 9 9 9 9 9 9 9 9 9 9 9 9 9 9 9 9 5 5 9 9 9 9 5 5 5 e t t 9 1 > > 1 1 5 5 9 9 5 5 9 9 9 9 9 9 9 9 9 9 9 9 9 9 9 9 e e 9 9 9 9 9 9 9 9 9 e e e e e 9 9 9 9 9 9 9 9 9 9 9 9 9 9 9 9 9 9 9 9 9 9 9 9 5 5 9 9 9 9 5 5 e t e 1 > 5 1 > > 5 e e 9 5 5 9 9 9 9 9 9 9 9 9 9 9 9 9 9 9 9 9 9 9 9 9 9 9 9 9 9 9 9 9 9 9 9 9 9 9 9 9 9 9 9 9 9 9 9 9 9 9 9 9 9 9 9 9 9 9 9 9 9 9 9 9 9 9 9 9 9 9 9 9 9 9 9 9 9 9 9 9 9 9 9 9 e 9 9 9 9 e t t e e 9 1 = = > 5 9 5 5 5 9 e e 9 9 9 9 9 9 9 9 9 9 9 9 9 9 9 9 9 9 9 9 9 e e 9 9 9 9 9 9 9 9 e e 9 9 9 9 9 9 9 9 9 9 9 9 9 9 9 9 9 9 9 9 9 9 9 9 9 9 9 9 9 9 9 9 t e 5 5 9 e e 9 > 9 e 9 5 9 9 5 9 9 9 9 9 9 9 9 9 9 9 9 9 9 9 9 e e e e 9 9 9 9 9 9 9 9 9 9 9 e 9 9 9 9 9 9 9 9 9 9 9 9 9 9 9 9 9 9 9 9 9 9 9 9 9 9 9 9 9 9 9 9 9 9 9 9 9 9 9 9 9 9 9 9 9 9 9 9 5 9 e t e 5 1 5 1 5 5 9 9 9 5 5 9 9 9 9 9 9 9 9 9 9 9 9 9 9 9 9 e e 9 9 9 9 9 5 9 9 9 9 e e e e 9 9 9 9 9 9 9 9 9 9 9 9 9 9 9 9 9 9 9 9 9 9 9 9 5 9 9 9 9 5 5 1 5 e t e 9 1 > > 1 1 5 5 9 5 5 5 9 9 9 9 9 9 9 9 9 9 9 9 9 9 9 9 9 9 9 9 9 9 9 9 9 9 9 9 9 9 9 9 9 9 9 9 9 9 9 e 5 5 5 5 5 5 5 5 9 9 9 9 9 9 9 9 9 9 9 9 9 9 9 9 9 9 9 9 9 9 9 9 9 9 9 9 9 9 9 9 9 9 9 e e e e e t 9 9 e 9 > = > 9 5 5 5 5 9 9 e 9 9 9 9 9 9 9 9 9 9 9 9 9 9 9 9 5 5 5 5 5 5 5 5 9 9 9 9 9 9 9 9 9 9 9 9 9 9 9 9 9 9 9 9 9 9 9 9 9 9 9 9 9 9 9 9 9 9 9 9 9 9 9 9 t t e 9 9 9 e e 9 9 9 5 > > 5 e e 9 1 1 5 9 9 5 ",
"d e 9 e 9 5 h K ' ^ ^ ( ' ( D h l l b l h d e 9 e e 9 9 l W  .' ^ ' ' W B h l b l l l l l l l l h l l b b b b l l l l h l l l l l l l l l l l l l l l l l l l l b b B b b h d t t t e 9 e l W ..( ( ( ^ P D b l l l l l l l l l l l l l l l l l h l l b b b b b b b l l l l l l l l l l l l l l l l l l l l l l l l l l l l l l l b b b b h t e e t e 9 d K '  .W ( ' ^ D l h l l l l l l l l l l l l l l l l l l l l l l l l l l l l l l l l l l l l l l l l l l l l l l l l l l l l l l l l l l l l l l l l l l l l l l l l l l l l l l l l l b l h t e 9 9 e > d K ( ' ( ^ ^ ( K l h l B b h l l l l l l l l l l l l l l l l l l l l h l l l b b b b l l l h l l l l l l l l l l l l l l l l l l l l l l l l l l l l l l l l l h e 9 e e e 9 l P ' ( W ^ ( ( l l l l l l l l l l l l l l l l h h h h l l b b b b b l l l l l l l l l l l l l l l l l l l l l l l l l l l l l l l l l l l l l l l l l l l l l l l l l l l l l e e e 9 5 e A ( W ^ ' ' ( K b d l l l l l l l l l l l l l l l l h h h l l b b b b b l l l l l l l l l l l l l l l l l l l l l l l l l l l l l l l b b b b l d d e t e 9 9 h P $.( ( ( ( W D b l l l l l l l l l l l l l l l l l l l l l l l l l l l l l l l l l l l l l l l l l b b b b b b b b l l l l l l l l l l l l l l l l l l l l l l l l l l l l l l l l b l h d t e 9 9 1 9 l W ' ( ^ '  .^ D b h h l b l l l l l l l l l l l l l l l l l b b b b b b b h h h l l l l l l l l l l l l l l l l l l l l l l l l l l l l l l l l l l l l l l l d t e 9 e e 9 b W ' ( ^ ^ ( P A b l l b b l ",
"e 9 9 e e e 5 &.k.y.y.f.w.f. .D D A D D D b 9 e e e e t h k.p.p.p.p.y.f.K K A K K K K K K K K K K K K K K K K K K K K K K K K K K K K K K K K K K K K K K K K K K D D D D K B e 9 9 e e e b p.p.p.p.p.p.y.P D K K K K K K K K K K K K K K K K K K K K K K K K K K K K K K K K K K K K K K K K K K K K K K K K K K K K K K K K K A D A D A D 9 e 9 t e d e 6.p.f.p.p.y.k.' D D D K K K K K K K K K K K K K K K K K K K K K K K K K K K K K K K K K K K K K K K K K K K K K K K K K K K K K K K K K K K K K K K K K K K K K K K K K K K K K K K K A D D 9 e e 9 e t e <.p.p.p.p.p.f. .D D K K K K K K K K K K K K K K K K K K K K K K K K K K K K K K K K K K K K K K K K K K K K K K K K K K K K K K K K K K K K K K D D K K K K D b 9 e t 9 t 9 A f.y.p.p.p.p.y.K K K K K K K K K K K K K K K K K K K K K K K K K K K K K K K K K K K K K K K K K K K K K K K K K K K K K K K K K K K K K K K K K K K K K K K K D K D K K K P l 9 e t 9 t 5 K p.p.y.y.p.y.w.A P K K K K K K K K K K K K K K K K K K K K K K K K K K K K K K K K K K K K K K K K K K K K K K K K K K K K K K K K D D D D D K B e 9 9 t 5 t t w.y.y.p.y.y.f.W D K K K K K K K K K K K K K K K K K K K K K K K K K K K K K K K K K K K K K K K K K K K K K K K K K K K K K K K K K K K K K K K K K K K K K K K K K K K K K K K K K A K A A 9 e e e e e t p.y.p.f.p.w.f.W K K K P K K K K K K K K K K K K K K K K K K K K K K K K K K K K K K K K K K K K K K K K K K K K K K K K K K K K K K K K K K K K K K K K K A P d 9 t e e e 9 P k.w.p.p.w.k.0.A P D K K D K ",
"e 9 9 e e e 5 &.p.0.0.y.6.y.' B D A D D D b 9 e 9 e e e d p.y.w.0.w.0.y.D A b A D D D D D D D D D D D D D D D D D D D D D D D D D D D D D D D D D D D D D D D D D A D D D D b 9 e e e e e l p.y.w.w.w.w.0.D A A D D D D D D D D D D D D D D D D D D D D D D D D D D D D D D D D D D D D D D D D D D D D D D D D D D D D D D D D A D A D A D 9 e 9 e 9 t 5 <.y.y.w.w.0.p.^ B A A D D D D D D D D D D D D D D D D D D D D D D D D D D D D D D D D D D D D D D D D D D D D D D D D D D D D D D D D D D D D D D D D D D D D D D D D D D D D D D D D A D D 9 e e 9 e 9 5 &.w.w.w.w.w.p.' A A D A D D D D D D D D D D D D D D D D D D D D D D D D D D D D D D D D D D D D D D D D D D D D D D D D D D D D D D D D D D D D D A D D D D D b 9 e t 9 t 9 l y.0.w.0.w.w.0.D D D A A D A D D D D D D D D D D D D D D D D D D D D D D D D D D D D D D D D D D D D D D D D D D D D D D D D D D D D D D D D D D D D D D D D D A D A D A D K h 9 e t 9 t 5 K p.w.0.0.w.0.6.B D D D D D D D D D D D D D D D D D D D D D D D D D D D D D D D D D D D D D D D D D D D D D D D D D D D D D D D D D D A D D D D B 9 9 9 t 5 t t w.y.0.w.0.0.y.K B A D D D D D D D D D D D D D D D D D D D D D D D D D D D D D D D D D D D D D D D D D D D D D D D D D D D D D D D D D D D D D D D D D D D D D D D D D D D D D D D D A K A A 9 e e e 9 9 9 w.0.0.w.w.0.y.K A A A D A D D D D D D D D D D D D D D D D D D D D D D D D D D D D D D D D D D D D D D D D D D D D D D D D D D D D D D D D D D D D D D D D A P d 9 t e e e 1 D p.6.w.w.6.y.<.B K B D D A A ",
"e 9 9 e e e 5 &.p.0.0.y.6.y.' B D A D D D b 9 e e e e e t y.0.0.0.w.0.y.D D B D A A A A A A A A A A A A A A A A A A A A A A A A A A A A A A A A A A A A A A A A D A D D A D b 9 t t t e 9 l y.w.0.0.w.w.0.D A D A A A A A A A A A A A A A A A A A A A A A A A A A A A A A A A A A A A A A A A A A A A A A A A A A A A A A A A A A D A D A D 9 e 9 e 9 e 5 :.0.0.w.w.0.p.^ B A A A A A A A A A A A A A A A A A A A A A A A A A A A A A A A A A A A A A A A A A A A A A A A A A A A A A A A A A A A A A A A A A A A A A A A A A A A A A A A A A A A D D 9 e e 9 e e 5 :.w.w.w.w.0.y.( B A A A A A A A A A A A A A A A A A A A A A A A A A A A A A A A A A A A A A A A A A A A A A A A A A A A A A A A A A A A A A A A A A A A A A D b 9 e t 9 t 9 l y.0.w.0.w.w.0.A A A A A A A A A A A A A A A A A A A A A A A A A A A A A A A A A A A A A A A A A A A A A A A A A A A A A A A A A A A A A A A A A A A A A A A A A D B D A A D d 9 e t 9 t 5 K p.w.0.0.w.0.6.B D A A A A A A A A A A A A A A A A A A A A A A A A A A A A A A A A A A A A A A A A A A A A A A A A A A A A A A A A D A D D A D b 9 e e t 5 t t w.w.0.w.0.0.y.K A D A A A A A A A A A A A A A A A A A A A A A A A A A A A A A A A A A A A A A A A A A A A A A A A A A A A A A A A A A A A A A A A A A A A A A A A A A A A A A A A A A K A A 9 e e e e e e y.0.0.0.0.0.y.K A A A D A A A A A A A A A A A A A A A A A A A A A A A A A A A A A A A A A A A A A A A A A A A A A A A A A A A A A A A A A A A A A A A A A A P d 9 t e e e 5 D f.6.w.w.6.y.<.b K B D D A A ",
"e 9 9 e e e 5 &.p.w.w.p.0.p.' A D A D D D b 9 e e t e e d p.w.0.0.y.0.y.K K A K D D D D D D D D D D D D D D D D D D D D D D D D D D D D D D D D D D D D D D D D D A D D A D b 9 t t t e 9 l y.w.w.w.w.y.w.K D K D D D D D D D D D D D D D D D D D D D D D D D D D D D D D D D D D D D D D D D D D D D D D D D D D D D D D D D D A D A D A D 9 e e t e t 5 :.w.w.w.w.0.f.( A D D D D D D D D D D D D D D D D D D D D D D D D D D D D D D D D D D D D D D D D D D D D D D D D D D D D D D D D D D D D D D D D D D D D D D D D D D D D D D D D D D A D D 9 e e 9 e t e <.y.y.w.w.w.p.( A A D A D A D D D D D D D D D D D D D D D D D D D D D D D D D D D D D D D D D D D D D D D D D D D D D D D D D D D D D D D D D D A A D D D D D b 9 e t 9 t 9 b p.w.w.w.y.y.w.D D A A A A D A D D D D D D D D D D D D D D D D D D D D D D D D D D D D D D D D D D D D D D D D D D D D D D D D D D D D D D D D D D D D D D D D A D A D A A K d 9 e t 9 t 5 K p.y.w.w.y.w.0.B K D D D D D D D D D D D D D D D D D D D D D D D D D D D D D D D D D D D D D D D D D D D D D D D D D D D D D D D D D A D D A D b 9 e e d 5 t t 0.w.w.y.w.w.p.P D K D D D D D D D D D D D D D D D D D D D D D D D D D D D D D D D D D D D D D D D D D D D D D D D D D D D D D D D D D D D D D D D D D D D D D D D D D D D D D D D D A K A A 9 e e e t e t y.w.w.w.0.w.p.P D A D K D D D D D D D D D D D D D D D D D D D D D D D D D D D D D D D D D D D D D D D D D D D D D D D D D D D D D D D D D D D D D D D D D A P d 9 t e e e 9 K k.0.y.y.6.y.<.B K B D D A A ",
"e 9 9 e e e 5 &.p.0.0.y.6.y.( B D A D D D b 9 e e e e e d p.w.w.0.w.0.y.D D B D D D D D D D D D D D D D D D D D D D D D D D D D D D D D D D D D D D D D D D D D D A D D D D b 9 e e e e 9 l y.w.0.0.w.w.0.D A D D D D D D D D D D D D D D D D D D D D D D D D D D D D D D D D D D D D D D D D D D D D D D D D D D D D D D D D D A D A D A D 9 e e t e t 5 <.w.w.0.w.0.p.^ A D D D D D D D D D D D D D D D D D D D D D D D D D D D D D D D D D D D D D D D D D D D D D D D D D D D D D D D D D D D D D D D D D D D D D D D D D D D D D D D D D D A D D 9 e e 9 e e 9 :.y.w.w.w.0.p.' A D D D D D D D D D D D D D D D D D D D D D D D D D D D D D D D D D D D D D D D D D D D D D D D D D D D D D D D D D D D D D D D D D D D D D D b 9 e t 9 t 9 l y.0.w.w.w.w.0.D D D D D D D D D D D D D D D D D D D D D D D D D D D D D D D D D D D D D D D D D D D D D D D D D D D D D D D D D D D D D D D D D D D D D D D D A D A D D D K h 9 e t 9 t 5 K p.w.0.w.w.w.6.B D D D D D D D D D D D D D D D D D D D D D D D D D D D D D D D D D D D D D D D D D D D D D D D D D D D D D D D D D D A D D D D B 9 e e d 5 t t 0.w.0.w.0.0.y.P A D D D D D D D D D D D D D D D D D D D D D D D D D D D D D D D D D D D D D D D D D D D D D D D D D D D D D D D D D D D D D D D D D D D D D D D D D D D D D D D D D A K A A 9 e 9 e e 9 e y.0.0.w.0.0.p.K D A A D A D D D D D D D D D D D D D D D D D D D D D D D D D D D D D D D D D D D D D D D D D D D D D D D D D D D D D D D D D D D D D D D D A P d 9 t e e e 5 K f.6.w.w.<.w.6.B K A D K A D ",
"e 9 9 e e e 5 &.y.0.0.y.6.y.( B D A D D D b 9 e 9 e 9 e d p.w.w.0.w.0.y.D D B D D D D D D D D D D D D D D D D D D D D D D D D D D D D D D D D D D D D D D D D D D A D D D D b 9 e e e e 9 l y.w.0.w.w.w.0.D A D D D D D D D D D D D D D D D D D D D D D D D D D D D D D D D D D D D D D D D D D D D D D D D D D D D D D D D D D A D A D A D 9 e 9 e 9 e 5 :.w.w.0.w.0.p.^ A D D D D D D D D D D D D D D D D D D D D D D D D D D D D D D D D D D D D D D D D D D D D D D D D D D D D D D D D D D D D D D D D D D D D D D D D D D D D D D D D D D A D D 9 e e 9 e e 9 :.w.w.w.w.0.p.( A A D A D A D D D D D D D D D D D D D D D D D D D D D D D D D D D D D D D D D D D D D D D D D D D D D D D D D D D D D D D D A A A A A A A A D b 9 e t 9 t 9 l y.0.w.w.w.w.0.D A A A A A A D D D D D D D D D D D D D D D D D D D D D D D D D D D D D D D D D D D D D D D D D D D D D D D D D D D D D D D D D D D D D D D D D A D A D A A D d 9 e t 9 t 5 K p.w.0.w.w.w.6.B D D D D D D D D D D D D D D D D D D D D D D D D D D D D D D D D D D D D D D D D D D D D D D D D D D D D D D D D D D A D D D D B 9 e e d 5 t t 0.w.0.w.0.w.y.P A D D D D D D D D D D D D D D D D D D D D D D D D D D D D D D D D D D D D D D D D D D D D D D D D D D D D D D D D D D D D D D D D D D D D D D D D D D D D D D D D D A K A A 9 e 9 e e 9 e y.w.0.w.w.0.p.K D A A D A D D D D D D D D D D D D D D D D D D D D D D D D D D D D D D D D D D D D D D D D D D D D D D D D D D D D D D D D D D D D D D D D A P d 9 t e e e 5 K f.6.w.w.6.y.<.B K B D D A A ",
"e 9 9 e e e 5 &.p.0.w.y.0.p.' A D A D D D b 9 e e e 9 e d p.w.0.w.y.0.y.D D B K D D D D D D D D D D D D D D D D D D D D D D D D D D D D D D D D D D D D D D D D D A D D A D b 9 e e e e 9 l y.w.w.w.w.y.w.K A D D D D D D D D D D D D D D D D D D D D D D D D D D D D D D D D D D D D D D D D D D D D D D D D D D D D D D D D D A D A D A D 9 e 9 e 9 e 5 :.w.w.w.w.0.f.( A D D D D D D D D D D D D D D D D D D D D D D D D D D D D D D D D D D D D D D D D D D D D D D D D D D D D D D D D D D D D D D D D D D D D D D D D D D D D D D D D D D A D D 9 e e 9 e t 9 :.y.y.w.w.w.y.( B A A A A A D D D D D D D D D D D D D D D D D D D D D D D D D D D D D D D D D D D D D D D D D D D D D D D D D D D D D D D D A A A A A A A A D b 9 e t 9 t 9 b p.0.w.w.y.y.0.D A A A A A A D D D D D D D D D D D D D D D D D D D D D D D D D D D D D D D D D D D D D D D D D D D D D D D D D D D D D D D D D D D D D D D D D A D A D A A D d 9 e t 9 t 5 K p.w.0.w.y.w.0.B K D D D D D D D D D D D D D D D D D D D D D D D D D D D D D D D D D D D D D D D D D D D D D D D D D D D D D D D D D A D D A D b 9 e e d 5 t t w.w.w.y.w.w.y.P A D D D D D D D D D D D D D D D D D D D D D D D D D D D D D D D D D D D D D D D D D D D D D D D D D D D D D D D D D D D D D D D D D D D D D D D D D D D D D D D D D A K A A 9 e e e e e e y.w.w.w.w.0.p.P D A D D A D D D D D D D D D D D D D D D D D D D D D D D D D D D D D D D D D D D D D D D D D D D D D D D D D D D D D D D D D D D D D D D D A P d 9 t e e e 5 K f.0.y.y.6.y.<.B K B D D A A ",
"e 9 9 e e e 5 &.y.0.0.y.6.y.( B D A D D D b 9 e e t e e d p.w.0.0.w.0.y.D D B D D D D D D D D D D D D D D D D D D D D D D D D D D D D D D D D D D D D D D D D D D A A A A D b 9 e e e e 9 h y.w.w.w.w.w.0.D A A D D D D D D D D D D D D D D D D D D D D D D D D D D D D D D D D D D D D D D D D D D D D D D D D D D D D D D D D A D A D A D 9 e e t e t 5 :.w.w.w.w.0.p.^ B A A D D D D D D D D D D D D D D D D D D D D D D D D D D D D D D D D D D D D D D D D D D D D D D D D D D D D D D D D D D D D D D D D D D D D D D D D D D D D D D D D A D D 9 e e 9 e e 9 :.y.w.w.w.w.p.' A A D A D D D D D D D D D D D D D D D D D D D D D D D D D D D D D D D D D D D D D D D D D D D D D D D D D D D D D D D D D D D D D D D D D D D b 9 e t 9 t 9 l y.0.w.0.w.w.0.D D D A A D D D D D D D D D D D D D D D D D D D D D D D D D D D D D D D D D D D D D D D D D D D D D D D D D D D D D D D D D D D D D D D D D D D A D A D D D K h 9 e t 9 t 5 K p.w.0.w.w.w.6.B K D D D D D D D D D D D D D D D D D D D D D D D D D D D D D D D D D D D D D D D D D D D D D D D D D D D D D D D D A A A A A D b 9 e e t 5 t t w.w.w.y.w.w.y.K B A D D D D D D D D D D D D D D D D D D D D D D D D D D D D D D D D D D D D D D D D D D D D D D D D D D D D D D D D D D D D D D D D D D D D D D D D D D D D D D D D A K A A 9 e e e e e e y.0.0.w.0.0.p.K D A A D A D D D D D D D D D D D D D D D D D D D D D D D D D D D D D D D D D D D D D D D D D D D D D D D D D D D D D D D D D D D D D D D D A P d 9 t e e e 5 K f.6.w.w.6.y.<.B K B D D A D ",
"e 9 9 e e e 5 &.p.0.0.y.6.y.' D K B K A B b 9 9 9 d e 9 b y.y.0.y.w.w.f.B K D A D D D D A A D D D A D D D D D D D D D D D D D D D D D D A A D D D A D D D D D D A A D D A D b 5 e e e e e l y.w.w.w.w.w.0.D A D D D D D D D D D D D A A D D D D D D D D D D D D D D A A D D D D D D D D D D D D D D A A D D D D D D D D D D D D A D A D A D 9 e 9 t e e 5 :.w.w.w.w.0.f.( A D A A A D D D D D D D D D D A A D D D A D D D D D D D D D D D D D D D D D D A A D D D D A A D D D D D D D D D D D D D D A A D D D D D D D D D D D D D D D D D D D D A D D 9 e e 9 e e 9 :.y.w.0.w.w.p.' A A D A D D D D D D A A D D D A D D D D D D D D D D D D D D D D D D A A D D D D D D D D D D D D D D A A D D D A D D D D D D D D D D D D D D D b 9 e t 9 t 9 b p.0.w.0.w.w.0.D A A A A A A D D D D D A A D D D D D D D D D D D D D D D D A D D D D D A A D D D A D D D D D D D D D D D D D A D D D D A D D D D D D D A A D D A D A D A A D d 9 e t 9 t 5 K p.w.0.w.w.0.6.B K D D A A D D D D D D D D D D D D D D D D D D D D D D D D A A D D D A D D D D D D D D D D D D D D D D D D A A D D D A D D A D B 9 9 e t 5 t t 0.w.w.y.0.w.p.P A D D D A A D D D D D D D D D D D D D D A A D D D D D D D D D D D D D D D D D D D D D D D D D D A D D D D D A A D D D A D D D D D D D D D D D D D A D D D D A D D D A D A B 5 e e e e e e y.w.w.w.w.w.y.W A A K A D D D D D A A D D D A D D D D D D D D D D D D D D D D D D A A D D D A D D D D D D D D D D D D D D D D D D A A D D D D D D D D D D A P d 9 t e e e 5 K f.0.w.w.6.y.<.B K A D D A D ",
"e 9 9 e e e 5 &.p.0.w.y.6.y.' A K B D B A b 9 d d h e 9 d w.w.y.0.6.6.y.A P K D D D D D D A D D D D D D A A D D D D D D D D D D D D D D D D D D D A D D D A D D A A D D A D b 5 e e e e e l y.w.w.w.w.w.0.D A D D D D D D D D D D D D D D D D A D D D D D D D D D D D D D D D A D D D D D D D D D D D D D D D A D D D D D D D D A D A D A D 9 e 9 t e e 5 :.w.w.w.w.0.f.( A A A A A D D D D D D D D D D D D D D D A D D D A D D D D D D D D D D D D D D D A D D D D D D D D D A D D D D D D D D D D D D D D D A D D D D D D D D D D D D D D D D A D D 9 e e 9 e e 9 :.y.w.0.w.w.p.' A A D A D D D D D D D D D D D A D D D A D D D D D D D D D D D D D D D A D D D D D D D D D D D D D D D A D D D D D D A A D D D D D D D D D D D b 9 e t 9 t 9 b p.0.w.0.w.w.0.D A A A A A A D D D D D D A D D D D D D D D D D A A D D D D D D D D D D D D D D D A D D D A D D D D D D D D D A D D D D A D D D D D D D D D D D A D A D A A D d 9 e t 9 t 5 K p.w.0.w.w.0.6.B K D D D D D D D A D D D D D D D D D D D D D D D D D D D D D A D D D D D D A A D D D D D D D D D D D D D D D D D D D A D D A D B 9 9 e t 5 t t 0.w.w.y.0.w.p.P A D D D D D D D D A D D D D D D D D D D D D D D D A D D D D D D D D D D D D D D D D A A D D D D D D D D D D D D D D D A D D D A D D D D D D D D D A D D D D A D D D A D A B 5 e e e e e e y.w.w.w.w.w.y.W A A K A D D D D D D A D D D D D D A A D D D D D D D D D D D D D D D D D D D A D D D A D D D D D D D D D D D D D D D A D D D D D D D D D D A P d 9 t e e e 5 K f.0.w.w.6.y.<.B K A D D A D ",
"e 9 9 e e e 5 &.y.0.w.p.0.y.( B A A D D P b 1 9 5 9 9 e d p.<.w.p.y.y.p.D K D B D D D D D D D D D D D D D D D D D D D D D D D D D D D D D D D D D D D D D A D D A A D D A D b 5 e e e e e l y.w.w.w.w.w.0.D A D D D D D D D D D D D D D D D D D D D D D D D D D D D D D D D D D D D D D D D D D D D D D D D D D D D D D D D D D A D A D A D 9 e 9 t e e 5 :.w.w.w.w.0.f.( A D D A D D D D D D D D D D D D D D D D D D D D A D D D D D D D D D D D D D D D D D D D D D D D D D D D D D D D D D D D D D D D D D D D D D D D D D D D D D D A D D D A D D 9 e e 9 e e 9 :.y.w.0.w.w.p.' A A D A D D D D D D D D D D D D D D D A D D D D D D D D D D D D D D D D D D D D D D A D D D D D D D D D D D D D D D D D D D D D D D D D D D D b 9 e t 9 t 9 b p.0.w.0.w.w.0.D A A A A A A D D D D D D D D D D D D D D D D A D D D D D D D D D D D D D D D D D D D D D A D D D D D A D D D D D D D D D D D D D D D D D D D D A D A D A A D d 9 e t 9 t 5 K p.w.0.0.w.0.6.B K D D D D D D D D D D D D D D D D D D D D A D D D D D D D D D D D D D D D D D D D D D D D D D D D D D D D D D D D D A D D A D B 9 9 e t 5 t t 0.w.w.y.0.w.p.P A D D D D D D D D D D D D D D D D D D D D D D D D D D D D D D D D D D D D D D D D A D D D D D D D D D D D D D D D D D D D D D A D D D D D A D D D D D D D D D D D D A D A B 5 e e e e e e y.w.w.w.w.w.y.W A B K A A D D D D D D D D D D D D D D D D D D D D D D D D D D D D D D D D D D D D D A D D D D D D D D D D D D D D D D D D D D D D A D D D A P d 9 t e e e 5 K f.0.w.w.6.p.<.B K A D D A D ",
"e 9 9 e e e 5 &.y.w.w.p.0.p.' A D A l l D l e l 5 9 e t h v.0.y.6.0.0.0.D A D D D D D D D D D D D D D D D D D D D D D A D A A D D D D D D D D D D D D D D D D D A A D D A D b 5 e e e e e l y.w.w.w.w.w.0.D A D D D D D A A D D D D D D D D D D D D D D A A D D D D D D D D D D D D D D A A D D D D D D D D D D D D D D A A D D A D A D A D 9 e 9 t e e 5 :.w.w.w.w.0.f.( A D D D D D D D D D D D D D D D D D D D D D D D D D D D D A A D D A D D D D D D D D D D D D D D D D D D D D D A A D D D D D D D D D D D D D D A A D D D D D D D D D D A D D 9 e e 9 e e 9 :.y.w.0.w.w.p.' A A D A D D D D D D D D D D D D D D D D D D D D A A D D A D D D D D D D D D D D D D D D D D D D D D D D D D D D D D D D D D D D D A D A A D D b 9 e t 9 t 9 b p.0.w.0.w.w.0.D A A A A A A D D D D D D D D D D D D D D D D A D D D D D D D D D D D D D D D D D D D D D D D D D D D A D D D D D D D D D D D D D D D D D D D D A D A D A A D d 9 e t 9 t 5 K p.w.0.0.w.0.6.B D D D D D D D D D D D D D A A D D D D D D A D D D D D D D D D D D D D D D D D D D D D D A D A A D D D D D D D D D D A D D A D B 9 9 e t 5 t t 0.w.w.y.0.w.p.P A D D D D D D D D D D D D D A A D D D D D D D D D D D D D D A A D D D D D D D D D A D D D D D D D D D D D D D D D D D D D D D D D D D D D A D D D D D D D D D D D D A D A B 5 e e e e e e y.w.w.w.w.w.y.W A B K A D D D D D D D D D D D D D D D D D D D D A D A A D D D D D D D D D D D D D D D D D D D A A D D A D D D D D D D D D D D D D D D D D A P d 9 t e e e 5 K f.0.w.w.6.p.<.B K A D D A D ",
"e 9 9 e e e 5 &.y.w.w.y.6.p. .A D P D D K h 5 5 d d 9 > e y.<.6.w.p.f.w.P A A K D D D A D D D D D D D D D D D D D D D D D D D D D D D A D D D D D D D D D D D D A A D D A D b 5 e e e e e l y.w.w.w.w.w.0.D A D A D D D D D D D D D D D D D D D A D D D D D D D D D D D D D D D A D D D D D D D D D D D D D D D A D D D D D D D A D A D A D 9 e 9 t e e 5 :.w.w.w.w.0.f.( A D D D D A D D D D A D D D A D D D D D D D D D D D D D D D D D D D D D D D A D D D D D D D D D D D D A D D D D D D D D D D D D D D D A D D D D D D D D D D D A D D D A D D 9 e e 9 e e 9 :.y.w.0.w.w.p.' A A D A D D D D D A D D D D D D D D D D D D D D D D D D D D D D D A D D D D D D D D A D D D D D D A D D D D D D D D D D D D D D D D D D D D D b 9 e t 9 t 9 b p.0.w.0.w.w.0.D A A A A A A D D D D A D D D D D D A A D D D D D D D D D D D A D D D A D D D D D D D D D D D D D D D D D D D D D D D D D D D D D D D A D D D D A D A D A A D d 9 e t 9 t 5 K p.w.0.w.w.w.6.B K D D D D D D D D A D D D D D D D D D D D D D D D D D D A D D D D D D D D D D D D D D D D D D D D D D D A D D D D D A D D A K B 9 9 e t 5 t t 0.w.w.y.0.w.p.P A D D D D D D D D D A D D D D D D D D D D D D D D D A D D D D D D D D D A A D D D D D D D D D D D A D D D A D D D D D D D D D D D D D D D D D D D D D D D D D D D D A D A B 5 e e e e e e y.w.w.w.w.0.y.W A B K A D D D D A D D D D D D D D D D D D D D D D D D D D D D D A D D D D D D D D D D D D D D D D D D D D D D D A D D D D D D D D A D D D A P d 9 t e e e 5 K f.0.w.w.6.y.<.B K A D D A D ",
"e 9 9 e e e 5 &.y.w.0.w.6.f.' l l A A D A l b d e d d d D w.w.w.<.6.0.:.P B A D D D D D D D D D D D D D D D D D D D D D D D D D D D D A D D D D D D D D D D D D A A D D A D b 5 e e e e e l y.w.w.w.w.w.0.D A D A D D D D D D D D D A D D D D D A D D D D D D D D D A D D D D D A D D D D D D D D D A D D D D D A D D D D D D D A D A D A D 9 e 9 t e e 5 :.w.w.w.w.w.f.( A D D D A A D D D D D D D D A D D D D D D D D D D D D D D D D D D D D D D D D D D D D D D A D D D D D A D D D D D D D D D A D D D D D A D D D D D D D D D D D D D D D A D D 9 e e 9 e e 5 :.y.w.0.w.w.p.' A A D A D D D D D A D D D D D D D D D D D D D D D D D D D D D D D D D D D D D D D D D D D D D D D D D D D D D D D D D D D D D D D D D D D D D b 9 e t 9 t 9 b p.0.w.0.w.w.0.D A A A A A A D D D D D D D D D D D D D D D D D D A A D D D D A D D D A D D D D D D D D D D D D D D D D D D A A D D D A D A D D D D D A D D D D A D A D A A D d 9 e t 9 t 5 K p.w.0.w.w.w.6.B K D D A D D D D D A D D D D D D D D D D D D D D D D D D D D D D D D D D D D D D D D D D D D D D D D D D A D D D D D A D D A K B 9 9 e t 5 t t 0.w.w.y.0.w.p.P A D D D A D D D D D A D D D D D D D D D A D D D D D A D D D D D D D D D D D D D D D D A A D D D D A D D D A D D D D D D D D D D D D D D D D D D A A D D D A D A D D A D A B 5 e e e e e e y.w.w.w.w.0.y.W A B K A D D D D D D D D D D D D D D D D D D D D D D D D D D D D A D D D D D D D D D D D D D D D D D D D D D D D D D D D D D D D D D D D D A P d 9 t e e e 5 K f.0.w.w.6.y.<.B K A D D A D ",
"e 9 9 e e e 5 &.y.0.0.w.0.f.^ e t e 5 5 1 D p.p.f.f.y.w.<.K A h b B D D A A D K D D D D D D D D A D D D D A D D D D D D A A D D D D D D D D D D A D D D D D D D A A D D A D b 5 e e e e e l y.w.w.w.w.w.0.D A D D D D D D D D D D D A D D D A D D D D D D D D D D D A D D D A D D D D D D D D D D D A D D D A D D D D D D D D D A D A D A D 9 e 9 t e e 5 :.w.w.w.w.0.f.( A D D D D D D D D D D D D D D D D D D A D D D D D D D D D D D D A D D D D D D D D D D D D A D D D A D D D D D D D D D D D A D D D A D D D D D D D D D D D A D D D D D A D D 9 e e 9 e e 9 :.y.w.0.w.w.p.' A A D A D D D D D D D D D D A D D D D D D D D D D D D A D D D D D D D D D D D D A D D D D D D D D D D D D D A D D D D A D D D D D D A A D D D b 9 e t 9 t 9 b p.0.w.0.w.w.0.D A A A A A A D D D D D D D D D D D D D D D D D D D D D D D D D D D D D D D D D A D D D D D D D D D D A D D D D D D D A D D D D D D D D D D D D A D A D A A D d 9 e t 9 t 5 K p.w.0.w.w.0.6.B K D D A D D D A D D D D D D D D D D D D D D D D D D D D D D D D D A D D D D A D D D D D D A A D D D D D D D D D D D A D D A K B 9 9 e t 5 t t 0.w.w.y.0.w.p.P A D D D A D D D A D D D D D D D D D D D A D D D A D D D D D D D D D D D D D D D D D D D D D D D D D D D D D D D D D A D D D D D D D D D D A D D D D D D D A D D D D A D A B 5 e e e e e e y.w.w.w.w.0.y.P A A K A D D D D D D D D D A D D D D A D D D D D D A A D D D D D D D D D D A D D D D D D D D D D D D A D D D D D D D D D D D D A D D D D D A P d 9 t e e e 5 K f.0.w.w.6.y.<.B K A D D A D ",
"e 9 9 e e e 5 &.y.0.0.w.0.p.P > e t t t 5 K f.0.0.6.6.f.y.l D K K D D A K D D B D D D D D D D D A D D D D A D D A D D D D D D D D D D D D D D D D D D D A A D D A A D D A D b 5 e e e e e l y.w.w.w.w.w.0.D A D D D D D D D D D D D D D D D A D D D D D D D D D D D D D D D A D D D D D D D D D D D D D D D A D D D D D D D D D A D A D A D 9 e 9 t e e 5 :.w.w.w.w.0.f.( A D D D D D D D D D D D D D D D D D D D D D D A A D D A A D D D A D D D D D D D D D D D D D D D D A D D D D D D D D D D D D D D D A D D D D D D D D D D D A D D D D D A D D 9 e e 9 e e 9 :.y.w.0.w.w.p.' A A D A D D D D D D D D D D D D D D A A D D A A D D D A D D D D D D D D D D D D A D D D D D D D D D D D D D A D D D D A D D A D D D D D D D D b 9 e t 9 t 9 b p.0.w.0.w.w.0.D A A A A A A D D D D D D D D D D D D D D D D D D D D D D D D D D D D D D D D D D D D D A A D D D D D D D D D D D D D D D D D D D D D D D D D D A D A D A A D d 9 e t 9 t 5 K p.w.0.w.w.w.6.B K D D D D D D A D D D D D D D D D D D A A D D D D D D D D D D D D A D D D D A D D A D D D D D D D D D D D D D D D D A D D A K B 9 9 e t 5 t t 0.w.w.y.0.w.p.P A D D D D D D D A D D D D D D D D D D D D D D D A D D D D D D D D D D D D D D D D D D D D D D D D D D D D D D D D D D D D D A A D D D D D D D D D D D D D D D D D D A D A B 5 e e e e e e y.w.w.w.w.w.y.W A A K A D D D D D D D D D A D D D D A D D A D D D D D D D D D D D D D D D D D D D A A D D A A D D D A D D D D D D D D D D D D A D D D D D A P d 9 t e e e 5 K f.0.w.w.6.y.<.B K A D D A D ",
"e 9 9 e e e 5 &.p.6.y.w.6.f.K 5 e t 9 t 9 A y.w.0.w.y.w.y.b W b D D D D D D D D D D D D D D D D D D D D D D D D D D D D D D D D D D D D D D D D D D D D D D D D K D D D A D B e e e e e 9 l y.w.6.6.p.0.y.D D B D D D D D D D D D D D D D D D D D D D D D D D D D D D D D D D D D D D D D D D D D D D D D D D D D D D D D D D D K D A K B A t e 9 t e e 5 :.w.w.y.6.w.p.( B P D D D D D D D D D D D D D D D D D D D D D D D D D D D D D D D D D D D D D D D D D D D D D D D D D D D D D D D D D D D D D D D D D D D D D D D D D D D D D D D D D B D A t 9 d 5 9 e 9 :.y.w.0.w.w.f.' A A A A D D D D D D D D D D D D D D D D D D D D D D D D D D D D D D D D D D D D D D D D D D D D D D D D D D D D D D D D D D D D D D D D D D A b 5 t 5 t d 5 l y.0.w.0.w.w.0.D D D D D D D D D D D D D D D D D D D D D D D D D D D D D D D D D D D D D D D D D D D D D D D D D D D D D D D D D D D D D D D D D D D D D D D D K B K B P D A b 9 t e t e 9 D f.0.0.y.6.f.6.l K D D D D D D D D D D D D D D D D D D D D D D D D D D D D D D D D D D D D D D D D D D D D D D D D D D D D D D D D D P A B A A B e 9 e t 5 t t 0.w.6.w.y.<.k.K A D D D D D D D D D D D D D D D D D D D D D D D D D D D D D D D D D D D D D D D D D D D D D D D D D D D D D D D D D D D D D D D D D D D D D D D D D D D D D D D D D K D P l t e 9 t e e e y.w.w.w.w.0.k.P b P A K K D D D D D D D D D D D D D D D D D D D D D D D D D D D D D D D D D D D D D D D D D D D D D D D D D D D D D D D D D D D D D D D D D D d e 9 9 t 9 5 K p.0.w.w.y.w.<.b P P b K A A ",
"e 9 9 e e e 5 &.p.6.w.w.6.f.K 5 e t 9 t 9 A y.w.w.w.w.0.0.l P A D D D D D D D D D D D D D D D D D D D D D D D D D D D D D D D D D D D D D D D D D D D D D D D D D A D K D A l 5 e e e e 9 l y.w.w.0.y.6.w.B D A D D D D D D D D D D D D D D D D D D D D D D D D D D D D D D D D D D D D D D D D D D D D D D D D D D D D D D D D B A A K A D e e 9 t e e 5 :.w.w.y.0.w.y.( b D A D D D D D D D D D D D D D D D D D D D D D D D D D D D D D D D D D D D D D D D D D D D D D D D D D D D D D D D D D D D D D D D D D D D D D D D D D D D D D D D D A D B 9 5 t 9 t e 9 :.y.w.0.w.w.w.^ B D D A A A D D D D D D D D D D D D D D D D D D D D D D D D D D D D D D D D D D D D D D D D D D D D D D D D D D D D D D D D A A A A A A A A P A 9 t 5 t d 5 l y.0.w.0.w.w.0.D D D D D D D D D D D D D D D D D D D D D D D D D D D D D D D D D D D D D D D D D D D D D D D D D D D D D D D D D D D D D D D D D D D D D D D D K A K B K A A l 9 e e t e 9 D f.y.w.y.<.p.<.l K D D D D D D D D D D D D D D D D D A D D D D D D D D D D D D D D D D D D D D D D D D D D D D D D D D D D D D D D A K A D K A B 5 9 e t 5 t t 0.w.w.y.w.<.p.D A D D D D D D D D D D D D D D D D D D D D D D D D D D D D D D D D D D D D D D D D D D D D D D D D D D D D D D D D D D D D D D D D D D D D D D D D D D D D D D D D D D A K l e e 9 t e e e y.w.w.w.w.6.f.P b P B A A D D D D D D D D D D D D D D D D D D D D D D D D D D D D D D D D D D D D D D D D D D D D D D D D D D D D D D D D D D D D D D D D A D d 9 9 9 d e 5 K p.0.w.w.y.w.<.l K K b K A D ",
"e 9 9 e e e 5 &.p.6.w.w.6.f.K 5 e t 9 t 9 A y.w.w.0.0.w.0.b P K D D D D D D D D D D D D D D D D D D D D D D D D D D D D D D D D D D D D D D D D D D D D D D D D D B D K D A l 9 e e e e 9 l y.w.y.0.w.6.w.A D K D D D D D D D D D D D D D D D D D D D D D D D D D D D D D D D D D D D D D D D D D D D D D D D D D D D D D D D D A D D D B D 9 e 9 t e e 5 :.w.w.w.0.w.y.( b D A D D D D D D D D D D D D D D D D D D D D D D D D D D D D D D D D D D D D D D D D D D D D D D D D D D D D D D D D D D D D D D D D D D D D D D D D D D D D D D D D D D A e e e 9 t e 9 :.y.w.0.w.w.y.^ B D K A A A D D D D D D D D D D D D D D D D D D D D D D D D D D D D D D D D D D D D D D D D D D D D D D D D D D D D D D D D D D D D D A A A D B 9 d 5 e t 5 l y.0.w.0.w.w.0.D D D D D D D D D D D D D D D D D D D D D D D D D D D D D D D D D D D D D D D D D D D D D D D D D D D D D D D D D D D D D D D D D D D D D D D D K A K A D A D h 9 t e t e 9 D f.w.0.w.6.p.6.B K D D D D D D D D D D D D D D D D D D D D D D D D D D D D D D D D D D D D D D D D D D D D D D D D D D D D D D D D A D A K K A B 9 9 e t 5 t t 0.w.w.w.w.6.p.K D K D D D D D D D D D D D D D D D D D D D D D D D D D D D D D D D D D D D D D D D D D D D D D D D D D D D D D D D D D D D D D D D D D D D D D D D D D D D D D D D D D A D b 9 e 5 e e e e y.w.w.w.w.0.y.P b K A D D D D D D D D D D D D D D D D D D D D D D D D D D D D D D D D D D D D D D D D D D D D D D D D D D D D D D D D D D D D D D D D D D A K h e e 9 t e 5 K p.0.w.w.y.w.<.b A K B D A K ",
"e 9 9 e e e 5 &.p.6.w.w.6.f.K 5 e t 9 t 9 A y.w.w.0.w.y.0.B A A D D D D D D D D D D D D D D D D D D D D D D D D D D D D D D D D D D D D D D D D D D D D D D D D D B A D D D B d e e e e 9 l y.w.w.0.0.w.w.D A A D D D D D D D D D D D D D D D D D D D D D D D D D D D D D D D D D D D D D D D D D D D D D D D D D D D D D D D D D D D A A K 9 d 9 t e e 5 :.w.w.y.y.y.y. .A K A D D D D D D D D D D D D D D D D D D D D D D D D D D D D D D D D D D D D D D D D D D D D D D D D D D D D D D D D D D D D D D D D D D D D D D D D D D D D D D D D A A D t t e 5 e e 9 :.y.w.0.w.w.k.' A D D B A D D D D D D D D D D D D D D D D D D D D D D D D D D D D D D D D D D D D D D D D D D D D D D D D D D D D D D D D D K D D D D D D D B h 1 d 9 e e 5 l y.0.w.0.w.w.0.D D D D D D D D D D D D D D D D D D D D D D D D D D D D D D D D D D D D D D D D D D D D D D D D D D D D D D D D D D D D D D D D D D D D D D D D D A K A D A P h 9 t e t e 9 D f.0.0.w.0.p.<.A B D D D D D D D D D D D D D D D D D D D D D D D D D D D D D D D D D D D D D D D D D D D D D D D D D D D D D D D D D A B D D A D t 9 e t 5 t t 0.w.w.0.0.w.p.K A A D D D D D D D D D D D D D D D D D D D D D D D D D D D D D D D D D D D D D D D D D D D D D D D D D D D D D D D D D D D D D D D D D D D D D D D D D D D D D D D D D A K A 5 d e e e e e y.w.w.w.w.y.y.W b D A D K D D D D D D D D D D D D D D D D D D D D D D D D D D D D D D D D D D D D D D D D D D D D D D D D D D D D D D D D D D D D D D D D b K h e t e e 9 5 K p.0.w.w.y.w.6.A A K A D A K ",
"e 9 9 e e e 5 &.p.6.w.w.6.f.K 5 e t 9 t 9 A y.w.y.w.y.y.6.K D K A A A A A A A A A A A A A A A A A A A A A A A A A A A A A A A A A A A A A A A A A A A A A A A A D B A D D D l 1 e e e e 9 l y.w.w.w.0.w.w.P K K A A A A A A A A A A A A A A A A A A A A A A A A A A A A A A A A A A A A A A A A A A A A A A A A A A A A A A A A B A D A D K = 9 9 t e e 5 :.w.w.6.0.6.<.' B A A A A A A A A A A A A A A A A A A A A A A A A A A A A A A A A A A A A A A A A A A A A A A A A A A A A A A A A A A A A A A A A A A A A A A A A A A A A A A A A A A K D P e t e e t e 9 :.y.w.0.w.w.0.^ A D A B A D A A A A A A A A A A A A A A A A A A A A A A A A A A A A A A A A A A A A A A A A A A A A A A A A A A A A A A A A A A A A A A A A ^ B 1 d 9 e e 9 l y.0.w.0.w.w.0.A A A A A A A A A A A A A A A A A A A A A A A A A A A A A A A A A A A A A A A A A A A A A A A A A A A A A A A A A A A A A A A A A A A A A A A A A A D A D B W e 9 t e t e 9 D f.w.w.w.0.w.:.P K A A A A A A A A A A A A A A A A A A A A A A A A A A A A A A A A A A A A A A A A A A A A A A A A A A A A A A A A D A B K A A A > 9 e t 5 t t 0.w.y.w.0.y.w.W K D A A A A A A A A A A A A A A A A A A A A A A A A A A A A A A A A A A A A A A A A A A A A A A A A A A A A A A A A A A A A A A A A A A A A A A A A A A A A A A A A A B K B = e 5 5 e e e y.w.w.w.w.6.<.W A D A B A A A A A A A A A A A A A A A A A A A A A A A A A A A A A A A A A A A A A A A A A A A A A A A A A A A A A A A A A A A A A A A A A D ^ h 5 e e t t 5 K p.0.w.w.y.w.&.A B D A A B D ",
"e 9 9 e e e 5 &.p.6.w.w.6.f.K 5 e t 9 t 9 A y.w.w.0.0.w.0.&.:.<.6.6.6.6.6.6.6.6.6.6.6.6.6.6.6.6.6.6.6.6.6.6.6.6.6.6.6.6.6.6.6.6.6.6.6.6.6.6.6.6.6.6.6.6.6.6.6.6.0.0.0.0.0.6.( t e e e e 9 l y.w.w.y.6.0.w.&.:.<.6.6.6.6.6.6.6.6.6.6.6.6.6.6.6.6.6.6.6.6.6.6.6.6.6.6.6.6.6.6.6.6.6.6.6.6.6.6.6.6.6.6.6.6.6.6.6.6.6.6.6.6.6.6.6.6.<.0.y.0.w.0.t h 9 t e e 5 :.w.w.p.k.p.f.y.<.0.6.6.6.6.6.6.6.6.6.6.6.6.6.6.6.6.6.6.6.6.6.6.6.6.6.6.6.6.6.6.6.6.6.6.6.6.6.6.6.6.6.6.6.6.6.6.6.6.6.6.6.6.6.6.6.6.6.6.6.6.6.6.6.6.6.6.6.6.6.6.6.6.6.6.6.6.6.6.6.6.6.<.:.$.e t 9 t e e 9 :.y.w.0.w.w.f.6.<.0.0.0.0.0.6.6.6.6.6.6.6.6.6.6.6.6.6.6.6.6.6.6.6.6.6.6.6.6.6.6.6.6.6.6.6.6.6.6.6.6.6.6.6.6.6.6.6.6.6.6.6.6.6.6.6.6.6.6.6.6.6.6.6.6.6.6.6.6.w.^ 9 t 5 9 e e l y.0.w.0.w.w.0.6.6.6.6.6.6.6.6.6.6.6.6.6.6.6.6.6.6.6.6.6.6.6.6.6.6.6.6.6.6.6.6.6.6.6.6.6.6.6.6.6.6.6.6.6.6.6.6.6.6.6.6.6.6.6.6.6.6.6.6.6.6.6.6.6.6.6.6.6.6.6.6.0.6.0.0.6.<.p.K 9 t e t e 9 D f.w.w.0.6.w.0.<.<.6.6.6.6.6.6.6.6.6.6.6.6.6.6.6.6.6.6.6.6.6.6.6.6.6.6.6.6.6.6.6.6.6.6.6.6.6.6.6.6.6.6.6.6.6.6.6.6.6.6.6.6.6.6.6.6.0.6.0.y.6.6.&.t 9 e t 5 t t 0.w.y.w.0.y.w.&.<.:.6.6.6.6.6.6.6.6.6.6.6.6.6.6.6.6.6.6.6.6.6.6.6.6.6.6.6.6.6.6.6.6.6.6.6.6.6.6.6.6.6.6.6.6.6.6.6.6.6.6.6.6.6.6.6.6.6.6.6.6.6.6.6.6.6.6.6.6.6.6.6.6.6.6.6.6.6.6.6.6.6.6.0.&.e b h d e e e y.w.w.w.w.y.p.w.0.w.w.6.6.6.6.6.6.6.6.6.6.6.6.6.6.6.6.6.6.6.6.6.6.6.6.6.6.6.6.6.6.6.6.6.6.6.6.6.6.6.6.6.6.6.6.6.6.6.6.6.6.6.6.6.6.6.6.6.6.6.6.6.6.6.6.6.6.:.6.A 1 e e e t 5 K p.0.w.w.y.w.f.6.<.0.6.6.0.0.",
"e 9 9 e e e 5 &.p.6.w.w.6.f.K 5 e t 9 t 5 A y.w.0.0.w.0.w.f.p.f.w.w.w.w.w.w.w.w.w.w.w.w.w.w.w.w.w.w.w.w.w.w.w.w.w.w.w.w.w.w.w.w.w.w.w.w.w.w.w.w.w.w.w.w.w.w.w.w.0.y.y.w.w.y.( 1 e e e e 9 l y.w.6.p.6.0.y.y.f.f.w.w.w.w.w.w.w.w.w.w.w.w.w.w.w.w.w.w.w.w.w.w.w.w.w.w.w.w.w.w.w.w.w.w.w.w.w.w.w.w.w.w.w.w.w.w.w.w.w.w.w.w.w.w.w.w.y.y.f.w.y.0.1 5 9 t e e 5 :.w.w.<.0.:.0.w.0.y.y.w.w.w.w.w.w.w.w.w.w.w.w.w.w.w.w.w.w.w.w.w.w.w.w.w.w.w.w.w.w.w.w.w.w.w.w.w.w.w.w.w.w.w.w.w.w.w.w.w.w.w.w.w.w.w.w.w.w.w.w.w.w.w.w.w.w.w.w.w.w.w.w.w.w.w.w.w.w.w.w.f.f.w.t e 9 t 9 e 9 :.y.w.0.w.w.0.6.w.y.w.y.y.0.w.w.w.w.w.w.w.w.w.w.w.w.w.w.w.w.w.w.w.w.w.w.w.w.w.w.w.w.w.w.w.w.w.w.w.w.w.w.w.w.w.w.w.w.w.w.w.w.w.w.w.w.w.w.w.w.y.y.w.w.w.w.w.w.k.' 9 d 9 e e 9 b p.0.w.0.w.w.0.w.w.w.w.w.w.w.w.w.w.w.w.w.w.w.w.w.w.w.w.w.w.w.w.w.w.w.w.w.w.w.w.w.w.w.w.w.w.w.w.w.w.w.w.w.w.w.w.w.w.w.w.w.w.w.w.w.w.w.w.w.w.w.w.w.w.w.w.w.w.w.w.y.w.w.w.w.0.k.D 9 t e t e 9 D f.0.w.0.0.w.y.f.k.w.w.w.w.w.w.w.w.w.w.w.w.w.w.w.w.w.w.w.w.w.w.w.w.w.w.w.w.w.w.w.w.w.w.w.w.w.w.w.w.w.w.w.w.w.w.w.w.w.w.w.w.w.w.w.w.0.w.y.p.0.y.:.1 9 e t 5 t t 0.w.w.w.0.y.w.w.k.p.w.w.w.w.w.w.w.w.w.w.w.w.w.w.w.w.w.w.w.w.w.w.w.w.w.w.w.w.w.w.w.w.w.w.w.w.w.w.w.w.w.w.w.w.w.w.w.w.w.w.w.w.w.w.w.w.w.w.w.w.w.w.w.w.w.w.w.w.w.w.w.w.w.w.w.w.w.w.w.w.y.w.y.&.> e 5 1 e e e y.w.w.w.w.<.6.w.w.y.y.y.p.w.w.w.w.w.w.w.w.w.w.w.w.w.w.w.w.w.w.w.w.w.w.w.w.w.w.w.w.w.w.w.w.w.w.w.w.w.w.w.w.w.w.w.w.w.w.w.w.w.w.w.w.w.w.w.w.w.w.w.w.w.w.w.w.f.k.P 5 t t 9 e 5 K p.0.w.w.y.w.w.y.w.w.w.w.y.w.",
"e 9 9 e e e 5 &.p.6.w.w.6.f.K 5 e t 9 t 9 A y.w.y.y.y.0.0.p.0.<.w.w.w.w.w.w.w.w.w.w.w.w.w.w.w.w.w.w.w.w.w.w.w.w.w.w.w.w.w.w.w.w.w.w.w.w.w.w.w.w.w.w.w.w.w.w.w.w.0.w.w.6.w.p. .1 e e e e 9 l y.w.6.f.0.0.w.w.w.6.w.w.w.w.w.w.w.w.w.w.w.w.w.w.w.w.w.w.w.w.w.w.w.w.w.w.w.w.w.w.w.w.w.w.w.w.w.w.w.w.w.w.w.w.w.w.w.w.w.w.w.w.w.w.w.w.0.0.w.<.y.w.9 d 9 t e e 5 :.w.w.w.p.6.0.y.0.w.w.w.w.w.w.w.w.w.w.w.w.w.w.w.w.w.w.w.w.w.w.w.w.w.w.w.w.w.w.w.w.w.w.w.w.w.w.w.w.w.w.w.w.w.w.w.w.w.w.w.w.w.w.w.w.w.w.w.w.w.w.w.w.w.w.w.w.w.w.w.w.w.w.w.w.w.w.w.w.w.w.6.w.0.9 e e h 9 e 9 :.y.w.0.w.w.w.y.p.w.6.0.y.6.w.w.w.w.w.w.w.w.w.w.w.w.w.w.w.w.w.w.w.w.w.w.w.w.w.w.w.w.w.w.w.w.w.w.w.w.w.w.w.w.w.w.w.w.w.w.w.w.w.w.w.w.w.w.w.w.w.w.0.0.0.0.0.0.p.^ 1 d t t e 5 b p.0.w.0.w.w.0.w.w.w.w.w.w.w.w.w.w.w.w.w.w.w.w.w.w.w.w.w.w.w.w.w.w.w.w.w.w.w.w.w.w.w.w.w.w.w.w.w.w.w.w.w.w.w.w.w.w.w.w.w.w.w.w.w.w.w.w.w.w.w.w.w.w.w.w.w.w.w.w.w.0.0.y.w.0.k.A 9 t e t e 9 D f.6.w.w.w.0.6.0.6.w.w.w.w.w.w.w.w.w.w.w.w.w.w.w.w.w.w.w.w.w.w.w.w.w.w.w.w.w.w.w.w.w.w.w.w.w.w.w.w.w.w.w.w.w.w.w.w.w.w.w.w.w.w.w.w.0.0.w.w.6.p.<.> 9 e t 5 t t 0.w.w.y.0.w.6.0.y.<.w.w.w.w.w.w.w.w.w.w.w.w.w.w.w.w.w.w.w.w.w.w.w.w.w.w.w.w.w.w.w.w.w.w.w.w.w.w.w.w.w.w.w.w.w.w.w.w.w.w.w.w.w.w.w.w.w.w.w.w.w.w.w.w.w.w.w.w.w.w.w.w.w.w.w.w.w.w.w.w.w.w.y.:.> t t t e e e y.w.w.w.w.w.w.y.w.6.0.6.y.w.w.w.w.w.w.w.w.w.w.w.w.w.w.w.w.w.w.w.w.w.w.w.w.w.w.w.w.w.w.w.w.w.w.w.w.w.w.w.w.w.w.w.w.w.w.w.w.w.w.w.w.w.w.w.w.w.w.w.w.w.w.w.w.6.w.A 1 d d 9 9 5 K p.0.w.w.y.w.0.p.y.w.w.w.y.6.",
"1 e e t 9 l 1 :.0.y.p.p.<.v.B 5 9 d 9 t 5 A v.y.w.w.w.w.w.w.w.w.w.w.w.w.w.w.w.w.w.w.w.w.w.w.w.w.w.w.w.w.w.w.w.w.w.w.w.w.w.w.w.w.w.w.w.w.w.w.w.w.w.w.w.w.w.w.w.w.y.<.y.f.y.w.' > d 9 t 5 e h v.w.w.w.w.w.w.w.w.w.w.w.w.w.w.w.w.w.w.w.w.w.w.w.w.w.w.w.w.w.w.w.w.w.w.w.w.w.w.w.w.w.w.w.w.w.w.w.w.w.w.w.w.w.w.w.w.w.w.w.w.w.w.w.w.w.6.y.y.y.0.y.> e 9 1 5 h 5 <.p.w.w.w.w.w.w.w.w.w.w.w.w.w.w.w.w.w.w.w.w.w.w.w.w.w.w.w.w.w.w.w.w.w.w.w.w.w.w.w.w.w.w.w.w.w.w.w.w.w.w.w.w.w.w.w.w.w.w.w.w.w.w.w.w.w.w.w.w.w.w.w.w.w.w.w.w.w.w.w.w.w.w.w.w.w.w.w.w.w.y.w.w.9 d e > 9 9 = &.y.y.y.w.0.w.w.w.w.w.w.w.w.w.w.w.w.w.w.w.w.w.w.w.w.w.w.w.w.w.w.w.w.w.w.w.w.w.w.w.w.w.w.w.w.w.w.w.w.w.w.w.w.w.w.w.w.w.w.w.w.w.w.w.w.w.w.w.w.w.w.w.w.w.w.w.w.f.$.= d 5 9 e t l p.&.p.w.w.6.p.w.w.w.w.w.w.w.w.w.w.w.w.w.w.w.w.w.w.w.w.w.w.w.w.w.w.w.w.w.w.w.w.w.w.w.w.w.w.w.w.w.w.w.w.w.w.w.w.w.w.w.w.w.w.w.w.w.w.w.w.w.w.w.w.w.w.w.w.w.w.w.w.w.6.w.6.y.:.v.D 9 t 5 1 e e K f.w.w.w.w.w.w.w.w.w.w.w.w.w.w.w.w.w.w.w.w.w.w.w.w.w.w.w.w.w.w.w.w.w.w.w.w.w.w.w.w.w.w.w.w.w.w.w.w.w.w.w.w.w.w.w.w.w.w.w.w.w.w.w.w.y.6.p.f.w.y...1 d e 9 9 e 9 k.w.w.w.w.w.w.w.w.w.w.w.w.w.w.w.w.w.w.w.w.w.w.w.w.w.w.w.w.w.w.w.w.w.w.w.w.w.w.w.w.w.w.w.w.w.w.w.w.w.w.w.w.w.w.w.w.w.w.w.w.w.w.w.w.w.w.w.w.w.w.w.w.w.w.w.w.w.w.w.w.w.w.w.w.w.w.w.w.w.w.w.w.&.> t 9 5 9 e e y.6.w.k.y.w.w.w.w.w.w.w.w.w.w.w.w.w.w.w.w.w.w.w.w.w.w.w.w.w.w.w.w.w.w.w.w.w.w.w.w.w.w.w.w.w.w.w.w.w.w.w.w.w.w.w.w.w.w.w.w.w.w.w.w.w.w.w.w.w.w.w.w.w.w.w.w.y.v.A 5 t 9 d 9 9 B v.6.f.p.w.0.w.w.w.w.w.w.w.w.",
"e t 9 t 1 e = :.p.w.6.6.:.m.K t 9 t e d 5 b 0.$.0.0.0.0.0.0.0.0.0.0.0.0.0.0.0.0.0.0.0.0.0.0.0.0.0.0.0.0.0.0.0.0.0.0.0.0.0.0.0.0.0.0.0.0.0.0.0.0.0.0.0.0.0.0.0.0.p.0.0.6.6.p.$.9 9 5 d e t t w.$.0.0.0.0.0.0.0.0.0.0.0.0.0.0.0.0.0.0.0.0.0.0.0.0.0.0.0.0.0.0.0.0.0.0.0.0.0.0.0.0.0.0.0.0.0.0.0.0.0.0.0.0.0.0.0.0.0.0.0.0.0.0.0.0.y.y.w.0.0.p.e l d t e t > :.w.<.0.0.0.0.0.0.0.0.0.0.0.0.0.0.0.0.0.0.0.0.0.0.0.0.0.0.0.0.0.0.0.0.0.0.0.0.0.0.0.0.0.0.0.0.0.0.0.0.0.0.0.0.0.0.0.0.0.0.0.0.0.0.0.0.0.0.0.0.0.0.0.0.0.0.0.0.0.0.0.0.0.0.0.0.0.0.0.0.<.0.0.5 e d t h b e <.w.6.0.y.y.0.0.0.0.0.0.0.0.0.0.0.0.0.0.0.0.0.0.0.0.0.0.0.0.0.0.0.0.0.0.0.0.0.0.0.0.0.0.0.0.0.0.0.0.0.0.0.0.0.0.0.0.0.0.0.0.0.0.0.0.0.0.0.0.w.w.w.w.w.w.w.w.6.' # h t d e 1 b k.0.f.0.w.6.w.0.0.0.0.0.0.0.0.0.0.0.0.0.0.0.0.0.0.0.0.0.0.0.0.0.0.0.0.0.0.0.0.0.0.0.0.0.0.0.0.0.0.0.0.0.0.0.0.0.0.0.0.0.0.0.0.0.0.0.0.0.0.0.0.0.0.0.0.0.0.0.0.p.0.y.w.p.<.k.A = e t t t 9 B 0.w.w.w.w.w.w.w.w.0.0.0.0.0.0.0.0.0.0.0.0.0.0.0.0.0.0.0.0.0.0.0.0.0.0.0.0.0.0.0.0.0.0.0.0.0.0.0.0.0.0.0.0.0.0.0.0.0.0.0.0.0.0.0.0.p.6.0.6.<.p.<.t 5 5 e t t 5 w.:.0.0.0.0.0.0.0.0.0.0.0.0.0.0.0.0.0.0.0.0.0.0.0.0.0.0.0.0.0.0.0.0.0.0.0.0.0.0.0.0.0.0.0.0.0.0.0.0.0.0.0.0.0.0.0.0.0.0.0.0.0.0.0.0.0.0.0.0.0.0.0.0.0.0.0.0.0.0.0.0.0.0.0.0.0.0.0.0.w.y.p.<.5 d t t h t t f.w.0.w.<.0.0.0.0.0.0.0.0.0.0.0.0.0.0.0.0.0.0.0.0.0.0.0.0.0.0.0.0.0.0.0.0.0.0.0.0.0.0.0.0.0.0.0.0.0.0.0.0.0.0.0.0.0.0.0.0.0.0.0.0.0.0.0.0.0.0.0.0.0.0.0.0.$.0.b 5 d e t 9 d K v.:.0.0.w.y.0.0.0.0.0.0.0.0.",
"t e 5 t 9 e 5 0.y.0.<.0.6.v.A = e e 5 e 5 D k.p.0.0.0.0.0.0.0.0.0.0.0.0.0.0.0.0.0.0.0.0.0.0.0.0.0.0.0.0.0.0.0.0.0.0.0.0.0.0.0.0.0.0.0.0.0.0.0.0.0.0.0.0.0.0.0.0.w.0.w.0.0.p.' # t e t 9 e h p.y.0.0.0.0.0.0.0.0.0.0.0.0.0.0.0.0.0.0.0.0.0.0.0.0.0.0.0.0.0.0.0.0.0.0.0.0.0.0.0.0.0.0.0.0.0.0.0.0.0.0.0.0.0.0.0.0.0.0.0.0.0.0.0.0.0.w.w.w.0.0.1 1 5 9 9 5 > <.f.w.0.0.0.0.0.0.0.0.0.0.0.0.0.0.0.0.0.0.0.0.0.0.0.0.0.0.0.0.0.0.0.0.0.0.0.0.0.0.0.0.0.0.0.0.0.0.0.0.0.0.0.0.0.0.0.0.0.0.0.0.0.0.0.0.0.0.0.0.0.0.0.0.0.0.0.0.0.0.0.0.0.0.0.0.0.0.0.0.w.p.y.5 1 9 9 e 5 1 &.w.0.0.w.w.0.0.0.0.0.0.0.0.0.0.0.0.0.0.0.0.0.0.0.0.0.0.0.0.0.0.0.0.0.0.0.0.0.0.0.0.0.0.0.0.0.0.0.0.0.0.0.0.0.0.0.0.0.0.0.0.0.0.0.0.0.0.0.0.0.0.0.0.0.0.0.0.f...> t e t e 5 d y.0.y.6.y.w.w.0.0.0.0.0.0.0.0.0.0.0.0.0.0.0.0.0.0.0.0.0.0.0.0.0.0.0.0.0.0.0.0.0.0.0.0.0.0.0.0.0.0.0.0.0.0.0.0.0.0.0.0.0.0.0.0.0.0.0.0.0.0.0.0.0.0.0.0.0.0.0.0.p.0.w.0.p.<.y.B > t d e 9 9 K k.0.0.0.0.0.0.0.0.0.0.0.0.0.0.0.0.0.0.0.0.0.0.0.0.0.0.0.0.0.0.0.0.0.0.0.0.0.0.0.0.0.0.0.0.0.0.0.0.0.0.0.0.0.0.0.0.0.0.0.0.0.0.0.0.w.6.w.0.6.p.$.> e e e t t t f.p.0.0.0.0.0.0.0.0.0.0.0.0.0.0.0.0.0.0.0.0.0.0.0.0.0.0.0.0.0.0.0.0.0.0.0.0.0.0.0.0.0.0.0.0.0.0.0.0.0.0.0.0.0.0.0.0.0.0.0.0.0.0.0.0.0.0.0.0.0.0.0.0.0.0.0.0.0.0.0.0.0.0.0.0.0.0.0.0.:.6.w.$.> 9 9 e 5 > 5 w.y.0.0.6.0.0.0.0.0.0.0.0.0.0.0.0.0.0.0.0.0.0.0.0.0.0.0.0.0.0.0.0.0.0.0.0.0.0.0.0.0.0.0.0.0.0.0.0.0.0.0.0.0.0.0.0.0.0.0.0.0.0.0.0.0.0.0.0.0.0.0.0.0.0.0.0.p.k.D 5 e 5 e e 1 B f.6.w.6.0.w.0.0.0.0.0.0.0.0.",
"e e 9 t e d d &.y.y.y.f.p.v.P 9 t e 5 5 9 K p.f.p.p.p.p.p.p.p.p.p.p.p.p.p.p.p.p.p.p.p.p.p.p.p.p.p.p.p.p.p.p.p.p.p.p.p.p.p.p.p.p.p.p.p.p.p.p.p.p.p.p.p.p.p.p.p.p.y.y.f.f.f.f. .9 h e e 5 e b y.p.p.p.p.p.p.p.p.p.p.p.p.p.p.p.p.p.p.p.p.p.p.p.p.p.p.p.p.p.p.p.p.p.p.p.p.p.p.p.p.p.p.p.p.p.p.p.p.p.p.p.p.p.p.p.p.p.p.p.p.p.p.p.p.p.0.w.p.f.p.w.d t 9 9 e t t <.p.w.p.p.p.p.p.p.p.p.p.p.p.p.p.p.p.p.p.p.p.p.p.p.p.p.p.p.p.p.p.p.p.p.p.p.p.p.p.p.p.p.p.p.p.p.p.p.p.p.p.p.p.p.p.p.p.p.p.p.p.p.p.p.p.p.p.p.p.p.p.p.p.p.p.p.p.p.p.p.p.p.p.p.p.p.p.p.p.p.w.y.0.d e e e e e t <.p.f.p.p.w.p.p.p.p.p.p.p.p.p.p.p.p.p.p.p.p.p.p.p.p.p.p.p.p.p.p.p.p.p.p.p.p.p.p.p.p.p.p.p.p.p.p.p.p.p.p.p.p.p.p.p.p.p.p.p.p.p.p.p.p.p.p.p.p.p.p.p.p.p.p.p.p.p...5 9 5 e e e A y.w.p.y.f.p.f.p.p.p.p.p.p.p.p.p.p.p.p.p.p.p.p.p.p.p.p.p.p.p.p.p.p.p.p.p.p.p.p.p.p.p.p.p.p.p.p.p.p.p.p.p.p.p.p.p.p.p.p.p.p.p.p.p.p.p.p.p.p.p.p.p.p.p.p.p.p.p.p.f.w.y.y.f.w.p.^ 9 t e 5 5 e P p.p.p.p.p.p.p.p.p.p.p.p.p.p.p.p.p.p.p.p.p.p.p.p.p.p.p.p.p.p.p.p.p.p.p.p.p.p.p.p.p.p.p.p.p.p.p.p.p.p.p.p.p.p.p.p.p.p.p.p.p.p.p.p.p.w.w.f.f.p.f.$.e d t 9 9 e d w.y.p.p.p.p.p.p.p.p.p.p.p.p.p.p.p.p.p.p.p.p.p.p.p.p.p.p.p.p.p.p.p.p.p.p.p.p.p.p.p.p.p.p.p.p.p.p.p.p.p.p.p.p.p.p.p.p.p.p.p.p.p.p.p.p.p.p.p.p.p.p.p.p.p.p.p.p.p.p.p.p.p.p.p.p.p.p.p.p.p.p.f.:.t d e t d t h 0.p.p.p.p.p.p.p.p.p.p.p.p.p.p.p.p.p.p.p.p.p.p.p.p.p.p.p.p.p.p.p.p.p.p.p.p.p.p.p.p.p.p.p.p.p.p.p.p.p.p.p.p.p.p.p.p.p.p.p.p.p.p.p.p.p.p.p.p.p.p.p.p.p.p.p.p.f.p.K 9 5 5 e t t P k.p.k.p.y.w.p.p.p.p.p.p.p.p.",
"9 d e 9 9 t 9 b B A B B b D d 9 e e t t 9 d D B B B B B B B B B B B B B B B B B B B B B B B B B B B B B B B B B B B B B B B B B B B B B B B B B B B B B B B B B A b b B A A h 5 e 9 e e e t K D B B B B B B B B B B B B B B B B B B B B B B B B B B B B B B B B B B B B B B B B B B B B B B B B B B B B B B B B B B B B B B B B B B A b B A 5 t d 9 e t 9 A A A B B B B B B B B B B B B B B B B B B B B B B B B B B B B B B B B B B B B B B B B B B B B B B B B B B B B B B B B B B B B B B B B B B B B B B B B B B B B B B B B B B B B B B B B D A A e t e e t 9 1 b B A B D A B B B B B B B B B B B B B B B B B B B B B B B B B B B B B B B B B B B B B B B B B B B B B B B B B B B B B B B B B B B B B B B B B B B B B B B B D b 5 t e t e 9 e A b D A A b A B B B B B B B B B B B B B B B B B B B B B B B B B B B B B B B B B B B B B B B B B B B B B B B B B B B B B B B B B B B B B B B B B B B B B B B B B b A A A b D t 9 e e e e e d A B B B B B B B B B B B B B B B B B B B B B B B B B B B B B B B B B B B B B B B B B B B B B B B B B B B B B B B B B B B B B B B B D l b A B B l 9 e e 9 e e 9 K B B B B B B B B B B B B B B B B B B B B B B B B B B B B B B B B B B B B B B B B B B B B B B B B B B B B B B B B B B B B B B B B B B B B B B B B B B B B B B B B B B B B B B B B B B B K b > 9 5 9 9 e e A B B B b B B B B B B B B B B B B B B B B B B B B B B B B B B B B B B B B B B B B B B B B B B B B B B B B B B B B B B B B B B B B B B B B B B B B B B B B B D d 9 t t e e 9 d D B B B B A B B B B B B B B ",
"9 d t 9 9 t 9 5 5 e 9 5 1 9 e t e e t d 9 5 5 > 5 5 5 5 5 5 5 5 5 5 5 5 5 5 5 5 5 5 5 5 5 5 5 5 5 5 5 5 5 5 5 5 5 5 5 5 5 5 5 5 5 5 5 5 5 5 5 5 5 5 5 5 5 5 5 5 e 5 1 5 9 5 9 t e 9 t t e 9 9 1 5 5 5 5 5 5 5 5 5 5 5 5 5 5 5 5 5 5 5 5 5 5 5 5 5 5 5 5 5 5 5 5 5 5 5 5 5 5 5 5 5 5 5 5 5 5 5 5 5 5 5 5 5 5 5 5 5 5 5 5 5 5 5 5 e 9 9 1 5 t 9 h t 1 9 e 5 9 > 1 5 5 5 5 5 5 5 5 5 5 5 5 5 5 5 5 5 5 5 5 5 5 5 5 5 5 5 5 5 5 5 5 5 5 5 5 5 5 5 5 5 5 5 5 5 5 5 5 5 5 5 5 5 5 5 5 5 5 5 5 5 5 5 5 5 5 5 5 5 5 5 5 5 5 5 5 5 5 5 5 5 5 5 5 5 5 5 5 1 = 1 5 e 9 9 9 d 9 t 5 9 1 e 5 5 5 5 5 5 5 5 5 5 5 5 5 5 5 5 5 5 5 5 5 5 5 5 5 5 5 5 5 5 5 5 5 5 5 5 5 5 5 5 5 5 5 5 5 5 5 5 5 5 5 5 5 5 5 5 5 5 5 5 5 5 5 5 5 5 5 5 5 5 5 5 5 5 9 9 t e e 9 9 e e 5 e e 5 1 9 5 5 5 5 5 5 5 5 5 5 5 5 5 5 5 5 5 5 5 5 5 5 5 5 5 5 5 5 5 5 5 5 5 5 5 5 5 5 5 5 5 5 5 5 5 5 5 5 5 5 5 5 5 5 5 5 5 5 5 5 5 5 5 5 5 5 5 5 5 5 5 5 5 5 9 9 9 5 e 5 e 9 9 e t e 9 1 5 5 5 5 5 5 5 5 5 5 5 5 5 5 5 5 5 5 5 5 5 5 5 5 5 5 5 5 5 5 5 5 5 5 5 5 5 5 5 5 5 5 5 5 5 5 5 5 5 5 5 5 5 5 5 5 5 5 5 5 5 5 5 5 e 1 1 9 5 1 9 t e e e t t 5 t 1 5 5 5 5 5 5 5 5 5 5 5 5 5 5 5 5 5 5 5 5 5 5 5 5 5 5 5 5 5 5 5 5 5 5 5 5 5 5 5 5 5 5 5 5 5 5 5 5 5 5 5 5 5 5 5 5 5 5 5 5 5 5 5 5 5 5 5 5 5 5 5 5 5 5 5 5 5 5 5 5 5 5 5 5 5 5 5 5 1 > 9 9 5 d d h e d t 9 5 9 5 5 5 5 5 5 5 5 5 5 5 5 5 5 5 5 5 5 5 5 5 5 5 5 5 5 5 5 5 5 5 5 5 5 5 5 5 5 5 5 5 5 5 5 5 5 5 5 5 5 5 5 5 5 5 5 5 5 5 5 5 5 5 5 5 5 5 5 5 5 5 5 5 5 > 5 5 9 d t e e e e e 5 5 5 9 9 5 5 5 5 5 5 5 5 ",
"9 t e e e t t 9 9 t t t e 9 e e e 9 9 9 9 e e t e e e e e e e e e e e e e e e e e e e e e e e e e e e e e e e e e e e e e e e e e e e e e e e e e e e e e e e e 9 t t t t 9 9 e t e t e 9 e 9 e e e e e e e e e e e e e e e e e e e e e e e e e e e e e e e e e e e e e e e e e e e e e e e e e e e e e e e e e e e e e e e e e e 9 t 9 e t 9 e t 9 d t t d e t e e e e e e e e e e e e e e e e e e e e e e e e e e e e e e e e e e e e e e e e e e e e e e e e e e e e e e e e e e e e e e e e e e e e e e e e e e e e e e e e e e e e e e e e t e e d t e t 9 e 9 t e t 5 t 5 e e e e e e e e e e e e e e e e e e e e e e e e e e e e e e e e e e e e e e e e e e e e e e e e e e e e e e e e e e e e e e e e e e e e e e e e e e t 9 9 9 e t e 9 e 9 e e e t e e e e e e e e e e e e e e e e e e e e e e e e e e e e e e e e e e e e e e e e e e e e e e e e e e e e e e e e e e e e e e e e e e e e e e e e e 9 e e e e e e t 9 9 9 9 t t 9 e e e e e e e e e e e e e e e e e e e e e e e e e e e e e e e e e e e e e e e e e e e e e e e e e e e e e e e e e e e e e e e e 9 9 e t e 5 9 e t t e t e 9 t e e e e e e e e e e e e e e e e e e e e e e e e e e e e e e e e e e e e e e e e e e e e e e e e e e e e e e e e e e e e e e e e e e e e e e e e e e e e e e e e e e e e e e e e e d e d 9 9 e 5 1 e e e 9 e e e t e e e e e e e e e e e e e e e e e e e e e e e e e e e e e e e e e e e e e e e e e e e e e e e e e e e e e e e e e e e e e e e e e e e e e e e e t e e 9 9 e 9 e e e 9 t t t e 9 e e e e e e e e ",
"e e e e e 5 e t e t e e t 9 t e t 5 9 9 9 9 9 t e e e e e e e e e e e e e e e e e e e e e e e e e e e e e e e e e e e e e e e e e e e e e e e e e e e e e e e e 9 h d 9 e t e e 5 9 t t e e 9 t e e e e e e e e e e e e e e e e e e e e e e e e e e e e e e e e e e e e e e e e e e e e e e e e e e e e e e e e e e e e e e e e t 9 e 9 t t e 9 9 9 t 5 9 t e 9 e e e e e e e e e e e e e e e e e e e e e e e e e e e e e e e e e e e e e e e e e e e e e e e e e e e e e e e e e e e e e e e e e e e e e e e e e e e e e e e e e e e e e e e e 5 e e e 1 9 t 9 5 e t 9 t 5 d e e e e e e e e e e e e e e e e e e e e e e e e e e e e e e e e e e e e e e e e e e e e e e e e e e e e e e e e e e e e e e e e e e e e e e e e e 9 9 d 9 9 e e t 9 e d 9 9 t t e e e e e e e e e e e e e e e e e e e e e e e e e e e e e e e e e e e e e e e e e e e e e e e e e e e e e e e e e e e e e e e e e e e e e e e e e d e e t t d 9 e e 9 e e 9 e t 9 e e e e e e e e e e e e e e e e e e e e e e e e e e e e e e e e e e e e e e e e e e e e e e e e e e e e e e e e e e e e e e e e 5 e t e 9 9 e t 9 e e t 9 9 e e e e e e e e e e e e e e e e e e e e e e e e e e e e e e e e e e e e e e e e e e e e e e e e e e e e e e e e e e e e e e e e e e e e e e e e e e e e e e e e e e e e e e e e e e 9 5 t 9 e t e t t 9 9 9 d e 5 t e e e e e e e e e e e e e e e e e e e e e e e e e e e e e e e e e e e e e e e e e e e e e e e e e e e e e e e e e e e e e e e e e e e e e e e e t 9 9 9 9 9 9 t e e 5 t t e e e e e e e e e e e ",
"t 9 5 e t 5 t d 5 5 d e e t 5 5 9 9 9 9 9 9 9 9 9 9 9 9 9 9 9 9 9 9 9 9 9 9 9 9 9 9 9 9 9 9 9 9 t t e 9 t e 5 e t e 9 d e 9 e 5 9 t 9 9 9 9 t 9 9 9 9 9 9 9 9 9 9 9 9 9 9 9 9 9 9 9 9 9 9 9 9 9 9 9 9 9 9 9 9 9 9 9 9 9 9 9 9 9 9 9 9 9 9 9 9 9 9 9 9 9 9 9 9 9 e t e t e 5 t e e e t 9 e d 9 1 9 9 e t 9 e t 9 9 9 9 9 9 9 9 9 9 9 9 9 9 9 9 9 9 9 9 9 9 9 9 9 9 9 9 9 9 9 9 9 9 9 9 9 9 9 9 9 9 9 9 9 9 9 9 9 9 9 9 9 9 9 9 9 e e 9 9 9 9 e e 9 d 9 9 t 9 e e e e e e 9 9 9 9 9 9 9 9 9 9 9 9 9 9 9 9 9 9 9 9 9 9 9 9 9 9 9 9 9 9 9 9 9 9 9 9 9 9 9 9 9 9 9 9 9 9 9 9 9 9 9 9 9 9 9 9 9 9 9 9 9 9 9 9 9 9 9 9 9 9 9 9 9 9 9 9 9 9 9 9 9 9 9 9 e t e 9 t e 5 9 9 t e 5 9 9 d 9 9 9 e 9 e e t t 9 9 9 9 9 9 9 9 9 9 9 9 9 9 9 9 9 9 9 9 9 9 9 9 9 9 9 9 9 9 9 9 9 9 9 9 9 9 9 9 9 9 9 9 9 9 9 9 9 9 9 9 9 9 9 9 t e 9 9 9 9 9 9 e e e e 9 9 9 9 9 t t t e 9 t t 9 9 9 9 9 9 9 9 9 9 9 9 9 9 9 9 9 9 9 9 9 9 9 9 9 9 9 9 9 9 9 9 9 9 9 9 9 9 9 9 9 9 9 9 9 9 9 9 9 9 9 9 9 9 9 9 9 9 9 9 9 9 9 9 9 9 9 9 9 9 9 9 t d e e t e 9 e 9 e e e t e 1 9 t e t 9 e t 1 e 9 9 9 9 9 9 9 9 9 9 9 9 9 9 9 9 9 9 9 9 9 9 9 9 9 9 9 9 9 9 9 9 9 9 9 9 9 9 9 9 9 9 9 9 9 9 9 9 9 9 9 9 9 9 9 9 9 9 9 9 9 9 9 9 t 9 e e e t t 5 9 9 9 5 e t 5 e 9 e e e 9 9 9 9 9 9 9 9 9 9 9 9 9 9 9 9 9 9 9 9 9 9 9 9 9 9 9 9 9 9 9 9 9 9 9 9 9 9 9 9 9 9 9 9 9 9 9 9 9 9 9 9 9 9 9 9 9 9 9 9 9 9 9 9 9 9 9 9 9 9 9 9 9 9 9 9 e e e e 9 9 9 9 t t e 9 9 9 9 e 9 9 t e 9 9 5 e 9 9 9 9 9 9 9 9 9 9 9 9 9 9 9 9 9 9 9 9 9 9 9 9 9 9 9 9 9 9 9 9 9 9 9 9 9 9 9 9 ",
"9 e 9 e t 9 9 1 d t d 9 9 t e d t t t t t t t t t t t t t t t t t t t t t t t t t t t t t t t t 5 9 5 5 t e 9 e t 9 9 e e t h h 9 e e t e t d t t t t t t t t t t t t t t t t t t t t t t t t t t t t t t t t t t t t t t t t t t t t t t t t t t t t t t t t t 5 e 5 e e 9 t e h t e 9 e d t d t e t d t d d e t t t t t t t t t t t t t t t t t t t t t t t t t t t t t t t t t t t t t t t t t t t t t t t t t t t t t t t t t t e e e e t t 9 t 9 9 t 9 9 e e e t e e t d d t t t t t t t t t t t t t t t t t t t t t t t t t t t t t t t t t t t t t t t t t t t t t t t t t t t t t t t t t t t t t t t t t t t t t t t t t t t t t t t t e t e 9 t t e t 5 9 e d d t d t h d d t t e e e t t t t t t t t t t t t t t t t t t t t t t t t t t t t t t t t t t t t t t t t t t t t t t t t t t t t t t t t t e e e t t t d 9 e e e t t t d 9 t e e e e t t t t t t t t t t t t t t t t t t t t t t t t t t t t t t t t t t t t t t t t t t t t t t t t t t t t t t t t t t t t t t t t t t t t t t t t t t 5 e 9 9 t e 9 t t e e 9 t d t l e e t e t d 9 h t t t t t t t t t t t t t t t t t t t t t t t t t t t t t t t t t t t t t t t t t t t t t t t t t t t t t t t t t t t t t t t t 9 5 e t e e t 9 t t t 9 t d e t e t t t t e e t t t t t t t t t t t t t t t t t t t t t t t t t t t t t t t t t t t t t t t t t t t t t t t t t t t t t t t t t t t t t t t t t t t t t t t t t e e t t t t t d 5 9 t d d d d t t e t t t t t d t t t t t t t t t t t t t t t t t t t t t t t t t t t t t t t t t t t t t t t t ",
"5 t t 9 e t 9 9 5 1 5 = > 9 1 5 9 9 9 9 9 9 9 9 9 9 9 9 9 9 9 9 9 9 9 9 9 9 9 9 9 9 9 9 9 9 9 9 9 e 9 5 e e 9 e e 5 e 5 > = 1 = 9 1 5 9 1 5 9 5 9 9 9 9 9 9 9 9 9 9 9 9 9 9 9 9 9 9 9 9 9 9 9 9 9 9 9 9 9 9 9 9 9 9 9 9 9 9 9 9 9 9 9 9 9 9 9 9 9 9 9 9 9 9 9 9 9 t 9 e e 9 t e 5 5 1 1 5 > > 9 e 5 9 e 5 9 e 5 9 9 9 9 9 9 9 9 9 9 9 9 9 9 9 9 9 9 9 9 9 9 9 9 9 9 9 9 9 9 9 9 9 9 9 9 9 9 9 9 9 9 9 9 9 9 9 9 9 9 9 9 9 9 9 9 9 9 9 9 9 9 9 9 9 e 9 9 t 9 5 t 1 1 1 1 1 5 9 1 9 9 9 9 9 9 9 9 9 9 9 9 9 9 9 9 9 9 9 9 9 9 9 9 9 9 9 9 9 9 9 9 9 9 9 9 9 9 9 9 9 9 9 9 9 9 9 9 9 9 9 9 9 9 9 9 9 9 9 9 9 9 9 9 9 9 9 9 9 9 9 9 9 9 9 9 9 9 9 9 5 9 1 1 9 9 5 9 e 9 9 e 9 1 = > > = > 5 1 9 e e 9 9 9 9 9 9 9 9 9 9 9 9 9 9 9 9 9 9 9 9 9 9 9 9 9 9 9 9 9 9 9 9 9 9 9 9 9 9 9 9 9 9 9 9 9 9 9 9 9 9 9 9 9 9 9 9 9 5 5 9 9 5 9 e t t 9 1 9 1 > > 5 9 9 5 5 9 9 5 9 9 9 9 9 9 9 9 9 9 9 9 9 9 9 9 9 9 9 9 9 9 9 9 9 9 9 9 9 9 9 9 9 9 9 9 9 9 9 9 9 9 9 9 9 9 9 9 9 9 9 9 9 9 9 9 9 9 9 9 9 9 9 9 9 9 9 9 9 9 9 9 9 e 9 9 e e 9 t e 5 t 1 1 1 = > 9 1 5 5 5 9 1 e 9 9 9 9 9 9 9 9 9 9 9 9 9 9 9 9 9 9 9 9 9 9 9 9 9 9 9 9 9 9 9 9 9 9 9 9 9 9 9 9 9 9 9 9 9 9 9 9 9 9 9 9 9 9 9 9 9 9 9 9 9 9 9 9 9 5 e t 9 e t 9 > 9 5 1 5 5 1 1 5 9 9 9 9 9 9 9 9 9 9 9 9 9 9 9 9 9 9 9 9 9 9 9 9 9 9 9 9 9 9 9 9 9 9 9 9 9 9 9 9 9 9 9 9 9 9 9 9 9 9 9 9 9 9 9 9 9 9 9 9 9 9 9 9 9 9 9 9 9 9 9 9 9 9 9 9 9 9 9 9 9 9 9 9 9 9 9 e e t e 5 5 9 > 5 1 > 5 5 1 1 5 9 9 9 9 9 9 9 9 9 9 9 9 9 9 9 9 9 9 9 9 9 9 9 9 9 9 9 9 9 9 9 9 9 9 9 9 9 9 9 9 ",
"9 d e 9 5 t e K W P ^ W ^ ( A l l l l l l l l l l l l l l l l l l l l l l l l l l l l l l l l l l l d 9 e e 9 e 9 d ^ ^ ^ ^ ( ^ P h l l d l l d l l l l l l l l l l l l l l l l l l l l l l l l l l l l l l l l l l l l l l l l l l l l l l l l l l l l l l l l l l e t e 9 t 9 t P ^ ( ( W P W B h h l h l l h l l l l l l l l l l l l l l l l l l l l l l l l l l l l l l l l l l l l l l l l l l l l l l l l l l l l l l l l l l l l l l l l t e e 9 e 9 5 h ( W ^ ^ W ^ W l l l l l l l l l l l l l l l l l l l l l l l l l l l l l l l l l l l l l l l l l l l l l l l l l l l l l l l l l l l l l l l l l l l l l l l l l l l l l l l l l l b h h l d 9 e t 9 5 e d P P ^ ( ^ ^ ^ l l l l l l l l l l l l l l l l l l l l l l l l l l l l l l l l l l l l l l l l l l l l l l l l l l l l l l l l l l l l b l l l h t e e 9 e 9 e K W W W W W W B h b h h l l l l l l l l l l l l l l l l l l l l l l l l l l l l l l l l l l l l l l l l l l l l l l l l l l l l l l l l l l l l l l l l l l l l l l l l l b d e e e 9 e 9 t ( ^ ( ( W ^ W l l h h l d l l l l l l l l l l l l l l l l l l l l l l l l l l l l l l l l l l l l l l l l l l l l l l l l l l l l l l l l l l l l l l l l l l t e e 9 9 e 5 A ^ W W ^ ^ W P h l l l l l l l l l l l l l l l l l l l l l l l l l l l l l l l l l l l l l l l l l l l l l l l l l l l l l l l l l l l l l l l l l l l l l l l l l l l l l l l b b b l l l d e t e e 9 9 B ( ( ^ ^ P ^ K l l l l l l l l l l l l l l l l l l l l l l l l l l l l l l l l l l l l l l l l l l l ",
"9 e 9 e 5 e e &.f.y.f.y.f.f. .A D D D D D D D D D D D D D D D D D D D D D D D D D D D D D D D D D D l e e e 9 e 5 B y.y.p.y.f.f.0.K K K A W K A D D D D D D D D D D D D D D D D D D D D D D D D D D D D D D D D D D D D D D D D D D D D D D D D D D D D D D D D D A t e e 9 t 9 t <.f.p.f.p.f.p.^ D D P K K K D D D D D D D D D D D D D D D D D D D D D D D D D D D D D D D D D D D D D D D D D D D D D D D D D D D D D D D D D D D D D D D D D h e e 9 e 9 5 B k.y.p.p.y.f.0.P D D D D D D D D D D D D D D D D D D D D D D D D D D D D D D D D D D D D D D D D D D D D D D D D D D D D D D D D D D D D D D D D D D D D D D D D D D D D D D D D K K K K K b e e e e 9 t A p.p.f.k.f.f.y.K D D D D D D D D D D D D D D D D D D D D D D D D D D D D D D D D D D D D D D D D D D D D D D D D D D D D D D D D D D D K D D K A d e e 9 e e d <.p.f.p.p.p.p.' D K A D D D D D D D D D D D D D D D D D D D D D D D D D D D D D D D D D D D D D D D D D D D D D D D D D D D D D D D D D D D D D D D D D D D D D D D D D D K l e e e 9 t 9 l p.p.f.f.f.k.w.W D D D P D D D D D D D D D D D D D D D D D D D D D D D D D D D D D D D D D D D D D D D D D D D D D D D D D D D D D D D D D D D D D D D D D D D d 9 9 9 e e 5 ..y.y.p.f.y.p.6.A D D D D D D D D D D D D D D D D D D D D D D D D D D D D D D D D D D D D D D D D D D D D D D D D D D D D D D D D D D D D D D D D D D D D D D D D D D D D D D D D K K K K A l e e 9 e 9 e ( f.k.p.k.p.f.:.K D D D D D D D D D D D D D D D D D D D D D D D D D D D D D D D D D D D D D D D D D D ",
"5 9 9 d 9 e 1 :.p.0.0.6.w.y.( l A A A A A A A A A A A A A A A A A A A A A A A A A A A A A A A A K K l 9 9 e e e 5 B f.0.6.<.6.0.0.B A A B P D B A A A A A A A A A A A A A A A A A A A A A A A A A A A A A A A A A A A A A A A A A A A A A A A A A A A A A A A A D B e 9 9 9 t 9 > 6.p.0.0.6.y.w.^ A A D A A D A A A A A A A A A A A A A A A A A A A A A A A A A A A A A A A A A A A A A A A A A A A A A A A A A A A A A A A A A A A A A A A A A b 9 t 9 e e 5 D p.6.0.w.0.p.6.b A A A A A A A A A A A A A A A A A A A A A A A A A A A A A A A A A A A A A A A A A A A A A A A A A A A A A A A A A A A A A A A A A A A A A A A A A A A A A A A A A D A D D h 5 5 e t 9 9 l f.0.6.6.6.6.0.b A D D A A A A A A A A A A A A A A A A A A A A A A A A A A A A A A A A A A A A A A A A A A A A A A A A A A A A A A A A A B A D b 9 1 5 t e 9 9 <.y.y.6.w.y.p.^ b D B K A A A A A A A A A A A A A A A A A A A A A A A A A A A A A A A A A A A A A A A A A A A A A A A A A A A A A A A A A A A A A A A A A A A A A A A A K K b 9 9 e e t 9 d f.0.6.6.6.6.y.K B A B D A A A A A A A A A A A A A A A A A A A A A A A A A A A A A A A A A A A A A A A A A A A A A A A A A A A A A A A A A A A A A A A A A A P d 5 9 e t e 5 W w.0.w.y.0.y.:.B B A A A A A A A A A A A A A A A A A A A A A A A A A A A A A A A A A A A A A A A A A A A A A A A A A A A A A A A A A A A A A A A A A A A A A A A A A A A A A A B A A A A A d 5 t 9 t 9 5 P w.0.6.y.6.p.$.l B B A A A A A A A A A A A A A A A A A A A A A A A A A A A A A A A A A A A A A A A A ",
"5 e 9 t 5 d > &.y.0.w.6.w.p...D D D D D D D D D D D D D D D D D D D D D D D D D D D D D D D D D A D l 9 9 e e e 9 B v.6.w.w.p.p.w.b D K B P D A D D D D D D D D D D D D D D D D D D D D D D D D D D D D D D D D D D D D D D D D D D D D D D D D D D D D D D D D D B e 9 e 9 t 9 9 y.p.0.w.<.y.w.( D B D D A D A D D D D D D D D D D D D D D D D D D D D D D D D D D D D D D D D D D D D D D D D D D D D D D D D D D D D D D D D D D D D D D D D l 5 t e e e 1 D p.6.y.y.6.f.0.B D D D D D D D D D D D D D D D D D D D D D D D D D D D D D D D D D D D D D D D D D D D D D D D D D D D D D D D D D D D D D D D D D D D D D D D D D D D D D D D D D D D K K l e e 9 9 9 t b k.0.y.p.y.w.p.B K D A D D D D D D D D D D D D D D D D D D D D D D D D D D D D D D D D D D D D D D D D D D D D D D D D D D D D D D D D D A D K B t 9 e 9 e 9 5 6.y.p.w.6.0.p.^ B W A K D D D D D D D D D D D D D D D D D D D D D D D D D D D D D D D D D D D D D D D D D D D D D D D D D D D D D D D D D D D D D D D D D D D D D D D D A D l 9 9 e e e e t f.6.0.w.y.y.y.D A K A A A D D D D D D D D D D D D D D D D D D D D D D D D D D D D D D D D D D D D D D D D D D D D D D D D D D D D D D D D D D D D D D D D D K d 9 e e e e 5 ^ p.w.w.y.0.p.:.A A D D D D D K D D D D D D D D D D D D D D D D D D D D D D D D D D D D D D D D D D D D D D D D D D D D D D D D D D D D D D D D D D D D D D D D D D D D D D D D A D D A D D l 9 e 9 d e 9 ^ f.w.6.w.<.p.:.B K P D D D D D D D D D D D D D D D D D D D D D D D D D D D D D D D D D D D D D D D D ",
"9 d 9 9 1 l 1 &.p.y.p.0.w.w.( B A A A A A A A A A A A A A A A A A A A A A A A A A A A A A A A A A D l e e t 9 9 5 l f.:.0.w.w.0.0.b P W B K A D A A A A A A A A A A A A A A A A A A A A A A A A A A A A A A A A A A A A A A A A A A A A A A A A A A A A A A A A D B e e t e t 1 9 6.0.0.p.6.y.y.( D B D D A D A A A A A A A A A A A A A A A A A A A A A A A A A A A A A A A A A A A A A A A A A A A A A A A A A A A A A A A A A D A A A A A A D l 1 d e t e > D y.6.y.w.:.y.0.A A A A A A A A A A A A A A A A A A A A A A A A A A A A A A A A A A A A A A A A A A A A A A A A A A A A A A A A A A A A A A A A A A A A A A A A A A A A A A A A A D D A A D h 9 t d e e d l y.<.f.p.0.6.y.B K D B A A A A A A A A A A A A A A A A A A A A A A A A A A A A A A A A A A A A A A A A A A A A A A A A A A A A A A A A K A A D b e 9 t 9 t t 5 6.0.w.w.w.w.f.^ B W b B A A A A A A A A A A A A A A A A A A A A A A A A A A A A A A A A A A A A A A A A A A A A A A A A A A A A A A A A A A A A A A A A A A A A A A A A B D b e e t e 9 t e f.6.w.p.y.w.w.D D W A A D D A A A A A A A A A A A A A A A A A A A A A A A A A A A A A A A A A A A A A A A A A A A A A A A A A A A A A A A A A A A A A A A A D d e t e 9 9 5 ( f.w.0.0.<.y.&.B A A D A A D D A A A A A A A A A A A A A A A A A A A A A A A A A A A A A A A A A A A A A A A A A A A A A A A A A A A A A A A A A A A A A A A A A A A A A A A A D K A B A A l 9 t 9 d e 1 W p.0.y.p.:.y.&.l A A A A A A A A A A A A A A A A A A A A A A A A A A A A A A A A A A A A A A A A A A ",
"e 9 9 e e e 5 &.y.w.w.y.6.p.' B D D D D D D D D D D D D D D D D D D D D D D D D D D D D D D D D A K l 5 e t 9 e 9 b f.6.y.0.w.w.0.B K A D D A D D D D D D D D D D D D D D D D D A A D D D D D D D D D D D D D D D D D D D D D D D A D D D A A D D D D D D D D D D D 5 e 9 e 9 e 9 <.y.y.0.y.0.y.^ B D D A K A D D D D D D D D D D D D D D D D D D D D D D D D D D A D D D A A D D D D D D D D D D D D D D D D D D D D D D D D D A D A D A A D D h 5 t 9 e t 5 A p.w.w.0.y.0.0.D D D D D D A D D D D D D D D D D D D D D D D D D D D D D D D D D D D D D D D D A D A D D D D D D D D D D D D D D D D D D D D D A A A D D D D D D D D D D D D D D D D A D D l 9 e 9 e e 5 B p.0.w.0.w.y.6.D A D D D D D D D D D D D D D D A A D D D A D D D D D D D D D D D D D D D D D A D D D D A D D D D D D D D D D D D D D D D D D A A 9 t 9 e 9 e e 6.w.y.0.w.0.p.W A D A D D D D D D D D D D D D D A D D D D A D D D D D D D D D D D D D D D D D D D D D D D D D D D D D D D D D A D D D D A D D D D D D D D D D D D D D D A D B 5 e 9 t 9 9 h y.0.y.0.y.0.w.K A D A D A D D D D D D D D D D D D D D D D D D A D D D A A D D D D D D D D D D D D D D D D D D A D D D A D D D D D A D D D D A D D D D D D D K t 9 t 9 e e 1 ^ p.w.0.y.0.w.:.B D D D A D D D D D D D D D D D D D D D D D D D D D D D A D D D D A D D D D D D D D D D D D D D D D D D D D D D D D D D D D D A D D D A D D D D A D D D D D D D D A A D B K t e 9 t 9 t 1 W y.w.0.y.w.w.<.b K A D D D D D D D D D D D D D D D D D D D D D D D D D A D D D A A D D D D D D D D D ",
"e 9 9 e e e 5 &.y.w.w.y.6.p.' B D D D D D D D D D D D D D D D D A D D D D D D D D D D D D D D D A K l 5 e t 9 e 9 b f.6.y.0.w.w.0.B K A D D A D D A D D D D D D D D D D D D D D D D D D D A D D A D D D D D D D D D D D D D D D D A D D D D D D A A D D D D D D D D 5 e 9 e 9 e 9 6.y.y.0.y.0.y.^ B D D A K A D D D D D D D D D A D D D D D D D D D D D D D D D D A D D D D D D A A D D D D D D D D D A D D D D D D D D A A D D A D D D A A D D h 5 t 9 e t 5 A p.w.w.0.y.0.0.D D D D D D D D D D D A A D D D D D D D D A D D D D D D D D D D D D D D D D D D A D D D D D D A A D D D D D D D D A D D D D D D A D D D D D D A A D D D D D D D D A D A D D l 9 e 9 e e 5 B p.0.w.0.w.y.6.D A D D D D D D D D D D D D D D D D D D D A D D D A D D D D D D D D D D D D D A D D D D A D D D D D D D D D D D D D D D D D D A A 9 t 9 e 9 e e 6.w.y.0.w.0.p.W A D A D D D D D D D D D D D D D A D D D D D D D D A A D D D D D D D D D D D D D D D D D D D D D D D A D D D D A D D D D A D D D D D D D D D D D D D D D A D B 5 e 9 t 9 9 h y.0.y.0.y.0.w.K A D A D A D A D D D D D D D D D D D D D D D D A D D D D D D A A D D D D D D D D D D D D D D D A D D D D D D D D D A D D D D A D D D D D D D K t 9 t 9 e e 1 W p.w.0.y.0.w.:.B D D D A D D D D D D D D D D D D D D D D D D D D D D D A D D D D D D D D A A D D D D D D D D D D D D D D D D D D D D D D D D A D D D A D D D D A D D D D D D D D A A D B K t e 9 t 9 t 1 W y.w.0.y.w.w.<.b K A D D D D D D D D A D D D D D D D D D D D D D D D D A D D D D D D A A D D D D D D ",
"e 9 9 e e e 5 &.y.w.w.y.6.p.' B D D D D A D D D D A D D D D A A D D D D D D D A D A D D D D D D A K l 5 e t 9 e 9 b f.6.y.0.w.w.0.B K A D D A D D A D D D D D D D D D D D D D D D D D D D D D D D D D D D D D A D A D D D D D D D D D D D D D D D D D D D D D A D D 5 e 9 e 9 e 9 6.y.y.0.y.0.y.^ B D D A K A D D A D D A D D D D D D D D D D A D A D D D D D D D D D D D D D D D D D D D D D A D D D D A A D D D D D A D D D D A D D D A A D D h 5 t 9 e t 5 A p.w.w.0.y.0.0.D D D D D D D D D D D D D A D D D D D A A A D D D D D D D D D A A A D D D D D D D D D D D D D D D A D D D D D A D A D D D D D D D D D D D D D D D A D D D D D A A A D A D D l 9 e 9 e e 5 B p.0.w.0.w.y.6.D A D D D D D D D D D D D D D D D D D D D D D D D A D D D D D D D D D D D D D D D D D D D D D D A D D D D D D D D D D D D D D A A 9 t 9 e e e e 6.w.w.0.w.0.p.W A D A D D D A D D D D D A A D D D D D D D D D D D D D D D D A D D D D D D D D D D D D D D D D D D D A D D D D D D D D D D D D D A D D D D A A D D D D A A D B 5 e 9 t 9 9 h y.0.y.0.y.0.w.K A D A D A D D D D D D D D A D A D D D D D D D D D D D D D D D D D D D D D A D D D D D D D D D D D D D D D D D D D D D D D D D D D D A D D D K t 9 t 9 e e 1 W p.w.0.y.0.w.:.B D D D A D D D D D A D D D D D D D A D D D D D A A D D D D D D D D D D D D D D D D A D D D D D D D D D D D A A A D D D D D D D D D D D D D D D D D D D A D D D D A A D B K t e 9 t 9 t 1 W y.w.0.y.w.w.<.b K A D D D D D D D D D D D D D D D A D A D D D D D D D D D D D D D D D D D D D D D A ",
"e 9 9 e e e 5 &.y.w.w.y.6.p.' B D D D A A A D D D D D D D D D D D D D D D D D A D A D D D D D A A K l 5 e t 9 e 9 b f.6.y.0.w.w.0.B K A D D A D D D D D D D A A D D A D D D D D D D D D D D D D D D D D D D D A D A D D D D D A D D D D D D D D D D D D D D D A D D 5 e 9 e 9 e 9 6.y.y.0.y.0.y.^ B D D A K A D D D D D D D D D D D D D D D D A D A D D D D D A D D D D D D D D D D D D D D D A D D D D D D D D D D D D D D D D A D D D A A D D h 5 t 9 e t 5 A p.w.w.0.y.0.0.D D D D D D D D D D D D D A D D D D D D D D D D D D D D D D D A D D D D D D D D D D D D D D D D D A D D D D D D D D D D D D D D D D D D D D D D D D D D D D D D D D D A D D l 9 e 9 e e 5 B p.0.w.0.w.y.6.D A D D D D D D D A A D D D D D D D D D D D D D D D D D D D A A D A A D D D D D D D D D D D D D A D D D D D D D A A D D D D D A A 9 t 9 e e e e 6.w.y.0.w.0.p.W A D A D D D A D D D D A D D D D D D D D D D D D D D D D D D D D D D A A D D D D A A A D D A D D D D D D D D D D D D D D D D D D A D D D D D D D D D D D A D B 5 e 9 t 9 9 h y.0.y.0.y.0.w.K A D A D A D D D D D D D D A D A D D D D D A D D D D D D D D D D D D D D D A D A D D D D D A D D D D D D D D D D D D D D D D D D D D A D D D K t 9 t 9 e e 1 W p.w.0.y.0.w.:.B D D D A D D D D D D D D D A A D D A D D D D A D D D D D D D D D D D D D D D D D D D D D D A A D D D D D D A D D D D D D D D D D D D D D D D D D D D D A D D D D A A D B K t e 9 t 9 t 1 W y.w.0.y.w.w.<.b K A D D D D D D D D D D D D D D D A D A D D D D D A D D D D D D D D D D D D D D D A ",
"e 9 9 e e e 5 &.y.w.w.y.6.p.' B D D D D D D D D D D D D D D D D D D D D D D A A D D A A D D D D A K l 9 e t 9 e 9 b f.6.y.0.w.w.0.B K A D D A D D D D D D D D D D D D D D D A A D D A A D A A D D D D D D D A A D D A A D D D D D D D D D D D A D D D D D D D A D D 5 e 9 e 9 e 9 6.y.y.0.y.0.y.^ B D D A K A D D D D D A D D D D D D D D D A A D D A A D D D D D D D D D D D A D D D D D D D A D D D D D D D D D D D D D D D D A D D D A A D D h 5 t 9 e t 1 A p.w.w.0.y.0.0.D D D D D D D D D D D D D D D D D D D D D D D D D D D D D A D D D A A D D D D D D A D D D D D D D D D D D A A D D D A D D D D D D D D D D D D D D D D D A A D D D D D A D D l 9 e 9 e e 5 B p.0.w.0.w.y.6.D A D D D D D D D D D D D D D A D D D D D D D D D D D D D D D D D D D D D D A D D D D D D D D D D D D D A D D D D D D D D D D A A 9 t 9 e e e e 6.w.w.0.w.0.p.W A D A D D A A D D D D A D D D D D D D D D D D D D D D D D A A D D D D D D D D D D D D D D D D D D D D D D D A D D D D D D D D D D D D D D D D D D D D D A D B 5 e 9 t 9 9 h y.0.y.0.y.0.w.K A D A D A D D D D D D D A A D D A A D D D D D D D D D D D A D D D D D D D A D D A D D D D A D D A D D D A A D D A D D D D D D D D D D D D D K t 9 t 9 e e 1 W p.w.0.y.0.w.:.B D D D A D D D D A A D D D D D D A A D D D D A D D D D D D D D D D D D D D D D D A A D D D D D D D D D A D D D A A D D D D D D D D A D D D D D D D D D D D D D D A A D B K t e 9 t 9 t 1 W y.w.0.y.w.w.<.b K A D D D D A D D D D D D D D D A A D D A A D D D D D D D D D D D A D D D D D D D A ",
"e 9 9 e e e 5 &.y.w.w.y.6.p.' B D D D D A D D D D D D D D D D D D A D D D D D D D D D D D D D D A K l 9 e t 9 e 9 b f.6.y.0.w.w.0.B K A D D A D D D D D D D D A D D A A D D D D D D D D D D D D D A D D D D D D D D D D D D D D D D A D D D D A D D D D D D D D D D 5 e 9 e 9 e 9 <.y.y.0.y.0.y.^ B D D A K A D D D D D D D D D D A D D D D D D D D D D D D D D D D A D D D D A D D D D D D D D D D D D D D D D D D D D D D D D A D D D A A D D h 5 t 9 e t 5 A p.w.w.0.y.0.0.D D D D D D D D D D D D D D D D D D D D D D D D D D D D D D D D D D D D D D D A D A D D D D A A D D D D D D D D D D D D D D D A D A A D D D D A D D D D D D D D D D D A D D l 9 e 9 e e 5 B p.0.w.0.w.y.6.D A D D D D D D D D D D D D D D D D D D D D D D D D D D D D D D D D D D D D A D A D D D D A D D A D D D A D D D D D D D D D D A A 9 t 9 e e e e 6.w.y.0.w.0.p.W A D A D D D D D D D D D D D D D A A D D D D D D D D D D D D D D D D D D D D D D D A D D A D D D D D D D D D A D A D D D D A D D A D D D D D D D D D D D A D B 5 e 9 t 9 9 h y.0.y.0.y.0.w.K A D A D A D D A D D D D D D D D D D D D D D D D A D D D D A D D D D D D D D D D A D D D D D D D A D D D D D D D A D A D D D D A D D A D D D K t 9 t 9 e e 1 W p.w.0.y.0.w.:.B D D D A D D D D D D D D D D D D D D D D D D D D D D D A A D D D D D D D D D D D D D D D D D D D D D D D D D D D D D D D D A D D D A D A D D D D A D D A D D D D A A D B K t e 9 t 9 t 1 W y.w.0.y.w.w.<.b K A D D D D D D D D D A D D D D D D D D D D D D D D D D A D D D D A D D D D D D D D ",
"e 9 9 e e e 5 &.y.w.w.y.6.p.' B D D D D D D D D A A D D D D D D D A D D D D D D D D D D D D D D A K l 9 e t 9 e 9 b f.6.y.0.w.w.0.B K A D D A D A D D D D D D D D D D D D D D D D D D D D D D D D A D D D D D D D D D D D D D D D D D D D D D D A A D D D D D D D D 5 e 9 e 9 e 9 6.y.y.0.y.0.y.^ B D D A K A D D D A D D D D D D A D D D D D D D D D D D D D D D D D D D D D D A A D D D D D D D D D D D D D D D D D D D D D D A D D D A A D D h 5 t 9 e t 5 A p.w.w.0.y.0.0.D D A D D D D A D D D D D D D D D D D D D D D D D D D D D D D D D D D D D D D A D D D D D D D D D D D D D D D D D D D D D D D A D D D D D D D D D D D D D D D D D D D A D D l 9 e 9 e e 5 B p.0.w.0.w.y.6.D A D D D D D D A A D D D D D D D A D D A D D D D D D D D D D D D A D D D D D D D D D D D D D D A D D D D D D D D D D D D D D A A 9 t 9 e e e e 6.w.y.0.w.0.p.W A D A D D D D D D D D D A D D D D D D D D D D D A D D D D D D D D D D D D D D D D D D D A D D D D D D A D D D D D D D D D D D D A D D D A A D D D D D D A D B 5 e 9 t 9 9 h y.0.y.0.y.0.w.K A D A D A D D A D D D D D D D D D D D D D D D D D D D D D D A A D D D D D D D D D D D D D D D D D D D D D D D D D D D D D D D D D D A D D D K t 9 t 9 e e 1 ^ p.w.0.y.0.w.:.B D D D A D D D D D D D D D D D D D D D D D D D A D D D D D D D D D D D A D D D D D D D D D D D D D D D D D D D D D D D D D A D D D D D D D D D D D D D A D D D D A A D B K t e 9 t 9 t 1 W y.w.0.y.w.w.<.b K A D D A A D D D D D A D D D D D D D D D D D D D D D D D D D D D D A A D D D D D D ",
"e 9 9 e e e 5 &.y.w.w.y.6.p.' B D D D D D D D D D D D D D D A A D D D D D D D D D D D D D D D D A K l 9 e t 9 e 9 b f.6.y.0.w.w.0.B K A D D A D A D D D D D D D D D D D D D D D D D D D D D D D D D D D D D D D D D D D D D D D D D D D D D D D D D D D D D D D D D 5 e 9 e 9 e 9 6.y.y.0.y.0.y.^ B D D A K A D D D A D D D D D D D D D D D D D D D D D D D D D D D D D D D D D D D D D D D D D D D D A A D D D D D D A A D D D A D D D A A D D h 5 t 9 e t 5 A p.w.w.0.y.0.0.D D D D D D D A A D D A A D D D D D D D A D D D D D D D D D D D D D D D D D D D D D D D D D D D D D D D D D D D D D D D D D D D D D D D D D D D D D D D D D D D D D D A D D l 9 e 9 e e 5 B p.0.w.0.w.y.6.D A D D A D D D D D D D D D D D D A D D A D D D D A D D A A D D D D D D D D D D D D D D D D D D D D D D D D D D D D D D D D D A A 9 t 9 e e e e 6.w.y.0.w.0.p.W A D A D D D D D D D D D D D D D D D D D D D A A A D D D D D D D D D D D D D D D D D D D D D D D D D D A D D D D D D D D D D D D D D D D D D D D D D A A A D B 5 e 9 t 9 9 h y.0.y.0.y.0.w.K A D A D A D D D D D D D D D D D D D D D D D D D D D D D D D D D D D D D D D D D D D D D D D D D D D D D D D D D D D D D D D D D D D D D D D K t 9 t 9 9 e 1 ^ p.w.0.y.0.w.:.B D D D A D D D D D D D D D D D D D D D D D D D D D D D D D D D D D A A A D D D D D D D D D D D D D D D D D D D D D D D D D D D D D D D D D D D D D D D D D D D D A A D B K t e 9 t 9 t 1 W y.w.0.y.w.w.<.b K A D D A D D D D D D D D D D D D D D D D D D D D D D D D D D D D D D D D D D D D D ",
"e 9 9 e e e 5 &.y.w.w.y.6.p.' B D D A D D D D A D D A D D D D D D D D D D D D D D D D D D D D D A K l 9 e t 9 e 9 b f.6.y.0.w.w.0.B K A D D A D D D D D D D D D D D D D D D D D D D D D D D D D D D D D D D D D D D D D D D D D D D D D D D D D D D D D D D D D D D 5 e 9 e 9 e 9 6.y.y.0.y.0.y.^ B D D A K A D D D D D D D D A D D D D D D D D D D D D D D D D D D D D D D D D D D D D D D D D D D D D D D D D D D D D D D D D A D D D A A D D h 5 t 9 e t 5 A p.w.w.0.y.0.0.D D D D D D D D D D D D D D D D D D D D D D D D A D D D D D D D D D D D D D D D D D D D D D D D D D D D D D D D D D D D D D D D D A D D D D D D D D D A D D D D A D D A D D l 9 e 9 e e 5 B p.0.w.0.w.y.6.D A D D A D D D D D D D D D D D D A A D A A D D D D D D D D D D A D D D D D D D D D D D D D D D D D D D D D D D D D A D D D D A A 9 t 9 e e e e 6.w.y.0.w.0.p.W A D A D D D D D D D D D D D D D D D D D D D D D D D D D D D A D D D A A D D A A D D D D D D D D D D D D D D D D D D D D D D D D D D D D D D D D D D D D A D B 5 e 9 t 9 9 h y.0.y.0.y.0.w.K A D A D A D D D D D D D D D D D D D D D D D D D D D D D D D D D D D D D D D D D D D D D D D D D D D D D D D D D D D D D D D D D D D D D D D K t 9 t 9 e e 1 ^ p.w.0.y.0.w.:.B D D D A D D D D D A D D D A A D D D D D D D D D D D D D D D D D D D D D D D D D D A D D D A A D D D D D D D D D D D D D D D D D D D D D D D D D D D D D D D D D A A D B K t e 9 t 9 t 1 W y.w.0.y.w.w.<.b K A D D D D D D D A D D D D D D D D D D D D D D D D D D D D D D D D D D D D D D D D ",
"e 9 9 e e e 5 &.y.w.w.y.6.p.' B D D A D D D D D D D D D D D D D D D D D A D D D D D D D D D D D A K l 9 e t 9 e 9 b f.6.y.0.w.w.0.B K A D D A D D D D D D D D D D D D D D D D D D D D D D D D D D D D D A D D D D D D D D D D D D D D D D D D A D D D D D D D D D D 5 e 9 e 9 e 9 6.y.y.0.y.0.y.^ B D D A K A D A D D D D D D D D D D D A D D D D D D D D D D D D D D D D D D A D D D D D D D D A A D D D D D D D D D D D D A A A D D D A A D D h 5 t 9 e t 5 A p.w.w.0.y.0.0.D D D D D D D D D D A D D D A D D D D D D D D D A D D D A D D D D D D D D D D D D D D D D D D D D D D D D D D D D D D D D D D D D D D D D D D D D D A A D D D D D D D A D D l 9 e 9 e e 5 B p.0.w.0.w.y.6.D A D D D D D D D D D D D D A A D D D D D D D D D A A D D D D D A D D D D A D D D D D D D D D D D D D D A A D D D D D D D D D A A 9 t 9 e e e e 6.w.y.0.w.0.p.W A D A D D D D D D D A A D D D D D D D D D D A A D D D D D D A D D D D D D D D D D D D A D D A D D D D D D A D D D D D D D D D D D D D D D D D D D D D D A D B 5 e 9 t 9 9 h y.0.y.0.y.0.w.K A D A D A D D D D D A D D D D D D D D D D D D D D D D D D A D D D D D D D D D D D D D D D D D D D D D D D D D A D D D D D D D D D D D D D D K t 9 t 9 e e 1 ^ p.w.0.y.0.w.&.B D D D A D D D D D A D D D D D D D D D D D A A D D D D D D D D D D A A D D D D D D A D D D D D D D D A D D D D D D D D D D D D D A D D D D D D D D D D D D D D D A A D B K t e 9 t 9 t 1 W y.w.0.y.w.w.<.b K A D D D D D D D A D D D D A D D D D D D D D D D D D D D D D D D A D D D D D D D D ",
"e 9 9 e e e 5 &.y.w.w.y.6.p.' B D D D D D D D D D D D D D D D D D D A D A D D D A A D D D D D D A K l 5 e t 9 e 9 b f.6.y.0.w.w.0.B K A D D A D D D D D D D A A D D D D D D D D D A A D D D D A D D A D A D D D A A D D D D D D D D A A D D D D D D D D D D D D D D 5 e 9 e 9 e 9 6.y.y.0.y.0.y.^ B D D A K A D A D D D D D D D D D A D A D D D A A D D D D D D D D A A D D D D D D D D D D D D D D D D A A D D D D A A D D D D A D D D A A D D h 5 t 9 e t 5 A p.w.w.0.y.0.0.D A A D D D D D D D D D D D A D D D D D A D D D D D D D A D D A D D D D A D A D D D D D D D D D D D D D D D A D D D D D D D D D D D D D D A D D D D D D D D D D D D D A D D l 9 e 9 e e 5 B p.0.w.0.w.y.6.D A D D D D D D D D D D D D D D D D D D D D D D D D D D D D D D D D D D D A D D D D D D D D D D D D D D D D D D D D D D D D D A A 9 t 9 e e e e 6.w.y.0.w.0.p.W A D A D D D D D D D D D A D D D D A D D D D D D A D D D D D D D D D D D D D D D D D D D D D D D A D D D D A D D D D D D D D D D D D D D A D D D D D A A A D B 5 e 9 t 9 9 h y.0.y.0.y.0.w.K A D A D A D D D A D A D D D A A D D D D D D D D A A D D D D D D D D D D D D D D D D D D D D D D A D D D D D D A D D D D D D D D D D D D D D K t 9 t 9 e e 1 ^ p.w.0.y.0.w.:.B D D D A D D D D D D D D D D D D D D D D D D D A D D D D A D D D D D D A D D D D D D D D D D D D D D A D D A D D D D A D A D D D A D D D D D D D D D D D D D D D A A D B K t e 9 t 9 t 1 W y.w.0.y.w.w.<.b K A A D D D D D D D D D A D A D D D A A D D D D D D D D A A D D D D D D D D D D D D ",
"e 9 9 e e e 5 &.y.w.w.y.6.p.' B D D D D D D D D D D D D A D D D D D D D D D D D D D D D D D D D A K l 5 e t 9 e 9 b f.6.y.0.w.w.0.B K A D D A D D D D D D D A D D D D A D D D D D D D D D D D D D D D D D D D D D D D D D D D D D D D D D D D D A D D D D A A D D D 5 e 9 e 9 e 9 6.y.y.0.y.0.y.^ B D D A K A D D D D D D D D D D D D D D D D D D D D D D D D D D D D D D D D D A D D D D A A D D D D D D D D D D D D D D D D D A D D D A D D D h 5 t 9 e t 5 A p.w.w.0.y.0.0.D D D D D D D D D D D D D D D D D D D D D D D D D D D D D D D D D D D D D D A D D D A D D A A D D A A D D D D D D D D A A D D D D D D D D A D D D D D D D D D D D D D A D D l 9 e 9 e e 5 B p.0.w.0.w.y.6.D A D D D D D D A A D D D D D D D D D D D D D D D D D D D D D D D D D D D D D D D D A A D D D A D D D D D D D D D D D D D D D A A 9 t 9 e e e e 6.w.y.0.w.0.p.W A D A D A D D D D D D D A D D D D D D D D D D D A D D D D D D D D D D D D D D D D D D D D D D D A D D D D D D D D D A A D D D A D D D D A D D D D D D D A D B 5 e 9 t 9 9 h y.0.y.0.y.0.w.K A D A D A D D D D D D D D D D D D D D D D D D D D D D D D D A D D D D A A D D D A D D D D A D D A D D D D A D D D D D D A A D D D A D D D D K t 9 t 9 e e 1 ^ p.w.6.w.0.w.:.B D D D A D D D D D D D D D D D A D D D D D D D A D D D D D D D D D D D A D D D D D D D D D D D D D D D D D D D D D D D D A D D D D D D D D A A D D D A D D D D D A A D B K t e 9 t 9 t 1 W y.w.0.y.w.w.<.b K A D D D D D D D D D D D D D D D D D D D D D D D D D D D D D D D D A D D D D A A D ",
"e 9 9 e e e 5 &.y.w.w.y.6.p.' B D D D D D D D D D D D D A D D D D D D D D D D D D D D D A A A D A K l 5 e t 9 e 9 b f.6.y.0.w.w.0.B K A D D A D D D D D A D D D D D D D D D D A D D D D D D D D D D D D D D D D D D D D A A A D D D D D D D D D A D D D D A D D D D 5 e 9 e 9 e 9 6.y.y.0.y.0.y.^ B D D A K A D D A D D D D D D D D D D D D D D D D D D A A A D D D D D D D D D A D D D D A D D D D D D D D D D D D D D D D D D A D D D A A D D h 5 t 9 e t 1 A p.w.w.0.y.0.0.D D D D D A A A D D D D D D D D D D D D D D D D D D D D A D D D D D D D D D D D D D D D D D D D D D D D D D D A D D D D D D D A A D A D D D D D D D D D D D D D D D D A D D l 9 e 9 e e 5 B p.0.w.0.w.y.6.D A D D D A D D D D D D D D D D D D D D D D D D D D D D D D D D D A D D D D D D D D D D D A D D D D D D D D D D D D D A D D D A A 9 t 9 e e e e 6.w.y.0.w.0.p.W A D A D A D D D D D D D D D D D D D D D D D D D D D D D D D D D A A D D D D D D D D D D D D D D D D D D D D D D D D D D D A D D D D D D D D D D A D D D A D B 5 e 9 t 9 9 h y.0.y.0.y.0.w.K A D A D A D D D D D D D D D D D D D A A A D D D D D D D D D A D D D D A D D D A D D D D D A D D D D D D D D D D D D D D D D D A D D D D D D K t 9 t 9 e e 1 ^ p.w.6.y.0.w.:.B D D D A D D D D D D D A A D D A D D D D D D D D D D D D D D D D D D D D D D D D D D D A A D D D D D A D D D D D D D D D D D D D D D D D D D D D A D D D D D D D A A D B K t e 9 t 9 t 1 W y.w.0.y.w.w.<.b K A A A D D D D D D D D D D D D D D D D D D A A A D D D D D D D D D A D D D D A D D ",
"e 9 9 e e e 5 &.y.w.w.y.6.p.' B D D D D D D D D D D D D D D D D D D D D D D D D D D D D A A D D A K l 5 e t 9 e 9 b f.6.y.0.w.w.0.B K A D D A D D D D D D D D D A A D D D D D A D D D D D D D D D D D D D D D D D D D D A A D D D D D D D D A A D D D D D A D D D D 5 e 9 e 9 e 9 <.y.y.0.y.0.y.^ B D D A K A D D A D D D D A A D D D D D D D D D D D D A A D D D D D D D D A A D D D D D A D D A D D D D D D D D D D D D D D A A D D D A A D D h 5 t 9 e t 5 A p.w.w.0.y.0.0.D D D D D A A D D A D D D D D D D D D D D D D A A D D D A D D D D D D D D D D D D D D D D D D D D D D D D D D D D D D A A D D D D D A D D A D D D D D D D D D D D D D A D D l 9 e 9 e e 5 B p.0.w.0.w.y.6.D A D D D D D D A A D D D D D D D D D D D D D D D D D D D D D A D A D D D D D D D D D A A A D D D D D D D A A D D D D A D D D A A 9 t 9 e e e e 6.w.y.0.w.0.p.W A D A D A D D D D D D D D D D D D D D D D D D D D D D D D D D D A A D D D D A D D D D D D D D D D D D D D D D D D D D A A A D D D D D D D D D D D D D D A D B 5 e 9 t 9 9 h y.0.y.0.y.0.w.K A D A D A D D D D D D D D D D D D D A A D D D D D D D D A A D D D D D A D D D A D D D D D D D D D D D D D D D D D D D D D A A A D D D D D D K t 9 t 9 e e 1 ^ p.w.6.y.0.w.:.B D D D A D D D D D D D A A D D A D D D D D D D D D D D D D D D D D D D D D D D D D D D A A D D D D D A D D D D D D D D D D D D D D D D D D D A A A D D D D D D D A A D B K t e 9 t 9 t 1 W y.w.0.y.w.w.<.b K A D D D D D D A D D D D D D D D D D D D D A A D D D D D D D D A A D D D D D A D D ",
"e 9 9 e e e 5 &.y.w.w.y.6.p.' B D D A A D D D D D D A D D D D D D D D A D D D D A D D D D D D D A K l 5 e t 9 e 9 b f.6.y.0.w.w.0.B K A D D A D D D D D D D D D D D D D D D D D A A D D D D D D D D D A D D D D A D D D D D D D D D D A D D D D D D D D D D D D D D 5 e 9 e 9 e 9 6.y.y.0.w.0.y.^ B D D A K A D D D D D D D D D D D D A D D D D A D D D D D D D D D D A D D D D D D D D D D D D D D D D A D D D D D D D D D D A A D D D A A D D h 5 t 9 e t 5 A p.w.w.0.y.0.0.D A D D D D D D D A D D D D D D D D D D A D D D D D D D D D D D A D D D D A D D D D D A D D D D D D D D D D D D D D D D D D D D D D D D D A D D D D D D A D D D D D D A D D l 9 e 9 e e 5 B p.0.w.0.w.y.6.D A D D D D D D D D D D D D A D D D D D D D D D A D D D D D D D D D D D A D D D D D D D D D D D D D D D D D D D D D D D D D D A A 9 t 9 e e e e 6.0.y.0.w.0.p.W A D A D D D D D D D A A D D D D D D A D D D D D D D D D D D D D A D D D D D A D D D A D D D D D D D D D A D D D D D D D D D D D D D D D D D D D D D D D A D B 5 e 9 e 9 9 h y.0.y.0.y.0.w.K A D A D A D D D D A D D D D A D D D D D D D D D D A D D D D D D D D D D D D D D D D D D D D D A D D D D D D A D D D D D D D D D D D D D D D K t 9 t 9 e e 1 ^ p.w.0.y.0.w.:.B D D D A D D D D D D D A D D D D D D D D D A A D D D D D D A D D D D D D D D D D D D D A D D D D D D D D D D A D D D D A D D D A D D D D D D D D D D D D D D D D A A D B K t e 9 t 9 t 1 W y.w.0.y.w.w.<.b K A D D D D D D A D D D D A D D D D A D D D D D D D D D D A D D D D D D D D D D D D ",
"e 9 9 e e e 5 &.y.w.w.y.6.p.' B D D D D D A A D D D A D D D D D D D D A D D D D A D D D D D D D A K l 9 e t 9 e 9 b f.6.y.0.w.w.0.B K B D D A D D D D D D D D D D D D D D D D D D D D D D D A A D D D A D D D D A D D D D D D D D D D A D D D D D D D D D D D D D D 5 e 9 e 9 e 9 6.y.y.0.w.0.y.^ B D D A K A D D D D D D D D D D D D A D D D D A D D D D D D D D D D A D D D D D D D D D D D D D D D D A D D D D D D A D D D D A D D D A A D D h 5 t 9 e t 5 A p.w.w.0.y.0.0.D A D D D D D D D D D D D A A D D D D D A D D D D D D D D D D D A D D D D A D D D D D A D D D A A D D D D D D D D D D D D D D D D D D D D D D D D D D D D D D D D D D A D D l 9 e 9 e e 5 B p.0.w.0.w.y.6.D A D D D D D D D D D D D D D D D D A A D D A D A D D D D D D D D D D D A D D D D D D D D D D D D D D D D D D D D D D D D D D A A 9 t 9 e 9 e e 6.0.w.0.w.0.p.W A D A D D D D D D D D D D A A D D D A D D D D A D D D D D D D D D D D D D D D D D D A D D D A A D D D D A D D D D D D D D D D D D D D D D D D D D D D D A D B 5 e 9 t 9 9 h y.0.y.0.y.0.w.K A D A D A D D D D A D D D D A D D D D D D D D D D A D D D D D D D D D D D D D D D D D D D D D A D D D A A D A D D D D D D D D D D D D D D D K t 9 t 9 e e 1 ^ p.w.0.y.0.w.:.B D D D A D D D D D D D D D D D D D D D D D D D D A A D D D A D D D D A D D D D D D D D D D D D D D D D D D D A D D D D A D D D A D D D D D D D D D D D D D D D D A A D B K t e 9 t 9 t 1 W y.w.0.y.w.w.<.b K A D D D D D D D D D D D A D D D D A D D D D D D D D D D A D D D D D D D D D D D D ",
"e 9 9 e e e 5 &.y.y.w.w.y.0.' B A A A A A A A A A A B B A A A A A A A A A A B B A A A A A A A A K A h e 5 5 9 e = D p.<.y.y.y.y.w.A d ^ B A K b A A A A A A A A A B B B A A A A A A B B A A A A A A A A A A A B A A A A A A A A A A A A A A A A A A A A A A A A b K = t 9 e 9 t 9 6.0.y.w.w.w.w.P K A B A A A A A A B B A A A A A A A A A A B B A A A A A A A A A A A A A A A A A A A A A A A A A A A A A A A A A A A A A A A A A A B B A B B K b > t t 9 e 9 B y.w.w.w.w.p.:.D A A A A A A A A A A A A A A A A A A A A A A A A A A B B A A A A A A A A A A B B A A A A A A A A A A A A A A A B A A A A A A A A A A A A A A A A A A A A A A A A A B A b W l 1 d e t e 5 B p.0.w.0.y.y.:.W B B A A A A A A A A A A A A A A A A A A A B B B A A A A A A A A A A B A A B A A A A A A A A A A A B B A A A A A A A A A A B B P 1 t 9 e e e e 6.w.y.w.0.p.w.( A A D A A A A A A A A A A A B B A A A A A A A A A A B B A A A A A A A A A A B B B A A A A A A A A A B B A A A A A A A A A A A A A A B B A A A A A A A A B K B 1 h e 9 t 9 d y.6.w.0.y.0.0.( B A D A B D A A A A A A B B A A A A A A A A A A A A A A A A A A A A A A A A A A B B B A A A A A A A A A B B A A A A A A A A A A A A A A B B D e 9 t e t t 1 ^ f.6.y.w.0.6.:.A A A A A A B B A A A A A A A A A A A A A A A A A A B B A A A A A A A A A A B B A A A A A A A A A A B B A A A A A A A A A A B B A A A A A A A A A A A A A A B B D A D A B P 9 e e t 5 e 1 W y.0.y.0.w.y.$.D b K A A A A A A A A A A A A A A B B A A A A A A A A A A A A A A A A A A A A A A A A ",
"e 9 9 e e e 5 &.y.w.0.0.y.p.w.:.6.6.6.6.6.6.6.6.6.6.6.6.6.6.6.6.6.6.6.6.6.6.6.6.6.6.6.6.6.6.6.6.0.6.<.:.:.:.<.6.6. .B e b b h e b &.w.y.$.:.<.<.6.6.6.6.6.6.6.6.6.6.6.6.6.6.6.6.6.6.6.6.6.6.6.6.6.6.6.6.6.6.6.6.6.6.6.6.6.6.6.6.6.6.6.6.6.6.6.6.6.6.6.6.6.6.6.6.<.:.9 t 5 e 9 t 9 0.0.y.w.w.y.w.w.0.6.<.6.6.6.6.6.6.6.6.6.6.6.6.6.6.6.6.6.6.6.6.6.6.6.6.6.6.6.6.6.6.6.6.6.6.6.6.6.6.6.6.6.6.6.6.6.6.6.6.6.6.6.6.6.6.6.6.6.6.6.6.6.0.6.6.0.6.<.w.D 5 t t 9 e 9 B p.y.w.w.w.p.w.&.6.6.6.6.6.6.6.6.6.6.6.6.6.6.6.6.6.6.6.6.6.6.6.6.6.6.6.6.6.6.6.6.6.6.6.6.6.6.6.6.6.6.6.6.6.6.6.6.6.6.6.6.6.6.6.6.6.6.6.6.6.6.6.6.6.6.6.6.6.6.6.6.6.6.6.6.6.6.6.6.<.:.6.&.0.P 5 e 9 e e 5 B p.0.w.0.w.y.w.6.<.<.0.6.6.6.6.6.6.6.6.6.6.6.6.6.6.6.6.6.6.6.6.6.6.6.6.6.6.6.6.6.6.6.6.6.6.6.6.6.6.6.6.6.6.6.6.6.6.6.6.6.6.6.6.6.6.6.6.<.<.<.$.$.5 t e e e e e 6.0.w.0.0.y.y.:.&.:.6.<.6.6.6.6.6.6.6.6.6.6.6.6.6.6.6.6.6.6.6.6.6.6.6.6.6.6.6.6.6.6.6.6.6.6.6.6.6.6.6.6.6.6.6.6.6.6.6.6.6.6.6.6.6.6.6.6.6.6.6.6.6.6.6.6.6.6.6.6.6.6.6.6.6.0.( 9 d e e t 9 h y.0.y.0.y.0.p.<.:.6.w.0.6.0.6.6.6.6.6.6.6.6.6.6.6.6.6.6.6.6.6.6.6.6.6.6.6.6.6.6.6.6.6.6.6.6.6.6.6.6.6.6.6.6.6.6.6.6.6.6.6.6.6.6.6.6.6.6.6.6.6.6.6.6.6.6.6.6.<.A e e 9 e t 1 ^ f.0.y.y.w.w.6.6.6.6.6.6.6.6.6.6.6.6.6.6.6.6.6.6.6.6.6.6.6.6.6.6.6.6.6.6.6.6.6.6.6.6.6.6.6.6.6.6.6.6.6.6.6.6.6.6.6.6.6.6.6.6.6.6.6.6.6.6.6.6.6.6.6.6.6.6.6.6.6.6.6.6.6.6.6.6.6.6.6.0.6.<.0.b t e t 5 t 1 ^ y.0.w.0.w.p.w.:.&.6.6.6.6.6.6.6.6.6.6.6.6.6.6.6.6.6.6.6.6.6.6.6.6.6.6.6.6.6.6.6.6.6.6.6.6.6.6.6.6.6.",
"e 9 9 e e e 5 &.w.w.0.6.0.w.y.y.w.w.w.w.w.w.w.w.w.w.w.w.w.w.w.w.y.w.w.y.w.w.w.w.w.w.w.w.w.w.w.w.y.y.y.y.y.y.y.y.k.$.1 5 e 9 e e 5 f.v.0.0.f.y.p.w.w.w.w.w.w.w.w.w.w.w.w.w.w.w.w.w.w.w.w.w.w.w.w.w.w.w.y.w.w.w.w.w.w.w.w.w.w.w.w.w.w.w.w.w.w.w.w.w.w.w.w.w.w.w.w.f.0.9 e 5 t 9 t 9 6.0.y.0.0.w.0.p.y.w.w.y.y.y.w.w.w.w.w.w.w.w.w.y.w.w.y.w.w.w.w.w.w.w.w.w.w.w.w.w.w.w.w.w.w.w.w.w.w.w.w.w.w.w.w.w.w.w.w.w.w.w.w.w.w.w.w.w.w.w.w.w.y.w.w.y.w.w.f.W 9 e e 9 e 9 A p.0.w.w.0.w.p.y.w.w.w.w.w.w.w.w.w.w.w.w.w.w.w.w.w.w.w.w.w.w.w.w.w.w.w.w.w.w.w.w.y.w.w.y.w.w.w.w.w.w.w.w.w.w.w.w.y.w.w.w.w.w.w.w.w.w.w.w.w.w.w.w.w.w.w.w.w.w.w.w.w.w.w.w.w.w.w.w.y.y.k.p.k.( 9 9 9 e e 5 B p.0.w.0.0.0.w.y.p.p.p.w.w.w.w.w.w.w.w.w.w.w.w.w.w.w.w.w.w.w.w.w.w.w.w.y.w.w.w.w.w.w.w.w.w.w.w.w.w.w.w.y.w.w.y.w.w.w.w.w.w.w.w.w.w.w.w.p.p.p.y.6.5 e t e e e e 6.w.y.0.w.w.w.w.y.p.p.y.w.w.w.w.w.w.w.w.w.w.w.w.w.w.w.w.y.w.w.y.w.w.w.w.w.w.w.w.w.w.w.w.w.w.w.w.w.w.w.w.y.w.w.y.w.w.w.w.w.w.w.w.w.w.w.w.y.w.w.y.w.w.w.w.w.w.w.w.w.w.w.w.p.k...5 e 9 e t 9 d y.6.w.0.w.6.0.0.w.y.y.w.w.y.y.w.w.y.w.w.w.w.w.w.w.w.w.w.w.w.w.w.w.w.w.w.w.w.w.w.w.w.w.w.w.w.w.w.w.w.w.w.w.w.y.w.w.y.w.w.w.w.w.w.w.w.w.w.w.w.y.w.w.y.w.w.w.w.f.D 5 9 9 e t 9 ^ p.6.y.w.w.y.0.y.w.w.y.w.w.w.w.w.w.w.w.w.w.w.w.w.w.w.w.w.w.w.w.w.w.w.w.w.w.w.w.y.w.w.y.w.w.w.w.w.w.w.w.w.w.w.w.w.w.w.w.w.w.w.w.y.w.w.y.w.w.w.w.w.w.w.w.w.w.w.w.y.w.w.y.w.w.w.w.w.0.w.y.y.p.b 5 e t 9 t 5 ^ p.w.w.0.0.w.y.y.y.p.w.w.w.w.w.w.w.w.y.w.w.y.w.w.w.w.w.w.w.w.w.w.w.w.w.w.w.w.w.w.w.w.w.w.w.w.w.w.w.w.",
"e 9 9 e e e 5 &.w.y.w.w.0.0.0.0.0.0.0.0.0.0.0.0.0.0.0.0.0.0.0.0.0.0.0.0.0.0.0.0.0.0.0.0.0.0.0.0.0.w.w.w.0.0.6.<.0.:.1 l e 1 9 e d p.6.:.0.y.6.0.0.0.0.0.0.0.0.0.0.0.0.0.0.0.0.0.0.0.0.0.0.0.0.0.0.0.0.0.0.0.0.0.0.0.0.0.0.0.0.0.0.0.0.0.0.0.0.0.0.0.0.0.0.0.0.0.w.:.1 9 9 d 9 e 9 0.0.y.0.0.w.0.w.0.0.w.w.w.w.0.0.0.0.0.0.0.0.0.0.0.0.0.0.0.0.0.0.0.0.0.0.0.0.0.0.0.0.0.0.0.0.0.0.0.0.0.0.0.0.0.0.0.0.0.0.0.0.0.0.0.0.0.0.0.0.0.0.w.0.0.w.0.6.y.^ 9 e e 9 e 9 B y.0.w.y.w.6.w.w.0.0.0.0.0.0.0.0.0.0.0.0.0.0.0.0.0.0.0.0.0.0.0.0.0.0.0.0.0.0.0.0.0.0.0.0.0.0.0.0.0.0.0.0.0.0.0.0.0.0.0.0.0.0.0.0.0.0.0.0.0.0.0.0.0.0.0.0.0.0.0.0.0.0.0.0.0.0.0.0.0.6.y.6.p.W 9 t e t e 5 B p.0.w.w.0.0.0.0.0.0.6.0.0.0.0.0.0.0.0.0.0.0.0.0.0.0.0.0.0.0.0.0.0.0.0.0.0.0.0.0.0.0.0.0.0.0.0.0.0.0.0.0.0.0.0.0.0.0.0.0.0.0.0.0.0.0.0.0.0.w.w.6.1 9 t e e e e 6.w.p.w.y.0.0.w.y.w.w.0.0.0.0.0.0.0.0.0.0.0.0.0.0.0.0.0.0.0.0.0.0.0.0.0.0.0.0.0.0.0.0.0.0.0.0.0.0.0.0.0.0.0.0.0.0.0.0.0.0.0.0.0.0.0.0.0.0.0.0.0.0.0.0.0.0.0.0.0.0.0.0.0.6.y. .1 9 e e 9 9 d y.6.w.0.w.6.w.y.y.w.0.0.0.0.0.0.0.0.0.0.0.0.0.0.0.0.0.0.0.0.0.0.0.0.0.0.0.0.0.0.0.0.0.0.0.0.0.0.0.0.0.0.0.0.0.0.0.0.0.0.0.0.0.0.0.0.0.0.0.0.0.0.0.0.0.0.0.0.y.b > e t e e 9 ^ p.6.w.w.w.y.w.0.0.0.0.0.0.0.0.0.0.0.0.0.0.0.0.0.0.0.0.0.0.0.0.0.0.0.0.0.0.0.0.0.0.0.0.0.0.0.0.0.0.0.0.0.0.0.0.0.0.0.0.0.0.0.0.0.0.0.0.0.0.0.0.0.0.0.0.0.0.0.0.0.0.0.0.0.0.0.0.w.0.0.0.w.p.B 9 e t 9 t 5 ^ p.w.w.0.0.6.0.w.w.6.0.0.0.0.0.0.0.0.0.0.0.0.0.0.0.0.0.0.0.0.0.0.0.0.0.0.0.0.0.0.0.0.0.0.0.0.0.0.0.0.",
"e 9 9 e e e 5 &.w.w.y.y.p.y.y.w.w.w.w.w.w.w.y.y.w.w.w.w.w.w.w.w.w.w.w.w.w.w.w.w.w.w.w.w.w.w.y.y.w.w.w.w.w.w.w.w.y.6.# h e 9 e 1 e w.w.f.w.0.y.w.w.w.w.w.w.w.w.w.w.w.w.w.w.w.y.y.w.w.w.w.w.w.w.w.w.w.w.w.w.w.w.w.w.w.w.w.w.w.y.y.w.w.w.w.w.w.w.w.w.w.w.w.w.w.w.w.0.<.9 t e t 5 9 e 0.w.p.w.w.w.w.y.y.y.y.y.y.y.y.w.w.w.w.w.w.w.w.w.w.w.w.w.w.w.w.w.w.w.w.w.w.y.y.w.w.w.w.w.w.w.w.w.w.w.w.w.w.w.w.w.w.w.w.w.w.w.w.w.w.w.w.w.w.w.w.w.y.w.w.y.w.w.p.^ 5 9 e e t 9 B p.0.w.p.w.0.0.0.w.w.w.w.w.w.y.y.w.w.w.w.w.w.w.w.w.w.w.w.w.w.w.w.w.w.w.w.w.w.w.w.w.w.w.w.w.w.w.w.w.w.w.w.w.w.w.w.w.w.w.w.w.w.w.w.w.w.w.w.w.w.w.w.w.w.w.w.w.w.w.w.w.w.w.w.w.w.y.y.y.0.w.6.y.P 5 t e t e 5 B p.6.0.y.w.w.w.w.w.w.w.w.w.w.w.w.w.w.w.w.w.w.w.w.w.w.w.w.w.w.w.w.w.w.w.w.w.w.w.w.w.w.w.w.w.w.w.w.w.w.w.w.w.w.w.w.w.w.w.w.w.w.w.w.w.y.y.y.0.w.w.0.1 9 t e e e e 6.w.y.w.w.0.0.w.y.w.w.y.w.w.w.w.w.w.y.y.w.w.w.w.w.w.w.w.w.w.w.w.w.w.w.w.w.w.w.w.w.w.y.y.w.w.w.w.w.w.w.w.w.w.w.w.w.w.w.w.w.w.w.w.w.w.w.w.w.w.w.w.w.w.w.w.w.w.w.w.w.w.w.w.6.p.$.9 t t t 9 e h y.0.y.0.y.0.w.y.y.0.0.y.y.y.w.w.w.w.w.w.w.w.w.w.w.w.w.w.y.y.w.w.w.w.w.w.w.w.w.w.w.w.w.w.w.w.w.w.w.w.w.w.w.w.w.w.w.w.w.w.w.w.w.w.w.w.w.w.w.w.w.w.w.w.w.w.w.w.y.B 5 d d e 9 5 ( f.0.y.w.w.y.w.w.w.w.w.w.w.w.w.w.w.w.w.w.w.y.y.w.w.w.w.w.w.y.y.w.w.w.w.w.w.w.w.w.w.w.w.w.w.w.w.w.w.w.w.w.w.y.y.w.w.w.w.w.w.w.w.w.w.w.w.w.w.w.w.w.w.w.w.w.w.w.w.w.w.w.w.w.w.w.w.p.y.y.0.0.p.B e t t 9 t 1 W y.0.0.w.w.0.0.w.w.0.w.w.w.w.w.w.w.w.w.w.w.w.w.w.w.w.w.w.w.w.w.w.y.y.w.w.w.w.w.w.w.w.w.w.w.w.w.w.w.w.",
"e 9 9 e e e 5 &.y.0.0.w.y.y.w.w.0.0.0.0.0.0.0.0.0.0.0.0.0.0.0.0.0.0.0.0.0.0.0.0.0.0.0.0.0.0.0.0.w.0.0.0.0.0.0.0.w.<.= d t d l e e w.y.f.6.0.k.6.0.0.0.0.0.0.0.0.0.0.0.0.0.0.w.0.0.0.0.0.0.0.0.0.0.0.0.0.0.0.0.0.0.0.0.0.0.0.0.0.0.0.0.0.0.0.0.0.0.0.0.0.0.0.0.0.y.6.9 t 9 t 9 e 9 6.0.y.0.0.w.0.0.0.0.0.0.0.0.0.0.0.0.0.0.0.0.0.0.0.0.0.0.0.0.0.0.0.0.0.0.0.0.0.0.0.0.0.0.0.0.0.0.0.0.0.0.0.0.0.0.0.0.0.0.0.0.0.0.0.0.0.0.0.0.0.0.w.0.0.w.0.0.y.W 1 9 t e e 5 B f.0.6.w.0.0.w.0.0.0.0.0.0.0.0.0.0.0.0.0.0.0.0.0.0.0.0.0.0.0.0.0.0.0.0.0.0.0.0.0.0.0.0.0.0.0.0.0.0.0.0.0.0.0.0.0.0.0.0.0.0.0.0.0.0.0.0.0.0.0.0.0.0.0.0.0.0.0.0.0.0.0.0.0.0.0.0.0.w.0.y.0.p.W 5 e e t e 5 B y.6.0.0.0.0.w.0.w.w.w.0.0.0.0.0.0.0.0.0.0.0.0.0.0.0.0.0.0.0.0.0.0.0.0.0.0.0.0.0.0.0.0.0.0.0.0.0.0.0.0.0.0.0.0.0.0.0.0.0.0.0.0.0.0.0.0.y.0.0.w.6.5 9 e e e e e <.0.w.6.w.0.w.w.0.0.0.y.0.0.0.0.0.0.0.0.0.0.0.0.0.0.0.0.0.0.0.0.0.0.0.0.0.0.0.0.0.0.0.0.0.0.0.0.0.0.0.0.0.0.0.0.0.0.0.0.0.0.0.0.0.0.0.0.0.0.0.0.0.0.0.0.0.0.0.0.0.0.0.0.0.f...5 e t t e 5 d w.6.w.0.y.0.6.0.w.w.w.w.0.6.0.0.0.0.0.0.0.0.0.0.0.0.0.0.0.0.0.0.0.0.0.0.0.0.0.0.0.0.0.0.0.0.0.0.0.0.0.0.0.0.0.0.0.0.0.0.0.0.0.0.0.0.0.0.0.0.0.0.0.0.0.0.0.0.p.A 5 t t 9 e 9 ^ p.6.w.0.0.w.0.0.0.0.0.0.0.0.0.0.0.0.0.0.0.0.0.0.0.0.0.0.0.0.0.0.0.0.0.0.0.0.0.0.0.0.0.0.0.0.0.0.0.0.0.0.0.0.0.0.0.0.0.0.0.0.0.0.0.0.0.0.0.0.0.0.0.0.0.0.0.0.0.0.0.0.0.0.0.0.0.0.0.w.6.6.y.b 5 e t 9 t 1 W y.0.6.w.y.w.0.0.w.w.0.0.0.0.0.0.0.0.0.0.0.0.0.0.0.0.0.0.0.0.0.0.0.0.0.0.0.0.0.0.0.0.0.0.0.0.0.0.0.0.",
"e 9 9 e e e 5 &.p.w.0.0.0.0.0.w.w.w.w.w.w.w.w.w.w.w.w.w.w.w.w.w.w.w.w.w.w.w.w.w.w.w.w.w.w.w.w.w.y.y.y.w.w.0.0.0.0.&.5 d e 5 9 5 h p.<.0.6.0.f.<.w.w.w.w.w.w.w.w.w.w.w.w.w.w.w.w.w.w.w.w.w.w.w.w.w.w.w.w.w.w.w.w.w.w.w.w.w.w.w.w.w.w.w.w.w.w.w.w.w.w.w.w.w.w.w.w.y.<.5 9 5 t 9 e 9 6.0.y.0.0.w.w.w.w.w.w.w.w.w.w.w.w.w.w.w.w.w.w.w.w.w.w.w.w.w.w.w.w.w.w.w.w.w.w.w.w.w.w.w.w.w.w.w.w.w.w.w.w.w.w.w.w.w.w.w.w.w.w.w.w.w.w.w.w.w.w.w.y.w.w.y.w.w.f.W 1 9 t e e 5 A p.0.0.w.6.0.y.w.w.w.w.w.w.w.w.w.w.w.w.w.w.w.w.w.w.w.w.w.w.w.w.w.w.w.w.w.w.w.w.w.w.w.w.w.w.w.w.w.w.w.w.w.w.w.w.w.w.w.w.w.w.w.w.w.w.w.w.w.w.w.w.w.w.w.w.w.w.w.w.w.w.w.w.w.w.w.w.w.w.6.y.w.f.W 5 e 9 e e 5 B p.0.w.0.0.0.0.0.0.0.6.w.w.w.w.w.w.w.w.w.w.w.w.w.w.w.w.w.y.w.w.w.w.w.w.w.w.y.w.w.w.w.w.w.w.w.w.w.w.w.w.w.w.w.w.w.w.w.w.w.w.w.w.w.w.w.w.0.0.w.0.6.5 e 9 e e e e 6.w.y.w.w.y.y.w.0.0.0.0.w.w.w.w.w.w.w.w.w.w.w.w.w.w.w.w.w.w.w.w.w.w.w.w.w.w.w.w.w.w.w.w.w.y.w.w.w.w.w.w.w.w.w.w.w.w.w.w.w.w.w.w.w.w.w.w.w.w.w.w.w.w.w.w.w.w.w.w.w.w.w.w.w.p. .1 9 9 e t 5 t w.6.w.0.y.0.y.y.p.p.p.w.w.w.w.w.w.w.w.w.w.w.w.w.w.w.w.w.w.w.w.w.w.w.w.w.w.w.w.w.w.w.w.w.w.w.w.y.w.w.w.w.w.w.w.w.w.w.w.w.w.w.w.w.w.w.w.w.w.w.w.w.w.w.w.w.w.w.y.A 1 9 e e t 9 W p.0.y.0.0.w.w.w.w.w.w.w.w.w.w.w.w.w.w.w.w.w.w.w.w.w.w.w.w.w.w.w.w.w.w.w.w.w.w.w.w.w.w.w.w.w.w.w.w.w.w.w.w.w.w.w.w.w.w.w.w.w.w.w.w.w.w.w.w.w.w.w.w.w.w.w.w.w.w.w.w.w.w.w.w.w.w.0.w.y.w.w.f.A 5 e t 5 t 5 ^ p.w.w.w.w.w.w.0.0.0.w.w.w.w.w.w.w.w.w.w.w.w.w.w.w.w.w.w.w.w.w.w.w.w.w.w.w.w.w.w.w.w.w.w.w.w.w.w.w.w.",
"e 9 9 e e e 5 &.f.p.f.f.p.y.y.f.p.p.p.p.p.p.p.p.p.p.p.p.p.p.p.p.p.p.p.p.p.p.p.p.p.p.p.p.p.p.p.p.y.y.y.p.p.p.p.p.k.$.1 t t e e t d k.6.f.k.0.y.f.p.p.p.p.p.p.p.p.p.p.p.p.p.p.p.p.p.p.p.p.p.p.p.p.p.p.p.p.p.p.p.p.p.p.p.p.p.p.p.p.p.p.p.p.p.p.p.p.p.p.p.p.p.p.p.p.p.6.5 e 9 d 9 5 e w.y.p.y.y.p.p.p.p.p.p.y.y.p.p.p.p.p.p.p.p.p.p.p.p.p.p.p.p.p.p.p.p.p.p.p.p.p.p.p.p.p.p.p.p.p.p.p.p.p.p.p.p.p.p.p.p.p.p.p.p.p.p.p.p.p.p.p.p.p.p.p.p.y.y.p.y.y.k.^ 5 9 t e 9 5 A y.y.f.f.w.y.p.y.p.p.p.p.p.p.p.p.p.p.p.p.p.p.p.p.p.p.p.p.p.p.p.p.p.p.p.p.p.p.p.p.p.p.p.p.p.p.p.p.p.p.p.p.p.p.p.p.p.p.p.p.p.p.p.p.p.p.p.p.p.p.p.p.p.p.p.p.p.p.p.p.p.p.p.p.p.p.p.p.f.y.f.y.k.W 5 t e t e 9 D k.y.p.f.p.y.y.p.f.p.y.p.p.p.p.p.p.p.p.p.p.p.p.p.p.p.p.p.p.p.p.p.p.p.p.p.p.p.p.p.p.p.p.p.p.p.p.p.p.p.p.p.p.p.p.p.p.p.p.p.p.p.p.p.p.p.p.y.p.k.p.0.9 e 9 9 9 e t w.p.k.f.y.p.p.p.p.f.f.y.p.p.p.p.p.p.p.p.p.p.p.p.p.p.p.p.p.p.p.p.p.p.p.p.p.p.p.p.p.p.p.p.p.p.p.p.p.p.p.p.p.p.p.p.p.p.p.p.p.p.p.p.p.p.p.p.p.p.p.p.p.p.p.p.p.p.p.p.p.p.p.p.f.k.$.e d e e e e h p.w.p.y.f.y.y.w.y.p.y.w.y.k.p.p.p.p.p.p.p.p.p.p.p.p.p.p.p.p.p.p.p.p.p.p.p.p.p.p.p.p.p.p.p.p.p.p.p.p.p.p.p.p.p.p.p.p.p.p.p.p.p.p.p.p.p.p.p.p.p.p.p.p.p.p.p.p.f.K 9 9 e t e > ( k.y.f.p.y.f.p.p.p.p.p.p.p.p.p.p.p.p.p.p.p.p.p.p.p.p.p.p.p.p.p.p.p.p.p.p.p.p.p.p.p.p.p.p.p.p.p.p.p.p.p.p.p.p.p.p.p.p.p.p.p.p.p.p.p.p.p.p.p.p.p.p.p.p.p.p.p.p.p.p.p.p.p.p.p.p.p.p.p.y.w.w.k.A 1 9 e 5 t 5 ( f.y.f.y.y.p.p.p.p.f.p.p.p.p.p.p.p.p.p.p.p.p.p.p.p.p.p.p.p.p.p.p.p.p.p.p.p.p.p.p.p.p.p.p.p.p.p.p.p.p.",
"d e 9 e 9 5 t B D A A A D D D D A A A A A A A A D D D D D D A A B A A D D D D K A A A A D D K K A A A A A A A A D b t 9 9 e e 9 h b D K K D D K A A A A A A A A A A A A A A A A D D D D D A A A A B A K K D D K A A A D D D D D A A A A A A A A A A A A A A A A D b t 9 9 9 e e h B K P K D D K A A A A A A A A A A A A A A A A A A A A A A A A D D D D D A A A A A D D D D K P D D A A D D D A A A A A A A A A A A A A A A A A A A A A A A A A d t e e e e t d A A A A A A A A A A A A A A A A A A A A A A A A A A A A A A A A A D A A A A A A A A A A A A A A D D D D A A D D K D D K K D A B K D D D D D D D A A A A A A A A A A A A A A A A D K P K D b t 9 e 9 9 e l B D D A A A A A A A A A A A A A A A A A A A A A A A A A A A A A A A A D D D D D D D D A A A D D D A A A A A A A A A A A A A A A A A A A D D A b d e 5 t e e d B D D A A A A A A A A A A A A A A A A A A A A A A A A A A A A A A A A A A A A A A A A A D D D D D D A A K D D A A A D D A A A A A D D K A A A A A A A A A A A A A A A A K A b d e 9 9 9 e h B K K D D D A A A A A A A A A A A A A A A A A A A A A A A A D D D D D A A A D A B A D A D P D A A A D D D D A A A A A A A A A D A A A A A A A A A A A A A A A l e 9 e t e 1 A A A A A A D D A A A A A A A A A A A A A A A A A A A A A A A A A A A A A A A A A A A A A A A A D D D D D D D D A D D D D A A A A D D D D D D D A D A A A A A A A A A A A A A A D A A D K A h 9 e 9 5 9 t l A K A A A A A A A A A A A A A A A A A A A A A A A A A A A A A A A A K K D D D D D D D A A D D A A K ",
"e 9 e t e 9 9 t 9 9 5 5 5 5 5 1 5 5 5 5 5 5 5 5 1 1 1 5 5 5 5 1 e 9 9 5 5 5 1 1 9 9 9 5 5 5 5 5 5 5 5 5 5 5 5 5 e 9 5 9 e t e 9 > 5 9 9 5 1 5 5 5 5 5 5 5 5 5 5 5 5 5 5 5 5 5 5 5 5 5 5 5 5 5 5 e 5 5 5 5 > > 1 5 5 5 5 5 5 5 5 5 5 5 5 5 5 5 5 5 5 5 5 5 5 5 5 e 9 5 9 e t e e > 5 9 9 5 1 5 5 5 5 5 5 5 5 5 5 5 5 5 5 5 5 5 5 5 5 5 5 5 5 5 5 1 5 5 5 5 5 5 5 9 9 5 5 5 1 1 > 9 9 5 5 5 5 5 1 5 5 5 5 5 5 5 5 5 5 5 5 5 5 5 5 5 5 5 5 5 5 5 5 e 9 9 5 5 9 9 e 5 5 5 5 5 5 5 5 5 5 5 5 5 5 5 5 5 5 5 5 5 5 5 5 5 5 5 5 5 5 5 5 5 5 5 5 5 5 5 5 5 5 5 5 5 5 5 5 5 5 5 5 5 5 5 5 5 5 5 5 5 5 9 e 5 5 5 5 5 5 5 5 5 5 5 5 5 5 5 5 5 5 5 5 5 5 5 5 1 1 1 5 5 5 9 9 t e 5 5 9 e 9 9 5 5 5 5 5 5 5 5 5 5 5 5 5 5 5 5 5 5 5 5 5 5 5 5 5 5 5 5 5 5 5 5 5 5 5 5 5 5 5 5 9 9 9 9 9 9 9 5 1 1 5 1 5 5 5 5 5 5 5 5 5 5 5 5 1 5 9 9 9 9 9 9 t e 5 9 e e 9 1 5 5 5 5 5 5 5 5 5 5 5 5 5 5 5 5 5 5 5 5 5 5 5 5 5 5 5 5 5 5 5 5 5 5 5 5 5 5 5 5 5 5 5 5 5 5 5 5 1 1 5 5 5 5 5 5 9 9 9 9 9 5 5 5 5 5 5 5 5 5 5 5 5 5 5 5 5 5 5 5 9 9 5 5 5 9 9 e 5 9 9 9 1 1 1 5 5 5 5 5 5 5 5 5 5 5 5 5 5 5 5 5 5 5 5 5 5 5 5 5 5 5 5 5 5 5 5 5 9 5 5 9 5 1 > 1 9 9 5 5 5 5 5 5 5 5 5 5 5 5 5 5 5 5 5 5 5 5 5 5 5 5 5 5 5 5 5 5 e 9 5 5 9 e e e 1 1 5 5 5 5 5 5 5 5 5 5 5 5 5 5 5 5 5 5 5 5 5 5 5 5 5 5 5 5 5 5 5 5 5 5 5 5 5 5 5 5 5 5 5 5 5 5 1 1 1 1 1 5 5 5 9 9 5 5 5 5 9 9 5 5 5 5 5 5 9 9 5 5 5 5 5 5 5 5 5 5 5 5 5 5 5 5 5 1 > 1 9 9 9 5 9 9 9 9 9 5 5 5 5 5 5 5 5 5 5 5 5 5 5 5 5 5 5 5 5 5 5 5 5 5 5 5 5 5 5 5 5 5 5 5 > > > 1 1 1 1 1 9 5 5 9 9 5 1 5 ",
"9 e e t e e 9 9 9 9 e e e e e e e e e e e e e e e t t t t t t t 9 9 9 e t d d t e e e t t t t t e e e e e e e e 9 9 e t d d t e t d d t e 9 e t e e e e e e e e e e e e e e e e t t e e e t t t e 9 9 e e e t d 9 9 e e e e t t e e e e e e e e e e e e e e e e 9 9 e t d d t e t d t t e 9 e t e e e e e e e e e e e e e e e e e e e e e e e e e e t t t t t e 9 9 9 e t d d t e e e e e e t t e e e e e e e e e e e e e e e e e e e e e e e e t t e e e e t t e e e e e e e e e e e e e e e e e e e e e e e e e e e e e e e e e e e e e e e e e e e e e e e e e e t t t t e e e e e e 9 9 e t e e e e e e e e e e e e e e e e e e e e e e e e e e 9 9 e t d h d t e e e e e 9 e e e e e e e e e e e e e e e e e e e e e e e e e e e e e e e e t t t t t t t t t e e e e e e e e e e e e e e e e e e e e e e e 9 9 9 9 e e t t t t e e e e 9 5 e e e e e e e e e e e e e e e e e e e e e e e e e e e e e e e e e e e e e e e e t t t t t t t t e e t t t e e 9 e e e t t e e e e e e e e e e e e e e e e e e e 9 9 e e e t t t d d t e 9 9 e d e e e e e e e e e e e e e e e e e e e e e e e e t t e e e t t t 9 9 9 t t t t d 9 9 e e e e e t e e e e e e e e e e e e e e e e e e e e e e e e e e t t t t t t e e e e e t t t e e e e e e e e e e e e e e e e e e e e e e e e e e e e e e e e e e e e e e e e t t t t e e t t t t e e e e e e e e e e e e t t e e e e e e e e e e e e e e e e d t e 9 e t t t e t d d t e 9 5 e e e e e e e e e e e e e e e e e e e e e e e e e e e e e e e e d d d d d d d d e 9 e t t e e e ",
"e e e 9 e t t e 9 e t t e e t t e e e e e e e e t t t t t e e e e e e e 9 9 9 9 9 e e e t t t t e e e e e e e e e e e 9 9 9 9 9 e e e e 9 e e t e e e e e e e e e e e e e e e e t t e e e e e e t t e e e 9 9 9 e e t t e e t t e e e e e e e e e e e e e e e e t e 9 9 9 9 9 9 t e e e e e t t e e e e e e e e e e e e e e e e e e e e e e e e e e e e e e 9 9 t t t t e e 9 9 e e t e e e e e e e e e e e e e e e e e e e e e e e e e e e e e 9 9 9 9 9 9 9 9 e e e e e e e e e e e e e e e e e e e e e e e e e e e e e e e e e e e e e e e e e e e e e e e e e t t t e e e 9 e e t t t t e e e e e e t e e e e e e e e e e e e e e e e e e e t t t e e e 9 9 9 9 9 e t t t t e e e e e e e e e e e e e e e e e e e e e e e e e e e e e e e e 9 9 9 9 9 9 9 9 e e e e e e e e e e e e e e e e e e e e e e e e d t t e 9 9 9 e 9 9 e e e e t t e e e e e e e e e e e e e e e e e e e e e e e e e e e e e e e e e e e e e e e e e e e e e e t t e e e 9 9 e e t e e e e e e t t e e e e e e e e e e e e e e e e e e e e e 9 5 5 9 9 e e e e e t e e e e e e e e e e e e e e e e e e e e e e e e t t e e e e e e d t e 9 9 9 9 e e e e e e e e e e e e e e e e e e e e e e e e e e e e e e e e e 9 e t t 9 5 5 5 e e e e e e e e e e e e e e e e e e e e e e e e e e e e e e e e e e e e e e e e e e e e e e e e t t t t t e e e 9 e t t t t e 9 t e e e e e 9 9 e e e e e e e e e e e e e e e e e t t t e 9 9 9 9 9 9 e e e t t e e e e e e e e e e e e e e e e e e e e e e e e e e e e e e e e e e e e e 9 9 9 e e 9 e t t t t ",
"e e e 9 e t t e t t t e 9 9 9 e 9 9 9 9 9 9 9 9 5 5 9 9 9 5 5 5 5 9 e e 9 9 9 e e e e e e 9 9 9 9 9 9 9 9 9 9 9 e e e 9 9 9 e t 5 9 9 9 9 9 e e 9 9 9 9 9 9 9 9 9 9 9 9 9 9 9 9 9 9 9 9 9 9 9 9 5 9 9 9 9 9 9 5 e t t e 9 9 9 9 9 9 9 9 9 9 9 9 9 9 9 9 9 9 9 9 t e 9 9 9 e t t 9 9 5 9 e e e 9 9 9 9 9 9 9 9 9 9 9 9 9 9 9 9 9 9 9 9 9 9 9 9 9 9 9 9 9 9 9 9 9 5 9 e e 9 9 9 e e t t e 9 5 9 9 9 9 9 9 9 9 9 9 9 9 9 9 9 9 9 9 9 9 9 9 9 9 9 9 9 9 e e e e 9 9 9 9 9 9 9 9 9 9 9 9 9 9 9 9 9 9 9 9 9 9 9 9 9 9 9 9 9 9 9 9 9 9 9 9 9 9 9 9 9 9 9 9 9 9 9 9 9 9 9 9 9 9 9 9 9 9 e e 9 e t d t e 9 9 9 9 9 9 9 9 9 9 9 9 9 9 9 9 9 9 9 9 9 9 9 9 9 9 e e e e 9 9 e e e e e e e e 9 9 9 9 9 9 9 9 9 9 9 9 9 9 9 9 9 9 9 9 9 9 9 9 9 9 9 9 9 9 9 9 t t t t t t t t e e e e e t t t 9 9 9 9 9 9 9 9 9 9 9 9 9 9 9 9 e e e e e 9 9 9 e e t t e e e t 9 9 9 9 9 9 9 9 9 9 9 9 9 9 9 9 9 9 9 9 9 9 9 9 9 9 9 9 9 9 9 9 9 9 9 9 9 9 9 9 9 9 9 9 9 9 9 9 5 5 5 9 9 e e e t t e e e e e e 9 9 9 9 9 9 9 9 9 9 9 9 9 9 9 9 e e e e e e e e 9 9 e e e e 9 9 9 9 9 9 9 9 9 9 9 9 9 9 9 9 9 9 9 9 9 9 9 9 9 9 9 9 9 9 9 9 9 9 9 9 9 5 5 9 9 9 t t t t e 9 e e 9 9 9 9 9 9 9 9 9 9 9 9 9 9 9 9 9 9 9 9 9 9 9 9 e e e e e e e e 9 9 9 9 9 9 9 9 9 9 9 9 9 9 9 9 9 9 9 9 9 9 9 9 9 9 9 9 9 9 9 9 9 9 9 9 9 9 9 9 9 9 9 9 9 9 9 9 9 9 9 9 9 9 9 9 5 9 e e t t t t e 9 9 e e e 9 9 9 9 9 9 9 9 9 9 9 9 9 9 9 9 9 9 5 9 e t e e 9 9 t e e 9 9 9 e t 9 9 9 9 9 9 9 9 9 9 9 9 9 9 9 9 9 9 9 9 9 9 9 9 9 9 9 9 9 9 9 9 t t t t t t e e t e e 9 e e e e ",
"9 e e t e e 9 9 e e 9 9 e e e e t t t t t t t t e e e t t t t t 9 e t t t t t d e e e e e t t t t t t t t t t t e e t t t e e e t t t d d t t t t t t t t t t t t t t t t t t t e e e t t t t t 9 e t e t t t e 5 9 e e e e t d t t t t t t t t t t t t t t t t e e t t t e e e t t t t d d t e t t t t t t t t t t t t t t t t t t t t t t t t e e e t t t t t e e t t e t d d 9 e e t e e t d t t t t t t t t t t t t t t t t t t t t t t t t e e e e e e e e t t t t t t t t t t t t t t t t t t t t t t t t t t t t t t t t t t t t t t t t t t t t t t t t t t t t t t d d d t e 9 9 e e e t t t t e t t t t t t t t t t t t t t t t t t t t e e t t t d d t t t t e e e e t t t t t t t t t t t t t t t t t t t t t t t t t t t t t t t t 9 9 9 9 9 9 9 9 9 9 e e e e e e t t t t t t t t t t t t t t t t 9 e e e e e e e e t t e e e e e t t t t t t t t t t t t t t t t t t t t t t t t t t t t t t t t t t t t t t t t t t t t t t t e t d d d d t e 9 e e e e e t t d t t t t t t t t t t t t t t t t e e e e e e t t t t t t t t t t t t t t t t t t t t t t t t t t t t t t t t t t e e e t t t t t 9 e t t d d t e 5 9 e e e e t d t t t t t t t t t t t t t t t t t t t t t t t t t e 9 9 e t t t t t t t t t t t t t t t t t t t t t t t t t t t t t t t t t t t t t t t t t t t t t t t t t t t e e t t t t d d d t e 9 9 9 9 e t e e t d d t e t t t t t t t t t t t t t t t t e t t t t t t d e t t t e e 9 9 t t t t t t t t t t t t t t t t t t t t t t t t t t t t t t t t 9 9 9 9 e e e t e t t 9 9 9 9 9 ",
"e 9 e t e 9 9 t 5 5 1 5 e e 9 5 9 9 9 9 9 9 9 9 9 9 9 9 9 9 9 9 t e 9 5 9 9 1 > 9 9 5 5 5 5 9 e 9 9 9 9 9 9 9 9 9 9 9 9 9 9 5 1 9 9 9 9 9 9 9 9 9 9 9 9 9 9 9 9 9 9 9 9 9 9 9 9 5 5 9 9 9 9 5 5 t t e 5 1 5 5 1 1 5 9 9 5 5 9 e 9 9 9 9 9 9 9 9 9 9 9 9 9 9 9 9 9 9 9 9 9 5 5 5 9 9 9 9 9 9 9 9 9 9 9 9 9 9 9 9 9 9 9 9 9 9 9 9 9 9 9 9 9 9 9 9 9 9 9 9 9 9 5 5 d t 9 5 5 9 5 1 1 5 9 9 5 5 9 e 9 9 9 9 9 9 9 9 9 9 9 9 9 9 9 9 9 9 9 9 9 9 9 9 9 9 9 9 9 9 9 9 9 9 9 9 9 9 9 9 9 9 9 9 9 9 9 9 9 9 9 9 9 9 9 9 9 9 9 9 9 9 9 9 9 9 9 9 9 9 9 9 9 9 9 9 9 9 9 9 9 9 5 5 5 5 5 9 5 9 e 9 5 1 1 5 e e 9 5 5 5 9 9 9 9 9 9 9 9 9 9 9 9 9 9 9 9 9 9 9 9 5 5 5 5 9 9 9 9 9 9 9 9 9 e 9 9 9 9 9 9 9 9 9 9 9 9 9 9 9 9 9 9 9 9 9 9 9 9 9 9 9 9 9 9 9 9 t t t t t t t t 5 5 9 9 9 5 1 1 9 9 9 9 9 9 9 9 9 9 9 9 9 9 9 9 e e e e 9 9 9 9 5 5 5 9 9 9 9 9 9 9 9 9 9 9 9 9 9 9 9 9 9 9 9 9 9 9 9 9 9 9 9 9 9 9 9 9 9 9 9 9 9 9 9 9 9 9 9 9 9 9 e e 9 9 5 1 e 9 9 5 5 5 5 9 1 5 5 9 9 9 9 5 9 9 9 9 9 9 9 9 9 9 9 9 9 9 9 9 e e 9 9 9 9 9 9 5 5 1 1 5 5 9 9 9 9 9 9 9 9 9 9 9 9 9 9 9 9 9 9 9 9 9 9 9 9 9 9 5 5 9 9 9 9 5 5 t t t 9 5 5 5 > > 1 5 5 5 5 9 e 9 9 9 9 9 9 9 9 9 9 9 9 9 9 9 9 9 9 9 9 9 9 9 9 e 9 9 9 9 9 9 5 9 9 9 9 9 9 9 9 9 9 9 9 9 9 9 9 9 9 9 9 9 9 9 9 9 9 9 9 9 9 9 9 9 9 9 9 9 9 9 9 9 9 9 9 9 9 9 9 9 9 9 9 9 9 9 9 5 5 5 5 5 5 1 1 e 9 5 1 5 9 5 5 9 9 9 9 9 9 9 9 9 9 9 9 9 9 9 9 9 9 5 5 5 5 5 5 5 9 9 e e 9 9 5 9 9 9 9 9 9 9 9 9 9 9 9 9 9 9 9 9 9 9 9 9 9 9 9 9 9 9 9 9 9 9 9 e e 9 9 9 9 e e > 9 e 9 5 5 9 9 ",
"d e 9 e 9 5 t B W P K P W K B h h h h h h h h h l l l h d t t e t 9 9 d D W P K W P D b l h h h h h h h h h h h h d d d h l l l h h h h h l l l h h h h h h h h h h h h h h h h l l l l h d t e 9 e e e h A P W P P P D b h d d h h h h h h h h h h h h h h h h d d d d d h l b h h h h h h l l h h h h h h h h h h h h h h h h h h h h h h h h l l l h h d t t t 5 1 e b K P K P P K A b d d d h h h h h h h h h h h h h h h h h h h h h h h h l h h h h h h l h h h h h h h h h h h h h h h h h h h h h h h h h h h h h h h h h h h h h h h h h h h h h h h h b l h t t e t t 9 l P ^ W K K P B b l h h h h l h h h h h h h h h h h h h h h h d h h l l l l l h h h h h d h h h h h h h h h h h h h h h h h h h h h h h h h h h h h h h h h h e e e e e e e e K P P P P K A B h h h h h h h h h h h h h h h h h h h d d h h h h h d h h h h d h h h h h h h h h h h h h h h h h h h h h h h h h h h h h h h h h h h h h h h h h h l l l h d t t e 5 5 e l D W P P P P D B l d h h h h h h h h h h h h h h h h d h h h h h h h l l l l l h d t h h h h h h h h h h h h h h h h h h h h h h h h l l l l h d t e 9 e 9 9 t B P W P P P D b h h h h h h h h h h h h h h h h h h h h h h h h h h h d h l l l l l l h h h h h h h h h h h h h h h h h h h h h h h h h h h h h h h h h h h h h h h h h h h h h h h h l h h d t t e e 9 t b K W W P K K A l d h h h h h h h h h h h h h h h h h h h h h h h l b b l h l l h h d d h h h h h h h h h h h h h h h h h h h h h h h h h h h h h h h h h h l h t e 9 9 e e h A P P K K P P ",
"e 9 9 e e e 5 &.k.y.y.k.y.k...D K K K K K K K K D D D A A 9 t 9 9 9 e t w.p.k.f.f.y.k.( K K D K K K K K K K K K K K K K K K K K K K K K K K K K K K K K K K K K K K K K K K K K D A D A D B 9 e e 9 e t t y.p.f.p.f.y.f.( D K D K K K K K K K K K K K K K K K K K K K K K K K K K K K K K K K K K K K K K K K K K K K K K K K K K K K K K K K K A D A A K e e e e 5 t 5 ..k.p.f.p.p.f.<.B K D D K K K K K K K K K K K K K K K K K K K K K K K K K K K K K K K K K K K K K K K K K K K K K K K K K K K K K K K K K K K K K K K K K K K K K K K K K D D K K D A D P W t e t e d 9 > $.v.p.y.p.f.k.<.A K D K D K K K K K K K K K K K K K K K K K K K K K K K K K K K K K K K K K K K K K K K K K K K K K K K K K K K K K K K K K K K K D D K K K K B 9 e e 9 e 9 t y.f.p.p.f.y.k.^ D D K K K K K K K K K K K K K K K K K K K K K K K K K K K K K K K K K K K K K K K K K K K K K K K K K K K K K K K K K K K K K K K K K K K K K K K D D D D K B e 9 e t e e B f.p.p.p.p.p.y.K D D K K K K K K K K K K K K K K K K K K K K K K K K K K K K K K K K K K K K K K K K K K K K K K K K K K K K K K K K A D A D A D 9 e 9 t e d e 6.p.f.p.p.y.k.' D D D K K K K K K K K K K K K K K K K K K K K K K K K K K K K K K K K K K K K K K K K K K K K K K K K K K K K K K K K K K K K K K K K K K K K K K K K D D D D K K K K D W D t 5 e t 9 t 1 <.v.f.p.k.y.f. .D D D K K A K K K K K K K K K K K K K K K K K K K K K K K K K K K K K K K K K K K K K K K K K K K K K K K K K K K K K K K K K K K K K K K K D b 9 e t 9 t 9 A k.p.p.p.f.f.p.",
"e 9 9 e e e 5 &.p.0.0.y.0.p.' B D D D D D D D D D D D A A 9 t 9 e e e e 6.w.y.w.w.0.p.W A A B A D D D D D D D D D D D D D D D D D D D D D D D D D D D D D D D D D D D D D D D D D A D A D B 9 e t 9 e e 9 0.w.w.w.y.0.y.W B A A D D D D D D D D D D D D D D D D D D D D D D D D D D D D D D D D D D D D D D D D D D D D D D D D D D D D D D D D A D A A K e e e t 9 t 1 ' p.w.w.w.w.y.&.b D A A D D D D D D D D D D D D D D D D D D D D D D D D D D D D D D D D D D D D D D D D D D D D D D D D D D D D D D D D D D D D D D D D D D D D D D D D K A A D D A A D l A 9 5 t e t e 9 ' w.6.0.6.<.0.&.B D A D B A A D D D D D D D D D D D D D D D D D D D D D D D D D D D D D D D D D D D D D D D D D D D D D D D D D D D D D D D D D A A A A D D D B 9 e e 9 e 9 t 0.y.w.0.y.0.p.P A A D D D D D D D D D D D D D D D D D D D D D D D D D D D D D D D D D D D D D D D D D D D D D D D D D D D D D D D D D D D D D D D D D D D D D D D A D D D D b 9 9 e t 9 9 l p.w.w.w.w.w.0.A B A D D D D D D D D D D D D D D D D D D D D D D D D D D D D D D D D D D D D D D D D D D D D D D D D D D D D D D D D A D A D A D 9 e 9 e 9 t 5 <.y.y.w.w.0.p.^ B A A D D D D D D D D D D D D D D D D D D D D D D D D D D D D D D D D D D D D D D D D D D D D D D D D D D D D D D D D D D D D D D D D D D D D D D D D D D D D A A A A b B B t t 9 e 5 d 9 :.w.y.w.<.0.y.( B B A D K K D D D D D D D D D D D D D D D D D D D D D D D D D D D D D D D D D D D D D D D D D D D D D D D D D D D D D D D D D D D D D D D D D b 9 e t 9 t 9 b y.0.w.0.w.w.0.",
"e 9 9 e e e 5 &.y.0.0.y.6.y.( b A A A A A A A A D D D A A 9 t 9 e e e e <.0.w.6.w.0.p.W A A B D A A A A A A A A A A A A A A A A A A A A A A A A A A A A A A A A A A A A A A A A D A D A D B 9 e t 9 e e 5 6.6.0.w.w.0.y.W B D A A A A A A A A A A A A A A A A A A A A A A A A A A A A A A A A A A A A A A A A A A A A A A A A A A A A A A A A A A D A A K e e e d 9 t 1 ( y.6.6.w.w.y.&.b D A A A A A A A A A A A A A A A A A A A A A A A A A A A A A A A A A A A A A A A A A A A A A A A A A A A A A A A A A A A A A A A A A A A A A A A A A A K D A A A A A D D W d 5 t 9 e h = ( y.y.w.6.6.f.$.B K D D B A A A A A A A A A A A A A A A A A A A A A A A A A A A A A A A A A A A A A A A A A A A A A A A A A A A A A A A A A A A A A A A A A D B 9 e e 9 e 9 t 6.w.0.0.w.6.p.P B A A A A A A A A A A A A A A A A A A A A A A A A A A A A A A A A A A A A A A A A A A A A A A A A A A A A A A A A A A A A A A A A A A A A A A A D A D D A D b 9 e e t 9 5 h y.0.w.w.w.w.0.D A A A A A A A A A A A A A A A A A A A A A A A A A A A A A A A A A A A A A A A A A A A A A A A A A A A A A A A A A A A D A D A D 9 e 9 e 9 e 5 :.0.0.w.w.0.p.^ B A A A A A A A A A A A A A A A A A A A A A A A A A A A A A A A A A A A A A A A A A A A A A A A A A A A A A A A A A A A A A A A A A A A A A A A A A A A D D D A A D D W D A e t 5 t e e 5 <.0.f.f.:.y.p.( A D D A A D A A A A A A A A A A A A A A A A A A A A A A A A A A A A A A A A A A A A A A A A A A A A A A A A A A A A A A A A A A A A A A A A D b 9 e t 9 t 9 l y.0.0.0.w.w.0.",
"e 9 9 e e e 5 &.p.0.0.y.0.p.' B D D D D D D D D D D D A A 9 t 9 e e e e 6.w.y.w.y.0.f.W D D A K D D D D D D D D D D D D D D D D D D D D D D D D D D D D D D D D D D D D D D D D D A D A D B 9 e e 9 e e 9 0.w.w.w.y.0.p.^ A K D D D D D D D D D D D D D D D D D D D D D D D D D D D D D D D D D D D D D D D D D D D D D D D D D D D D D D D D D A D A A K e e e t 9 t 1 ' p.w.w.w.w.y.&.B K D D D D D D D D D D D D D D D D D D D D D D D D D D D D D D D D D D D D D D D D D D D D D D D D D D D D D D D D D D D D D D D D D D D D D D D D D D D D A A A A A A A K d 5 d e 1 t > ' p.y.w.w.w.f.$.B D A D D K D D D D D D D D D D D D D D D D D D D D D D D D D D D D D D D D D D D D D D D D D D D D D D D D D D D D D D D D D A A A A A D D D B 9 e e 9 e 9 t 0.y.w.0.y.0.p.P A A D D D A D D D D D D D D D D D D D D D D D D D D D D D D D D D D D D D D D D D D D D D D D D D D D D D D D D D D D D D D D D D D D D D D D D D A D D A D b 9 e e e 9 5 h w.0.w.w.w.y.w.K D D D D D D D D D D D D D D D D D D D D D D D D D D D D D D D D D D D D D D D D D D D D D D D D D D D D D D D D D D A D A D A D 9 e e t e t 5 :.w.w.w.w.0.f.( A D D D D D D D D D D D D D D D D D D D D D D D D D D D D D D D D D D D D D D D D D D D D D D D D D D D D D D D D D D D D D D D D D D D D D D D D D D A A D D D D D D K D A 9 e 1 t 9 t 1 0.w.w.p.6.p.p.( A K K A A A D D D D D D D D D D D D D D D D D D D D D D D D D D D D D D D D D D D D D D D D D D D D D D D D D D D D D D D D A D D D D D D D D b 9 e t 9 t 9 b p.0.w.0.w.w.0.",
"e 9 9 e e e 5 &.y.0.0.y.0.p.( B D D D D D D D D D D D A A 9 t 9 e e e e 6.w.p.w.w.6.p.W A D A K D D D D D D D D D D D D D D D D D D D D D D D D D D D D D D D D D D D D D D D D D A D A D B 9 e e 9 e e 9 0.w.y.0.w.0.y.W A D D D D D D D D D D D D D D D D D D D D D D D D D D D D D D D D D D D D D D D D D D D D D D D D D D D D D D D D D D A D A A K e e e t 5 t 1 ' f.w.w.0.0.w.&.b D D D D D D D D D D D D D D D D D D D D D D D D D D D D D D D D D D D D D D D D D D D D D D D D D D D D D D D D D D D D D D D D D D D D D D D D D D D B A A A A D A A b B d 9 h d 5 e e ..w.<.6.w.0.6.&.B A B D D K A D D D D D D D D D D D D D D D D D D D D D D D D D D D D D D D D D D D D D D D D D D D D D D D D D D D D D D D D D D D A D D D D B 9 e e 9 e 9 t 0.w.w.0.y.6.p.P A D D D D D D D D D D D D D D D D D D D D D D D D D D D D D D D D D D D D D D D D D D D D D D D D D D D D D D D D D D D D D D D D D D D D D D D D A D D D D b 9 e e e 9 5 l y.0.0.w.w.w.0.D A D D D D D D D D D D D D D D D D D D D D D D D D D D D D D D D D D D D D D D D D D D D D D D D D D D D D D D D D D A D A D A D 9 e e t e t 5 <.w.w.0.w.0.p.^ A D D D D D D D D D D D D D D D D D D D D D D D D D D D D D D D D D D D D D D D D D D D D D D D D D D D D D D D D D D D D D D D D D D D D D D D D D D K D A A D D A B l A K t t e d 9 h > 6.w.:.0.w.w.p.^ B A D D D D D D D D D D D D D D D D D D D D D D D D D D D D D D D D D D D D D D D D D D D D D D D D D D D D D D D D D D D D A A D D D D D D D b 9 e t 9 t 9 l y.0.w.0.w.w.0.",
"e 9 9 e e e 5 &.p.0.0.y.0.p.' B D D D D D D D D D D D A A 9 t 9 e e e e 6.w.y.0.w.0.p.W A D A D D D D D D D D D D D D D D D D D D D D D D D D D D D D D D D D D D D D D D D D D D A D A D B 9 e e 9 e e 9 0.0.w.0.w.0.y.W B D A D D D D D D D D D D D D D D D D D D D D D D D D D D D D D D D D D D D D D D D D D D D D D D D D D D D D D D D D A D A A K e e e t 9 t 1 ' p.0.0.0.0.w.&.b D A D D D D D D D D D D D D D D D D D D D D D D D D D D D D D D D D D D D D D D D D D D D D D D D D D D D D D D D D D D D D D D D D D D D D D D D D D A D D D D K K D W B h 5 5 9 5 t = ' p.p.y.y.w.y.&.A K B D D K B D D D D D D D D D D D D D D D D D D D D D D D D D D D D D D D D D D D D D D D D D D D D D D D D D D D D D D D D A A A A A A D D B 9 e e 9 e 9 t 0.w.w.0.y.0.p.P A A D D A A A D D D D D D D D D D D D D D D D D D D D D D D D D D D D D D D D D D D D D D D D D D D D D D D D D D D D D D D D D D D D D D D D D D A D D D D b 9 9 e e 9 9 l p.w.w.w.w.w.0.D A D D D D D D D D D D D D D D D D D D D D D D D D D D D D D D D D D D D D D D D D D D D D D D D D D D D D D D D D D A D A D A D 9 e 9 e 9 e 5 :.w.w.0.w.0.p.^ A D D D D D D D D D D D D D D D D D D D D D D D D D D D D D D D D D D D D D D D D D D D D D D D D D D D D D D D D D D D D D D D D D D D D D D D D D D D D A A D D D D D P A d 5 9 9 9 5 > :.p.w.y.f.0.f. .A A A D K K D D D D D D D D D D D D D D D D D D D D D D D D D D D D D D D D D D D D D D D D D D D D D D D D D D D D D D D D A A A A A A A A D b 9 e t 9 t 9 b y.0.w.0.w.w.0.",
"e 9 9 e e e 5 &.p.0.0.y.0.p.' B D D D D D D A D D D D A A 9 t 9 e e e e 6.0.w.0.y.0.f.W D D A K D D D D D D D D D D D D D D D D D D D D D D D D D D D D D D D D D D D D D D A D D A D A D B 9 e t 9 e e 9 0.0.0.w.w.0.p.^ A D D D D D D D D D D D D D D D D D D D D D D D D D D D D D D D D D D D D D D D D D D D D D D D D D D D D D D D D D D A D A A K e e e t 9 t 1 ' p.0.0.w.w.y.&.b K D D D D D D D D D D D D D D D D D D D D D D D D D D D D D D D D D D D D D D D D D D D D D D D D D D D D D D D D D D D D D D D D D D D D D D D D D D D K D B b B B b D h A b d l b A d ' <.6.6.&.&.0. .B P D D D K A D D D D D D D D D D D D D D D D D D D D D D D D D D D D D D D D D D D D D D D D D D D D D D D D D D D D D D D D A A A A A A D D B 9 e e 9 e 9 t 0.y.w.w.y.0.p.P A A D D A A A D D D D D D D D D D D D D D D D D D D D D D D D D D D D D D D D D D D D D D D D D D D D D D D D D D D D D D D D D D D D D D D D D D A D D A D b 9 e e e 9 9 l y.w.w.w.w.y.w.K A D D D D D D D D D D D D D D D D D D D D D D D D D D D D D D D D D D D D D D D D D D D D D D D D D D D D D D D D D A D A D A D 9 e 9 e 9 e 5 :.w.w.w.w.0.f.( A D D D D D D D D D D D D D D D D D D D D D D D D D D D D D D D D D D D D D D D D D D D D D D D D D D D D D D D D D D D D D D D D D D D D D D D D D D A A D A B b B A B B d A h B h B b A  .:.w.<.<.&.<.' K D B A D A D D D D D D D D D D D D D D D D D D D D D D D D D D D D D D D D D D D D D D D D D D D D D D D D D D D D D D D D A A A A A A A A D b 9 e t 9 t 9 b p.w.w.w.y.y.w.",
"e 9 9 e e e 5 &.y.0.0.y.0.p.( B D D D D D D D D D D D A A 9 t 9 e e e e 6.w.y.w.w.0.p.W A D A D D D D D D D D D D D D D D D D D D D D D D D D D D D D D D D D D D D D D D D D D D A D A D B 9 e e 9 e e 9 0.w.w.w.w.0.y.W B D A D D D D D D D D D D D D D D D D D D D D D D D D D D D D D D D D D D D D D D D D D D D D D D D D D D D D D D D D A D A A K e e e t 9 t 1 ' p.w.w.w.w.y.&.b D A A D D D D D D D D D D D D D D D D D D D D D D D D D D D D D D D D D D D D D D D D D D D D D D D D D D D D D D D D D D D D D D D D D D D D D D D D D D b t 9 e e 9 5 e &.f.y.f.y.w.f.$.l d D A b D K h P D A B D A D D D D D D D D D D D D D D D D D D D D D D D D D D D D D D D D D D D D D D D D D D D D D D D D D D D D D D D D D D A A D D D D B 9 e e 9 e 9 t 0.w.w.0.y.6.p.P A A D D D D D D D D D D D D D D D D D D D D D D D D D D D D D D D D D D D D D D D D D D D D D D D D D D D D D D D D D D D D D D D D D D D D D D D A A A A D b 9 e e e 9 5 l y.0.w.w.w.w.0.D A D D D D D D D D D D D D D D D D D D D D D D D D D D D D D D D D D D D D D D D D D D D D D D D D D D D D D D D D D A D A D A D 9 e e t e t 5 :.w.w.w.w.0.p.^ B A A D D D D D D D D D D D D D D D D D D D D D D D D D D D D D D D D D D D D D D D D D D D D D D D D D D D D D D D D D D D D D D D D D D D D D D D D A K K B t 5 9 e 9 e h w.y.v.6.f.y.p.W h W l b K A B A D B D D B D D D D D D D D D D D D D D D D D D D D D D D D D D D D D D D D D D D D D D D D D D D D D D D D D D D D D D D D D D D D D D D D D b 9 e t 9 t 9 l y.0.w.0.w.w.0.",
"e 9 9 e e e 5 &.y.w.w.y.6.p.' B D D D D A A D D D D D A A 9 t 9 e 9 e e 6.w.y.0.w.0.p.W A D A D D D D D D D D D D D D D D D D D D D A A D D D D D D D D D D D D D D D A A D D D D A D A D B 9 e e e e e 9 w.w.w.w.y.0.y.W A D D D D D D D D D D D D D D D D D D D D A A D D D D D D D D D D D D D D D D D D D D D D D D D D D D D D D D D D D D A D A A K e e e t 9 t 1 ' p.0.w.w.w.y.&.b D A D D D A A D D D D D D D D D D D D D D D D D D D D D D D D D D D D D D A A D D D D D D D D D D D D D D D D D D D D D D D D D D D D D D D D D D D D A D D 9 e e 9 e e 9 :.y.w.w.w.w.p.' A A D A D D D D A A D D D D D D D D D D D A D D A A D D D D D D D D D D D D D D D D D D D D D D D D D D D D D D D D D D D D D A D D D D D D D A A A A D D D B 9 e e 9 e 9 t 0.y.w.0.y.0.p.P A A D D D D D D D D D D D D D D D A D D D D D D D D A A D D D D D D D D D D D D D D D D D D D D D D D D D D D D D D D D D D D D D A D D D D D D A A D D A D b 5 e e e e e l y.w.w.w.w.w.0.D A D D D D D D A D D D D D D D D D D D A D D D D D D D D A A D D D D D D D D D D D D D D D D D D D D D D D D D D D D A D A D A D 9 e 9 t e e 5 :.w.w.w.w.0.f.( A D D D D D D D D D D D D D D D D D D D D D D D A D D D D D D D D D D D A D D D D D D D D A A D D D D D D D D D D D D D D D D D D D D D D D D D D D D A D A B 5 e e e e e e y.w.w.w.w.0.p.K D A D K A D D D D D D D D D D D D D D D D D D D D D A D D D D D D D D D D D A D D D D D D D D A A D D D D D D D D D D D D D D D D D D D D D D D D D D D D D b 9 e t 9 t 9 l y.0.w.0.w.w.w.",
"e 9 9 e e e 5 &.y.w.w.y.6.p.' B D D D D D D D D D D D A A 9 t 9 e 9 e e 6.w.y.0.w.0.p.W A D A D D D D D D D D D D D D D D D D D D D D D D D D A D D D D D D D D D D D D D D D D D A D A D B 9 e e e e e 9 w.w.w.w.y.0.y.W A D D D D D D D D D D D D D D D D D D D D D D D D D A D D D D D D D D D D D D D D D D D D D D D D D D D D D D D D D D A D A A K e e e t 9 t 1 ' p.0.w.w.w.y.&.b D A D D D D D D D D A D D D D D D D D D D D D D D D D D D D D D D D D D D D D D D D A D D D D D D D D D D D D D D D D D D D D D D D D D D D D D D D D A D D 9 e e 9 e e 9 :.y.w.w.w.w.p.' A A D A D D D D A D A A D D D D D D D D D D D D D D D D D A D D D D D D D D D D D D D D D D D D D D D D D D D D D D D D D D D A D D D A D D D A A A A D D D B 9 e e 9 e 9 t 0.y.w.0.y.0.p.P A A D D D D D D D D D D D D D D D A D D D A D D D D D D D D D A D D D D D D D D D D D D D D D D D D D D D D D D D D D D D D D D D A D D D A D D A A D D A D b 5 e e e e e l y.w.w.w.w.w.0.D A D D D D D D A D D D D D D D D D D D A D D D A D D D D D D D D D A D D D D D D D D D D D D D D D D D D D D D D D D A D A D A D 9 e 9 t e e 5 :.w.w.w.w.0.f.( A D D D D D D D D D D D D D D D D D D D D D D D A D D D D D D D D D D D A D D D A D D D D D D D D D A D D D D D D D D D D D D D D D D D D D D D D D D A D A B 5 e e e e e e y.w.w.w.w.0.p.K D A D K A D D D D D D D D D D D D D D D D D D D D D A D D D D D D D D D D D A D D D A D D D D D D D D D A D D D D D D D D D D D D D D D D D D D D D D D D D b 9 e t 9 t 9 l y.0.w.0.w.w.w.",
"e 9 9 e e e 5 &.y.w.w.y.6.p.' B D D D D D D D D D D D A A 9 t 9 e e e e 6.w.y.0.w.0.p.W A D A D A D D D D A A D D D D D D D D D D D D D D D D D D D D D A D D D D D D D D D D D D A D A D B 9 e e e e e 9 w.w.w.w.y.0.y.W A D D A D D D D A A D D D D D D D D D D D D D D D D D D D D D A D D D A D D D D A A D D D D D D D D D D D A D D D D D A D A A K e e e e 5 t 1 ' p.0.w.w.w.y.&.b D A D D D D D D D D D D D D D A D D D A D D D D A A D D D D D D D D D D D D D D D D D D D D D A D D D A D D D D A A D D D D D D D D D D D D D A D D D A D D 9 e e 9 e e 9 :.y.w.w.w.w.p.' A A D A D D D D D D D D D D D D D D D D D D D D D D D D D D D D D D A D D D A A D D D D A D D D D D D D D D D D D D D D D A D D D D D A D D D A A A A D D D B 9 e e 9 e 9 t 0.y.w.0.y.0.p.P A A D D D D D D D D D D D D D A D D D D D A D D D D D D D D D D D D D D A D D D A A D D D D A D D D D D D D D D D D D D D D D A D D D D D A D D A A D D A D b 5 e e e e e l y.w.w.w.w.w.0.D A D D D D D D D D D D D D D D D D A D D D D D A D D D D D D D D D D D D D D A D D D A A D D D D A D D D D D D D D D A D A D A D 9 e 9 t e e 5 :.w.w.w.w.0.f.( A D D A A D D D D A D D D D D A D D D D D D D D D D D D D D D D D D A D D D D D A D D D D D D D D D D D D D D A D D D A A D D D D A D D D D D D D D D A D A B 5 e e e e e e y.w.w.w.w.0.p.K D A D K A A A D D D D A D D D D D A D D D D D D D D D D D D D D D D D D A D D D D D A D D D D D D D D D D D D D D A D D D A A D D D D A D D D D D D D D D D b 9 e t 9 t 9 l y.0.w.0.w.w.w.",
"e 9 9 e e e 5 &.y.w.w.y.6.p.' B D D D D D D D D D D D A A 9 t 9 e e e e 6.w.y.0.w.0.p.W A D A D A D D D D D D D D D D D A A D D D D D D D D D D D D D D A D D D D D D D D D D D D A D A D B 9 e e e e e 9 w.w.w.w.y.0.y.W A D D A D D D D D D D D D D D A A D D D D D D D D D D D D D D A D D D A D D D D D D D D D D D A A D D D D D D D D D D A D A A K e e e e 5 t 1 ' p.0.w.w.w.y.&.b D A D D D D D D D D D D D D D A D D D A D D D D D D D D D D D A A D D D D D D D D D D D D D D A D D D A D D D D D D D D D D D A A D D D D D D D D D D A D D 9 e e 9 e e 9 :.y.w.w.w.w.p.' A A D A D D D D D D D D D D D D A A D D D D D D D D D D D D D D D D A D D D D D D D D D A D D D D A D A D D D D D D D D D A D D D D D D D D D A A A A D D D B 9 e e 9 e 9 t 0.y.w.0.y.0.p.P A A D D D D D D D D D D D D D A D D D D D D D D D D D D D D D D D D D D A D D D D D D D D D A D D D D A D A D D D D D D D D D A D D D D D D D D A A D D A D b 5 e e e e e l y.w.w.w.w.w.0.D A D D D D A D D D D D D D D D D D A D D D D D D D D D D D D D D D D D D D D A D D D D D D D D D A D D D D A D A D D A D A D A D 9 e 9 t e e 5 :.w.w.w.w.0.f.( A D D D D D D D D A D D D D D D D D D D D D A D D D D D D D D D D D A D D D D D D D D D D D D D D D D D D D D A D D D D D D D D D A D D D D A D A D D A D A B 5 e e e e 9 e y.w.w.w.w.0.p.K D A D K A D D D D D D A D D D D D D D D D D D D A D D D D D D D D D D D A D D D D D D D D D D D D D D D D D D D D A D D D D D D D D D A D D D D D A D D D D b 9 e t 9 t 9 l y.0.w.0.w.w.w.",
"e 9 9 e e e 5 &.y.w.w.y.6.p.' B D D D A D D D D D D D A A 9 t 9 e e e e 6.w.y.0.w.0.p.W A D A D D D D D D D D D A D D D D D D D D D D D D D D D D D D D D D D D D D D D D D D D D A D A D B 9 e e e e e 9 w.w.w.w.y.0.y.W A D D D D D D D D D D A D D D D D D D D D D D D D D D D D D D D D D D D D D D D D D D A D D D D D D D D A A A D D D D A D A A K e e e e 5 t 1 ' p.0.w.w.w.y.&.b D A D D D D D D D D D D D D D D D D D D D D D D D D D A D D D D D D D D D D D D D D D D D D D D D D D D D D D D D D D A D D D D D D D D D D D A D D D A D D 9 e e 9 e e 9 :.y.w.w.w.w.p.' A A D A D D D D D D D D D D D D D D D D A D D D D D D D D D D D D D D D D D D D D D D D D D D D D D D D D D D D A A D D D D D D D D D D D D D A A A A D D D B 9 e e 9 e 9 t 0.y.w.0.y.0.p.P A A D D D D D D D D A A D D D D D D D D D D D D D D D D D D D D D D D D D D D D D D D D D D D D D D D D D D D D D D A A D D D D D D D D D D D D A A D D A D b 5 e e e e e l y.w.w.w.w.w.0.D A D D D D D D D D D D D A A D D D D D D D D D D D D D D D D D D D D D D D D D D D D D D D D D D D D D D D D D D D D A D A D A D 9 e 9 t e e 5 :.w.w.w.w.0.f.( A D D D D D D D D D D D D D D A D D D D D D D D D D D D D A A D D D D D D D D D D D D D D D D D D D D D D D D D D D D D D D D D D D D D D D D D D D D A D A B 5 e e e e e e y.w.w.w.w.0.p.K D A D K A D D D D D D D D D D D D A D D D D D D D D D D D D D A A D D D D D D D D D D D D D D D D D D D D D D D D D D D D D D D D D D D D A D D D D D D D D b 9 e t 9 t 9 l y.w.w.0.w.w.w.",
"e 9 9 e e e 5 &.y.w.w.y.6.p.' B D D D A D D D D D D D A A 9 t 9 e e e e 6.w.w.0.w.0.p.W A D A D D D D D D D D D A D D D D D D D D D A D D D D D D D D D D D D D D D D A D D D D D A D A D B 9 e e e e e 9 w.w.w.w.y.0.y.W A D D D D D D D D D D A D D D D D D D D D A D D D D D D D D D D D D D D D D D D D D D A D D D D D D D D D D D D D D D A D A A K e e e e 5 t 1 ' p.0.w.w.w.y.&.b D A D D D A D D D D D D D D D D D D D D D D D D D D D A D D D D D D D D D A D D D D D D D D D D D D D D D D D D D D D A D D D D D D D D D D D D D D D A D D 9 e e 9 e e 9 :.y.w.w.w.w.p.' A A D A D D D D D D D D D D D D D A D D A D D D A D D D D D D D D D D D D D D D D D D D D A A A D D D D D D D D D D D D D D D D D D D D D D D A A A A D D D B 9 e e 9 e 9 t 0.y.w.w.y.0.p.P A A D D D D D D D D D D D D D D D D D D D D D D D D A D D D D D D D D D D D D D D D D D D D D A A A D D D D D D D D D D D D D D D D D D D D D D A A D D A D b 5 e e e e e l y.w.w.w.w.w.0.D A D D D D A D D D D D D D D D D D D D D D D D D D D D D A D D D D D D D D D D D D D D D D D D D D A A A D D D D D D A D A D A D 9 e 9 t e e 5 :.w.w.w.w.0.f.( A D D D D D D D D D A D D D D D D D D D D D A D D D D D D D D D D D D D D D D D D D D D D A D D D D D D D D D D D D D D D D D D D D A A A D D D D D D A D A B 5 e e e e e e y.w.w.w.w.0.p.K D A D K A D D D D D D D A D D D D D D D D D D D A D D D D D D D D D D D D D D D D D D D D D D A D D D D D D D D D D D D D D D D D D D D D A A D D D D D D D b 9 e t 9 t 9 l y.w.w.0.w.w.w.",
"e 9 9 e e e 5 &.y.w.w.y.6.p.' B D D D D D D D D D D D A A 9 t 9 e e e e 6.w.y.0.w.0.p.W A D A D D D D D D D A A D D D D D D D D D D A D D D A D D D D D D D D D D D D D A A D D D A D A D B 9 e e e e e 9 w.w.w.w.y.0.y.W A D D D D D D D D A A D D D D D D D D D D A D D D A D D D D D D D D D D D D D D D A A D D D D D D D D D D D D D D D D A D A A K e e e e 5 t 1 ' p.0.w.w.w.y.&.b D A D D D A D D D A D D D D D D D D D D D D D D D A A D D D D D D D D D D A D D D A D D D D D D D D D D D D D D D A A D D D D D D D D D D A D D D D D A D D 9 e e 9 e e 9 :.y.w.w.w.w.p.' A A D A D D D D D D D A D D D D D D D D D D D D A D D D A D D D D D D D D D D D D D D D D A D D D D D D D D D D D D D D D D A D D D D D D D D A A A A D D D B 9 e e 9 e 9 t 0.y.w.0.y.0.p.P A A D D D D D D D D D D D D D D A D D D D D D D D D A D D D A D D D D D D D D D D D D D D D D A D D D D D D D D D D D D D D D D A D D D D D D D A A D D A D b 5 e e e e e l y.w.w.w.w.w.0.D A D D D D D D D D D D D D D D D D D A D D D D D D D D D A D D D A D D D D D D D D D D D D D D D D A D D D D D D D D A D A D A D 9 e 9 t e e 5 :.w.w.w.w.0.f.^ A D D D D D D D D D A D D A D D D D D D D D D D D D D D D D D D D D D A D D D D D D D D D A D D D A D D D D D D D D D D D D D D D D A D D D D D D D D A D A B 5 e e e e e e y.w.w.w.w.0.p.K D A D K A D D D D D D D A D D A D D D D D D D D D D D D D D D D D D D D D A D D D D D D D D D A D D D A D D D D D D D D D D D D D D D D A D D D D D D D D D b 9 e t 9 t 9 l y.0.w.0.w.w.w.",
"e 9 9 e e e 5 &.y.w.w.y.6.p.' B D D D D D D D D D D D A A 9 t 9 e e e e 6.w.y.0.w.0.p.W A D A D D A D D D D D D D D D D D D D D D D D D D D A D D D A A D D D D D D D D D D D D D A D A D B 9 e e e e e 9 w.w.w.w.y.0.y.W B D D D A D D D D D D D D D D D D D D D D D D D D A D D D A A D D D D D A D D D D D D D D D D D D D D D D D D D D D D A D A A K e e e e 5 t 1 ' p.0.w.w.w.y.&.b D A D D D D D D D A D D D A A D D D D D A D D D D D D D D D D D D D D D D D D D D A D D D A A D D D D D A D D D D D D D D D D D D D D D D A D D D D D A D D 9 e e 9 e e 9 :.y.w.w.w.w.p.' A A D A D D D D D D D A D D D D D D D D D D D D D D D D A D D D A A D D D D A D D D D D D D D D D D D D D D D D D D D D D D D D D D A A D D D A A A A D D D B 9 e e 9 e 9 t 0.y.w.0.y.0.p.P A A D D D D D D D D D D D D D D D D D D A A D D D D D D D D A D D D A A D D D D A D D D D D D D D D D D D D D D D D D D D D D D D D D D A A D D A A D D A D b 5 e e e e e l y.w.w.w.w.w.0.D A D D D D D D D D D D D D D D D D D D D D D A A D D D D D D D D A D D D A A D D D D A D D D D D D D D D D D D D D D A D A D A D 9 e 9 t e e 5 :.w.w.w.w.0.p.^ A A A A D D D D D D D D D A D D D D D D D D D D D D D D D D D D D D D D D D D A A D D D D D D D D A D D D A A D D D D A D D D D D D D D D D D D D D D A D A B 5 e e e e e e y.w.w.w.w.0.p.K D A D K A A D D D D D D D D D A D D D D D D D D D D D D D D D D D D D D D D D D D A A D D D D D D D D A D D D A A D D D D A A D D D D D D D D D D D D D D D b 9 e t 9 t 9 l y.w.w.0.w.w.w.",
"e 9 9 e e e 5 &.0.w.y.0.w.p. .b D D D D D D D D K B A D l t 5 t e e e e 6.w.y.0.w.6.w.^ A P B K D D D D D D D D D D D D D D D D D D D D D D D D D D D D D D D D D D D D D D D D D D B K b B e e e e e e 9 w.w.w.y.0.6.k.D D K D D D D D D D D D D D D D D D D D D D D D D D D D D D D D D D D D D D D D D D D D D D D D D D D D D D D D D D D D K D B K B t e e e 5 t 1 ' p.0.w.w.6.p.$.B D P A D D D D D D D D D D D D D D D D D D D D D D D D D D D D D D D D D D D D D D D D D D D D D D D D D D D D D D D D D D D D D D D D D D D D D D D D A K A t 9 d 5 9 e 9 :.y.w.0.w.w.f.' A A A A D K D D D D D D D D D D D D D D D D D D D D D D D D D D D D D D D D D D D D D D D D D D D D D D D D D D D D D D D D D D D D D D D D A D D D A D D K B 9 9 1 d 9 e t y.w.6.p.6.<.p.K D D D D D D D D D D D D D D D D D D D D D D D D D D D D D D D D D D D D D D D D D D D D D D D D D D D D D D D D D D D D D D D D D D D D D D D D K D D A B D b 9 e e e e 9 l y.w.0.6.y.6.y.K K A D D D D D D D D D D D D D D D D D D D D D D D D D D D D D D D D D D D D D D D D D D D D D D D D D D D D D D D D K D B D b A t e 9 t e e 5 :.w.w.y.6.w.p.( b P D D D D D D D D D D D D D D D D D D D D D D D D D D D D D D D D D D D D D D D D D D D D D D D D D D D D D D D D D D D D D D D D D D D D D D D D D D D K l t e 9 t e e e y.w.w.w.w.6.f.K l K B D D D D D D D D D D D D D D D D D D D D D D D D D D D D D D D D D D D D D D D D D D D D D D D D D D D D D D D D D D D D D D D D D D D D D D D D D D A b 9 d 9 t e 1 l y.0.w.0.w.w.w.",
"e 9 9 e e e 5 &.y.w.y.<.0.p. .B D D D D D D D D D A K K A d 9 e e e e e 6.w.y.0.p.w.p.( A P B K D D D D D D D D D D D D D D D D D D D D D D D D D D D D D D D D D D D D D D D D B A A P A A 9 9 e 9 e e 9 w.w.w.p.y.0.v.K A K D D D D D D D D D D D D D D D D D D D D D D D D D D D D D D D D D D D D D D D D D D D D D D D D D D D D D D D D D A K A P K h t e e 5 t 1 ' p.0.w.p.w.f.&.A D K A D D D D D D D D D D D D D D D D D D D D D D D D D D D D D D D D D D D D D D D D D D D D D D D D D D D D D D D D D D D D D D D D D D D D D D D D D D B 9 5 e 5 t e 9 :.y.w.0.w.w.y.^ B A D B B B D D D D D D D D D D D D D D D D D D D D D D D D D D D D D D D D D D D D D D D D D D D D D D D D D D D D D D D D D D D D D D D D A D D D A A D K A e t 5 t 9 e e w.w.6.p.0.0.f.P D D D D D D D D D D D D D D D D D D D D D D D D D D D D D D D D D D D D D D D D D D D D D D D D D D D D D D D D D D D D D D D D D D D D D D D D B B A D D D b 9 e e e e 9 l y.w.y.0.w.<.0.A D D D D D D D D D D D D D D D D D D D D D D D D D D D D D D D D D D D D D D D D D D D D D D D D D D D D D D D D D D A A A K A D e e 9 t e e 5 :.w.w.w.0.w.p.( l D B D D D D D D D D D D D D D D D D D D D D D D D D D D D D D D D D D D D D D D D D D D D D D D D D D D D D D D D D D D D D D D D D D D D D D D D D D A K b t t e d e e e y.w.w.w.w.6.f.P B P B A B D D D D D D D D D D D D D D D D D D D D D D D D D D D D D D D D D D D D D D D D D D D D D D D D D D D D D D D D D D D D D D D D A A A A A A A A D b 5 t 5 e t 9 l y.0.w.0.w.w.w.",
"e 9 9 e e e 5 &.y.w.w.6.w.p...D D D D D D D D D A B A A b e 5 1 e e e e 6.w.y.0.0.0.w.W b D B A D D D D D D D D D A D D D D D D D D D D D D D D D A D D D D D D D D D D D D D D A D D P A A 5 e e e e e 9 w.w.w.0.0.6.p.D B A B D D D D D D D D D A D D D D D D D D D D D D D D D A D D D D D D D D D D D D D D D A D D D D D D D D D D D D D D b D B A A e 9 5 e 5 t 1 ' p.0.w.w.6.y...b B A B D D D D D D D D D A D D D D D D D D D D D D D D D A D D D D D D D D D D D D D D D A D D D D D D D D D D D D D D D A D D D D D D D D D D D D D D K D A 9 9 9 5 t e 9 :.y.w.0.w.w.y.^ B D K A D D D D D D D D D D D D D D D D D D D D D D D D D D D D D D D D D D D A D D D D D D D D D D D D D D D D D D D D D D D D D D D D D D A D D D A A D D A 9 d 9 t e e e 0.w.0.y.0.y.f.P A D D D D D D A D D D D D D D D D D D D D D D D D D D D D D D D D D D D D D D D D A D D D D D D D D D D D D D D D D D D D D D D D D D D D D D D D A D K D A l 9 e e e e 9 l y.w.y.0.w.6.w.A D K D D D D D D D D D D D D D D D D D D D D D D D D D D D D D D D D D D D D D D D D D A D D D D D D D D D D D D D D A D D K A D 9 e 9 t e e 5 :.w.w.w.w.y.p.' B D A D D D D D D D D D A D D D D D D D D D D D D D D D D D D D D D D D D D D D D D D D D D D D D D D D D D D D D D D D A D D D D D D D D D D D D D D A B D l 9 e 5 9 e e e y.w.w.w.w.6.p.W B P D D A D D D D D D D D D A D D D D D D D D D D D D D D D D D D D D D D D D D D D D D D D D D D D D D D D D D D D D D D D A D D D D D D D D D D D D D D P B 5 d 5 e t 9 l y.0.w.0.w.w.w.",
"e 9 9 e e e 5 &.y.0.y.0.y.y.( b D D D D D D D D K D D A A t h d e e e e 6.w.y.0.y.p.p.' A K D D D D D D D D D D D D D D D D D D D D D D D D D D D D D D D D D D D D D D D D D D D D D D A D 5 h e e e e 9 w.w.w.p.f.y.f.^ D P D D D D D D D D D D D D D D D D D D D D D D D D D D D D D D D D D D D D D D D D D D D D D D D D D D D D D D D D D D P D A K t d d e 5 t 1 ' p.0.w.p.y.f.&.K K K K D D D D D D D D D D D D D D D D D D D D D D D D D D D D D D D D D D D D D D D D D D D D D D D D D D D D D D D D D D D D D D D D D D D D D D D D b b A e t e 9 t e 9 :.y.w.0.w.w.k.' A D D A D P D D D D D D D D D D D D D D D D D D D D D D D D D D D D D D D D D D D D D D D D D D D D D D D D D D D D D D D D D D D D D D D D A D D D A A D D B 1 d 5 e e e e 0.w.w.w.0.y.y.K A A D D D D A A D D D D D D D D D D D D D D D D D D D D D D D D D D D D D D D D D D D D D D D D D D D D D D D D D D D D D D D D D D D D D D D D P A D D D A b e e e e e 9 l y.w.0.0.w.y.w.A B A D D D D D D D D D D D D D D D D D D D D D D D D D D D D D D D D D D D D D D D D D D D D D D D D D D D D D D D D D K D D A K 9 d 9 t e e 5 :.w.w.w.w.y.w.' b A B D D D D D D D D D D D D D D D D D D D D D D D D D D D D D D D D D D D D D D D D D D D D D D D D D D D D D D D D D D D D D D D D D D D D D D D D D D P D e h d d e e e y.w.w.w.w.y.y.W B K A D D D D D D D D D D D D D D D D D D D D D D D D D D D D D D D D D D D D D D D D D D D D D D D D D D D D D D D D D D D D D D D D D D D D D D D D D D D l 1 d e e e 5 l y.0.w.0.w.w.w.",
"e 9 9 e e e 5 &.p.w.y.0.w.0.^ A A A A A A A A A B B B b B > e 5 e e e e 6.w.y.0.6.0.6.^ B A B B A A A A A A A A A A A A A A A A A A A A A A A A A A A A A A A A A A A A A A A A B b B B A A # e e e e e 9 w.w.w.6.0.<.6.P B A B A A A A A A A A A A A A A A A A A A A A A A A A A A A A A A A A A A A A A A A A A A A A A A A A A A A A A A A A b D A b K 5 5 9 e 5 t 1 ' p.0.w.0.6.0. .D A B A A A A A A A A A A A A A A A A A A A A A A A A A A A A A A A A A A A A A A A A A A A A A A A A A A A A A A A A A A A A A A A A A A A A A A A A A A A K 9 t e e t e 9 :.y.w.0.w.w.w.^ A A B l b B A A A A A A A A A A A A A A A A A A A A A A A A A A A A A A A A A A A A A A A A A A A A A A A A A A A A A A A A A A A A A A A A A A A A B A A D K > d 9 9 t e e 0.w.w.w.0.y.w.^ B A A A A A B B A A A A A A A A A A A A A A A A A A A A A A A A A A A A A A A A A A A A A A A A A A A A A A A A A A A A A A A A A A A A A A A A A b B A A D l 1 e e e e 9 l y.w.w.w.w.y.0.K D D A A A A A A A A A A A A A A A A A A A A A A A A A A A A A A A A A A A A A A A A A A A A A A A A A A A A A A A A B B A B B K = 9 9 t e e 5 :.w.w.0.w.0.0. .A D A A A A A A A A A A A A A A A A A A A A A A A A A A A A A A A A A A A A A A A A A A A A A A A A A A A A A A A A A A A A A A A A A A A A A A A A A B B D B = e 5 5 e e e y.w.w.w.w.6.<.P B A B B B A A A A A A A A A A A A A A A A A A A A A A A A A A A A A A A A A A A A A A A A A A A A A A A A A A A A A A A A A A A A A A A A B B B B B B B B K h = t 9 e e 9 l y.0.w.0.w.w.w.",
"e 9 9 e e e 5 &.p.0.w.0.w.y.:.&.6.6.6.6.6.6.6.6.<.<.<.<.&.e d 9 e e e e 6.w.y.0.y.p.y.6.:.:.<.<.6.6.6.6.6.6.6.6.6.6.6.6.6.6.6.6.6.6.6.6.6.6.6.6.6.6.6.6.6.6.6.6.6.6.6.6.6.6.6.6.6.<.0.6.6.&.5 l e e e e 9 w.w.w.w.p.y.p.6.&.6.:.6.6.6.6.6.6.6.6.6.6.6.6.6.6.6.6.6.6.6.6.6.6.6.6.6.6.6.6.6.6.6.6.6.6.6.6.6.6.6.6.6.6.6.6.6.6.6.6.6.6.6.6.6.6.6.6.&.6.<.&.0.l e t e 5 t 1 ' p.0.w.y.y.f.0.:.<.&.6.6.6.6.6.6.6.6.6.6.6.6.6.6.6.6.6.6.6.6.6.6.6.6.6.6.6.6.6.6.6.6.6.6.6.6.6.6.6.6.6.6.6.6.6.6.6.6.6.6.6.6.6.6.6.6.6.6.6.6.6.6.6.6.6.6.6.6.6.6.6.6.6.:.&.$.e e 5 e e e 9 :.y.w.0.w.w.k.6.<.6.6.6.6.<.6.6.6.6.6.6.6.6.6.6.6.6.6.6.6.6.6.6.6.6.6.6.6.6.6.6.6.6.6.6.6.6.6.6.6.6.6.6.6.6.6.6.6.6.6.6.6.6.6.6.6.6.6.6.6.6.6.6.6.6.6.6.6.6.6.6.6.6.6.6.6.6. .1 h e 9 t 9 e 0.0.w.w.w.p.w.&.<.<.6.6.6.6.<.<.6.6.6.6.6.6.6.6.6.6.6.6.6.6.6.6.6.6.6.6.6.6.6.6.6.6.6.6.6.6.6.6.6.6.6.6.6.6.6.6.6.6.6.6.6.6.6.6.6.6.6.6.6.6.6.6.6.6.6.6.6.6.6.6.<.<.6.6.0.6.( t e e e e 9 l y.w.w.y.0.w.w.$.&.:.6.6.6.6.6.6.6.6.6.6.6.6.6.6.6.6.6.6.6.6.6.6.6.6.6.6.6.6.6.6.6.6.6.6.6.6.6.6.6.6.6.6.6.6.6.6.6.6.6.6.6.6.6.6.6.6.<.6.w.<.6.<.e d 9 t e e 5 :.w.w.0.y.w.y.6.$.&.&.6.6.6.6.6.6.6.6.6.6.6.6.6.6.6.6.6.6.6.6.6.6.6.6.6.6.6.6.6.6.6.6.6.6.6.6.6.6.6.6.6.6.6.6.6.6.6.6.6.6.6.6.6.6.6.6.6.6.6.6.6.6.6.6.6.6.6.6.6.6.6.6.:.:.<.$.9 h t e e e e y.w.w.w.w.p.p.0.<.6.6.<.6.6.6.6.6.6.6.6.6.6.6.6.6.6.6.6.6.6.6.6.6.6.6.6.6.6.6.6.6.6.6.6.6.6.6.6.6.6.6.6.6.6.6.6.6.6.6.6.6.6.6.6.6.6.6.6.6.6.6.6.6.6.6.6.6.6.6.6.6.6.6.<.<.<.P 1 d 9 e e e l y.w.w.0.w.w.w.",
"e 9 9 e e e 5 &.p.0.w.w.y.f.y.f.w.w.w.w.w.w.w.w.p.y.p.p.6.1 e 1 e e e e 6.0.y.0.w.0.0.y.y.w.p.f.w.w.w.w.w.w.w.w.w.w.w.w.w.w.w.w.w.w.w.w.w.w.w.w.w.w.w.w.w.w.w.w.w.w.w.w.w.w.w.w.p.w.y.w.y.:.= 9 e e e e 9 w.w.w.6.w.0.y.y.w.f.p.w.w.w.w.w.w.w.w.w.w.w.w.w.w.w.w.w.w.w.w.w.w.w.w.w.w.w.w.w.w.w.w.w.w.w.w.w.w.w.w.w.w.w.w.w.w.w.w.w.w.w.w.w.w.w.w.y.p.p.w.k.h 1 e e 5 t 1 ' p.0.w.6.0.p.0.w.p.w.f.w.w.w.w.w.w.w.w.w.w.w.w.w.w.w.w.w.w.w.w.w.w.w.w.w.w.w.w.w.w.w.w.w.w.w.w.w.w.w.w.w.w.w.w.w.w.w.w.w.w.w.w.w.w.w.w.w.w.w.w.w.w.w.w.w.w.w.w.w.w.w.w.f.f.w.t e 9 t 5 e 9 :.y.w.0.w.w.0.6.0.w.w.y.p.w.w.w.w.w.w.w.w.w.w.w.w.w.w.w.w.w.w.w.w.w.w.w.w.w.w.w.w.w.w.w.w.w.w.w.w.w.w.w.w.w.w.w.w.w.w.w.w.w.w.w.w.w.w.w.w.w.w.w.w.w.w.w.w.w.w.w.w.w.w.w.w.w.:.> d e e t 5 t w.0.w.w.w.y.w.0.0.0.0.w.w.0.0.0.w.w.w.w.w.w.w.w.w.w.w.w.w.w.w.w.w.w.w.w.w.w.w.w.w.w.w.w.w.w.w.w.w.w.w.w.w.w.w.w.w.w.w.w.w.w.w.w.w.w.w.w.w.w.w.w.w.w.w.w.w.w.w.w.0.y.y.w.w.w.^ > e e e e 9 l y.w.0.p.0.w.p.y.p.p.w.w.w.w.w.w.w.w.w.w.w.w.w.w.w.w.w.w.w.w.w.w.w.w.w.w.w.w.w.w.w.w.w.w.w.w.w.w.w.w.w.w.w.w.w.w.w.w.w.w.w.w.w.w.w.w.w.y.p.0.w.6.> 5 9 t e e 5 :.w.w.0.y.0.p.f.y.f.f.w.w.w.w.w.w.w.w.w.w.w.w.w.w.w.w.w.w.w.w.w.w.w.w.w.w.w.w.w.w.w.w.w.w.w.w.w.w.w.w.w.w.w.w.w.w.w.w.w.w.w.w.w.w.w.w.w.w.w.w.w.w.w.w.w.w.w.w.w.w.w.w.p.y.p.<.1 t 9 5 e e e y.w.w.w.w.6.6.0.0.w.y.w.y.w.w.w.w.w.w.w.w.w.w.w.w.w.w.w.w.w.w.w.w.w.w.w.w.w.w.w.w.w.w.w.w.w.w.w.w.w.w.w.w.w.w.w.w.w.w.w.w.w.w.w.w.w.w.w.w.w.w.w.w.w.w.w.w.w.w.w.w.w.w.w.w.v. .9 h e e e 9 b p.w.w.0.w.w.w.",
"e 9 9 e e e 5 &.p.0.y.w.w.w.6.w.w.w.w.w.w.w.w.w.0.6.0.y.6.> t t e 9 e e 6.0.w.0.p.w.6.y.y.6.0.w.w.w.w.w.w.w.w.w.w.w.w.w.w.w.w.w.w.w.w.w.w.w.w.w.w.w.w.w.w.w.w.w.w.w.w.w.w.w.w.w.y.6.0.6.y.6.1 h e e e e 9 w.w.w.w.y.0.0.w.6.y.0.w.w.w.w.w.w.w.w.w.w.w.w.w.w.w.w.w.w.w.w.w.w.w.w.w.w.w.w.w.w.w.w.w.w.w.w.w.w.w.w.w.w.w.w.w.w.w.w.w.w.w.w.w.w.w.w.0.0.0.6.k.d 5 h e 5 t 1 ' p.0.w.w.w.p.0.w.y.6.w.w.w.w.w.w.w.w.w.w.w.w.w.w.w.w.w.w.w.w.w.w.w.w.w.w.w.w.w.w.w.w.w.w.w.w.w.w.w.w.w.w.w.w.w.w.w.w.w.w.w.w.w.w.w.w.w.w.w.w.w.w.w.w.w.w.w.w.w.w.w.w.w.6.0.0.9 e e h 9 e 9 :.y.w.0.w.w.w.w.y.0.<.0.w.6.w.w.w.w.w.w.w.w.w.w.w.w.w.w.w.w.w.w.w.w.w.w.w.w.w.w.w.w.w.w.w.w.w.w.w.w.w.w.w.w.w.w.w.w.w.w.w.w.w.w.w.w.w.w.w.w.w.w.w.w.w.w.w.w.w.w.w.w.w.w.y.y.6.= e e 9 t 5 d y.0.w.w.w.0.6.y.w.w.w.w.w.w.w.0.w.w.w.w.w.w.w.w.w.w.w.w.w.w.w.w.w.w.w.w.w.w.w.w.w.w.w.w.w.w.w.w.w.w.w.w.w.w.w.w.w.w.w.w.w.w.w.w.w.w.w.w.w.w.w.w.w.w.w.w.w.w.w.w.0.y.w.6.w.p. .1 e e e e 9 l y.w.0.f.0.0.w.w.w.6.w.w.w.w.w.w.w.w.w.w.w.w.w.w.w.w.w.w.w.w.w.w.w.w.w.w.w.w.w.w.w.w.w.w.w.w.w.w.w.w.w.w.w.w.w.w.w.w.w.w.w.w.w.w.w.w.0.0.w.<.y.y.9 t 9 t e e 5 :.w.w.w.y.6.0.y.6.0.0.w.w.w.w.w.w.w.w.w.w.w.w.w.w.w.w.w.w.w.w.w.w.w.w.w.w.w.w.w.w.w.w.w.w.w.w.w.w.w.w.w.w.w.w.w.w.w.w.w.w.w.w.w.w.w.w.w.w.w.w.w.w.w.w.w.w.w.w.w.w.w.w.0.0.w.:.= t e e e e e y.w.w.w.w.y.w.p.w.0.0.6.w.w.w.w.w.w.w.w.w.w.w.w.w.w.w.w.w.w.w.w.w.w.w.w.w.w.w.w.w.w.w.w.w.w.w.w.w.w.w.w.w.w.w.w.w.w.w.w.w.w.w.w.w.w.w.w.w.w.w.w.w.w.w.w.w.w.w.w.w.w.w.w.w.p.W > t e t e 9 b p.w.w.0.w.w.w.",
"9 d 9 e 5 l 1 $.y.w.0.0.0.0.0.0.w.w.w.w.w.w.w.w.w.w.w.w.6.9 h 9 9 t t 5 6.w.y.w.w.w.w.w.w.w.w.w.w.w.w.w.w.w.w.w.w.w.w.w.w.w.w.w.w.w.w.w.w.w.w.w.w.w.w.w.w.w.w.w.w.w.w.w.w.w.w.w.0.w.y.w.y.:.5 h h 5 e t 5 w.0.0.w.w.w.w.w.w.w.w.w.w.w.w.w.w.w.w.w.w.w.w.w.w.w.w.w.w.w.w.w.w.w.w.w.w.w.w.w.w.w.w.w.w.w.w.w.w.w.w.w.w.w.w.w.w.w.w.w.w.w.w.w.w.w.w.6.y.y.<.f.l 9 t 5 t d 5 ' k.:.y.w.w.w.w.w.w.w.w.w.w.w.w.w.w.w.w.w.w.w.w.w.w.w.w.w.w.w.w.w.w.w.w.w.w.w.w.w.w.w.w.w.w.w.w.w.w.w.w.w.w.w.w.w.w.w.w.w.w.w.w.w.w.w.w.w.w.w.w.w.w.w.w.w.w.w.w.w.w.w.w.0.0.w.5 t e 5 h h 5 :.y.w.y.w.0.w.w.w.w.w.w.w.w.w.w.w.w.w.w.w.w.w.w.w.w.w.w.w.w.w.w.w.w.w.w.w.w.w.w.w.w.w.w.w.w.w.w.w.w.w.w.w.w.w.w.w.w.w.w.w.w.w.w.w.w.w.w.w.w.w.w.w.w.w.w.w.w.0.0.0.0.0.0.w.y.&.> h 5 e 5 t e 0.0.0.0.0.0.0.0.w.w.w.w.w.w.w.w.w.w.w.w.w.w.w.w.w.w.w.w.w.w.w.w.w.w.w.w.w.w.w.w.w.w.w.w.w.w.w.w.w.w.w.w.w.w.w.w.w.w.w.w.w.w.w.w.w.w.w.w.w.w.w.w.w.w.w.w.w.w.w.w.p.<.0.y.0.0.' 1 d 9 e 1 9 d f.6.w.w.w.w.w.w.w.w.w.w.w.w.w.w.w.w.w.w.w.w.w.w.w.w.w.w.w.w.w.w.w.w.w.w.w.w.w.w.w.w.w.w.w.w.w.w.w.w.w.w.w.w.w.w.w.w.w.w.w.w.w.w.w.w.<.w.y.y.0.w.> t d 9 9 d > :.y.0.w.w.w.w.w.w.w.w.w.w.w.w.w.w.w.w.w.w.w.w.w.w.w.w.w.w.w.w.w.w.w.w.w.w.w.w.w.w.w.w.w.w.w.w.w.w.w.w.w.w.w.w.w.w.w.w.w.w.w.w.w.w.w.w.w.w.w.w.w.w.w.w.w.w.w.w.w.w.w.w.w.w.y.<.1 d e 9 t t e p.0.w.p.<.w.w.w.w.w.w.w.w.w.w.w.w.w.w.w.w.w.w.w.w.w.w.w.w.w.w.w.w.w.w.w.w.w.w.w.w.w.w.w.w.w.w.w.w.w.w.w.w.w.w.w.w.w.w.w.w.w.w.w.w.w.w.w.w.w.w.w.w.w.w.w.w.0.0.0.0.0.0.0.0.p.$.= l 9 9 9 9 b p.&.y.w.w.<.w.",
"9 t 9 t 5 d 1 :.p.y.y.y.y.y.y.w.y.y.y.y.y.y.y.y.w.0.w.w.<.1 t t e t e 5 6.w.y.0.y.y.y.y.y.y.y.y.y.y.y.y.y.y.y.y.y.y.y.y.y.y.y.y.y.y.y.y.y.y.y.y.y.y.y.y.y.y.y.y.y.y.y.y.y.y.y.y.w.w.0.6.0.&.1 e e 5 e e 9 y.y.0.y.y.y.y.y.y.y.y.y.y.y.y.y.y.y.y.y.y.y.y.y.y.y.y.y.y.y.y.y.y.y.y.y.y.y.y.y.y.y.y.y.y.y.y.y.y.y.y.y.y.y.y.y.y.y.y.y.y.y.y.y.y.y.y.y.y.w.6.f.h 1 t t t t 1 ' k.<.y.y.y.y.y.y.y.y.y.y.y.y.y.y.y.y.y.y.y.y.y.y.y.y.y.y.y.y.y.y.y.y.y.y.y.y.y.y.y.y.y.y.y.y.y.y.y.y.y.y.y.y.y.y.y.y.y.y.y.y.y.y.y.y.y.y.y.y.y.y.y.y.y.y.y.y.y.y.y.y.y.0.y.y.9 e e 5 e e 1 &.0.6.0.w.w.y.y.y.y.y.y.y.y.y.y.y.y.y.y.y.y.y.y.y.y.y.y.y.y.y.y.y.y.y.y.y.y.y.y.y.y.y.y.y.y.y.y.y.y.y.y.y.y.y.y.y.y.y.y.y.y.y.y.y.y.y.y.y.y.y.y.y.y.y.y.y.y.w.y.y.y.y.y.y.p.<.> t 5 t 5 e t y.w.y.y.y.y.y.y.y.y.y.y.y.y.y.y.y.y.y.y.y.y.y.y.y.y.y.y.y.y.y.y.y.y.y.y.y.y.y.y.y.y.y.y.y.y.y.y.y.y.y.y.y.y.y.y.y.y.y.y.y.y.y.y.y.y.y.y.y.y.y.y.y.y.y.y.y.y.y.y.p.0.w.w.w.f.&.9 5 5 d t h l f.6.y.y.y.y.y.y.y.y.y.y.y.y.y.y.y.y.y.y.y.y.y.y.y.y.y.y.y.y.y.y.y.y.y.y.y.y.y.y.y.y.y.y.y.y.y.y.y.y.y.y.y.y.y.y.y.y.y.y.y.y.y.y.y.y.p.p.w.6.<.w.5 h 9 9 e t 1 <.f.0.y.y.y.y.y.y.y.y.y.y.y.y.y.y.y.y.y.y.y.y.y.y.y.y.y.y.y.y.y.y.y.y.y.y.y.y.y.y.y.y.y.y.y.y.y.y.y.y.y.y.y.y.y.y.y.y.y.y.y.y.y.y.y.y.y.y.y.y.y.y.y.y.y.y.y.y.y.y.y.y.w.w.y.:.> t e e e 5 5 y.0.0.y.0.y.y.y.y.y.y.y.y.y.y.y.y.y.y.y.y.y.y.y.y.y.y.y.y.y.y.y.y.y.y.y.y.y.y.y.y.y.y.y.y.y.y.y.y.y.y.y.y.y.y.y.y.y.y.y.y.y.y.y.y.y.y.y.y.y.y.y.y.y.y.y.y.w.w.w.w.w.w.w.w.w.' . d e t e 9 b k.0.f.w.p.w.p.",
"e e 9 d 5 e 5 6.w.0.6.6.6.0.6.6.6.6.6.6.6.6.6.6.w.6.w.p.<.1 e t e e 9 9 6.y.y.6.6.6.6.6.6.6.6.6.6.6.6.6.6.6.6.6.6.6.6.6.6.6.6.6.6.6.6.6.6.6.6.6.6.6.6.6.6.6.6.6.6.6.6.6.6.6.6.6.0.0.0.w.y.<.e t e e t 9 5 0.w.6.6.6.6.6.6.6.6.6.6.6.6.6.6.6.6.6.6.6.6.6.6.6.6.6.6.6.6.6.6.6.6.6.6.6.6.6.6.6.6.6.6.6.6.6.6.6.6.6.6.6.6.6.6.6.6.6.6.6.6.6.6.6.6.6.w.0.0.w.k.l 5 d d t 9 1 ' f.6.w.6.6.6.6.6.6.6.6.6.6.6.6.6.6.6.6.6.6.6.6.6.6.6.6.6.6.6.6.6.6.6.6.6.6.6.6.6.6.6.6.6.6.6.6.6.6.6.6.6.6.6.6.6.6.6.6.6.6.6.6.6.6.6.6.6.6.6.6.6.6.6.6.6.6.6.6.6.6.6.6.6.w.0.5 9 t e e t e <.y.w.0.0.0.6.6.6.6.6.6.6.6.6.6.6.6.6.6.6.6.6.6.6.6.6.6.6.6.6.6.6.6.6.6.6.6.6.6.6.6.6.6.6.6.6.6.6.6.6.6.6.6.6.6.6.6.6.6.6.6.6.6.6.6.6.6.6.6.6.6.6.6.6.6.6.6.6.6.0.6.6.6.0.w.0.1 9 9 d 5 e t 6.6.6.6.6.6.6.6.6.6.6.6.6.6.6.6.6.6.6.6.6.6.6.6.6.6.6.6.6.6.6.6.6.6.6.6.6.6.6.6.6.6.6.6.6.6.6.6.6.6.6.6.6.6.6.6.6.6.6.6.6.6.6.6.6.6.6.6.6.6.6.6.6.6.6.6.6.6.6.6.0.6.6.<.<.w.( . t e t 5 9 t w.0.6.6.6.6.6.6.6.6.6.6.6.6.6.6.6.6.6.6.6.6.6.6.6.6.6.6.6.6.6.6.6.6.6.6.6.6.6.6.6.6.6.6.6.6.6.6.6.6.6.6.6.6.6.6.6.6.6.6.6.6.6.6.6.6.6.6.6.0.0.w.9 9 e t t e > :.y.6.6.6.6.6.6.6.6.6.6.6.6.6.6.6.6.6.6.6.6.6.6.6.6.6.6.6.6.6.6.6.6.6.6.6.6.6.6.6.6.6.6.6.6.6.6.6.6.6.6.6.6.6.6.6.6.6.6.6.6.6.6.6.6.6.6.6.6.6.6.6.6.6.6.6.6.6.6.6.6.6.0.w.y.&.1 e 9 t t 9 t p.y.6.0.0.6.6.6.6.6.6.6.6.6.6.6.6.6.6.6.6.6.6.6.6.6.6.6.6.6.6.6.6.6.6.6.6.6.6.6.6.6.6.6.6.6.6.6.6.6.6.6.6.6.6.6.6.6.6.6.6.6.6.6.6.6.6.6.6.6.6.6.6.6.6.6.6.6.6.6.6.6.6.6.6.f...> d e t e 9 t w.6.w.<.0.6.0.",
"9 e e d 9 t e $.k.f.f.f.f.f.f.f.f.f.f.f.f.f.f.f.f.y.p.p.:.e 5 5 5 9 9 d 6.p.f.p.f.f.f.f.f.f.f.f.f.f.f.f.f.f.f.f.f.f.f.f.f.f.f.f.f.f.f.f.f.f.f.f.f.f.f.f.f.f.f.f.f.f.f.f.f.f.f.f.p.f.p.p.y.&.e 9 e e e e d 6.p.f.f.f.f.f.f.f.f.f.f.f.f.f.f.f.f.f.f.f.f.f.f.f.f.f.f.f.f.f.f.f.f.f.f.f.f.f.f.f.f.f.f.f.f.f.f.f.f.f.f.f.f.f.f.f.f.f.f.f.f.f.f.f.f.f.y.y.y.y.p.b 5 9 9 9 5 e ' f.y.f.f.f.f.f.f.f.f.f.f.f.f.f.f.f.f.f.f.f.f.f.f.f.f.f.f.f.f.f.f.f.f.f.f.f.f.f.f.f.f.f.f.f.f.f.f.f.f.f.f.f.f.f.f.f.f.f.f.f.f.f.f.f.f.f.f.f.f.f.f.f.f.f.f.f.f.f.f.f.f.f.f.p.6.d e e e e 9 e &.y.p.p.f.p.f.f.f.f.f.f.f.f.f.f.f.f.f.f.f.f.f.f.f.f.f.f.f.f.f.f.f.f.f.f.f.f.f.f.f.f.f.f.f.f.f.f.f.f.f.f.f.f.f.f.f.f.f.f.f.f.f.f.f.f.f.f.f.f.f.f.f.f.f.f.f.f.f.f.f.f.f.f.f.k.&.e e 9 d 9 e e f.f.f.f.f.f.f.f.f.f.f.f.f.f.f.f.f.f.f.f.f.f.f.f.f.f.f.f.f.f.f.f.f.f.f.f.f.f.f.f.f.f.f.f.f.f.f.f.f.f.f.f.f.f.f.f.f.f.f.f.f.f.f.f.f.f.f.f.f.f.f.f.f.f.f.f.f.f.f.f.f.f.f.f.f.f...e d 9 e 5 e B p.k.f.f.f.f.f.f.f.f.f.f.f.f.f.f.f.f.f.f.f.f.f.f.f.f.f.f.f.f.f.f.f.f.f.f.f.f.f.f.f.f.f.f.f.f.f.f.f.f.f.f.f.f.f.f.f.f.f.f.f.f.f.f.f.f.p.p.f.f.p.w.e 5 e e t t e <.f.p.f.f.f.f.f.f.f.f.f.f.f.f.f.f.f.f.f.f.f.f.f.f.f.f.f.f.f.f.f.f.f.f.f.f.f.f.f.f.f.f.f.f.f.f.f.f.f.f.f.f.f.f.f.f.f.f.f.f.f.f.f.f.f.f.f.f.f.f.f.f.f.f.f.f.f.f.f.f.f.f.f.p.f.&.e e 5 9 9 e h w.p.y.p.p.f.f.f.f.f.f.f.f.f.f.f.f.f.f.f.f.f.f.f.f.f.f.f.f.f.f.f.f.f.f.f.f.f.f.f.f.f.f.f.f.f.f.f.f.f.f.f.f.f.f.f.f.f.f.f.f.f.f.f.f.f.f.f.f.f.f.f.f.f.f.f.f.f.f.f.f.f.f.f.f.p...9 t 9 e 9 9 K f.p.k.y.f.f.k.",
"9 t e e 9 t e D K K D D K K K D K K K K K K K K K P W P D t t 9 e e e e K W P P K K K K K K K K K K K K K K K K K K K K K K K K K K K K K K K K K K K K K K K K K K K K K K K K K ^ W ^ P K 5 9 t 9 9 e e K P ^ K K K K K K K K K K K K K K K K K K K K K K K K K K K K K K K K K K K K K K K K K K K K K K K K K K K K K K K K K K K K K K K K K ^ W P ^ d e 9 e e 9 9 B W D P K K K K K K K K K K K K K K K K K K K K K K K K K K K K K K K K K K K K K K K K K K K K K K K K K K K K K K K K K K K K K K K K K K K K K K K K K K K K K K K K ^ P K e e 9 9 t 9 5 K P ^ W ^ K K K K K K K K K K K K K K K K K K K K K K K K K K K K K K K K K K K K K K K K K K K K K K K K K K K K K K K K K K K K K K K K K K K K K K K K K D K K K D D K K D e t 9 e e t 9 K K K K K K K K K K K K K K K K K K K K K K K K K K K K K K K K K K K K K K K K K K K K K K K K K K K K K K K K K K K K K K K K K K K K K K K K K K K K K K K K D A D P P K l 5 e 9 t e d h ^ P K K K K K K K K K K K K K K K K K K K K K K K K K K K K K K K K K K K K K K K K K K K K K K K K K K K K K K K K K K K K K K K K ^ W W K K P 9 t t 5 e t 9 D P W K K K K K K K K K K K K K K K K K K K K K K K K K K K K K K K K K K K K K K K K K K K K K K K K K K K K K K K K K K K K K K K K K K K K K K K K K K K K K K K K K K W D 9 t 9 e 5 e t P P W W K K K K K K K K K K K K K K K K K K K K K K K K K K K K K K K K K K K K K K K K K K K K K K K K K K K K K K K K K K K K K K K K K K K K K K K K K K K K K K K K K W B 5 e 9 e e e t K D P K K D P ",
"9 d e 9 9 e 9 9 9 5 5 5 5 5 5 5 5 5 5 5 5 5 5 5 > 1 1 > 1 9 d t t t e 5 9 1 > > 5 5 5 5 5 5 5 5 5 5 5 5 5 5 5 5 5 5 5 5 5 5 5 5 5 5 5 5 5 5 5 5 5 5 5 5 5 5 5 5 5 5 5 5 5 5 5 5 = 5 > 5 5 t 5 d t e 9 t 9 5 = > 5 5 5 5 5 5 5 5 5 5 5 5 5 5 5 5 5 5 5 5 5 5 5 5 5 5 5 5 5 5 5 5 5 5 5 5 5 5 5 5 5 5 5 5 5 5 5 5 5 5 5 5 5 5 5 5 5 5 5 5 5 5 5 5 = 9 > > 9 9 d t e t e 5 5 1 > > 5 5 5 5 5 5 5 5 5 5 5 5 5 5 5 5 5 5 5 5 5 5 5 5 5 5 5 5 5 5 5 5 5 5 5 5 5 5 5 5 5 5 5 5 5 5 5 5 5 5 5 5 5 5 5 5 5 5 5 5 5 5 5 5 5 5 5 5 5 5 5 5 5 5 5 5 5 5 5 5 > = 5 9 t 9 e t d 9 t 5 5 > 5 = 5 5 5 5 5 5 5 5 5 5 5 5 5 5 5 5 5 5 5 5 5 5 5 5 5 5 5 5 5 5 5 5 5 5 5 5 5 5 5 5 5 5 5 5 5 5 5 5 5 5 5 5 5 5 5 5 5 5 5 5 5 5 5 5 5 5 5 5 5 5 5 5 5 5 5 5 5 5 5 9 e 9 e 9 5 e d 9 9 9 9 9 9 9 9 9 5 5 5 5 5 5 5 5 5 5 5 5 5 5 5 5 5 5 5 5 5 5 5 5 5 5 5 5 5 5 5 5 5 5 5 5 5 5 5 5 5 5 5 5 5 5 5 5 5 5 5 5 5 5 5 5 5 5 5 5 5 5 5 5 5 5 5 5 5 5 5 5 9 1 1 5 9 5 5 9 t 9 t e 9 1 1 = 5 5 5 5 5 5 5 5 5 5 5 5 5 5 5 5 5 5 5 5 5 5 5 5 5 5 5 5 5 5 5 5 5 5 5 5 5 5 5 5 5 5 5 5 5 5 5 5 5 5 5 5 5 5 5 5 5 5 5 5 5 5 5 5 = = = = > e 1 t d 5 t t 5 5 = > 5 5 5 5 5 5 5 5 5 5 5 5 5 5 5 5 5 5 5 5 5 5 5 5 5 5 5 5 5 5 5 5 5 5 5 5 5 5 5 5 5 5 5 5 5 5 5 5 5 5 5 5 5 5 5 5 5 5 5 5 5 5 5 5 5 5 5 5 5 5 5 5 5 5 5 5 5 5 5 5 = = 9 9 1 t e e t d 9 5 > 5 1 > 5 5 5 5 5 5 5 5 5 5 5 5 5 5 5 5 5 5 5 5 5 5 5 5 5 5 5 5 5 5 5 5 5 5 5 5 5 5 5 5 5 5 5 5 5 5 5 5 5 5 5 5 5 5 5 5 5 5 5 5 5 5 5 5 5 5 5 5 5 5 5 5 5 5 5 5 5 5 5 5 9 9 9 t e e 9 e 5 9 1 9 9 1 > 5 ",
"e t 9 9 e 9 9 5 t e e e e e e e e e e e e e e e h h d 9 5 5 5 e 5 9 9 e t d d h e e e e e e e e e e e e e e e e e e e e e e e e e e e e e e e e e e e e e e e e e e e e e e e e d h 9 e 5 e 9 e 5 e e t h d d d e e e e e e e e e e e e e e e e e e e e e e e e e e e e e e e e e e e e e e e e e e e e e e e e e e e e e e e e e e e e e e e e d h 9 9 9 5 e e 5 9 e t d t h l e e e e e e e e e e e e e e e e e e e e e e e e e e e e e e e e e e e e e e e e e e e e e e e e e e e e e e e e e e e e e e e e e e e e e e e e e e e e e e e e d d d h t e e 5 9 9 e 5 e 9 h d e e e e e e e e e e e e e e e e e e e e e e e e e e e e e e e e e e e e e e e e e e e e e e e e e e e e e e e e e e e e e e e e e e e e e e e e e e e e e e e t 5 9 9 e 9 9 t e e e e e e e e e e e e e e e e e e e e e e e e e e e e e e e e e e e e e e e e e e e e e e e e e e e e e e e e e e e e e e e e e e e e e e e e e e e e e e e e e e d e 9 9 9 9 d 9 9 e e e t t d e e e e e e e e e e e e e e e e e e e e e e e e e e e e e e e e e e e e e e e e e e e e e e e e e e e e e e e e e e e e e e e e d t h t t t 9 e 9 5 d d d h t d e e e e e e e e e e e e e e e e e e e e e e e e e e e e e e e e e e e e e e e e e e e e e e e e e e e e e e e e e e e e e e e e e e e e e e e e e e e e e e e e h t h t e t 5 5 e e e 5 e d d l e e e e e e e e e e e e e e e e e e e e e e e e e e e e e e e e e e e e e e e e e e e e e e e e e e e e e e e e e e e e e e e e e e e e e e e e e e e e e e e e 5 9 t t t e 9 e t e e 9 e e 9 9 ",
"e 9 5 t d 9 t t e e 9 9 e e e e e e e e e e e e 5 5 t h t e 9 h t t e t 9 9 5 9 e e e e e e e e e e e e e e e e e e e e e e e e e e e e e e e e e e e e e e e e e e e e e e e e 9 t 1 t e d e 5 9 d 9 1 9 9 t e e e e e e e e e e e e e e e e e e e e e e e e e e e e e e e e e e e e e e e e e e e e e e e e e e e e e e e e e e e e e e e e e e e 1 d t 9 e e t t e t e 1 9 9 e e e e e e e e e e e e e e e e e e e e e e e e e e e e e e e e e e e e e e e e e e e e e e e e e e e e e e e e e e e e e e e e e e e e e e e e e e e e e e e e e t 9 9 1 9 d 9 5 e d e t 1 t 9 e e e e e e e e e e e e e e e e e e e e e e e e e e e e e e e e e e e e e e e e e e e e e e e e e e e e e e e e e e e e e e e e e e e e e e e e e e e e 9 9 e e t t 9 d t 9 9 e e e e e e e e e e e e e e e e e e e e e e e e e e e e e e e e e e e e e e e e e e e e e e e e e e e e e e e e e e e e e e e e e e e e e e e e e e e e e e e e e 1 d d 9 e e 9 9 9 9 t t 9 9 5 e e e e e e e e e e e e e e e e e e e e e e e e e e e e e e e e e e e e e e e e e e e e e e e e e e e e e e e e e e e e e e e e e e 5 9 5 9 9 e e e e d 1 1 e 9 e e e e e e e e e e e e e e e e e e e e e e e e e e e e e e e e e e e e e e e e e e e e e e e e e e e e e e e e e e e e e e e e e e e e e e e e e e e e e e e e e 9 5 e 5 e d e d 9 9 e e d e 1 e e e e e e e e e e e e e e e e e e e e e e e e e e e e e e e e e e e e e e e e e e e e e e e e e e e e e e e e e e e e e e e e e e e e e e e e e e e e e e e e e e e t 9 9 9 9 t 9 e t 5 9 d d e ",
"e 9 5 t d 9 t t 9 9 d e e t 9 e 9 9 9 9 9 9 9 9 9 9 9 9 9 9 9 9 9 9 9 9 9 9 9 9 9 9 9 9 9 9 9 9 9 9 9 9 9 9 9 9 t e t t e 9 9 e e e t 9 e t e 9 9 9 e 9 9 9 9 9 9 9 9 9 9 9 9 9 9 9 9 9 9 9 9 9 9 9 9 9 9 9 9 9 9 9 9 9 9 9 9 9 9 9 9 9 9 9 9 9 9 9 9 9 9 9 9 9 e d e t e 5 t e 9 9 e e e d 9 1 9 5 e e 9 e t 5 9 9 9 9 9 9 9 9 9 9 9 9 9 9 9 9 9 9 9 9 9 9 9 9 9 9 9 9 9 9 9 9 9 9 9 9 9 9 9 9 9 9 9 9 9 9 9 9 9 9 9 9 9 9 9 9 9 9 9 9 9 9 9 9 9 d 9 9 t 9 e e t e e t e 9 9 t 9 9 9 9 9 9 9 9 9 9 9 9 9 9 9 9 9 9 9 9 9 9 9 9 9 9 9 9 9 9 9 9 9 9 9 9 9 9 9 9 9 9 9 9 9 9 9 9 9 9 9 9 9 9 9 9 9 9 9 9 9 9 9 9 9 9 9 9 9 9 9 9 9 9 9 9 9 9 9 9 9 t e 9 t e 9 9 5 t e 5 9 9 e 1 t e t e e e t e 9 9 9 9 9 9 9 9 9 9 9 9 9 9 9 9 9 9 9 9 9 9 9 9 9 9 9 9 9 9 9 9 9 9 9 9 9 9 9 9 9 9 9 9 9 9 9 9 9 9 9 9 9 9 9 9 9 9 9 9 9 9 9 9 t 9 e t e e t e t 9 e 9 e 9 5 e t e e t e 9 e t 9 9 9 9 9 9 9 9 9 9 9 9 9 9 9 9 9 9 9 9 9 9 9 9 9 9 9 9 9 9 9 9 9 9 9 9 9 9 9 9 9 9 9 9 9 9 9 9 9 9 9 9 9 9 9 9 9 9 9 9 9 9 9 9 t t e e t e 5 e e e 9 9 e t 9 t t e e 5 e t 1 9 9 9 9 9 9 9 9 9 9 9 9 9 9 9 9 9 9 9 9 9 9 9 9 9 9 9 9 9 9 9 9 9 9 9 9 9 9 9 9 9 9 9 9 9 9 9 9 9 9 9 9 9 9 9 9 9 9 9 9 9 9 9 9 9 d e e e e t t 5 5 e e 1 e d e 9 9 9 e e 9 9 9 e 9 9 9 9 9 9 9 9 9 9 9 9 9 9 9 9 9 9 9 9 9 9 9 9 9 9 9 9 9 9 9 9 9 9 9 9 9 9 9 9 9 9 9 9 9 9 9 9 9 9 9 9 9 9 9 9 9 9 9 9 9 9 9 9 9 9 9 9 9 9 9 9 9 e e e e 9 9 e 9 9 e e 9 9 9 5 e e d t e e 9 t 9 9 9 9 9 9 9 9 9 9 9 9 9 9 9 9 9 9 9 9 9 9 9 9 9 9 9 9 9 9 9 9 9 9 9 9 9 9 9 9 ",
"e t 9 9 e 9 9 5 t t h e 9 t e d t t t t t t t t t t t t t t t t t t t t t t t t t t t t t t t t t t t t t t t t 9 5 9 e e 9 e t d e e e d t e d t t t t t t t t t t t t t t t t t t t t t t t t t t t t t t t t t t t t t t t t t t t t t t t t t t t t t t t t 5 e 5 e e 9 t e d e 9 9 e t e d t e t d t t d e t t t t t t t t t t t t t t t t t t t t t t t t t t t t t t t t t t t t t t t t t t t t t t t t t t t t t t t t t t t t t t t t 9 t 9 9 t 9 9 e e e e t e t d h t t t t t t t t t t t t t t t t t t t t t t t t t t t t t t t t t t t t t t t t t t t t t t t t t t t t t t t t t t t t t t t t t t t t t t t t t t t t t t t t e t 9 5 e e 5 9 5 9 9 t d t h h e 9 9 e e e t e t t t t t t t t t t t t t t t t t t t t t t t t t t t t t t t t t t t t t t t t t t t t t t t t t t t t t t t t t t t t t t t t t e e t 9 e t 9 5 9 t 9 e h h h e t t t t e e e t t t t t t t t t t t t t t t t t t t t t t t t t t t t t t t t t t t t t t t t t t t t t t t t t t t t t t t t t t t t t t t t 9 e 9 9 t t e t e 9 e 9 e t 5 9 t e t e t d e h t t t t t t t t t t t t t t t t t t t t t t t t t t t t t t t t t t t t t t t t t t t t t t t t t t t t t t t t t t t t t t t t 9 5 e t e t t e e t e 9 t t 9 t e t t t t t t t t t t t t t t t t t t t t t t t t t t t t t t t t t t t t t t t t t t t t t t t t t t t t t t t t t t t t t t t t t t t t t t t t t t t t t t t e t t t e e e t e e t t e t d d 9 9 e e e e 9 t t t t t t t t t t t t t t t t t t t t t t t t t t t t t t t t t t t t t t t t t ",
"9 d e 9 9 e 9 9 5 1 e 1 1 e 5 9 9 9 9 9 9 9 9 9 9 9 9 9 9 9 9 9 9 9 9 9 9 9 9 9 9 9 9 9 9 9 9 9 9 9 9 9 9 9 9 9 e 9 9 e e e e t 9 9 1 9 9 1 > e 9 5 5 5 5 5 5 9 9 9 9 9 9 9 9 9 9 9 9 9 9 9 9 9 9 9 9 9 9 9 9 9 9 9 9 9 9 9 9 9 9 9 9 9 9 9 9 9 9 9 9 9 9 9 9 9 9 e 5 e e 9 d e 9 5 1 5 5 > > e e 5 5 9 5 9 9 5 9 9 9 9 9 9 9 9 9 9 9 9 9 9 9 9 9 9 9 9 9 9 9 9 9 9 9 9 9 9 9 9 9 9 9 9 9 9 9 9 9 9 9 9 9 9 9 9 9 9 9 9 9 9 9 9 9 9 9 9 9 9 9 9 9 e 9 9 t 9 5 t 5 1 5 9 5 9 e 5 9 9 9 9 9 9 9 9 9 9 9 9 9 9 9 9 9 9 9 9 9 9 9 9 9 9 9 9 9 9 9 9 9 9 9 9 9 9 9 9 9 9 9 9 9 9 9 9 9 9 9 9 9 9 9 9 9 9 9 9 9 9 9 9 9 9 9 9 9 9 9 9 9 9 9 9 9 9 9 9 5 9 5 5 t e 9 e d e 9 9 5 1 = 1 9 9 9 e 9 e t e 9 9 9 9 9 9 9 9 9 9 9 9 9 9 9 9 9 9 9 9 9 9 9 9 9 9 9 9 9 9 9 9 9 9 9 9 9 9 9 9 9 9 9 9 9 9 9 9 9 9 9 9 9 9 9 9 9 9 9 9 9 9 9 9 9 5 e e 9 9 t e 9 t e 5 1 5 1 # 1 5 5 5 9 9 5 9 9 9 9 9 9 9 9 9 9 9 9 9 9 9 9 9 9 9 9 9 9 9 9 9 9 9 9 9 9 9 9 9 9 9 9 9 9 9 9 9 9 9 9 9 9 9 9 9 9 9 9 9 9 9 9 9 9 9 9 9 9 9 9 9 9 e 9 9 e e 9 t t 9 t 1 5 9 5 e 9 1 9 5 5 9 5 t 9 9 9 9 9 9 9 9 9 9 9 9 9 9 9 9 9 9 9 9 9 9 9 9 9 9 9 9 9 9 9 9 9 9 9 9 9 9 9 9 9 9 9 9 9 9 9 9 9 9 9 9 9 9 9 9 9 9 9 9 9 9 9 9 9 5 e t e e t 9 5 9 1 5 e 5 > 9 5 5 9 9 9 5 9 9 9 9 9 9 9 9 9 9 9 9 9 9 9 9 9 9 9 9 9 9 9 9 9 9 9 9 9 9 9 9 9 9 9 9 9 9 9 9 9 9 9 9 9 9 9 9 9 9 9 9 9 9 9 9 9 9 9 9 9 9 9 9 9 9 9 9 9 9 9 9 9 9 9 9 9 9 5 5 5 5 t t d e 5 1 1 # 9 5 5 e e 9 e e 9 9 9 9 9 9 9 9 9 9 9 9 9 9 9 9 9 9 9 9 9 9 9 9 9 9 9 9 9 9 9 9 9 9 9 9 9 9 9 9 ",
"9 t e e 9 t e D D A K A D P b d h h h h h h h h h h h h h h h h h h h h h h h h h h h h h h h h h h h h h h h h b d t e e e e e e D A K D A A P l h h h h h h h h h h h h h h h h h h h h h h h h h h h h h h h h h h h h h h h h h h h h h h h h h h h h h h h l l e e e 9 t e 9 B D K P B B D b h h l h h l h h h h h h h h h h h h h h h h h h h h h h h h h h h h h h h h h h h h h h h h h h h h h h h h h h h h h h h h h h h h h h h h h t e e 9 e 9 5 h P A D K A K A t h h h h h h h h h h h h h h h h h h h h h h h h h h h h h h h h h h h h h h h h h h h h h h h h h h h h h h h h h h h h h h h h h h h h h h h h h h h h h h h h d h d h l d e e t e 5 e d K D P D D D D t d d d h h h h h h h h h h h h h h h h h h h h h h h h h h h h h h h h h h h h h h h h h h h h h h h h h h h h h h h h h h h h h h h h d d h h e e t e 9 t e B D P K D D P B d l l h l h h h h h h h h h h h h h h h h h h h h h h h h h h h h h h h h h h h h h h h h h h h h h h h h h h h h h h h h h h h h h h h h h l d 9 e e 9 e 9 9 K B A D A K P l l h d h d l h h h h h h h h h h h h h h h h h h h h h h h h h h h h h h h h h h h h h h h h h h h h h h h h h h h h h h h h h h h h h h h h h e e t 9 9 9 5 l K D D K D A A h h l l h h h l h h h h h h h h h h h h h h h h h h h h h h h h h h h h h h h h h h h h h h h h h h h h h h h h h h h h h h h h h h h h h h h h h h h h h h h h h l l l l h t e 9 9 t t e b W P D D A K B t t d h h h h h h h h h h h h h h h h h h h h h h h h h h h h h h h h h h h h h h h h ",
"9 e e d 9 t e $.v.f.f.p.f.f...K D D K D D D D D D D K D D D D D D D K D D D D D D D K D D D D D D D K D D D D D K b d e e 9 9 e b w.y.k.p.k.f.v.P K D D K D D K D D K D D D D D D D K D D D D D D D K D D D D D D D K D D D D D D D K D D D D D D D K D D D D D D A t e e 9 t 9 h 6.f.f.k.p.f.f.^ D D K D D K D D D K D D D D D D D K D D D D D D D K D D D D D D D K D D D D D D D K D D D D D D D K D D D D D D D K D D D D D D D K D D D D D h e e 9 e 9 5 B m.p.p.f.p.k.w.W D D K D D D D D D D K D D D D D D D K D D D D D D D D D D D D D D D D D D D D D D D D D D D D D D K D D D D D D D D D D D D D D D D D D D D D D D K D D D D D D K K D D D h 9 9 9 9 5 t A p.p.p.f.p.p.y.P K K P D D D D D D D D D D D D D D D D D K D D D D D D D D D D D D D D D D D D D D D D D K D D D D D D D D D D D D D D D D D D D D D D K D K A d e e 9 e 9 9 $.y.f.p.f.w.y...A D D A D D K D D D D D D D D D D D D D D D D D D D D D D D K D D D D D D D D D D D D D D D D D D D D D D D K D D D D D D D D D D D D D D K K b e e e e t e l p.p.f.f.y.y.w.W K D D K A D D D D D D D D D D K D D D D D D D D D D D D D D D D D D D D D D D K D D D D D D D D D D D D D D D D D D D D D D D K D D D D D D D d 9 e e e 9 1 ..k.f.p.f.f.f.6.D D K K K K K K D D D D D D D D D D D D D D D D D K D D D D D D D D D D D D D D D D D D D D D D D K D D D D D D D D D D D D D D D D D D D D D D D K D D D D D D A D K D D A l e d e e 5 9 ( f.v.p.k.p.f.<.P K P D D D D D D D D D D D D D D D D D K D D D D D D D D D D D D D D D D D D D D D D ",
"e e 9 d 5 e 5 6.0.<.0.<.w.w.^ h D D D D D D D D D D D D D D D D D D D D D D D D D D D D D D D D D D D D D D D D P b t 9 9 9 9 e 1 0.6.w.<.0.6.6.P A B A D A A D D D D D D D D D D D D D A A D D D D D D D D D D D D D D D D D D D D D D D D D D D D D D D D D D K A e 9 9 9 t 9 = :.w.6.6.<.w.0.^ A B D A A D A D D D D D D D D D D D D D D D D D D D D D D D D D D D D D D D D D D D D A A D D D D D D D D D D D D D D D D D D D D D D D D D D b 9 t 9 9 9 5 D p.<.6.0.6.y.:.l D D D D D D D D D D D D D D D D D D D D A A D D D D D D D D D D D D D D D D D D D D D D D D D D D D D D D D D D D D D D D D D D D D D D D D D D D D D D D D D D D D D K K h 9 9 t t 9 9 l f.0.6.0.0.0.0.b B B B D D D D D D D D D D D D D D D D D D D D D D D D D D D D D D D D D D D D D D D D D D D D D D D D D D D D D D D D D D D D D D D D K D K A d 9 e e d e 1 <.p.y.0.0.y.f. .b A D B D D D D D D D D D D D D D D D D D D D D D D D D D D D D D D D D D D D D D D D D D D D D D D D D D D D D D D D D D D D D D D D D D K K b e 9 e e t 1 e y.6.0.0.0.0.y.P B A A D A A D D D D D D D D D D D D D D D D D D D D D D D D D D D D D D D D D D D D D D D D D D D D D D D D D D D D D D D D D D D D D D D D P d 5 9 e t e 5 K w.0.6.6.0.y...A A D D A A A D D D D D D D D D D D D D D D D D D D D D D D D D D D D D D D D D D D D D D D D D D D D D D D D D D D D D D D D D D D D D D D D D D D D D D D D D B A D A A B d 1 t 9 t 9 1 P w.0.6.y.6.p.&.b B A D D D D D D D D D D D D D D D D D D D D D D D D D D D D D D D D D D D D D D D D ",
"9 t 9 t 5 d 1 :.w.0.y.0.p.f...D D D D D D D D D D D D D D D A A D D D D D D D D D D D D D D D D D D D D D D D D K l e 9 e e e 9 d k.w.f.0.y.0.w.W A B A D A A D D D D D D D D D D D D D D D D D D D D D D D D D D D D D D D D D D D D D D D D D D D D D D D D D D B 9 9 e 9 t 9 e y.p.w.y.6.y.y.( A B D A A D A D D D D A A D D D D D D D D D D D D D D D D D D D D D D D D D D D D D D D D D D D D D D D D D D D D D D A D D D D D D D D D D D l 5 t e e e 1 D k.0.y.p.0.f.w.D D D D D D D D D D D D D D D D D D D D D D D D D D D D D D D D D D D D D D D D D D D D D D D D D D D D D D D D D D D D D D D D D D D D D D D D D D D D D D D D D B B B A D h 9 e t e 9 e l f.6.w.w.0.0.y.B K P K D D D D D D D D D D D D D D D D D D D D D D D D D D D D D D D D D D D D D D D D D D D D D D D D D D D D D D D D D D D D D D D D B B D B t 9 t t e t 1 :.w.w.0.0.0.f. .b D P A K D D D D D D D D D D D D D D D D D D D D D D D D D D D D D D D D D D D D D D D D D D D D D D D D D D D D D D D D D D D D D D D D A D l 9 9 e 9 e h h f.<.6.0.y.y.y.K A K A D D D D D D D D D D D D D D D D D D D D D D D D D D D D D D D D D D D D D D D D D D D D D D D D D D D D D D D D D D D D D D D D D D D K d 5 e e e e 5 ( f.y.y.y.w.f.:.A A D D A A D D D D D D D D D D D D D D D D D D D D D D D D D D D D D D D D D D D D D D D D D D D D D D D D D D D D D D D D D D D D D D D D D D D D D D D D D D D K D A D D l 5 1 1 d t e ( p.6.0.y.6.f.<.A P P D D D D D D D D D D D D D D D D D D D D D D D D D D D D D D D D D D D D D D D D ",
"9 d 9 e 5 l 1 $.y.w.y.6.6.0.( A A A A A A A A A A A A A A A A A A A A A A A A A A A A A A A A A A A A A A A A A D l t e t t e 9 d y.&.y.0.w.0.p.W A B A D A A D A A A A A A A A A A A A A A A A A A A A A A A A A A A A A A A A A A A A A A A A A A A A A A A A D B e e t e t 5 5 <.6.w.f.6.w.y.( A B D A A D A A A A A A A A A A A A A A A A A A A A A A A A A A A A A A A A A A A A A A A A A A A A A A A A A A A A A A A A A A A A A A A A A l 1 d e t e > D p.6.y.y.:.y.0.A A A A A A A A A A A A A A A A A A A A A A A A A A A A A A A A A A A A A A A A A A A A A A A A A A A A A A A A A A A A A A A A A A A A A A A A A A A A A A A A A K K A D D h 9 t e 9 9 d l y.<.p.f.w.0.p.B K D b A A A A A A A A A A A A A A A A A A A A A A A A A A A A A A A A A A A A A A A A A A A A A A A A A A A A A A A A A A A A A A A A D D K A t 9 e e 5 h 5 :.6.w.y.y.0.k.$.B K P b A A A A A A A A A A A A A A A A A A A A A A A A A A A A A A A A A A A A A A A A A A A A A A A A A A A A A A A A A A A A A A A A A A K b e e t e e 5 5 p.0.y.f.y.6.w.D A P A A A D A A A A A A A A A A A A A A A A A A A A A A A A A A A A A A A A A A A A A A A A A A A A A A A A A A A A A A A A A A A A A A A A D d 9 e e 9 9 5 ( y.6.w.w.:.w.:.A A D D A A A D A A A A A A A A A A A A A A A A A A A A A A A A A A A A A A A A A A A A A A A A A A A A A A A A A A A A A A A A A A A A A A A A A A A A A A A A D D A B A A l 9 d 9 d 9 > W p.w.p.p.<.y.&.b D D A A A A A A A A A A A A A A A A A A A A A A A A A A A A A A A A A A A A A A A A ",
"e 9 9 e e e 5 &.y.w.w.y.6.p.' B D D D D D D D D D D D A A D D D D D D D D D D D D D D D D D D D D D D D D D D D D B 5 t 9 t e 9 d w.w.y.0.w.w.w.P A A D A A D A D D D D D D D D D D D D D D D D D D D D D D D D D D D D D D D D D D D D D D D D D D A D D D A A D D 5 e 9 e 9 e 9 6.y.y.0.y.0.y.^ B D D A K A D D D D D D D D D D D D D D D D D D D D D D D D D D D D D D D D D D D D D D D D D D D D D D D D D D D D D D A D D A D D D A A D D h 5 t 9 e t 5 A p.w.w.0.y.0.0.D D D D D D D D D D D D D D D D D D D D D D D D D D D D D D D D D D D D D D D D D D D D D D D D D D D D D D D D D D D D D D D D D D D D D D D D A D D A D D D D A D D A D D l 9 e 9 e e 5 B p.0.w.0.w.y.6.D A D D D D D D D D D D D D D D D D D D D D D D D D D D D D D D D D D D D D D D D D D D D D D D D D D D D D D D D D D D D D D D D D D A D D A D e t 9 e e t 5 ..p.w.0.w.w.p.' A D A D D D D D D D D D D D D D D D D D D D D D D D D D A D D D D D D D D D D D D D D D D D D D D D D D A D D A D D D D A D D D D D D D D A D B 5 e 9 t 9 9 h y.0.y.0.y.0.w.K A D A D A D D D A D D D A D D D D A D D D D D D D D D D D D D D D D D D D A D D D D D D D D D D D D D D D D D D D D D D D D D D D D D D D D K t 9 t 9 e e 1 ^ p.w.0.y.0.w.:.B D D D A D D D D D D D D D D D D D A D D D A D D D D A D D D D D D D D D D D D D D D D D D D A D D D D D D D D D D D D D D D D D D D D D D D D D D D D D D D D D A A D B K t e 9 t 9 t 1 W y.w.0.y.w.w.<.b K A D D D D D D D D D D A D D D A D D D D A D D D D D D D D D D D D D D D D D D D A ",
"e 9 9 e e e 5 &.y.w.w.y.6.p.' B D D D D D D D D D D D D D D D D D D D D D D D D A A D D D D D D D D D D D D D D D B 5 t 9 e e 9 d w.w.y.0.w.w.w.P A A D A A D A D D D D D D D D D D D D D D D D D D D D D D D D A A D D D D D D D D D D D D D D D D A D D D D D D D 5 e 9 e 9 e 9 6.y.y.0.y.0.y.^ B D D A K A D D D D D D D D D D D D D D D D D A A D D D D D D D D D D D D D D D D D D D D D D D D D D D D D D D D D D D A D D A D D D A A D D h 5 t 9 e t 5 A p.w.w.0.y.0.0.D A A D D D D D D D D D D D D D D D D D D D D D D D D D D A D D D D D D D D D D D A D D D D D D D D D D D D D D D D D D D D A D D D D D D D D D A D A A D D D D D D D A D D l 9 e 9 e e 5 B p.0.w.0.w.y.6.D A D D D D D D D D D D D D D D D D A A D D D D A D D D D D D D D D D D A D D D D D D D D D D D D D D D D D D D D A D D D D D D D D D A D D A D e t 9 e e t 5 ..p.w.0.w.w.p.' A D A D D D D D D A D D D D D D D D A D D D D D D D D D A D D D D A D D D D D D D D D D D D D A A D D D D D D A D D D D D D D D D D A D D A D B 5 e 9 t 9 9 h y.0.y.0.y.0.w.K A D A D A D D D D D D D A D D D D D D D D A D D D D D A D D D D D D D D D A D D D D A D D D D D D D D D D D A A D D D D D D D D D D D D D D K t 9 t 9 e e 1 ^ p.w.0.y.0.w.:.B D D D A D D D D D D D D D D D D D D D D D A D D D D D D D D A D D D D D A D D D D D D D D D A D D D D A D D D D D D D D D D D A D D D D D D D D D D D D D D D D A A D B K t e 9 t 9 t 1 W y.w.0.y.w.w.<.b K A D D D D D D D D D D D D D D A D D D D D D D D A D D D D D A D D D D D D D D D A ",
"e 9 9 e e e 5 &.y.w.w.y.6.p.' B D D D D D D D D D D D D D D D D D D D D D D D D D D D D D D D A D D D D D D D D D B 5 t 9 e e 9 d w.w.y.0.w.w.w.P A A D A A D A D D D D D D D D D D D D D A D D D D D D D D D D D D D D D D D A D D D D D D D D D D D D D D D D D D 5 e 9 e 9 e 9 6.y.y.0.w.0.y.^ B D D A K A D D D A D A D D D D D D D D D D D D D D D D D D A D D D D D D D D D D D D D A D D D D D D D D D D D D D D D D D D A D D D A A D D h 5 t 9 e t 5 A p.w.w.0.y.0.0.D D D D D D D D A D D D D D D D D D D D D D A D D A A D D D D D D D D D D D D D D D D D D D D D A D D A D D D D D D D D D D A D D D D D A D D D D D D D D D D D D D D A D D l 9 e 9 e e 5 B p.0.w.0.w.y.6.D A D D D D D D A A D D D D A A D D D D A A D D D D D D D D D D D D D D D D D D D D D A D D A D D D D D D D D D D A D D D D D A D D D D D D A D e t 9 e e t 5 ..p.w.0.w.w.p. .A D D D D D A D D A D D D D D D D D A D D D D D A D D D D A A D D D D D D D D D D D D D D D D D D D D D D D D D D D D D D D D D D D A D D A D B 5 e 9 t 9 9 h y.0.y.0.y.0.w.K A D A D A D D D D D D D D D D D D D D D D A D D D D D A D D D D D A D D D D A A D D D D D D D D D D D D D D D D D D D D D A D D D D D D D D K t 9 t 9 e e 1 ^ p.w.0.y.0.w.:.B D D D A D D D D D D D D D D D D D D D D D D D D D D D D D D A D D D D D A D D D D D A D D D D A A D D D D D D D D D D D D D D D D D D D D D A D D A D D D D D D A A D B K t e 9 t 9 t 1 W y.w.0.y.w.w.<.b K A D D D D D D D D D D D D D D D D D D D D D D D A D D D D D A D D D D D A D D D D ",
"e 9 9 e e e 5 &.y.w.w.y.6.p.' B D D D D A D D D D D D D D D D D D D D D A D D D D D D D D D D A D D D D A D D D D B 5 d 9 e e 9 d w.w.y.0.w.w.w.P A A D A A D A D D D D A D D D A D D D D A D D D D D D A D D D D D D D D D D A D D D D A D D D D D D D D D D D D D 5 e 9 e 9 e 9 6.y.y.0.y.0.y.^ B D D A K A D D D A D A D D D D D D D A D D D D D D D D D D A D D D D A D D D A D D D D A D D D D D D A D D D D D D A D D D D A D D D A A D D h 5 t 9 e t 5 A p.w.w.0.y.0.0.D D D D D D D D A D D D D A D D D A D D D D A D D D D D D D D D D D D D D D D D D D D D D D D D A D D D D D D A A D D D D D D D D D D D A D D D D D D D D D D D D D D A D D l 9 e 9 e e 5 B p.0.w.0.w.y.6.D A D D D D D D D D D D D D D D D D D D D D D D D D D D D D D D D D D D D D D D D D D A D D D D D D A A D D D D D D D D D D D A D D D D D D A D e t 9 e e t 5 ..p.w.0.w.w.p. .A D D D D D A D D D D D D D D D D D D D D D D D A D D D D D D D D D D D D D D D D D D D D D D D D D D D D D D D D D D D D D D D D D D D D A D B 5 e 9 t 9 9 h y.0.y.0.y.0.w.K A D A D A D D D D D D D D D D D D D D D D D D D D D D D D D D D D A D D D D D D D D D D D D D D D D D D D D D D D D D D D A D D A D D D D D K t 9 t 9 e e 1 ^ p.w.0.y.0.w.:.B D D D A D D D D D D D D D D D D D D D D D D D D D D D D D D D D D D D D D D D D D D A D D D D D D D D D D D D D D D D D D D D D D D D D D D A D D D D D D A A D A A D B K t e 9 t 9 t 1 W y.w.0.y.w.w.<.b K A D D D D D D D D D D D D D D D D D D D D D D D D D D D D D D D D D D D A D D D D ",
"e 9 9 e e e 5 &.y.w.w.y.6.p.' B D D D D D D D D D D D D D D D D D D D D D D D D D D D D D D A A D D D D D D D D D B 5 d 9 e e 9 d w.w.y.0.w.w.w.P A A D A A D A D D D D D D D D D D D D D D D D D D D D D D D D D D D D D D A A D D D D D D D D D A D D A A D D D D 5 e 9 e 9 e 9 <.y.y.0.y.0.y.^ B D D A K A D D D D D D D D D D D D D D D D D D D D D D D A A D D D D D D D D D D D D D D D D D D D D D D D D D D D A D D D D A D D D A A D D h 5 t 9 e t 5 A p.w.w.0.y.0.0.D D D D D D D A A D D D D D D D D D D D D D D D D D D D D A D D D D D D D D D D D D D D D D D A A D A A D D D D D D D D D D D D D D D D D D D D D D D D D D D D D D D A D D l 9 e 9 e e 5 B p.0.w.0.w.y.6.D A D D D D D D D D D D D D D D D D D D D D D D A D D D D D D D D D D D D D D D D D A A D A A D D D D D D D D D D D D D D D D D D D D D D D A D e t 9 e e t 5 ..p.w.0.w.w.p.' A D A D D D D D D A D D D D D D D D D D D D D D D D D D D D D D D A D D D D D D D D D D D D D A D A D D D D D D D D D D D D D D D D D D D A D B 5 e 9 t 9 9 h y.0.y.0.y.0.w.K A D A D A D A A D D D A D D D D D D D D D D D D D D D D D D D D D D D D D D D D D D A D D D D D D D D D D D D D D D D D D A D A A D D D D D K t 9 t 9 e e 1 ^ p.0.0.y.0.w.:.B D D D A D D D D D A D D D D A A A D D D A D D D D D D D D D D D D D D D D D D D D D D D D D D D D D D A D D D D D D D D D D D D D D D D D A A D A A D D D D D D A A D B K t e 9 t 9 t 1 W y.w.0.y.w.w.<.b K A D D A D D D D A A A D D D A D D D D D D D D D D D D D D D D D D D D D D D D D D ",
"e 9 9 e e e 5 &.y.w.w.y.6.p.' B D D D A D A D D D D D A D D D D D D D A D A D D D D D D D D D D D D D A D A D D D B 5 t 9 e e 9 d w.w.y.0.w.w.w.P A A D A A D A D D D A D A D D D D D D D D D D D D D A D A D D D D D D D D D D D D D A D A D D D D D D D D D D D D 5 e 9 e 9 e 9 <.y.y.0.y.0.y.^ B D D A K A D D D D D D D D D D D D A D A D D D D D D D D D D D D D A D A D D D D D D D D D D D D D A D A D D D D D D D D D D A D D D A A D D h 5 t 9 e t 5 A p.w.w.0.y.0.0.D D D D D D D D D D D D A D A D D D D D D D D D D D D D D A D D D D A A D D A D A D A D D D D D D D D D D D D D D D D D D D A D D D D D D D D A A D D D D D D D D D D A D D l 9 e 9 e e 5 B p.0.w.0.w.y.6.D A D D D D D D D A D D D D D D D D D A D D D D A D D D D A A D D A D A D A D D D D D D D D D D D D D D D D D D D A D D D D D D D D A A D D A D e t 9 e e t 5 ..p.w.0.w.w.p.' A D A D D D D D D D D D D D D D D D A D D D D D D D D A A D D D D A D D D D A A D D A D A D D D D A D D D D D D D D D D D D D D D D A D D A D B 5 e 9 t 9 9 h y.0.y.0.y.0.w.K A D A D A D D D D D D A D D D D A A D D D D D D D D D A D D D D D D D D A A D D D D A D D D D A A D D A D A D D D D D D D D D A D D D D D D K t 9 t 9 e e 1 ^ p.w.0.y.0.w.:.B D D D A D D D D D A D D A D D D D D D D A D D D D A A D D D D D D D D D A D D D D D D D D A A D D D D A D D D D A A D D A D A D A D D D D D D D D D D D D D D D A A D B K t e 9 t 9 t 1 W y.w.0.y.w.w.<.b K A D D A D D A D D D D D D D A D D D D A A D D D D D D D D D A D D D D D D D D A A ",
"e 9 9 e e e 5 &.y.w.w.y.6.p.' B D D D A D D D D D D D D A A D D D D D A D D D D D A D D D D D D D D D A D D D D D B 5 t 9 e e 9 d w.w.y.0.w.w.w.P A A D A A D A D D D A D D D D D D D D D D A D D D D A D D D D D A D D D D D D D D D A D D D D D D D D D D D D D D 5 e 9 e 9 e 9 6.y.y.0.y.0.y.^ B A D A K A D D D D A D D D D D D D A D D D D D A D D D D D D D D D A D D D D D D D D D D A D D D D A D D D D D D D D D D D D A D D D A A D D h 5 t 9 e e 5 A p.w.w.0.y.0.0.D D A D D D D D D D D D A D D D D D D D D D D A D A D D D D D D D D D D D D D D D D A D D D D D D D D D D D D D D D D D D D D D D D D D A D D D D D D D A D D D D D D A D D l 9 e 9 e e 5 B p.0.w.0.w.y.6.D A D D D D D D D D D D D D D D D D D A A D D D D D D D D D D D D D D D D A D D D D D D D D D D D D D D D D D D D D D D D D D A D D D D D D A D e t 9 e e t 5 ..p.w.0.w.w.p.' A D A D D D D D D D D D D D D D D D D D D D D D A D D D D A D D D D D D D D D D D D D D D D D D D D D D D D D A A D D D D D D D D D D D D A D B 5 e 9 e 9 9 h y.0.y.0.y.0.w.K A D A D A D D D D D D D D D D D D D D D A A D D D D D D D D D D D A D D D D A D D D D D D D D D D D D D D D A A D D D D D D D D D D D D D D K t 9 t 9 e e 1 W p.w.0.y.0.w.&.B D D D A D D D D D D D D D D D D D D D D D D D D D D D D D A A D D D D D D D D D D D A D D D D A D D D D D D D D D D D D D D D D A D D D D D D D D D D D D D D D A A D B K t e 9 t 9 t 1 W y.w.0.y.w.w.<.b K A D D D D D D D D D D D D D D D D D D D D D D A A D D D D D D D D D D D A D D D D ",
"e 9 9 e e e 5 &.y.w.w.y.6.p.' B D D D D D D D D D D D D D D D D D D D D D D D D D D D D D D D D D D D D D D D D D B 5 t 9 e e 9 d w.w.y.0.w.w.w.P A A D A A D A D D D D D D D D D A A D D D A D D D D D D D D D D D D D D D D D D D D D D D D D D D D D D D D D D D 5 e 9 e 9 e 9 6.y.y.0.y.0.y.^ B D D A K A D D D D D D D D A D D D D D D D D D D D D D D D D D D D D D D D D D A A D D D A D D D D D D D D D D D D D D D D D A D D D A A D D h 5 t 9 e e 5 A p.w.w.0.y.0.0.D D D D D D D D D D D D D D D D D D A A D D D A D A D D D D D D D D D D D D D D D D D D D D D D D D D D D D D D D D D D D D A D D D D D D D D D D D D D D D D D D D D A D D l 9 e 9 e e 5 B p.0.w.0.w.y.6.D A D D D D D D A D D D D D D A D D D D A D D D D D D D D D D D D D D D D D D D D D D D D D D D D D D D D D D D D A D D D D D D D D D D D D A D e t 9 e e t 5 ..p.w.0.w.w.p.' A D A D A A D D D D D D D D D D D D A D D D D D D D D D D A D D D D D D D D D D D D D D D D D D D D D D D D D D D D A A D D D D D D A D D A D B 5 e 9 t 9 9 h y.0.y.0.y.0.w.K A D A D A D D D D D D D D D D D D D D D D D D D D D D A D D D D D D D D D D A D D D D D D D D D D D D D D D D D D D D D D D D D D D D D D D K t 9 t 9 e e 1 W p.w.0.y.0.w.&.B D D D A D D D D D D D D D D D D D D D D D D D D D D D D D D D D D D D D A D D D D D D D D D D A D D D D D D D D D D D D D D D D D D D D D D D D D D D D D D D D A A D B K t e 9 t 9 t 1 W y.w.0.y.w.w.<.b K A D D D D D D D D D D D D D D D D D D D D D D D D D D D D D A D D D D D D D D D D ",
"e 9 9 e e e 5 &.y.0.0.w.6.p.' B D D D D D D D D D D D D A A D D D D D A A A D D D D D D D D D D D D D D D D D D D B 5 t 9 e e 9 d w.w.y.0.w.w.w.P A A D A D D A D D D D D D D D D D D D D D D D D D D A A A D D D D D D D D D D D D D D A A D D D A D D D D D D D D 5 e 9 e 9 e 9 6.y.y.0.y.0.y.^ B D D A K A D D D D D D D D A D D D A A A D D D D D D D D D D D D D D D D D D D D D D D D D D D D D A A A D D D D D D D D D D A D D D A A D D h 5 t 9 e e 1 A p.w.w.0.y.0.0.D D D D D D D D D D D D D D D D D D D D D D D D D D D D D A D D D D D A D D D A A D D D D A D D D D D A D D D A A D D D D D D D D D A D A D D D D D D D D D D D D A D A D D l 9 e 9 e e 5 B p.0.w.w.w.w.6.D D D A D D D D D D D D D D D A D D D D D D D D A D D D D D A D D D A A D D D D A D D D D D A D D D A A D D D D D D D D D A D A D D D D D D A D e t 9 e e t 5 ..p.w.0.w.w.p.' A D A D D D D D D D D D D D D D D D D D D D D D A D D D D D D D D A D D D D D A D D D A A D D D D A D D D D D D D D A D D D D D D D D D D A D B 9 t 9 t e 9 h y.0.y.0.y.0.w.K A D A D A D D D D D D D D D D D D D D D D D D D D D D D D D D A D A D D D D D D D D A D D D D D A D D D A A D D D D A D D D D D D D D A A A K t 9 t 9 e e 1 ^ p.w.0.y.0.w.:.B D D D A D D D D D D D D D D D D D D D D D D D D D D D D D D D D D D D D D D D D A D A D D D D D D D D A D D D D D A D D D A A D D D D A D D D D D A D D D A A D A A D B K t e 9 t 9 t 1 W y.w.0.y.w.w.<.b K A D D D D D D D D D D D D D D D D D D D D D D D D D D D D D D D D D A D A D D D D ",
"e 9 9 e e e 5 &.y.0.0.w.6.p.' B D D D D D D D D D D D D D D D D D D D A D D D D D D A A D D D D A D D D D D D D D B 5 t 9 e e 9 d w.w.y.0.w.w.w.P A A K A D D A A D D D D D D D D D D D D D D D D D D A D D D D D D A A D D D D D D D D D D D D D A D D D A D D D D 5 e 9 e 9 e 9 6.y.y.0.y.0.y.^ B D D A K A D D D D D D D D D D D D A D D D D D D A A D D D D A D D D D D D D D D D D D D D D D D D A D D D D D D A A D D D D A D D D A A D D h 5 t 9 e e 1 A p.w.w.0.y.0.0.D D D A A D D D D A D D D D D D D D D D D D D D D D D D D A D D D D D A D D D D D D D D D A D D D D D A D D D D D D D D D D D D D D D D D D D D D D D D D D D D D D D A D D h 9 e 9 e e 5 B p.0.w.w.w.w.6.D D D A D D D D D D D D D A D D D D D D D D D D A D D D D D A D D D D D D D D D A D D D D D A D D D D D D D D D D D D D D D D D D D D D D D A D e t 9 e e t 5 ..p.w.0.w.w.p.' A D A D D D D D D A A D D D D D D D D D D D A D D D D D D D D D D A D D D D D A D D D D D D D D D A D D D D D D D D A D D D D D D D D D D A D B 9 t 9 t e 9 h y.0.y.0.y.0.w.K A D A D A D A D D D D D D D D D D D D D D D D D D D D D D D D D D D D D D D D D D D A D D D D D A D D D D D D D D D A D D D D D D D D A A A K t 9 t 9 e e 1 W p.w.0.y.0.w.:.B D D D A D D D D D D D D D D D A D D D D D D D D D D D D D D D D D D D D D D D D D D D D D D D D D D D A D D D D D A D D D D D D D D D A D D D D D A D D D D D D A A D B K t e 9 t 9 t 1 W y.w.0.y.w.w.<.b K A D D D D D D D D A D D D D D D D D D D D D D D D D D D D D D D D D D D D D D D D ",
"e 9 9 e e e 5 &.y.0.0.w.6.p.' B D D D D D D D D D D D D D D D D D D D D D D D D D D D D A D D D D D D D D D D A D B 5 t 9 e e 9 d w.w.y.0.w.w.w.P A A K A D D A D D D D D D D A D A D D D D D D D D D D D D D D D D D D A D D D D D D D D D D D D D D D D A D D D D 5 e 9 e 9 e 9 6.y.y.0.y.0.y.^ B D D A K A D D D D D D D D D D D D D D D D D D D D D A D D D D D D D D D D A D A D D D D D D D D D D D D D D D D D D A D D D A D D D A A D D h 5 t 9 e e 5 A p.w.w.0.y.0.0.D D D D D D D D D D D D D D D D A D A D D D D D D D D D D D D D D D D D D D D D D D D D D D D D D D D D D D D D D D D D D D D D D D D D D D D D D D D D D D D D D D D A D D l 9 e 9 e e 5 B p.0.w.w.w.w.6.D D D A D D D D D A D D D D D D D D D D D D D D D D D D D D D D D D D D D D D D D D D D D D D D D D D D D D D D D D D D D D D D D D D D D D A D e t 9 e e t 5 ..p.w.0.w.w.p. .A D D D D D D D D D A D D D D D D D A D D D D D D D D D D D D D D D D D D D D D D D D D D D D D D D D D D D D D D D D D D D D D D D D D D A D B 9 t 9 t e 9 h y.0.y.0.y.0.w.K A D A D A D D D D D D D D A D A D D D D D D D D D D D D D D D D D D D D D D D D D D D D D D D D D D D D D D D D D D D D D D D D D D D A A A K t 9 t 9 e e 1 W p.w.0.y.0.w.:.B D D D A D D D D D D D D D D D D D D D D D D A D A D D D D D D D D D D D D D D D D D D D D D D D D D D D D D D D D D D D D D D D D D D D D D D D D D D D D D D D A A D B K t e 9 t 9 t 1 W y.w.0.y.w.w.<.b K A D D D D D D D D D D D D D D D A D A D D D D D D D D D D D D D D D D D D D D D D ",
"e 9 9 e e e 5 &.y.0.0.w.6.p.' B D D D D D D D D D D D D D D D D D D D D D D D D D D D D D D D D A D D D D D D A D B 5 t 9 e e 9 t w.w.y.0.w.w.w.P A A D A D D A A D D D D D D A D A D D D D D A D D D D D D D D D D D D D D D D D D D D D D D D D D D D D D D D D D 5 e 9 e 9 e 9 6.y.y.0.y.0.y.^ B D D A K A D D D D D D D D D D D D D D D D D D D D D D D D D A D D D D D D A D A D D D D D A D D D D D D D D D D D D D D D D A D D D A A D D h 5 t 9 e t 5 A p.w.w.0.y.0.0.D D D D D D D D D A D D D D D D A D A D D D D D A D D D D D D D D D D D D D D D D D D D D D D D D D D D D D D D D A D D D D A D D D D D D D D D D D D A A D D D D D D A D D l 9 e 9 e e 5 B p.0.w.w.w.w.6.D D D A A A D D D D D D D D D D D D D D D D D D D D D D D D D D D D D D D D D D D D D D D D D D D D D D A D D D D A D D D D D D D D D D D D A D e t 9 e e t 5 ..p.w.0.w.w.p. .A D D D D D D D D D D D D A A D D D D D D D D D D D D D D D D D D D D D D D D D D D D D D D D D D D D D D D D D A D D D D A D D D D D D D A D B 9 t 9 t e 9 h y.0.y.0.y.0.w.K A D A D A D A D D D D D D A D A D D D D D A A D D D D A D D D D D D D D D D D D D D D D D D D D D D D D D D D D D D D D D D D D D D D A A A K t 9 t 9 e e 1 W p.w.0.y.0.w.:.B D D D A D D D D D D D D D D D A D D D D D D A D A D D D D D A A D D D D A D D D D D D D D D D D D D D D D D D D D D D D D D D D D D D D D D D D D D D D D D D D A A D B K t e 9 t 9 t 1 W y.w.0.y.w.w.<.b K A D D D D D D D D A D D D D D D A D A D D D D D A A D D D D A D D D D D D D D D D ",
"e 9 9 e e e 5 &.y.0.0.w.6.p.' B D D D D D D D D D D D D D D D D D D D D D D D D D D D D D D D D D D D D D D D D D B 5 t 9 e e 9 d w.w.y.0.w.w.w.P A A D A D D A D D D D D D D D D D A D D D D A D D D D D D D D D D D D D D D D D D D A D D D D D D D D D D D D D D 5 e 9 e 9 e 9 6.y.y.0.y.0.y.^ B D D A K A D D D D D D D A D D D D D D D D D D D D D D D D D D D D D D D D D D D A D D D D A D D D D D D D D D D D D D D D D A D D D A A D D h 5 t 9 e t 5 A p.w.w.0.y.0.0.D D D D D D D D D D D D D D D D D D D A D D D D A D D D D D D D D D D D D A A D D D D D D D D D D D D D D A A D D A D D D D D A D D D D D D D D D D D D D D D A A D D A D D l 9 e 9 e e 5 B p.0.w.w.w.w.6.D D D A D D D D D A A D D D D D D D D D D D D D D D D D D D D D A A D D D D D D D D D D D D D D A A D D A D D D D D A D D D D D D D D D D D A D e t 9 e e t 5 ..p.w.0.w.w.p.' A D A D D D D D D D D D D D D D D D A A D D D D D D D D D D D D D D D D D D D D D A A D D D D D D D D D D D D D A D D D D D A D D D D D D A D B 9 t 9 t e 9 h y.0.y.0.y.0.w.K A D A D A D D D D D D D D D D D A D D D D A A D D D D D A D D D D D D D D D D D D D D D D D D D D D A A D D D D D D D D D D D D D D D A A A K t 9 t 9 e e 1 W p.w.0.y.0.w.:.B D D D A D D D A D D D D D D D D D D D D D D D D D A D D D D A A D D D D D A D D D D D D D D D D D D D D D D D D D D D A A D D D D D D D D D D D D D D A A D D D A A D B K t e 9 t 9 t 1 W y.w.0.y.w.w.<.b K A D D D D A D D D D D D D D D D D D D A D D D D A A D D D D D A D D D D D D D D D ",
"e 9 9 e e e 5 &.y.0.0.w.6.p.' B D D D D D D D D D D D D D D D D D D D D D D D D D D D D D D D D D D D D D D D D D B 5 t 9 e e 9 d w.w.y.0.w.w.w.P A A D A D D A D D D D D D D D D D D D D D D D D D D D D D D D D D D D D D D D D D A D D D D D D D D D D D D D D D 5 e 9 e 9 e 9 6.y.y.0.y.0.y.^ B D D A K A D D D D A D D A D D D D D D D D D D D D D D D D D D D D D D D D D D D D D D D D D D D D D D D D D D D D D D D D D A D D D A A D D h 5 t 9 e t 5 A p.w.w.0.y.0.0.D D D D D D D D D D D D D D D D D D D D D D D D D D D D A D A D D D D D D A A D D D D D A D A D D D D D D A A D D D D D D D D A D D D D D D D D D D D A A D D D D D D A D D l 9 e 9 e e 5 B p.0.w.w.w.w.6.D D D A D D D D D D D D D D D D D D D D D D D A D A D D D D D D A A D D D D D A D A D D D D D D A A D D D D D D D D A D D D D D D D D D D D A D e t 9 e e t 5 ..p.w.0.w.w.p.' A D A D D D D D D D D D D D D D D D D D D D D D D D D D D D D D A D A D D D D D D A A D D D D D A D A D D D D D D D D D D D D D D D A D D A D B 9 t 9 t e 9 h y.0.y.0.y.0.w.K A D A D A D D D D D D D D D D D D D D D D D D D D D D D A D D D D D D D D D D D D A D A D D D D D D A A D D D D D A D A D D D D D D D A A A K t 9 t 9 e e 1 W p.w.0.y.0.w.:.B D D D A D D D A D D D D D D A D D D D D D D D D D D D D D D D D D D D D D A D D D D D D D D D D D D A D A D D D D D D A A D D D D D A D A D D D D D D A A D D D A A D B K t e 9 t 9 t 1 W y.w.0.y.w.w.<.b K A D D D D D D D D D D D D D D D D D D D D D D D D D D D D D D A D D D D D D D D D ",
"e 9 9 e e e 5 &.y.0.0.w.6.p.' B D D D D D D D D D D D D D D D D D A D D D D A D D D D D D D D D D D D D D D D D D B 5 t 9 t e 9 d w.w.y.0.w.w.w.P A A D A D D A D D D D D D D D D D D D D D D D D A D D D D A D D D D D D D D D D D D D D D D D A D D D D D D D D D 5 e 9 e 9 e 9 <.y.y.0.y.0.y.^ B D D A K A D D D D A D D D D D A D D D D A D D D D D D D D D D D D D D D D D D D D D D D D D D A D D D D A D D D D D D D D D A D D D A A D D h 5 t 9 e t 5 A p.w.w.0.y.0.0.D D D D D A A D D D D D D D D D D D D D D D D D D D D D A D D D D D D D D A D D D D D D A D D D D D D D D A D D D D D D D D D D D D D D D D D D D D D D D D D D D D D A D D l 9 e 9 e e 5 B p.0.w.w.w.w.6.D D D A D D D D D D D D D D D A D D D D D D D A D D D D D D D D A D D D D D D A D D D D D D D D A D D D D D D D D D D D D D D D D D D D D D A D e t 9 e e t 5 ..p.w.0.w.w.p.' A D A D D D D D D D D D D D D D D D D D D D D D A D D D D D D D A D D D D D D D D A D D D D D D A D D D D D D D D D D D D D D D D A A A A A D B 9 t 9 t e 9 h y.0.y.0.y.0.w.K A D A D A D D D D D D D D D D D D D D D D D D D D D D D D D D D D D D D D D D D D A D D D D D D D D A D D D D D D A D D D D D D D D D A A A K t 9 t 9 e e 1 ^ p.w.0.y.0.w.:.B D D D A D D D D D D D D D D A D D D D D D D D D D D D D D D D D D D D D D D D D D D D D D D D D D D A D D D D D D D D A D D D D D D A D D D D D D D D A D D D D A A D B K t e 9 t 9 t 1 W y.w.0.y.w.w.<.b K A D D A A D D D D D D D D D D D D D D D D D D D D D D D D D D D D D D D D D D D D ",
"e 9 9 e e e 5 &.y.0.0.w.6.f. .B D D D D D D D D D D D D D A A D D D D D D D A D D D D A A D D D D D D D D D D D D A 5 t 9 e e 9 d w.w.y.0.w.w.w.P A A D A D D A D D D D D D D D D D D D D D D D D D D D D D A D D D D A A D D D D D D D D D D D D D D D A A D D D D 5 e 9 e 9 e 9 <.y.y.0.w.0.y.^ B D D A K A D D D D D D D D D D D D D D D A D D D D A A D D D D D D D D D D D D D D D D D D D D D D D D D A D D D D A A D D D A D D D A A D D h 5 t 9 e t 5 A p.w.w.0.y.0.0.D A D D D D A D D D D D D D D D D D D D D D D D D D D D D D D D D D D D D D D D D D D D D D D D D D D D D D D D D D D D D D D D D D D A A D D D D D D D D D D D D D D A D D l 9 e 9 e e 5 B p.0.w.w.w.w.6.D D D A D D D D D D D D D D D A D D D D D D D D D D D D D D D D D D D D D D D D D D D D D D D D D D D D D D D D D D D D D D A A D D D D D D A D e t 9 e e t 5 ..p.w.0.w.w.p.' A D A D D D D D D D A D D D D D D D D D D D D D A D D D D D D D D D D D D D D D D D D D D D D D D D D D D D D D D D D D D D D D D A A A D A D B 9 t 9 t e 9 h y.0.y.0.y.0.w.K A D A D A D D D D D D D D D D D D D D D D D D D D D D D D D D D A A D D D D D D D D D D D D D D D D D D D D D D D D D D D D D D D D D A A A K t 9 t 9 9 e 1 ^ p.w.0.y.0.w.:.B D D D A D D D D D D D D D D D D D D D D D D D D D D D D D D D D D D D D D D D D D A A D D D D D D D D D D D D D D D D D D D D D D D D D D D D D D D D D D D D D A A D B K t e 9 t 9 t 1 W y.w.0.y.w.w.<.b K A D D A D D D D D D D D D D D D D D D D D D D D D D D D D D D D D D D A A D D D D ",
"e 9 9 e e e 5 &.p.y.w.w.y.0.( b A A A A A A B B A A B B A A A A A A B B A A A A A B A A A A A A A A A A A A B B b A > t e 9 e e t w.w.w.0.w.y.w.A A A A A A A A A A A A A A B B A A B B A A A A A A B B A A A A A B A A A A A A A b D A B K D A D K D D K D A A ^ l 9 1 = e t 1 > <.f.<.w.y.6.p.P D B B B A B B A A B B A A A A A A B B A A A A A B A A A A A A A A A A A A B B A A B B A A A A A A B B A A A A A B A A A A A A b K P D A D P K d t > 9 9 9 > B y.y.w.6.y.f.&.D A A A A B A A A A A A A A A B B A A B B A A A A A A A B A A A A A A A A A A A A A A A B A A A A A A A A A A A A A B A A A A A A A A A A A A B B A A B B A A A A A b B h P h 1 d 9 e e 5 B p.0.w.0.y.w.&.P b b A B B A A A A A A A A A A A A B B A A A B A A A A A A A A A A A A A A A B A A A A A A A A A A A A A B A A A A A A A A A A A A B B B b b W 1 t e e e e 1 ..p.w.0.w.w.w.$.A l A D B A A B B A A A A B B A A A A A A A A A A A A B B A A A B A A A A A A A A A A A A A A A B A A A A D B l W b A K A D B K D A P K D A W h 5 > e 1 e 5 b :.w.w.y.<.y.0.^ b b A B B D A A A A A A B B A A B B A A A A A B A A A A A A A A A A A A B B A A A B A A A A A A A A A A A A A A A B A A A A B D B P D K D A K d 1 9 5 5 t > ^ 0.k.0.6.p.y.&.A A B B A A A A A A B B B A A A A A A A A A B B A A B B A A A A A B A A A A A A A A A A A A B B A A A B A A A A A A A A A A A A A A A B A A A A A A A A A A A A B B A B B P 9 t e t 5 e 1 W y.0.w.0.w.w.$.A l D A A A A A A A A A A A A A A B B A A B B A A A A A B A A A A A A A A A A A A B B ",
"e 9 9 e e e 5 &.y.y.w.0.y.p.0.:.:.:.:.:.:.:.:.:.:.:.:.:.:.:.:.:.:.:.:.:.:.:.:.:.:.:.:.:.:.:.:.:.:.:.:.:.:.:.:.:.:. .9 e e 9 e e d y.w.y.0.y.y.w.:.:.:.:.:.:.:.:.:.:.:.:.:.:.:.:.:.:.:.:.:.:.:.:.:.:.:.:.:.:.:.:.:.:.:.:.:.:.:.:.<.&.<.' D K D A A D b h h h d d e l  .:...$.$. ...f.y.<.p.p.6.w.6.:.&.&.&.:.:.&.:.:.:.:.:.:.:.:.:.:.:.:.:.:.:.:.:.:.:.:.:.:.:.:.:.:.:.:.:.:.:.:.:.:.:.:.:.:.:.:.:.:.:.:.:.:.:.:.:.:.:.:.:.:.:.:.&.K t t d h t e W $. .$.$.&.' &.y.y.w.6.w.p.0.$.:.:.:.:.:.:.:.:.:.:.:.:.:.:.:.:.:.:.:.:.:.:.:.:.:.:.:.:.:.:.:.:.:.:.:.:.:.:.:.:.:.:.:.:.:.:.:.:.:.:.:.:.:.:.:.:.:.:.:.:.:.:.:.:.:.:.:.:.:.:.:.:.:.:.:.:.:.:.:.:.:.:.<.$.6.K 5 t e t e 5 B p.0.0.0.y.p.w.<.&.:.<.:.:.:.:.:.:.:.:.:.:.:.:.:.:.:.:.:.:.:.:.:.:.:.:.:.:.:.:.:.:.:.:.:.:.:.:.:.:.:.:.:.:.:.:.:.:.:.:.:.:.:.:.:.:.:.:.:.:.:.:.:.:.:.:.:.:.&.:.t t 9 e t t 5 $.p.w.0.w.6.w.0.&.$.:.<.&.:.:.:.:.:.:.:.:.:.:.:.:.:.:.:.:.:.:.:.:.:.:.:.:.:.:.:.:.:.:.:.:.:.:.:.:.:.:.:.:.:.:.:.:.:.:.:.:.<.:...<.P A D A K B D b d h t e 9 h A ..$.&. .....$.y.y.w.y.6.y.y.<.$.:.<.:.&.:.:.:.:.:.:.:.:.:.:.:.:.:.:.:.:.:.:.:.:.:.:.:.:.:.:.:.:.:.:.:.:.:.:.:.:.:.:.:.:.:.:.:.:.:.:.:.:.:.:.:.:.:.:.:.:.:.6.$.b h 9 d d h d W $.<.$...:. .:.w.p.0.6.y.y.0.:.:.:.:.:.:.:.:.:.:.:.:.:.:.:.:.:.:.:.:.:.:.:.:.:.:.:.:.:.:.:.:.:.:.:.:.:.:.:.:.:.:.:.:.:.:.:.:.:.:.:.:.:.:.:.:.:.:.:.:.:.:.:.:.:.:.:.:.:.:.:.:.:.:.:.:.:.:.:.:.:.:.<.<.:.<.l e e t 5 t 1 ^ y.0.w.0.w.p.w.:.&.<.:.:.:.:.:.:.:.:.:.:.:.:.:.:.:.:.:.:.:.:.:.:.:.:.:.:.:.:.:.:.:.:.:.:.:.:.:.:.:.:.",
"e 9 9 e e e 5 &.y.y.0.6.6.w.y.y.y.y.y.y.y.y.y.y.y.y.y.y.y.y.y.y.y.y.y.y.y.y.y.y.y.y.y.y.y.y.y.y.y.y.y.y.y.y.y.y.f.:.9 9 9 e t e t w.w.w.0.w.y.w.y.y.y.y.y.y.y.y.y.y.y.y.y.y.y.y.y.y.y.y.y.y.y.y.y.y.y.y.y.y.y.y.y.y.y.y.y.y.y.y.p.y.p...A A A D D D l e 9 e 9 t 5 B y.v.w.w.y.p.f.y.<.<.p.y.0.0.p.y.w.w.y.p.y.y.y.y.y.y.y.y.y.y.y.y.y.y.y.y.y.y.y.y.y.y.y.y.y.y.y.y.y.y.y.y.y.y.y.y.y.y.y.y.y.y.y.y.y.y.y.y.y.y.y.y.y.y.y.y.y.y.f.A = 5 t e 5 5 ( p.p.p.y.v.w.w.0.w.w.0.0.w.y.y.y.y.y.y.y.y.y.y.y.y.y.y.y.y.y.y.y.y.y.y.y.y.y.y.y.y.y.y.y.y.y.y.y.y.y.y.y.y.y.y.y.y.y.y.y.y.y.y.y.y.y.y.y.y.y.y.y.y.y.y.y.y.y.y.y.y.y.y.y.y.y.y.y.y.y.y.y.y.y.y.w.w.f.w.f.^ 9 9 e e e 5 B p.0.w.0.w.w.w.w.w.y.y.y.y.y.y.y.y.y.y.y.y.y.y.y.y.y.y.y.y.y.y.y.y.y.y.y.y.y.y.y.y.y.y.y.y.y.y.y.y.y.y.y.y.y.y.y.y.y.y.y.y.y.y.y.y.y.y.y.y.y.y.y.y.y.y.y.p.y.y.d e 5 e e t 1 ..p.w.0.w.0.w.y.y.y.p.y.w.y.y.y.y.y.y.y.y.y.y.y.y.y.y.y.y.y.y.y.y.y.y.y.y.y.y.y.y.y.y.y.y.y.y.y.y.y.y.y.y.y.y.y.y.y.y.y.y.y.p.0.y.W A D A D B D h 9 e 9 9 9 9 D p.f.p.w.p.p.w.y.0.0.y.0.w.0.w.y.p.p.y.y.y.y.y.y.y.y.y.y.y.y.y.y.y.y.y.y.y.y.y.y.y.y.y.y.y.y.y.y.y.y.y.y.y.y.y.y.y.y.y.y.y.y.y.y.y.y.y.y.y.y.y.y.y.y.y.y.y.p.<.h e 5 e 9 9 5 :.k.p.w.y.k.p.y.w.w.w.w.0.0.y.y.y.y.y.y.y.y.y.y.y.y.y.y.y.y.y.y.y.y.y.y.y.y.y.y.y.y.y.y.y.y.y.y.y.y.y.y.y.y.y.y.y.y.y.y.y.y.y.y.y.y.y.y.y.y.y.y.y.y.y.y.y.y.y.y.y.y.y.y.y.y.y.y.y.y.y.y.y.y.y.y.w.y.p.p.f.b 5 e t 9 t 5 ^ p.w.w.0.0.w.y.y.y.y.y.y.y.y.y.y.y.y.y.y.y.y.y.y.y.y.y.y.y.y.y.y.y.y.y.y.y.y.y.y.y.y.y.y.y.y.y.y.y.y.",
"e 9 9 e e e 5 &.y.y.y.w.0.0.0.6.w.w.w.w.w.w.0.0.w.w.w.w.w.w.w.w.w.w.w.w.w.w.w.w.w.w.w.w.0.0.w.0.w.w.w.w.w.w.0.0.y.$.5 e t e e 9 t w.w.w.0.w.y.w.w.w.w.w.0.0.w.w.w.w.w.w.w.w.0.0.w.w.w.w.w.w.w.w.w.w.w.w.w.w.w.w.w.w.w.w.0.0.w.0.w.0.y. .B B A K D K l 9 9 e e d t b 0.0.<.0.w.y.w.<.6.w.w.0.w.y.0.0.0.0.w.w.w.0.w.w.w.w.w.w.w.w.w.w.w.w.w.w.w.w.w.w.w.w.0.0.w.0.w.w.w.w.w.w.0.0.w.w.w.w.w.w.w.w.w.w.w.w.w.w.w.w.w.w.w.w.0.0.w.0.y.B 1 t d e e t W y.w.0.<.y.w.0.0.0.y.y.y.0.w.y.w.w.w.w.0.0.w.w.w.w.w.w.w.w.0.0.w.w.w.w.w.w.w.w.0.0.0.0.w.w.w.w.0.0.0.0.w.w.w.w.0.0.0.0.w.w.w.w.0.0.0.0.w.w.w.w.w.w.w.w.0.0.w.0.w.w.w.w.w.w.0.0.w.w.w.w.w.w.w.w.0.6.w.6.p.W 9 t 9 e e 5 A f.w.y.w.0.0.0.0.0.0.6.w.w.w.w.0.0.w.w.w.w.w.w.w.w.0.0.0.0.0.0.w.w.w.w.0.0.0.0.w.w.w.w.0.0.0.0.w.w.w.w.0.0.0.0.w.w.w.w.w.w.w.w.0.0.w.0.w.w.w.w.w.w.0.0.0.w.w.w.t 9 9 t 9 e 1 ..p.w.w.y.y.w.w.w.w.0.0.0.w.w.w.w.w.w.w.w.w.w.w.w.0.0.w.w.w.w.w.w.w.w.0.0.0.0.0.0.w.w.w.w.0.0.0.0.w.w.w.w.0.0.0.0.w.w.w.w.0.w.0.y.W B D D A B K l 9 t t t d 1 B p.6.6.0.w.w.6.6.6.w.y.w.0.6.w.w.0.0.0.w.w.w.w.w.w.w.w.0.0.w.w.w.w.w.w.w.w.w.w.w.w.0.0.w.0.w.w.w.w.w.w.0.0.0.0.0.0.w.w.w.w.0.0.0.0.w.w.w.w.0.0.0.0.w.w.w.w.w.<.d t t t e 5 5 <.w.:.0.w.w.w.y.0.0.p.p.0.0.w.w.w.w.w.w.w.w.w.w.w.w.w.w.w.w.w.w.w.w.w.w.w.0.0.w.w.w.w.w.w.w.w.w.w.w.w.0.0.w.0.w.w.w.w.w.w.0.0.0.0.0.0.w.w.w.w.0.0.0.0.w.w.w.w.0.0.0.0.w.w.w.w.0.0.0.0.w.w.w.w.w.0.0.6.0.y.b 5 e t 9 t 5 ^ p.w.w.w.0.6.0.w.w.0.0.0.w.w.0.0.0.0.w.w.w.w.w.w.0.0.w.w.w.w.w.w.w.w.w.w.w.w.0.0.w.0.w.w.w.w.w.w.0.0.",
"e 9 9 e e e 5 &.w.w.y.p.p.y.w.w.w.w.w.w.w.w.w.w.w.w.w.w.w.w.w.w.w.w.w.w.w.w.w.w.w.w.w.w.0.0.w.w.w.w.w.w.w.w.w.w.y.$.9 d d e 9 5 t y.w.y.0.w.y.w.w.w.w.w.0.w.w.w.w.w.w.w.w.w.w.w.w.w.w.w.w.w.w.w.w.w.w.w.w.w.w.w.w.w.w.w.0.0.w.w.w.w.p. .A A A D A D l 9 9 e e t 9 t 6.0.y.p.y.w.w.w.f.f.w.0.y.w.w.w.w.w.w.w.w.0.w.w.w.w.w.w.w.w.w.w.w.w.w.w.w.w.w.w.w.w.0.0.w.w.w.w.w.w.w.w.w.w.w.w.w.w.w.w.w.w.w.w.w.w.w.w.w.w.w.w.w.w.0.0.w.w.0.B e d e 9 e 5 ( p.0.w.6.w.w.y.w.w.y.p.y.0.0.w.w.w.w.w.w.0.w.w.w.w.w.w.w.w.w.w.w.w.w.w.w.w.w.w.0.w.w.w.w.w.w.w.0.w.w.w.w.w.w.w.0.w.w.w.w.w.w.w.0.w.w.w.w.w.w.w.w.w.w.w.0.0.w.w.w.w.w.w.w.w.w.w.w.w.w.w.w.w.w.w.y.w.y.0.p.W e d 9 e e 5 B p.0.w.w.w.y.y.w.w.w.y.w.w.w.w.0.0.w.w.w.w.w.w.w.w.w.w.0.w.w.w.w.w.w.w.0.w.w.w.w.w.w.w.0.w.w.w.w.w.w.w.0.w.w.w.w.w.w.w.w.w.w.w.0.0.w.w.w.w.w.w.w.w.w.w.w.w.w.w.d e 9 e e t 5 $.p.w.w.y.y.w.0.0.0.0.w.p.w.w.w.w.w.w.w.w.w.w.w.w.0.0.w.w.w.w.w.w.w.w.w.w.0.w.w.w.w.w.w.w.0.w.w.w.w.w.w.w.0.w.w.w.w.w.w.w.w.y.0.p.^ A D A D A K h 5 e e e 5 = A p.0.w.y.0.w.w.0.w.y.y.w.0.y.p.y.0.6.w.y.w.w.w.w.w.w.w.w.w.w.w.w.w.w.w.w.w.w.w.w.w.0.0.w.w.w.w.w.w.w.w.w.w.0.w.w.w.w.w.w.w.0.w.w.w.w.w.w.w.0.w.w.w.w.w.w.w.y.w.t 9 9 9 t t 5 :.w.6.k.p.0.0.w.w.w.y.y.y.w.0.w.w.w.w.w.w.w.w.w.w.w.w.w.0.w.w.w.w.w.w.w.w.w.w.w.w.w.w.w.w.w.w.w.w.w.w.0.0.w.w.w.w.w.w.w.w.w.w.0.w.w.w.w.w.w.w.0.w.w.w.w.w.w.w.0.w.w.w.w.w.w.w.0.w.w.w.w.w.w.w.p.y.w.0.0.y.B 9 t t 9 t 1 W y.0.0.w.w.w.w.y.y.w.w.w.w.w.0.w.w.w.w.w.w.w.w.w.w.w.w.w.w.w.w.w.w.w.w.w.w.w.0.0.w.w.w.w.w.w.w.w.w.w.",
"e 9 9 e e e 5 &.y.0.0.w.y.y.w.w.w.w.w.w.w.w.w.w.w.w.w.w.w.w.w.w.w.w.w.w.w.w.w.w.w.w.w.w.w.w.w.w.w.w.w.w.w.w.w.w.y.$.5 t t 9 e e t w.w.w.0.w.w.0.w.w.w.w.w.w.w.w.w.w.w.w.w.w.w.w.w.w.w.w.w.w.w.w.w.w.w.w.w.w.w.w.w.w.w.w.w.w.w.w.w.w.y. .A D A A A K b 9 9 e e 9 5 e p.w.y.y.0.0.y.w.y.w.6.w.y.6.w.w.w.w.w.w.0.0.w.w.w.w.w.w.w.w.w.w.w.w.w.w.w.w.w.w.w.w.w.w.w.w.w.w.w.w.w.w.w.w.w.w.w.w.w.w.w.w.w.w.w.w.w.w.w.w.w.w.w.w.w.w.w.w.y.A 9 e 9 e t > ( p.6.p.w.0.w.y.y.w.0.0.0.0.0.w.w.w.w.w.0.0.w.w.w.w.w.w.w.w.w.w.w.w.w.w.w.w.w.w.w.w.w.w.w.w.w.w.0.w.w.w.w.w.w.w.w.w.w.w.w.w.w.w.0.w.w.w.w.w.w.w.w.w.w.w.w.w.w.w.w.w.w.w.w.w.w.w.w.w.w.w.w.w.w.w.w.6.y.0.p.P 5 e e t e 5 B y.6.0.0.w.w.w.0.0.w.w.w.w.w.w.w.0.w.w.w.w.w.w.w.w.w.w.w.w.w.w.w.w.w.w.0.w.w.w.w.w.w.w.w.w.w.w.w.w.w.w.0.w.w.w.w.w.w.w.w.w.w.w.w.w.w.w.w.w.w.w.w.w.w.w.w.w.0.0.d e 9 e e t 5 ..y.0.6.0.w.0.0.w.w.w.w.y.w.w.w.w.w.w.w.w.w.w.w.w.w.0.w.w.w.w.w.w.w.w.w.w.w.w.w.w.w.w.w.w.0.w.w.w.w.w.w.w.w.w.w.w.w.w.w.w.w.w.6.y.^ A D A A A K h 5 e e e e 1 D p.6.y.p.0.0.y.0.w.w.0.y.0.w.w.w.0.w.w.w.0.w.w.w.w.w.w.w.w.w.w.w.w.w.w.w.w.w.w.w.w.w.w.w.w.w.w.w.w.w.w.w.w.w.w.w.w.w.w.w.w.0.w.w.w.w.w.w.w.w.w.w.w.w.w.w.w.w.w.t 9 e 5 e t 1 &.w.w.f.w.6.w.0.w.0.6.6.w.w.0.w.w.w.w.w.w.w.w.w.w.w.w.w.0.w.w.w.w.w.w.w.w.w.w.w.w.w.w.w.w.w.w.w.w.w.w.w.w.w.w.w.w.w.w.w.w.w.w.w.w.w.w.w.w.w.w.0.w.w.w.w.w.w.w.w.w.w.w.w.w.w.w.0.w.w.w.w.w.w.w.w.w.y.0.0.y.B 5 e t 9 t 1 W y.0.6.w.y.w.w.w.w.w.w.w.w.w.w.w.w.w.w.w.w.w.w.w.w.w.w.w.w.w.w.w.w.w.w.w.w.w.w.w.w.w.w.w.w.w.w.w.w.w.",
"e 9 9 e e e 5 &.p.w.0.0.0.0.0.w.0.0.0.0.0.0.0.0.0.0.0.0.0.0.0.0.0.0.0.0.0.0.0.0.0.0.0.0.0.0.0.0.0.0.0.0.0.0.0.0.y...1 9 e 9 e e t w.w.w.0.w.y.w.0.0.0.0.0.0.0.0.0.0.0.0.0.0.0.0.0.0.0.0.0.0.0.0.0.0.0.0.0.0.0.0.0.0.0.0.0.0.0.0.6.0.y.' b A D D A K b e 9 t e e e d k.0.0.6.<.0.w.0.6.6.0.w.w.w.w.w.w.w.0.0.0.0.0.0.0.0.0.0.0.0.0.0.0.0.0.0.0.0.0.0.0.0.0.0.0.0.0.0.0.0.0.0.0.0.0.0.0.0.0.0.0.0.0.0.0.0.0.0.0.0.0.0.0.0.0.0.0.0.f.b 1 t 9 t d 1 W p.<.y.w.0.w.6.y.w.0.6.0.w.w.w.0.0.0.0.0.0.0.0.0.0.0.0.0.0.0.0.0.0.0.0.0.0.0.0.0.0.0.0.0.0.0.0.0.0.0.0.0.0.0.0.0.0.0.0.0.0.0.0.0.0.0.0.0.0.0.0.0.0.0.0.0.0.0.0.0.0.0.0.0.0.0.0.0.0.0.0.0.0.0.0.6.<.w.0.p.P > 9 e t e 5 B p.0.w.w.w.w.0.0.0.0.0.0.0.0.0.0.0.0.0.0.0.0.0.0.0.0.0.0.0.0.0.0.0.0.0.0.0.0.0.0.0.0.0.0.0.0.0.0.0.0.0.0.0.0.0.0.0.0.0.0.0.0.0.0.0.0.0.0.0.0.0.0.0.0.0.0.0.0.0.t 9 9 e 9 e 1 ..y.w.0.w.0.w.w.w.w.w.0.0.0.0.0.0.0.0.0.0.0.0.0.0.0.0.0.0.0.0.0.0.0.0.0.0.0.0.0.0.0.0.0.0.0.0.0.0.0.0.0.0.0.0.0.0.0.0.0.0.0.w.6.y.W A D D A A K h 5 t t e d 9 D w.6.0.w.w.6.w.6.w.w.6.p.w.0.0.w.y.w.0.0.0.0.0.0.0.0.0.0.0.0.0.0.0.0.0.0.0.0.0.0.0.0.0.0.0.0.0.0.0.0.0.0.0.0.0.0.0.0.0.0.0.0.0.0.0.0.0.0.0.0.0.0.0.0.0.0.0.6.y.e e d 9 e e 1 &.y.6.6.<.0.w.w.w.0.0.6.0.w.y.0.0.0.0.0.0.0.0.0.0.0.0.0.0.0.0.0.0.0.0.0.0.0.0.0.0.0.0.0.0.0.0.0.0.0.0.0.0.0.0.0.0.0.0.0.0.0.0.0.0.0.0.0.0.0.0.0.0.0.0.0.0.0.0.0.0.0.0.0.0.0.0.0.0.0.0.0.0.0.0.6.0.w.0.w.p.B 1 e t 5 t 5 ^ p.w.w.w.w.w.w.0.0.w.0.0.0.0.0.0.0.0.0.0.0.0.0.0.0.0.0.0.0.0.0.0.0.0.0.0.0.0.0.0.0.0.0.0.0.0.0.0.0.0.",
"e 9 9 e e e 5 &.f.p.p.f.p.y.y.f.p.p.p.p.p.p.p.p.p.p.p.p.p.p.p.p.p.p.p.p.p.p.p.p.p.p.p.p.p.p.p.p.p.p.p.p.p.p.p.p.k.&.5 t d e 9 5 l f.p.f.p.f.f.p.p.p.p.p.p.p.p.p.p.p.p.p.p.p.p.p.p.p.p.p.p.p.p.p.p.p.p.p.p.p.p.p.p.p.p.p.p.p.p.p.y.f.k...B D K K A K b 9 9 t t t e e k.w.k.f.p.f.p.p.y.f.k.y.w.k.p.p.p.p.y.y.p.p.p.p.p.p.p.p.p.p.p.p.p.p.p.p.p.p.p.p.p.p.p.p.p.p.p.p.p.p.p.p.p.p.p.p.p.p.p.p.p.p.p.p.p.p.p.p.p.p.p.p.p.p.p.p.p.p.f.b 5 h e 5 e 1 ( m.w.p.y.f.v.y.p.f.f.p.y.f.f.y.p.p.p.p.p.p.p.p.p.p.p.p.p.p.p.p.p.p.p.p.p.p.p.p.p.p.p.p.p.p.p.p.p.p.p.p.p.p.p.p.p.p.p.p.p.p.p.p.p.p.p.p.p.p.p.p.p.p.p.p.p.p.p.p.p.p.p.p.p.p.p.p.p.p.p.p.p.p.p.p.f.y.f.p.k.W 5 t 9 e e 9 D k.p.f.p.p.p.p.f.f.f.p.p.p.p.p.p.p.p.p.p.p.p.p.p.p.p.p.p.p.p.p.p.p.p.p.p.p.p.p.p.p.p.p.p.p.p.p.p.p.p.p.p.p.p.p.p.p.p.p.p.p.p.p.p.p.p.p.p.p.p.p.p.p.p.p.p.f.f.p.h e 9 t e t 5 &.k.p.p.k.y.p.p.y.y.f.f.y.p.p.p.p.p.p.p.p.p.p.p.p.p.p.p.p.p.p.p.p.p.p.p.p.p.p.p.p.p.p.p.p.p.p.p.p.p.p.p.p.p.p.p.p.p.p.p.p.p.f.p.f.^ A K P D D K h 5 t e 5 9 1 A f.f.p.y.k.y.k.y.f.f.y.f.w.f.p.f.k.p.w.y.f.p.p.p.p.p.p.p.p.p.p.p.p.p.p.p.p.p.p.p.p.p.p.p.p.p.p.p.p.p.p.p.p.p.p.p.p.p.p.p.p.p.p.p.p.p.p.p.p.p.p.p.p.p.p.p.p.p.k.e 5 d 5 e e 5 <.k.p.p.f.k.y.f.y.p.f.f.y.y.f.p.p.p.p.p.p.p.p.p.p.p.p.p.p.p.p.p.p.p.p.p.p.p.p.p.p.p.p.p.p.p.p.p.p.p.p.p.p.p.p.p.p.p.p.p.p.p.p.p.p.p.p.p.p.p.p.p.p.p.p.p.p.p.p.p.p.p.p.p.p.p.p.p.p.p.p.p.p.p.p.k.f.f.y.y.k.A 5 9 e 5 t 5 ( f.y.f.y.w.p.p.p.p.f.p.p.p.p.p.p.p.p.p.p.p.p.p.p.p.p.p.p.p.p.p.p.p.p.p.p.p.p.p.p.p.p.p.p.p.p.p.p.p.p.",
"t 9 9 t e 9 t B W W P P P W P P W W W W W W W W W W W W W W W W W P P P P P P K P P P P P W W W W W W W W W W W ^ A t 5 9 t e 9 h D ^ W P P ^ ( W W W W W W W W W W W W W W W W W W W W W W W W W W W W W W W W P P P P P W W W ^ W P A b h h l b l d t e e e t 5 l P ^ W P P ^ W W W W W W W W W W W W W W W W W W W W W W W W W W W W W W W W W W W W W W W W P P P P P P P P P P P P W W W W W W W W W W W W W W W W W W W W P l 9 5 e e e e D K P W ^ ^ W W W W W W W W W W W W W W W W W W W W W W W W W W W W W W W W W W W W W W W W W W W W W W W W W W W W W W P P K K W W W P P P P P W W W W W W W W W W W W W W W W W W W W W W W W P W ^ ^ P B t 5 e e 9 e l K W P W W W W W W W W W W W W W W W W W W W W W W W W W W W W W W W W W W P P W W W W W W W W W W W W W W W W W W W W W W W W W W W W W W W W W W W W P ^ ^ D d 9 9 e t e t A W ^ W P W W W W W W W W W W W W W W W W W W W W W W W W W W W W W W W W W W W W W W W W ( ^ W W P P P P P P W W W W W W W ^ ^ K B h h l b l h d t e 9 9 5 e b P ^ ^ W W W W W W W W W W W W W W W W W W W W W W W W W W W W W W W W W W W W W W W W W W W W W W W W P P P P P P P W W W W W W W W W W W W W W W W W W W ^ D d e 9 e e 9 e B ^ ( W W W W W W W W W W W W W W W W W W W W W W W W W W W W W W W W W W W W W W W W W W W W W W W W W W P P W W W P P P P P K K P P P P P P W W W W W W W W W W W W W W W W W W W W W W W W ^ P P W ^ P l 5 e 9 5 5 t b P ^ W W W W W W W W W W W W W W W W W W W W W W W W W W W W W W W W W W W W P P P P P W W W W W P P ",
"e 9 e t t 9 9 t 5 5 5 5 5 9 5 5 1 1 1 1 1 1 1 1 1 1 1 1 1 5 5 5 5 5 5 5 9 9 9 9 9 9 5 5 5 5 5 5 1 1 1 1 1 1 1 1 e 9 5 5 9 e e e 1 9 e 9 1 1 1 1 1 1 1 1 1 1 1 1 1 1 1 1 1 1 1 1 5 5 5 1 1 1 1 1 1 1 1 1 1 1 5 5 9 9 9 9 5 5 5 5 1 1 5 1 1 1 5 e e 9 9 5 5 9 9 e 1 5 9 9 1 > > 1 1 1 1 1 1 1 1 1 1 1 1 1 1 1 1 1 1 1 1 1 1 1 1 1 1 1 1 1 1 1 1 1 5 5 5 1 1 1 1 1 5 5 5 5 5 9 9 9 9 9 9 5 5 5 5 5 1 1 1 1 1 1 1 1 1 1 1 1 1 1 1 1 e 5 1 5 e 9 9 9 > > 1 5 5 5 5 1 1 1 1 1 1 1 1 1 1 1 1 1 1 1 1 1 1 1 1 1 1 1 1 1 1 1 1 1 1 1 1 1 1 1 1 1 1 1 1 1 1 1 1 1 1 1 1 1 5 5 5 5 5 9 9 e 5 5 5 5 5 5 5 5 1 1 1 1 1 1 1 1 1 1 1 1 1 1 1 1 1 1 1 1 1 1 1 1 = > 1 5 9 9 e e d t 9 5 5 9 5 > 1 1 1 1 1 1 1 1 1 1 1 1 1 1 1 1 1 1 1 1 1 1 1 1 1 1 1 1 1 1 1 1 5 1 1 1 5 5 5 5 5 5 5 5 5 5 5 5 1 1 1 1 1 1 1 1 1 1 1 1 1 1 1 1 1 1 1 1 1 1 1 1 1 5 9 9 9 9 e t t 9 5 9 e 5 1 > 1 1 1 1 1 1 1 1 1 1 1 1 1 1 1 1 1 1 1 1 1 1 1 1 1 1 1 1 1 1 1 1 5 5 5 1 1 1 1 1 > 1 1 5 5 5 5 1 9 9 9 5 5 5 5 5 > 5 9 5 1 1 5 9 5 5 9 9 9 9 e e e 9 9 9 5 > > > 1 1 1 1 1 1 1 1 1 1 1 1 1 1 1 1 1 1 1 1 1 1 1 1 1 1 1 1 1 1 1 1 5 5 5 1 1 1 1 1 1 1 1 1 1 1 1 1 9 9 9 9 5 5 5 5 1 1 1 1 1 1 1 1 1 1 1 1 1 1 1 1 e 9 5 5 e t e 9 1 9 e 9 5 1 5 1 1 1 1 1 1 1 1 1 1 1 1 1 1 1 1 1 1 1 1 1 1 1 1 1 1 1 1 1 1 1 1 1 1 1 1 1 1 1 1 1 1 1 1 1 1 1 5 5 5 5 5 5 5 5 5 5 9 9 9 5 5 5 5 5 1 1 1 1 1 1 1 1 1 1 1 1 1 1 1 1 1 1 1 1 1 1 1 1 1 > > 1 9 9 5 1 d t e 9 5 5 1 1 1 1 1 1 1 1 1 1 1 1 1 1 1 1 1 1 1 1 1 1 1 1 1 1 1 1 1 1 1 1 1 1 1 1 1 1 1 1 1 1 5 5 5 5 5 5 5 5 ",
"9 e e e e e 9 9 e 9 e e e e e 9 t t t t t t t t t t t t t t t t e e t e e 9 9 e 9 9 9 e e e e e t t t t t t t t 5 9 t t t t t t t t e 9 e t t e t t t t t t t t t t t t t t t t d d t t t t t t h d d t t t t t e e e e e t t t 9 e e e e e d h e e e e t t t d h d e e e e e e t t t t t t t t t t t t t t t t t t t t t t t t t t t t t t t t d d d t t t t t e e e e e e e e 9 9 e e e e e t t t t t t t t t t t t t t t t t 9 9 e d t e e t t t t d d d d d t t t t t t t t t t t t t t t t t t t t t t t t t t t t t t t t t t t t t t t t t t t t t t t t t e e e e e e t e e e e e e e e t t t t t t t t t t t t t t t t t t t t t t t t d t t e e e e t 9 9 e e t t t e t t t t t t t t t t t t t t t t t t t t t t t t t t t t t t t t d d t t d d d d e 9 9 9 e e e e t t t t t t t t t t t t t t t t t t t t t t t t t t e e e e 9 9 e 9 5 9 e e e t t t t t t t t t t t t t t t t t t t t t t t t t t t t t t t t t t t t t t t d d t t d d d d t t e e e e e e e t 9 e e t t t t d e e e t t t t t t e 9 e e e t h t t t t t t t t t t t t t t t t t t t t t t t t t t t t t t t t d d t t t t t t d d d t t t t t e e e e e t t t t t t t t t t t t t t t t t t t 9 9 e t d d t t h d t 9 e t t e t t t t t t t t t t t t t t t t t t t t t t t t t t t t t t t t t t t t t t t t t t t d d d d d e t t t e e 9 9 e e e e e e t t t t t t t t t t t t t t t t t t t t t t t t t t e e e e e e d h 9 9 e t t t e e t t t t t t t t t t t t t t t t t t t t t t t t t t t t t t t t t t t t t t t t e e 9 e e e e e ",
"e e e 9 9 t t t d t t t t t e e 9 9 9 9 9 9 9 9 9 9 9 9 5 5 5 5 e e t e e e e t e e e e e t t t 9 9 9 9 9 9 9 9 e t t e 9 5 9 9 e e 9 9 e d d t 9 9 9 9 9 9 9 9 9 9 9 9 9 9 9 9 9 9 5 5 9 5 5 5 9 9 9 9 9 9 9 9 e e t t t t t t t t t t e 9 9 9 e e e e e e e e e 9 9 e t d t t 9 9 9 9 9 9 9 9 9 9 9 9 9 9 9 9 9 9 9 9 9 9 9 9 9 9 9 9 9 9 9 9 5 5 9 9 9 5 5 5 e e e e e t e e e e e e t t t t 9 9 9 9 9 9 9 9 9 9 9 9 9 9 9 9 e e e e 9 5 9 e 9 9 9 9 5 9 9 9 9 9 9 9 9 9 9 9 9 9 9 9 9 9 9 9 9 9 9 9 9 9 9 9 9 9 9 9 9 9 9 9 9 9 9 9 9 9 9 9 9 9 9 9 9 5 5 5 e t t d d t e e t t t t t t e e 9 9 9 9 9 9 9 9 9 9 9 9 9 9 9 9 9 9 9 9 9 9 9 9 e e e e e e e e 9 e e t e e e e 9 9 9 9 9 9 9 9 9 9 9 9 9 9 9 9 9 9 9 9 9 9 9 9 9 9 9 9 9 9 9 9 5 5 5 5 5 5 5 5 e e e e e t t t 9 9 9 9 9 9 9 9 9 9 9 9 9 9 9 9 9 9 9 9 9 9 9 9 t e 9 e t t e e t t e e e e t d 9 9 9 9 9 9 9 9 9 9 9 9 9 9 9 9 9 9 9 9 9 9 9 9 9 9 9 9 9 9 9 9 5 5 5 5 9 9 9 9 9 9 5 5 5 5 9 9 t t e e t t t d t t e e e e 9 9 t t e e e 9 9 9 e e e e t e e t 9 9 9 9 9 9 9 9 9 9 9 9 9 9 9 9 9 9 9 9 9 9 9 9 9 9 9 9 9 9 9 9 9 9 5 5 9 5 5 5 9 9 9 9 9 9 9 9 e e t t t t t t 9 9 9 9 9 9 9 9 9 9 9 9 9 9 9 9 t t e e 9 9 9 9 e e 9 e t d t e 9 9 9 9 9 9 9 9 9 9 9 9 9 9 9 9 9 9 9 9 9 9 9 9 9 9 9 9 9 9 9 9 9 9 9 9 9 9 9 9 9 9 9 9 9 9 5 5 t t t t t t t t e e e e e t t t 9 9 9 9 9 9 9 9 9 9 9 9 9 9 9 9 9 9 9 9 9 9 9 9 t t d t e 9 9 e e e e e e e e e 9 9 9 9 9 9 9 9 9 9 9 9 9 9 9 9 9 9 9 9 9 9 9 9 9 9 9 9 9 9 9 9 5 5 5 5 5 5 5 5 t t t t t t t t ",
"e t e 9 9 t t e e e 9 9 9 e e e e e e e e e e e e e e e e e e e 5 9 9 9 e e t t t e e e 9 9 9 5 e e e e e e e e e e e 9 9 9 e e 9 9 9 9 9 9 5 9 e e e e e e e e e e e e e e e e e e e e e e t t 9 e e t t t t t t e e e 9 9 9 5 9 9 e e 9 9 9 9 e e e e e 9 9 9 5 5 9 9 9 9 9 5 e e e e e e e e e e e e e e e e e e e e e e e e e e e e e e e e e e e e e e t t 9 9 5 9 e t t e e e e e e 9 9 9 e e e e e e e e e e e e e e e e e e 9 5 5 9 e e e e e e e e e e e e e e e e e e e e e e e e e e e e e e e e e e e e e e e e e e e e e e e e e e t t t t t t t t 5 9 9 e e e e e 9 9 9 9 9 9 9 9 e e e e e e e e e e e e e e e e e e e e e e e e 1 5 9 9 e e 9 9 e e e e 9 9 9 e e e e e e e e e e e e e e e e e e e e e e e e e e e e e e e e e e e e e e e e e 9 9 9 9 e e e e e e e e e e e e e e e e e e e e e e e e e e e e 5 9 9 9 e e t t e e t e 9 9 9 9 e e e e e e e e e e e e e e e e e e e e e e e e e e e e e e e e e e e e e e t t e e e e e t t t t t e 9 9 9 9 9 9 9 5 9 9 9 9 5 9 9 9 9 e e e e 9 e e e 9 9 5 5 e e e e e e e e e e e e e e e e e e e e e e e e e e e e e e e e e e e e e e t t 9 9 e t t t t t t e e e 9 9 9 5 e e e e e e e e e e e e e e e e e e e 9 5 9 e t 5 5 9 9 9 5 5 5 e e e e e e e e e e e e e e e e e e e e e e e e e e e e e e e e e e e e e e e e t t t t t e e e 9 9 9 9 9 e e e e e e e e 9 5 5 e e e e e e e e e e e e e e e e e e e e e e e e 5 9 9 9 9 9 5 5 d t e e 9 9 9 e e e e e e e e e e e e e e e e e e e e e e e e e e e e e e e e e e e e e e e e e e e e e e e e e ",
"e e e e e e 9 9 e 9 9 9 e t t t 9 9 9 9 9 9 9 9 9 9 9 9 e e e e d d t t t t e 9 e e e e e e e t 9 9 9 9 9 9 9 9 e e e t t d t e t t d d t e e t 9 9 9 9 9 9 9 9 9 9 9 9 9 9 9 9 9 9 9 9 9 e e e e e e e 9 9 5 1 e e e e e e e e t t t t t t t t e e e t t e e e t t t t e e t d 9 9 9 9 9 9 9 9 9 9 9 9 9 9 9 9 9 9 9 9 9 9 9 9 9 9 9 9 9 9 9 9 9 9 9 9 9 e e e h d t t t t e 9 e e e e t t t t 9 9 9 9 9 9 9 9 9 9 9 9 9 9 9 9 e e e e e t e 9 9 9 9 9 9 9 9 9 9 9 9 9 9 9 9 9 9 9 9 9 9 9 9 9 9 9 9 9 9 9 9 9 9 9 9 9 9 9 9 9 9 9 9 9 9 9 9 9 9 9 9 e e e e t d t e 9 9 9 e t e e e e t t t d 9 9 9 9 9 9 9 9 9 9 9 9 9 9 9 9 9 9 9 9 9 9 9 9 d d t e e e e e e 9 e e t t d h 9 9 9 9 9 9 9 9 9 9 9 9 9 9 9 9 9 9 9 9 9 9 9 9 9 9 9 9 9 9 9 9 e e e e e e e e e e e e e e e e 9 9 9 9 9 9 9 9 9 9 9 9 9 9 9 9 9 9 9 9 9 9 9 9 e t t t 9 9 9 9 5 9 e e e t t t 9 9 9 9 9 9 9 9 9 9 9 9 9 9 9 9 9 9 9 9 9 9 9 9 9 9 9 9 9 9 9 9 9 9 9 9 9 e e e 9 e e t e 9 5 1 9 9 e e e e e e t e e t t t t t e e e e e t t t e e e e e d h h 9 9 9 9 9 9 9 9 9 9 9 9 9 9 9 9 9 9 9 9 9 9 9 9 9 9 9 9 9 9 9 9 9 9 9 9 9 e e e e e e e 9 5 5 1 e e e e e e e e 9 9 9 9 9 9 9 9 9 9 9 9 9 9 9 9 9 e e t t e t t t t t t e e t d 9 9 9 9 9 9 9 9 9 9 9 9 9 9 9 9 9 9 9 9 9 9 9 9 9 9 9 9 9 9 9 9 9 9 9 9 9 9 9 9 9 9 9 9 e e e e d d t e e e 9 9 e e e t t t t e 9 9 9 9 9 9 9 9 9 9 9 9 9 9 9 9 9 9 9 9 9 9 9 9 d t e e t t t t 9 9 e t t t t t 9 9 9 9 9 9 9 9 9 9 9 9 9 9 9 9 9 9 9 9 9 9 9 9 9 9 9 9 9 9 9 9 e e e e e e e e e e t t t e e e ",
"e e e t e 5 9 t 9 9 9 9 9 9 5 5 9 9 9 9 9 9 9 9 e e e e 9 9 9 9 e 9 5 5 9 9 5 1 5 5 5 5 9 9 9 9 9 9 9 9 9 9 9 9 9 9 9 e e 9 5 5 5 5 5 e 9 5 9 e 9 9 9 9 9 9 9 9 9 9 9 9 9 9 9 9 e e e e 9 9 9 9 t t e 9 9 9 9 9 5 5 5 9 9 9 9 9 9 9 9 9 9 9 5 5 9 9 9 9 9 9 e e 9 9 9 5 5 9 e e 9 9 9 9 9 9 9 9 9 9 9 9 9 9 9 9 9 9 9 9 9 9 9 9 9 9 9 9 9 9 9 9 e e e e 9 9 9 9 e 9 5 5 9 9 5 1 5 5 5 9 9 9 9 9 9 9 9 9 9 9 9 9 9 9 9 9 9 9 9 9 9 e e 9 9 e 9 1 9 9 e e e e 9 9 9 9 9 9 9 9 9 9 9 9 9 9 9 9 9 9 9 9 9 9 9 9 9 9 9 9 9 9 9 9 9 9 9 9 9 9 9 9 9 9 e e e 9 9 9 9 9 e 9 9 9 5 5 5 5 e 9 9 5 5 9 9 e 9 9 9 9 9 9 9 9 9 9 9 9 9 9 9 9 9 9 9 9 9 9 9 9 5 5 5 5 5 9 e t t e 9 e e 5 5 9 9 9 9 9 9 9 9 9 9 9 9 9 9 9 9 9 9 9 9 9 9 9 9 9 9 9 9 9 9 9 9 9 e e e 9 e e e e 9 9 e e e 9 9 5 9 9 9 9 9 9 9 9 9 9 9 9 9 9 9 9 9 9 9 9 9 9 9 9 5 5 9 9 9 9 e t e t t e 9 e 9 5 9 9 9 9 9 9 9 9 9 9 9 9 9 9 9 9 9 9 9 9 9 9 9 9 9 9 9 9 9 9 9 9 e e e e 9 9 9 9 e e e e e 9 9 9 1 5 5 9 9 9 9 5 9 9 9 9 5 5 5 5 e e e 9 9 9 9 9 e e 9 5 1 5 5 1 9 9 9 9 9 9 9 9 9 9 9 9 9 9 9 9 9 9 9 9 9 9 9 9 9 9 9 9 9 9 9 9 e e e e 9 9 9 9 t e e 9 9 9 9 9 5 5 5 9 9 9 9 9 9 9 9 9 9 9 9 9 9 9 9 9 9 9 9 9 9 9 9 e e 9 5 5 9 5 5 9 9 5 9 t 9 9 9 9 9 9 9 9 9 9 9 9 9 9 9 9 9 9 9 9 9 9 9 9 9 9 9 9 9 9 9 9 9 9 9 9 9 9 9 9 e e 9 9 9 9 9 9 9 e e e e 9 5 5 5 5 5 5 5 9 9 e 9 9 9 9 9 9 9 9 9 9 9 9 9 9 9 9 9 9 9 9 9 9 9 9 e e 9 5 5 9 9 9 e e e e 9 5 1 1 9 9 9 9 9 9 9 9 9 9 9 9 9 9 9 9 9 9 9 9 9 9 9 9 9 9 9 9 9 9 9 9 e e e e 9 9 9 9 5 5 9 e e e 9 9 ",
"d e 9 t e 5 t b B A A A A b l d d d d d d d d d h h h d t e e 9 e 9 9 t b D D A A A B b l h d t d d d d d d d d h h d d t d d h l d d d h t t d d d d d d d d d d d d d d d d d h h d d t t e e e 9 9 e d l A D D A A b l h d d h h d d h h h h h h h h d d h h t d d d h h d t d d d d d d d d d d d d d d d d d d d d d d d d d d d d d d d d h h d d t t e e e 9 e d b A A A D A A b l h d t d d d d d d d d d d d d d d d d t d h d d h l l t d d d d d d d d d d d d d d d d d d d d d d d d d d d d d d d d d d d d d d d d d d d d d d d h h d t e e 9 9 9 t l A D D A B B b l d d t d d d d d d d d d d d d d d d d d d d d d d d d d d h h h l h h d t t e e d h d d h d d d d d d d d d d d d d d d d d d d d d d d d d d d d d d d d t t t t t t t t B A A D A A b b d d d d d d d d d d d d d d d d d d d d d d d d h h d d d d t t t d d t d l l h d d d d d d d d d d d d d d d d d d d d d d d d d d d d d d d d d d d t t t t t e e 9 5 e d b A A D D A B l h d d h h h h h h h d d d h h h h h e d h d h l l d d d d d d d d d d d d d d d d d d d d d d d d d d d d d d d d d h h d d t t e e 9 9 9 e d l A D D A A b l h d d d d d d d d d d d d d d d d d d d d t t d d d d h d d h h d e t d d d d d d d d d d d d d d d d d d d d d d d d d d d d d d d d d d d d d d d d h h d d t e 9 9 5 e d b A D D A D A b h t t d d d d d d d d d d d d d d d d d d d d d d d d d d t d h h d d d t d d t t t d h l d d d d d d d d d d d d d d d d d d d d d d d d d d d d d d d d t t t t e e 9 9 l b B A D D A A ",
"e 9 9 e e e 5 &.f.y.p.f.w.k...D K K K K K K K K D D D A A 9 t 9 9 9 e t w.p.k.f.p.y.k.^ D D D K K K K K K K K K K K K K K K K K K K K K K K K K K K K K K K K K K K K K K K K K D A D A D B 9 e e 9 e t t y.p.p.p.f.y.f.( D K D K K K K K K K K K K K K K K K K K K K K K K K K K K K K K K K K K K K K K K K K K K K K K K K K K K K K K K K K A D A A K e e e e 5 t 5 ..k.p.f.p.p.f.<.B K D D K K K K K K K K K K K K K K K K K K K K K K K K K K K K K K K K K K K K K K K K K K K K K K K K K K K K K K K K K K K K K K K K K K K K K K K K A D D 9 e e 9 e t 9 <.p.p.p.p.f.f. .D D K K K K K K K K K K K K K K K K K K K K K K K K K K K K K K K K K K K K K K K K K K K K K K K K K K K K K K K K K K K K K K K K K K K K K K D D K K K K B 9 e e 9 e 9 t y.f.p.y.f.y.k.^ D D K K K K K K K K K K K K K K K K K K K K K K K K K K K K K K K K K K K K K K K K K K K K K K K K K K K K K K K K K K K K K K K K K K K K K K K D D D D K B e 9 e e 9 9 b p.w.p.p.p.p.y.P D K K K K K K K K K K K K K K K K K K K K K K K K K K K K K K K K K K K K K K K K K K K K K K K K K K K K K K K K K A D A D A D 9 e 9 e e t 9 6.p.p.p.p.y.k.' D D D K K K K K K K K K K K K K K K K K K K K K K K K K K K K K K K K K K K K K K K K K K K K K K K K K K K K K K K K K K K K K K K K K K K K K K K K A K A A 9 e e e e e t p.y.p.f.p.y.f.W K K K P K K K K K K K K K K K K K K K K K K K K K K K K K K K K K K K K K K K K K K K K K K K K K K K K K K K K K K K K K K K K K K K K K K K D D K K K K D b 9 e t 9 t 9 A k.y.p.y.p.p.y.",
"e 9 9 e e e 5 &.y.0.w.y.6.p.' B D D D D D D D D D D D A A 9 t 9 e e e e 6.w.y.w.w.0.p.P A A B A D D D D D D D D D D D D D D D D D D D D D D D D D D D D D D D D D D D D D D D D D A D A D B 9 e e 9 e e 9 0.w.w.w.w.0.y.W B A A D D D D D D D D D D D D D D D D D D D D D D D D D D D D D D D D D D D D D D D D D D D D D D D D D D D D D D D D A D A A K e e e t 9 t 1 ' p.w.w.w.w.y.&.b D A A D D D D D D D D D D D D D D D D D D D D D D D D D D D D D D D D D D D D D D D D D D D D D D D D D D D D D D D D D D D D D D D D D D D D D D D D A D D 9 e e 9 e e 5 &.y.w.0.w.w.p.' A A D A D D D D D D D D D D D D D D D D D D D D D D D D D D D D D D D D D D D D D D D D D D D D D D D D D D D D D D D D D D D D D D D D D D D A A A A D D D B 9 e e 9 e 9 t 0.w.w.0.y.0.p.P A A D D D D D D D D D D D D D D D D D D D D D D D D D D D D D D D D D D D D D D D D D D D D D D D D D D D D D D D D D D D D D D D D D D D D D D D A D D D D b 9 e e e 9 9 b p.w.w.w.w.w.0.D A A D D D D D D D D D D D D D D D D D D D D D D D D D D D D D D D D D D D D D D D D D D D D D D D D D D D D D D D D A D A D A D 9 e 9 t e t 9 <.y.y.w.w.0.p.^ B A A D D D D D D D D D D D D D D D D D D D D D D D D D D D D D D D D D D D D D D D D D D D D D D D D D D D D D D D D D D D D D D D D D D D D D D D D A K A A 9 e e e 9 9 9 w.0.0.w.w.0.y.K A A A D A D D D D D D D D D D D D D D D D D D D D D D D D D D D D D D D D D D D D D D D D D D D D D D D D D D D D D D D D D D D D D D D D D D D A D D D D D b 9 e t 9 t 9 l y.0.w.0.w.w.0.",
"e 9 9 e e e 5 &.y.0.w.y.6.p.' B A A A A A A A A D D D A A 9 t 9 e e e e <.0.w.6.w.6.p.P A A B D A A A A A A A A A A A A A A A A A A A A A A A A A A A A A A A A A A A A A A A A D A D A D B 9 e e 9 e e 9 6.0.0.w.w.0.y.W B D A A A A A A A A A A A A A A A A A A A A A A A A A A A A A A A A A A A A A A A A A A A A A A A A A A A A A A A A A A D A A K e e e d 9 t 1 ( y.6.6.w.w.y.&.b D A A A A A A A A A A A A A A A A A A A A A A A A A A A A A A A A A A A A A A A A A A A A A A A A A A A A A A A A A A A A A A A A A A A A A A A A A A A D D 9 e e 9 e e 9 :.y.w.0.0.w.y.( B A A A A A A A A A A A A A A A A A A A A A A A A A A A A A A A A A A A A A A A A A A A A A A A A A A A A A A A A A A A A A A A A A A A A A A A A A A A A D B 9 e e 9 e 9 t 0.w.0.0.w.6.p.P B A A A A A A A A A A A A A A A A A A A A A A A A A A A A A A A A A A A A A A A A A A A A A A A A A A A A A A A A A A A A A A A A A A A A A A A D A D D A D b 9 e e e 9 9 b p.w.0.0.w.w.0.D A D A A A A A A A A A A A A A A A A A A A A A A A A A A A A A A A A A A A A A A A A A A A A A A A A A A A A A A A A A D A D A D 9 e e t e t 5 :.w.w.w.w.0.p.^ B A A A A A A A A A A A A A A A A A A A A A A A A A A A A A A A A A A A A A A A A A A A A A A A A A A A A A A A A A A A A A A A A A A A A A A A A A A A D A A 9 e e e e e e y.0.0.0.0.0.y.K A A A D A A A A A A A A A A A A A A A A A A A A A A A A A A A A A A A A A A A A A A A A A A A A A A A A A A A A A A A A A A A A A A A A A A A A A A A A A D b 9 e t 9 t 9 l y.0.0.0.w.w.0.",
"e 9 9 e e e 5 &.p.w.w.p.0.p. .B D D D D D D D D D D D A A 9 t 9 e e e e 6.w.y.w.w.0.p.W D D A K D D D D D D D D D D D D D D D D D D D D D D D D D D D D D D D D D D D D D D D D D A D A D B 9 e t e e e 9 0.0.0.w.y.0.p.^ A K D D D D D D D D D D D D D D D D D D D D D D D D D D D D D D D D D D D D D D D D D D D D D D D D D D D D D D D D D A D A A K e e e t 9 t 1 ' p.w.w.w.w.y.&.B K D D D D D D D D D D D D D D D D D D D D D D D D D D D D D D D D D D D D D D D D D D D D D D D D D D D D D D D D D D D D D D D D D D D D D D D D D D A D D 9 e e 9 e t e <.p.y.0.w.w.p.( A A D A D A D D D D D D D D D D D D D D D D D D D D D D D D D D D D D D D D D D D D D D D D D D D D D D D D D D D D D D D D D D D D D D D D A A A A A D D D B 9 e e 9 e 9 t 0.y.w.w.y.0.p.W B A D D D A D D D D D D D D D D D D D D D D D D D D D D D D D D D D D D D D D D D D D D D D D D D D D D D D D D D D D D D D D D D D D D D D D D D A D D A D b 9 e t t 9 9 l y.0.w.w.w.y.w.K D K D D D D D D D D D D D D D D D D D D D D D D D D D D D D D D D D D D D D D D D D D D D D D D D D D D D D D D D D A D A D A D 9 e e t 9 e 5 :.0.0.w.w.0.f.( A D D D D D D D D D D D D D D D D D D D D D D D D D D D D D D D D D D D D D D D D D D D D D D D D D D D D D D D D D D D D D D D D D D D D D D D D D D A K A A 9 e e e t e t y.w.w.w.0.w.p.P D A D K D D D D D D D D D D D D D D D D D D D D D D D D D D D D D D D D D D D D D D D D D D D D D D D D D D D D D D D D D D D D D D D D D D D A A A D D D D b 9 e t 9 t 9 b p.w.w.w.y.y.w.",
"e 9 9 e e e 5 &.y.0.w.y.6.p.' B D D D D D D D D D D D A A 9 t 9 e e e e 6.w.p.w.0.6.p.P A D A K D D D D D D D D D D D D D D D D D D D D D D D D D D D D D D D D D D D D D D D D D A D A D B 9 e t 9 e e 9 0.w.w.0.w.0.y.W A D D D D D D D D D D D D D D D D D D D D D D D D D D D D D D D D D D D D D D D D D D D D D D D D D D D D D D D D D D A D A A K 9 e e t 5 t 1 ' f.w.w.0.0.w.&.b D D D D D D D D D D D D D D D D D D D D D D D D D D D D D D D D D D D D D D D D D D D D D D D D D D D D D D D D D D D D D D D D D D D D D D D D D D D A D D 9 e e 9 e e 5 :.y.w.0.0.w.p.' A D D D D D D D D D D D D D D D D D D D D D D D D D D D D D D D D D D D D D D D D D D D D D D D D D D D D D D D D D D D D D D D D D D D D D D D D A D D D D B 9 e e 9 e 9 t 0.y.w.0.y.0.p.P A D D D D D D D D D D D D D D D D D D D D D D D D D D D D D D D D D D D D D D D D D D D D D D D D D D D D D D D D D D D D D D D D D D D D D D D D A D D D D b 9 t t t 9 9 l y.0.0.0.w.w.0.D A D D D D D D D D D D D D D D D D D D D D D D D D D D D D D D D D D D D D D D D D D D D D D D D D D D D D D D D D D A D A D A D 9 e 9 t 9 t 5 :.w.w.0.w.0.p.^ A D D D D D D D D D D D D D D D D D D D D D D D D D D D D D D D D D D D D D D D D D D D D D D D D D D D D D D D D D D D D D D D D D D D D D D D D D D A K A A 9 e e e e 9 e y.0.0.w.0.0.p.K D A A D A D D D D D D D D D D D D D D D D D D D D D D D D D D D D D D D D D D D D D D D D D D D D D D D D D D D D D D D D D D D D D D D D D D D D D D D D D b 9 e t 9 t 9 b y.0.w.0.w.w.0.",
"e 9 9 e e e 5 &.y.0.w.y.6.p.' B D D D D D D D D D D D A A 9 t 9 e e e e 6.w.y.0.0.6.p.P A D A D D D D D D D D D D D D D D D D D D D D D D D D D D D D D D D D D D D D D A A D D D A D A D B 9 e e 9 9 e 9 0.w.w.0.w.0.y.W B D D D D D D D D D D D D D D D D D D D D D D D D D D D D D D D D D D D D D D D D D D D D D D D D D D D D D D D D D D A D A A K e e 9 t 9 t 1 ' p.0.0.0.0.w.&.b D A D D D D D D D D D D D D D D D D D D D D D D D D D D D D D D D D D D D D D D D D D D D D D D D D D D D D D D D D D D D D D D D D D D D D D D D D D A D D 9 e e 9 e e 5 :.y.w.0.w.w.p.( A A D A D A D D D D D D D D D D D D D D D D D D D D D D D D D D D D D D D D D D D D D D D D D D D D D D D D D D D D D D D D D D D D D D D D A A A A A A D D B 9 e e 9 e 9 t 0.y.w.w.y.0.p.P A A D D A A A D D D D D D D D D D D D D D D D D D D D D D D D D D D D D D D D D D D D D D D D D D D D D D D D D D D D D D D D D D D D D D D D D D A D D D D b 9 e t t 9 9 l y.0.0.w.w.w.0.D A D D D D D D D D D D D D D D D D D D D D D D D D D D D D D D D D D D D D D D D D D D D D D D D D D D D D D D D D D A D A D A D 9 e 9 e 9 t 5 <.y.y.0.w.0.p.^ A D D D D D D D D D D D D D D D D D D D D D D D D D D D D D D D D D D D D D D D D D D D D D D D D D D D D D D D D D D D D D D D D D D D D D D D D D D A K A A 9 e e e e 9 e y.w.0.w.w.0.p.K D A A D A D D D D D D D D D D D D D D D D D D D D D D D D D D D D D D D D D D D D D D D D D D D D D D D D D D D D D D D D D D D D D D D D A A A A A A A A D b 9 e t 9 t 9 b y.0.w.0.w.w.0.",
"e 9 9 e e e 5 &.y.w.w.y.0.p.' B D D D D D D D D D D D A A 9 t 9 e e e e 6.0.w.0.w.0.p.W A D A K D D D D D D D D D D D D D D D D D D D D D D D D D D D D D D D D D D D D D D D D D A D A D B 9 e e 9 e e 9 0.0.w.w.y.0.p.^ A D D D D D D D D D D D D D D D D D D D D D D D D D D D D D D D D D D D D D D D D D D D D D D D D D D D D D D D D D D A D A A K e e e t 9 t 1 ' p.0.0.w.w.y.&.b K D D D D D D D D D D D D D D D D D D D D D D D D D D D D D D D D D D D D D D D D D D D D D D D D D D D D D D D D D D D D D D D D D D D D D D D D D D A D D 9 e e 9 e t 9 :.p.y.w.w.y.y.( B A A A A A D D D D D D D D D D D D D D D D D D D D D D D D D D D D D D D D D D D D D D D D D D D D D D D D D D D D D D D D D D D D D D D D A A A A A A D D B 9 e e 9 e 9 t 0.y.w.w.y.0.p.P A A D D A A A D D D D D D D D D D D D D D D D D D D D D D D D D D D D D D D D D D D D D D D D D D D D D D D D D D D D D D D D D D D D D D D D D D A D D A D b 9 e e e 9 9 b p.0.w.w.w.y.w.K A D D D D D D D D D D D D D D D D D D D D D D D D D D D D D D D D D D D D D D D D D D D D D D D D D D D D D D D D D A D A D A D 9 e 9 t e t 5 :.w.w.w.w.0.f.( A D D D D D D D D D D D D D D D D D D D D D D D D D D D D D D D D D D D D D D D D D D D D D D D D D D D D D D D D D D D D D D D D D D D D D D D D D D A K A A 9 e e e e e e y.w.w.w.w.0.p.P D A D D A D D D D D D D D D D D D D D D D D D D D D D D D D D D D D D D D D D D D D D D D D D D D D D D D D D D D D D D D D D D D D D D D A A A A A A A A D b 9 e t 9 t 9 b p.0.w.w.w.y.w.",
"e 9 9 e e e 5 &.y.0.w.y.6.p.' b D D D D D D D D D D D A A 9 t 9 e e e e 6.w.y.w.w.6.p.W A D A D D D D D D D D D D D D D D D D D D D D D D D D D D D D D D D D D D D D D D D D D D A D A D B 9 e t e e e 9 0.0.w.w.w.0.y.W B D A D D D D D D D D D D D D D D D D D D D D D D D D D D D D D D D D D D D D D D D D D D D D D D D D D D D D D D D D A D A A K e e e t 9 t 1 ' p.w.w.w.w.y.&.b D A A D D D D D D D D D D D D D D D D D D D D D D D D D D D D D D D D D D D D D D D D D D D D D D D D D D D D D D D D D D D D D D D D D D D D D D D D A D D 9 e e 9 e t 9 :.y.w.0.0.w.p.' A A D A D D D D D D D D D D D D D D D D D D D D D D D D D D D D D D D D D D D D D D D D D D D D D D D D D D D D D D D D D D D D D D D D D D D D A A D D D D B 9 e e 9 e 9 t 6.w.0.0.w.6.p.P A A D D D D D D D D D D D D D D D D D D D D D D D D D D D D D D D D D D D D D D D D D D D D D D D D D D D D D D D D D D D D D D D D D D D D D D D A A A A D b 9 e e e 9 9 b p.w.w.w.w.w.0.D A A D D D D D D D D D D D D D D D D D D D D D D D D D D D D D D D D D D D D D D D D D D D D D D D D D D D D D D D D A D A D A D 9 e e t e t 5 :.w.w.w.w.0.p.^ B A A D D D D D D D D D D D D D D D D D D D D D D D D D D D D D D D D D D D D D D D D D D D D D D D D D D D D D D D D D D D D D D D D D D D D D D D D A K A A 9 e e e e e e y.0.0.w.0.0.p.K D A A D A D D D D D D D D D D D D D D D D D D D D D D D D D D D D D D D D D D D D D D D D D D D D D D D D D D D D D D D D D D D D D D D D D D D D D D D A D b 9 e t 9 t 9 l y.0.0.0.w.w.0.",
"e 9 9 e e e 5 &.y.w.w.y.6.p.' B D D D D D D D D D D D A A 9 t 9 e e e e 6.w.w.0.w.6.p.W A D A D D D D D D D D D D D A D D D D D D D D D D D D D D D A D D D D D D D D D D D D D D A D A D B 9 e e e e e 9 w.w.w.w.y.0.y.W A D D D D D D D D D D D D A D D D D D D D D D D D D D D D A D D D D D D D D D D D D D D D D D D D D A D D D D D D D D A D A A K e e e e 5 t 1 ' p.0.w.w.w.y.&.b D A D D D D D D D D D D D A D D D D D D D D D D D D D D D D D D D D A D D D D D D D D D D D D D D D A D D D D D D D D D D A D D D D D D D D D D D D D A D D 9 e e 9 e e 9 :.y.w.0.w.w.p.' A A D A D D D D D D D D D D D D A D D D D D D D D D D D D D D D D D D D D A D D D D D D D D D D D D D D D A D D D D D D D D D D A D D D D D D A A A A D D D B 9 e e 9 e 9 t 0.y.w.0.y.0.p.P A A D D D D D D D D D D D D D D D D D D D A D D D D D D D D D A D D D D D A D D D D D D D D D D D D D D D A D D D D D D D D D A D D D D D A D D A A D D A D b 5 e e e e e l y.w.w.w.w.w.0.D A D D D D D D D D D D D D D D D D D D D A D D D D D D D D D D D D D D D D D D D D A D D D D D D D D D D D D D D D A A D A D A D 9 e 9 t e e 5 :.w.w.w.w.0.f.( A D A A A D D D D D D D D D D D D D D D D D D D D D A D D D D D D D D D D D D D A D D D D D D D D D A D D D D D A D D D D D D D D D D D D D D D A D D A D A B 5 e e e e e e y.w.w.w.w.w.y.W A A K A D D A D D D D D D D D D D D D D D D D D D D D D A D D D D D D D D D D A D D D D D D D D D D D D D D D D D D D D A D D D D D D D D D D D D D D D A D b 9 e t 9 t 9 l y.0.w.0.w.w.w.",
"e 9 9 e e e 5 &.y.w.w.y.6.p.' B D D D D D D D D D D D A A 9 t 9 e e e e 6.w.y.0.w.0.p.W A D A D D D D D D D D D D D A D D D D D D D D D D D D D D D A D D D D D D D D D D D D D A A D A D B 9 e e e e e 9 w.w.w.w.y.0.y.W A D D D D D D D D D D D D A D D D D D D D D D D D D D D D A D D D D D D D D D D D D D A D D D D D D D D A D D D D D D A D A A K e e e e 5 t 1 ' p.0.w.w.w.y.&.b D A D D D D D D D D D D D A D D D D D D D D D D D D D A D D D D D D D D D D D D D D D D D D D D D D D D D D D D D D D D D A D D D D D D D D D D D D D A A D 9 e e 9 e e 9 :.y.w.0.w.w.p.' A A D A D D D D D D D D D D D D A D D D D D D D D D D D D D A D D D D D D D D D D D D D D D D D D D D D D D D D D D D D D D D D A D D D D D D A A A A D D D B 9 e e 9 e 9 t 0.y.w.0.y.0.p.P A A D D D D D D D D D D D D D D D D D D A A D D D D D D D D D A D D D D A A D D D D D D D D D D D D D D A A D D D D D D D D D A D D D D A A D D A A D D A D b 5 e e e e e l y.w.w.w.w.w.0.D A D D D D D D D D D D D D D D D D D D D A D D D D D D D D D D D D D A D D D D D D D D D D D D D D D D D D D D D D D A D A D A D 9 e 9 t e e 5 :.w.w.w.w.0.f.( A A A A A D D D D D D D D D D D D D D D D D D D D D D D D D D D D D D D D D D A A D D D D D D D D D A D D D D A A D D D D D D D D D D D D D D A A D D A D A B 5 e e e e e e y.w.w.w.w.w.y.W A A K A D A A D D D D D D D D D D D D D D D D D D D D D D D D D D D D D D D D A D D D D D D D D D D D D D A D D D D D D D D D D D D D D D D D D D D D D D D b 9 e t 9 t 9 l y.0.w.0.w.w.w.",
"e 9 9 e e e 5 &.y.w.w.y.6.p.' B D D D D D D A A D D D A A 9 t 9 e e e e 6.0.y.0.w.0.p.W A D A D D A D D A D D D D D D D D D D D D A D D A D D D D D D D D D D D D D D D D D A A A A D A D B 9 e e e e e 9 0.w.w.w.y.0.y.W A D D D A D D A D D D D D D D D D D D D A D D A D D D D D D D D D D D D D D D D D A A A D D D D D D D D A D D D D D D A D A A K e e e e 5 t 1 ' p.0.w.w.w.y.&.b D A D D A D D A D D D D D D D D D D D D D D D D D A A A D D D D D D D A A D D D D A D D D D D D D D D D A D D A D D D D D D D D D D D D D D D D D D A A D D 9 e e 9 e e 9 :.y.w.0.w.w.p.' A A D A D D D A D D A D D D D D D D D D D D D D D D D D A A A D D D D D D D A A D D D D A D D D D D D D D D D A D D A D D D D D D D D D D D D A A A A D D D B 9 e e 9 e 9 t 0.y.w.0.y.0.p.P A A D D D D D D D D D D A D D D D D D D D D D D A D D D D D D D D D D D D D D D D D D D A D D D D D D D D D D D A D D D D D D D D D D D D D D D A A D D A D b 5 e e e e e l y.w.w.w.w.w.0.D A D D D D D D D A D D A D D A D D D D D D D D D D D D D D D D D A A A D D D D D D D A A D D D D A D D D D D D D D D A D A D A D 9 e 9 t e e 5 :.w.w.w.w.0.f.( A D D A D D D D D D D A A D D D D A D D D D D D D D D D D D D A D D D D D D D D D D D A D D D D D D D D D D D D D D D D D D D A D D D D D D D D D D D A D A B 5 e e e e e e y.w.w.w.w.w.y.W A A K A A A A A D D D D D A A D D D D A D D D D D D D D D D A D D A D D D D D D D D D D D D D D D D D A A A D D D D D D D A A D D D D A D D D D D D D D D D b 9 e t 9 t 9 l y.0.w.0.w.w.w.",
"e 9 9 e e e 5 &.y.w.w.y.6.p.' B D D D D D D D D D D D A A 9 t 9 e e e e 6.w.y.0.w.0.p.W A D A D D A D D D D D D D D D D D D D D D A D D D D D D D D D D D D D D D D D D D D D D A A D A D B 9 e e e e e 9 w.w.w.w.y.0.y.W A D D D A D D D D D D D D D D D D D D D A D D D D D D D D D D D D D D D D D D D D D D D D D D D D D D D D D D D D A A A D A A K e e e e 5 t 1 ' p.0.w.w.w.y.&.b D A D D A D D D D D D D D D D D D D D D D D D D D D D D D D D D D D D D D D D D D A D D D A A D D D D D A D D D D D D D D D D D D D D D D D D D D D A A D D 9 e e 9 e e 9 :.y.w.0.w.w.p.' A A D A D D D A D D D D D D D D D D D D D D D D D D D D D D D D D D D D D D D D D D D D A D D D A A D D D D D A D D D D D D D D D D D D D D D A A A A D D D B 9 e e 9 e 9 t 0.y.w.0.y.6.p.P A A D D D D D D D D D D D D D D D D D A D D D D D D D D D D D D D D D A D D D D D D D D D D D D D D D A D D D D D D D D D D D D D D D A D D D D A A D D A D b 5 e e e e e l y.w.w.w.w.w.0.D A D D D D D D A A D D A D D D D D D D D D D D D D D D D D D D D D D D D D D D D D D D D D D D D A D D D A A D D D D A D A D A D 9 e 9 t e e 5 :.w.w.w.w.0.f.( A D D D D D D D D D D D D D D D D A D D D A A D D D D D D D D D D D D D D D A D D D D D D D D D D D D D D D A D D D D D D D D D D D D D D D A D D D D A D A B 5 e e e e e e y.w.w.w.w.w.y.W A A K A A A A A D D D D D D D D D D D A D D D A A D D D D D A D D D D D D D D D D D D D D D D D D D D D D D D D D D D D D D D D D D D A D D D A A D D D D D b 9 e t 9 t 9 l y.0.w.0.w.w.w.",
"e 9 9 e e e 5 &.y.w.w.y.6.p.' B D D A D A D D D D D D A A 9 t 9 e e e e 6.w.y.0.w.0.p.W A D A D D D D D A A D D D D D D D D D D D D D D A A D D D D D D D D D D D D A D A D D D D A D A D B 9 e e e e e 9 w.w.w.w.y.0.y.W A D D D D D D A A D D D D D D D D D D D D D D A A D D D D D D D D D D D D A D A D D D D A D D D D D D D D D D D D A A A D A A K e e e e 5 t 1 ' p.0.w.w.w.y.&.b D A D D D D D A A D D D D D D D D D D D D A D A D D D D A D D D D D D D D D D D D A A D D D D D D A D D D D D A A D D D D D D D D D D D D A A D D D D A D D 5 e e 9 e e 9 :.y.w.0.w.w.p.' A A D A D D D D D D A A D D D D D D D D D D D D A D A D D D D A D D D D D D D D D D D D A A D D D D D D A D D D D D A A D D D D D D D D D D D A A A A D D D B 9 e e 9 e 9 t 0.y.w.0.y.0.p.P A A D D D D D D D D D D A D D D D D D D D D D D A A D D D D D D D D D D D D D D D D D D A D D D D D D D D D D D A A D D D D D D D D D D D D D D A A D D A D b 5 e e e e e l y.w.w.w.w.w.0.D A D D D D D D A D D D D D D A A D D D D D D D D D D D D A D A D D D D A D D D D D D D D D D D D A A D D D D D D A D A D A D A D 9 e 9 t e e 5 :.w.w.w.w.0.f.( A D D D D A D D D D A D D D D D D A A D D D D D D A D D D D D A D D D D D D D D D D D A A D D D D D D D D D D D D D D D D D D A D D D D D D D D D D D A D A B 5 e e e e e e y.w.w.w.w.w.y.W A A K A A D D D D D D D D D D D D D D A A D D D D D D A D D D D D A A D D D D D D D D D D D D A D A D D D D A D D D D D D D D D D D D A A D D D D D D A D D b 9 e t 9 t 9 l y.0.w.0.w.w.w.",
"e 9 9 e e e 5 &.y.w.w.y.6.p.' B D D D D D D D D D D D A A 9 t 9 e 9 e e 6.w.y.0.w.0.p.W A D A D D D D D D D D D D D D D D D D D D D D D D D D D D D D D D D D D D D D D D D D D D A D A D B 9 e e e e e 9 w.w.w.w.y.0.y.W A D D D D D D D D D D D D D D D D D D D D D D D D D D D D D D D D D D D D D D D D D D D A D D D D A A D D D D D D A A A D A A K e e e t 5 t 5 ' p.0.w.w.w.y.&.b D A D D D D D D D D D D D D D D D D D D D D D D D D D D A D D D D A A D D D D D D D A D D D A D D A D D D D D D D D D D D D D D D D D D D D D D D D D A D D 9 e e 9 e e 9 :.y.w.0.w.w.p.' A A D A D D D D D D D D D D D D D D D D D D D D D D D D D D D A D D D D A A D D D D D D D A D D D A D D A D D D D D D D D D D D D D D D D D D A A A A D D D B 9 e e 9 e 9 t 0.y.w.0.y.0.p.P A A D D D D D D D D D D D D D D D D D D D D D D D D D D D D A D D D D D D D D D D D D D D D D D D D D D D D D D D D D D D D A D D D D D D D D D A A D D A D b 5 e e e e e l y.w.w.w.w.w.0.D A D D D D D D D D D D D D D D D D D D D D D D D D D D D D D D D D D D A D D D D A A D D D D D D D A D D D A D D A D A D A D A D 9 e 9 t e e 5 :.w.w.w.w.w.f.( A D D D A A D D D D D D D D D D D D A D D D A D D A D D D D D D D D D D D D D D D D D D D D D D D A D D D D D D D D D D D D D D D D D D D D D D D D D A D A B 5 e e e e e e y.w.w.w.w.w.y.W A A K A A D D D A D D D D D D D D D D D A D D D A D D A D D D D D D D D D D D D D D D D D D D D D D D D D D A D D D D A A D D D D D D D A D D D A D D A D D b 9 e t 9 t 9 l y.w.w.0.w.w.w.",
"e 9 9 e e e 5 &.y.w.w.y.6.p.' B D D D D D D D D D D D A A 9 t 9 e e e e 6.w.y.0.w.0.p.W A D A D D D D D D D D D D D A A A D D D D D D D D D D D D D A A A D D D D D D D D D D D D A D A D B 9 e e e e e 9 w.w.w.w.y.0.y.W A D D D D D D D D D D D D A A A D D D D D D D D D D D D D A A A D D D D D D D D D D D D D D D D D D D D D D D D D D D A D A A K e e e e 5 t 1 ' p.0.w.w.w.y.&.b D A D D D D D D D D D D D A A A D D D D D D D D D D D D D D D D D D D D D D D D D D D D D D D D D D D D D D D D D D D D D A A A D D D D D D D D D D D A D D 9 e e 9 e e 9 :.y.w.0.w.w.p.' A A D A D D D D D D D D D D D D A A A D D D D D D D D D D D D D D D D D D D D D D D D D D D D D D D D D D D D D D D D D D D D D A A A D D D D A A A A D D D B 9 e e 9 e 9 t 0.y.w.0.y.0.p.P A A D D D D D D D D A D D D D D D D D D D D D D D D D D D D A D D D D D D D D D D D A D D D D D D D D D D D D D D D D D D D A D D D D D D D D D A A D D A D b 5 e e e e e l y.w.w.w.w.w.0.D A D D D D D D D D D D D D D D D D D D D A A A D D D D D D D D D D D D D D D D D D D D D D D D D D D D D D D D D D D A D A D A D 9 e 9 t e e 5 :.w.w.w.w.0.f.( A D D D D D D D D D D D D D D D D D D D D D D D D D D D D A D D D D D D D D D D D D D D D D D D D A D D D D D D D D D D D A D D D D D D D D D D D D D A D A B 5 e e e e e e y.w.w.w.w.0.y.W A A K A A D D D D D D D D D D D D D D D D D D D D D D D D D D D D D D D D D D A A A D D D D D D D D D D D D D D D D D D D D D D D D D D D D D D D D D D D D b 9 e t 9 t 9 b p.w.w.0.w.w.w.",
"e 9 9 e e e 5 &.y.w.w.y.6.p.' B D D D D D D D D D D D A A 9 t 9 e e e e 6.w.w.0.w.0.p.W A D A D A D D D D D D D D D D D A A D D A D D D D D D D D D D D A A D D D D D D D D D D D A D A D B 9 e e e e e 9 w.w.w.w.y.0.y.W A D D A D D D D D D D D D D D A A D D A D D D D D D D D D D D A A D D D D D D D D D D D D D D D D D D D D D D D D D D A D A A K e e e e 5 t 1 ' p.0.w.w.w.y.&.b D A D A D D D D D D D D D D D A A D D D D D D D D D D D D D D D D D D D D D D D D D D D D D D D D D D A D D D D D D D D D D D A A D D D D D D D D D D A D D 9 e e 9 e e 9 :.y.w.0.w.w.p.' A A D A D D A D D D D D D D D D D D A A D D D D D D D D D D D D D D D D D D D D D D D D D D D D D D D D D D A D D D D D D D D D D D A A D D D A A A A D D D B 9 e e 9 e 9 t 0.y.w.0.y.0.p.P A A D D D D D D D D A D D D D D D D D D D D D A D D D D D D D D D D D D D D D A D D A D D D D D D D D D D D D A D D D D D D D D D D D D D D D A A A D D A D b 5 e e e e e l y.w.w.w.w.w.0.D A D D D D D D D D D A D D D D D D D D D D D A A D D D D D D D D D D D D D D D D D D D D D D D D D D D D D D D D D D A D A D A D 9 e 9 t e e 5 :.w.w.w.w.0.f.( A D D D D D D D D D D D D D D D D D D D D D D D D D D D D A D D D D D D D D D D D D A D D D D D D D D D D D D D D D A D D A D D D D D D D D D D D D A A D A B 5 e e e e e e y.w.w.w.w.w.y.W A B K A A D D D A D D D D D D D D D D D D D D D D D D D D A D D D D D D D D D D D A A D D D D D D D D D D D D D D D D D D D D D D D D D D D D D D D D D D D b 9 e t 9 t 9 b p.w.w.0.w.w.w.",
"e 9 9 e e e 5 &.0.w.p.0.w.p. .B D D D D D D D D P B P A A e 9 e e e e e 6.w.w.0.w.6.y.^ A P b D A D D D D A A A D D D A A A D D A D D D D A A A D D D A A A D D D D D D D D D D D K b K B B d 9 e e e e 9 w.w.w.p.0.0.f.P B P A A D D D D A A A D D D A A A D D A D D D D A A A D D D A A A D D D D D D D D D D D D D D D A A A D D D A A A D D D D b D B e e e e 5 t 1 ' p.0.w.y.6.p.$.B D P A A D D D D A A A D D D A A A D D D D D D D D D D D D D D D A A A D D D A A A D D D D D D D D D D A D D D D A A A D D D A A A D D D D D D D D D D A K D t 5 t 5 e e 9 :.y.w.0.w.w.y.( B B A A K P A D D D D A A A D D D A A A D D D D D D D D D D D D D D D A A A D D D A A A D D D D D D D D D D A D D D D A A A D D D A A A D D A D D D A A D D b 9 9 5 d 9 e t w.w.6.f.6.6.f.K A A D D D D A A D D D D D D D D A D D D D D D A D D D D D D D D A D D D D D D A D D D D D D D D A D D D D D D A D D D D D D D D A D D D D D D A P D A B B A l 5 e e e e 9 l y.w.w.0.y.6.y.D D B D D D D D D D D A D D D D A A A D D D A A A D D D D D D D D D D D D D D D A A A D D D A A A D D D D D D D D D D D D B K B A t 9 9 t e e 5 :.w.w.y.6.w.p.' B P A D D D D D A A A D D D A A A D D D D D D D D D D D D D D D D D D A D D D D D D A D D D D D D D D A D D D D D D A D D D D D D D D A D D D D D D A D D D B 9 t 5 t e e e y.w.w.w.w.6.k.K b P B D A D D D D D A A A D D D A A A D D D D D D D D D D A D D D D A A A D D D A A A D D D D D D D D D D D D D D D A A A D D D A A A D D A A A A A A A A D B 5 t 9 d t > l y.0.w.0.w.w.w.",
"e 9 9 e e e 5 &.y.w.y.<.0.y. .B D D D D D D D D D B K B B e 9 e e e e e 6.w.y.0.w.0.y.W b K b A D D D D D D D D D D D D D D D D D D D D D D D D D D D D D D D D D D D D D D D D B K B P A A t 9 e e e e 9 w.w.w.w.6.6.p.K b K A D D D D D D D D D D D D D D D D D D D D D D D D D D D D D D D D D D D D D D D D D D D D D D D D D D D D D D D D A K A P K d t e e 5 t 1 ' p.0.w.w.6.p...b A K B D D D D D D D D D D D D D D D D D D D D D D D D D D D D D D D D D D D D D D D D D D D D D D D D D D D D D D D D D D D D D D D D D D D D D D D D D D A 9 5 e 9 d e 9 :.y.w.0.w.w.p.' D K K D D D D D D D D D D D D D D D D D D D D D D D D D D D D D D D D D D D D D D D D D D D D D D D D D D D D D D D D D D D D D D D D D D D D D D D D D D K B e t 9 t 9 e e 0.w.0.p.0.w.k.P A D D D D D D D D D D D D D D D D D D D D D D D D D D D D D D D D D D D D D D D D D D D D D D D D D D D D D D D D D D D D D D D D D D D D D D D D A D K K K B e e e e e 9 l y.w.y.0.w.<.0.A D D D D D D D D D D D D D D D D D D D D D D D D D D D D D D D D D D D D D D D D D D D D D D D D D D D D D D D D D D A D D W D K t e 9 t e e 5 :.w.w.w.6.w.y.( b D B D D D D D D D D D D D D D D D D D D D D D D D D D D D D D D D D D D D D D D D D D D D D D D D D D D D D D D D D D D D D D D D D D D D D D D D D A A A b 5 t 1 e e e e y.w.w.w.w.6.f.P B W A D B D D D D D D D D D D D D D D D D D D D D D D D D D D D D D D D D D D D D D D D D D D D D D D D D D D D D D D D D D D D D D D D D D D D D D D D D D b 5 e 1 e t 5 l y.0.w.0.w.w.w.",
"e 9 9 e e e 5 &.y.0.w.6.w.p. .A A A A A A A A A K A K A A e e 9 e e e e 6.0.y.0.0.w.y.^ B P D K A A A A A A A A A A A A A A A A A A A A A A A A A A A A A A A A A A A A A A A A B D B D B B 9 5 e e e e 9 0.w.w.0.0.0.p.W A P K A A A A A A A A A A A A A A A A A A A A A A A A A A A A A A A A A A A A A A A A A A A A A A A A A A A A A A A A B D A A A e 9 5 e 9 t 5 ' p.0.w.w.0.p.$.A D K D A A A A A A A A A A A A A A A A A A A A A A A A A A A A A A A A A A A A A A A A A A A A A A A A A A A A A A A A A A A A A A A A A A A A A A A A P D A e 9 e 5 t e 9 :.y.w.0.w.w.y.^ b D K A A A A A A A A A A A A A A A A A A A A A A A A A A A A A A A A A A A A A A A A A A A A A A A A A A A A A A A A A A A A A A A A A A A A A A A A A A D B e d 9 e 9 e e 0.w.0.y.0.w.f.P B B A A A A A B A A A A A A A A A A A A A A A A A A A A A A A A A A A A A A A A A A A A A A A A A A A A A A A A A A A A A A A A A A A A A A A A A B A K A B h 5 e e e e 9 l y.w.y.0.w.0.w.A D K A A A A A A A A A A A A A A A A A A A A A A A A A A A A A A A A A A A A A A A A A A A A A A A A A A A A A A A A A D D D B A 1 5 9 t e e 5 :.w.w.w.0.w.p.' B K D A A A A A A A A A A A A A A A A A A A A A A A A A A A A A A A A A A A A A A A A A A A A A A A A A A A A A A A A A A A A A A A A A A A A A A A A D D K A 9 d 5 e e e e y.w.w.w.w.6.w.K b K A A B A A A A A A A A A A A A A A A A A A A A A A A A A A A A A A A A A A A A A A A A A A A A A A A A A A A A A A A A A A A A A A A A A A A A A A A A K B 9 d 5 e e 5 b y.0.w.0.w.w.w.",
"e 9 9 e e e 5 &.y.0.y.w.p.p.( b D D K K K K K K A A D B A e t 5 e e e e 6.w.y.0.0.y.y.W b D A A K K K K K K K K K K K K K K K K K K K K K K K K K K K K K K K K D D K K K K K K K P A D D D t h e e e e 9 w.w.w.w.y.w.p.W A D A K K K K K K K K K K K K K K K K K K K K K K K K K K K K K K K K D D K K K K K K K K K K K K K K K K K K K K K K D P D B K t d d e 5 t 5 ' p.0.w.w.0.y...A A A D K K K K K K K K K K K K K K K K D D K K K K K K K K K K K K K K K K K K K K K K D D K K K K K K K K K K K K K K K K K K K K K K D D K K K K K K A B A e t e 5 e e 9 :.y.w.0.w.w.v.' B D K K K P K K K K K K K K K K K K K K K K D D K K K K K K K K K K K K K K K K K K K K K K D D K K K K K K K K K K K K K K K K K K K K K K D K K K D D K K B 5 d 5 9 e e e 0.y.0.w.6.w.w.K D D K K K K D D K K K K K K K K K K K K K K K K K K K K K K K K K K K K K K K K K K K K K K K K K K K K K K K K K K K K K K K K K K K K K K K K P D D K D A b t e e e e 9 l y.w.0.0.w.y.w.A B A D D K K K K K K K K K K K K K K K K K K K K K K D D K K K K K K K K K K K K K K K K K K K K K K D D K K K K K K K K K D A K 9 h 9 t e e 5 :.w.w.w.w.y.y. .B D A K K K K K K K K K K K K K K K K D D K K K K K K K K K K K K K K K K K K K K K K K K K K K K K K K K K K K K K K K K K K K K K K K K K K K K K K A A K A 5 d e e e e e y.w.w.w.w.f.p.^ B K D K K K K K K K K K K K K K K K K K K D D K K K K K K K K K K K K K K K K K K K K K K D D K K K K K K K K K K K K K K K K K K K K K K D D D D D D D D B l 9 h e e e 5 b p.w.w.0.w.w.w.",
"e 9 9 e e e 5 &.p.w.y.w.y.w.( B B B B B B B B B B A A D D 5 t 9 e e e e 6.w.y.0.0.y.0.^ A D D A B B B B B B B B B B B B B B B B B B B B B B B B B B B B B B B B B B B B B B B B b B l b B B > e e e e e 9 w.w.w.w.p.0.w.W D D B B B B B B B B B B B B B B B B B B B B B B B B B B B B B B B B B B B B B B B B B B B B B B B B B B B B B B B B B l A B l D 5 5 9 e 5 t 1 ' p.0.w.w.0.w...D A B D B B B B B B B B B B B B B B B B B B B B B B B B B B B B B B B B B B B B B B B B B B B B B B B B B B B B B B B B B B B B B B B B B B B B B B B B D A D 9 t e e e e 9 :.y.w.0.w.w.y.^ b B B b b b B B B B B B B B B B B B B B B B B B B B B B B B B B B B B B B B B B B B B B B B B B B B B B B B B B B B B B B B B B B B B B B B B B B B B B B A K 1 h 9 9 e e e w.w.w.0.6.w.0.^ B B B B B B B B B B B B B B B B B B B B B B B B B B B B B B B B B B B B B B B B B B B B B B B B B B B B B B B B B B B B B B B B B B B B B B B B B b B A B A l 5 e e e e 9 l y.w.w.w.w.w.0.D A A B B B B B B B B B B B B B B B B B B B B B B B B B B B B B B B B B B B B B B B B B B B B B B B B B B B B B B B B B B A b B K = e 9 t e e 5 :.w.w.0.y.w.0. .A D A B B B B B B B B B B B B B B B B B B B B B B B B B B B B B B B B B B B B B B B B B B B B B B B B B B B B B B B B B B B B B B B B B B B B B B B B A A P A > t e e e e e y.w.w.w.w.0.<.P b B b b b B B B B B B B B B B B B B B B B B B B B B B B B B B B B B B B B B B B B B B B B B B B B B B B B B B B B B B B B B B B B B B B B B B B B B B B B D h > d 9 e t 9 l y.0.w.0.w.w.w.",
"e 9 9 e e e 5 &.p.0.w.0.w.y.:.$.&.&.&.&.&.&.&.&...$...$.' 9 t 9 e 9 e e 6.w.y.0.0.y.w.&...$.&.$.&.&.&.&.&.&.&.&.&.&.&.&.&.&.&.&.&.&.&.&.&.&.&.&.&.&.&.&.&.&.&.&.&.&.&.&.&.&.&.&.&.:.&.&.:...9 d e e e e 9 w.w.w.6.y.6.y.$.$.&.$.&.&.&.&.&.&.&.&.&.&.&.&.&.&.&.&.&.&.&.&.&.&.&.&.&.&.&.&.&.&.&.&.&.&.&.&.&.&.&.&.&.&.&.&.&.&.&.&.&.&.&.&.&.&.&.&.$.<.:.$.6.l e t e 5 t 1 ' p.0.w.w.w.p.<.$.$...&.&.&.&.&.&.&.&.&.&.&.&.&.&.&.&.&.&.&.&.&.&.&.&.&.&.&.&.&.&.&.&.&.&.&.&.&.&.&.&.&.&.&.&.&.&.&.&.&.&.&.&.&.&.&.&.&.&.&.&.&.&.&.&.&.&.&.&.&.&.&.&.&.&.$...9 e 9 t e e 9 :.y.w.0.w.w.f.<.&.:.:.:.&.$.&.&.&.&.&.&.&.&.&.&.&.&.&.&.&.&.&.&.&.&.&.&.&.&.&.&.&.&.&.&.&.&.&.&.&.&.&.&.&.&.&.&.&.&.&.&.&.&.&.&.&.&.&.&.&.&.&.&.&.&.&.&.&.&.&.&.&.&.&.&.:.:. .1 h e 9 e 9 e w.0.w.w.w.y.w.&.&.&.&.&.&.&.&.&.&.&.&.&.&.&.&.&.&.&.&.&.&.&.&.&.&.&.&.&.&.&.&.&.&.&.&.&.&.&.&.&.&.&.&.&.&.&.&.&.&.&.&.&.&.&.&.&.&.&.&.&.&.&.&.&.&.&.&.&.&.&.&.&.$.&.:.:.:.:.^ e e e e e 9 l y.w.w.y.0.0.w...$.&.&.&.&.&.&.&.&.&.&.&.&.&.&.&.&.&.&.&.&.&.&.&.&.&.&.&.&.&.&.&.&.&.&.&.&.&.&.&.&.&.&.&.&.&.&.&.&.&.&.&.&.&.&.&.&.&.&.&.<.$.:.&.9 d 9 t e e 5 :.w.w.6.y.w.w.<. .$.$.&.&.&.&.&.&.&.&.&.&.&.&.&.&.&.&.&.&.&.&.&.&.&.&.&.&.&.&.&.&.&.&.&.&.&.&.&.&.&.&.&.&.&.&.&.&.&.&.&.&.&.&.&.&.&.&.&.&.&.&.&.&.&.&.&.&.&.&.&.&.&.&.$...:.( 5 t e 9 e e e y.w.w.w.w.y.w.<.&.:.:.$.&.&.&.&.&.&.&.&.&.&.&.&.&.&.&.&.&.&.&.&.&.&.&.&.&.&.&.&.&.&.&.&.&.&.&.&.&.&.&.&.&.&.&.&.&.&.&.&.&.&.&.&.&.&.&.&.&.&.&.&.&.&.&.&.&.&.&.&.&.&.&.&.&.:.P 5 t 9 9 e 9 l y.0.w.0.w.w.w.",
"e 9 9 e e e 5 &.y.0.w.0.w.p.y.f.y.y.y.y.y.y.y.y.p.p.w.f.:.9 t e e e e e 6.w.y.0.w.w.w.y.y.y.p.f.y.y.y.y.y.y.w.w.y.y.y.y.y.y.y.y.y.y.y.y.y.y.w.w.y.y.y.y.y.y.y.y.y.y.y.y.y.y.y.y.p.p.y.w.p.<.1 9 e e e e 9 w.w.w.6.y.6.p.w.y.f.p.y.y.y.y.y.y.w.w.y.y.y.y.y.y.y.y.y.y.y.y.y.y.w.w.y.y.y.y.y.y.y.y.y.y.y.y.y.y.y.y.y.y.y.y.y.y.w.w.y.y.y.y.y.y.y.y.y.p.p.0.f.h 1 e e 5 t 1 ' p.0.w.0.w.p.w.y.p.y.k.y.y.y.y.y.y.w.w.y.y.y.y.y.y.y.y.y.y.y.y.y.y.y.y.y.y.y.y.y.y.w.w.y.y.y.y.y.y.y.y.y.y.y.y.y.y.y.y.y.y.y.y.y.y.w.w.y.y.y.y.y.y.y.y.y.y.y.y.y.y.y.y.p.p.w.t e 5 t 9 e 9 :.y.w.0.w.w.w.0.w.y.y.p.f.w.y.y.y.y.y.y.w.w.y.y.y.y.y.y.y.y.y.y.y.y.y.y.y.y.y.y.y.y.y.y.w.w.y.y.y.y.y.y.y.y.y.y.y.y.y.y.y.y.y.y.y.y.y.y.w.w.y.y.y.y.y.y.y.y.w.y.y.y.w.w.y.y.:.> h t e e 5 t w.0.w.y.y.y.w.0.w.w.y.y.y.y.w.w.y.w.w.w.y.y.y.y.y.y.w.y.y.y.y.y.y.w.w.w.y.y.y.y.y.y.w.y.y.y.y.y.y.w.w.w.y.y.y.y.y.y.w.y.y.y.y.y.y.w.w.w.y.y.y.y.y.y.w.y.y.y.y.y.w.y.y.w.w.y.( 1 e e e e 9 l y.w.0.p.6.0.y.w.p.y.y.y.y.y.y.y.y.y.y.y.y.y.y.y.w.w.y.y.y.y.y.y.y.y.y.y.y.y.y.y.y.y.y.y.y.y.y.y.w.w.y.y.y.y.y.y.y.y.y.y.y.y.y.y.y.y.w.y.p.0.w.6.1 9 9 t e e 5 :.w.w.6.y.w.y.p.0.p.f.y.y.y.y.y.y.w.w.y.y.y.y.y.y.y.y.y.y.y.y.y.y.y.y.y.w.w.w.y.y.y.y.y.y.w.y.y.y.y.y.y.w.w.w.y.y.y.y.y.y.w.y.y.y.y.y.y.w.w.w.y.y.y.y.y.y.w.y.y.y.y.y.p.y.f.&.9 t t 9 e e e y.w.w.w.w.0.0.w.w.y.p.y.p.y.y.y.y.y.y.w.w.y.y.y.y.y.y.y.y.y.y.y.y.y.y.y.y.y.y.y.y.y.y.w.w.y.y.y.y.y.y.y.y.y.y.y.y.y.y.y.y.y.y.y.y.y.y.w.w.y.y.y.y.y.y.y.y.w.w.w.w.w.w.w.w.v. .9 d 9 e e 5 l y.0.w.0.w.w.w.",
"e 9 9 e e e 5 &.p.w.p.y.0.w.6.y.w.w.w.w.w.w.w.w.0.0.6.f.<.5 e t e e e e 6.w.y.0.w.0.6.y.y.0.0.0.w.w.w.w.w.w.w.w.w.w.w.w.w.w.w.w.w.w.w.w.w.w.w.w.w.w.w.w.w.w.w.w.w.w.w.w.w.w.w.w.w.0.6.6.y.<.5 t e e e e 9 w.w.w.w.p.<.y.6.w.w.6.w.w.w.w.w.w.w.w.w.w.w.w.w.w.w.w.w.w.w.w.w.w.w.w.w.w.w.w.w.w.w.w.w.w.w.w.w.w.w.w.w.w.w.w.w.w.w.w.w.w.w.w.w.w.w.w.w.w.w.6.f.d 1 d e 5 t 1 ' p.0.w.w.w.y.0.w.y.6.w.w.w.w.w.w.w.w.w.w.w.w.w.w.w.w.w.w.w.w.w.w.w.w.w.w.w.w.w.w.w.w.w.w.w.w.w.w.w.w.w.w.w.w.w.w.w.w.w.w.w.w.w.w.w.w.w.w.w.w.w.w.w.w.w.w.w.w.w.w.w.w.w.6.w.w.e e 9 d 9 e 9 :.y.w.0.w.w.0.w.y.w.<.0.y.0.w.w.w.w.w.w.w.w.w.w.w.w.w.w.w.w.w.w.w.w.w.w.w.w.w.w.w.w.w.w.w.w.w.w.w.w.w.w.w.w.w.w.w.w.w.w.w.w.w.w.w.w.w.w.w.w.w.w.w.w.w.w.w.w.w.w.w.w.w.w.w.y.<.# t e e e 5 d y.6.w.y.y.w.6.y.w.w.w.w.w.w.w.w.w.w.w.w.w.w.w.w.w.w.w.w.w.w.w.w.w.w.w.w.w.w.w.w.w.w.w.w.w.w.w.w.w.w.w.w.w.w.w.w.w.w.w.w.w.w.w.w.w.w.w.w.w.w.w.w.w.w.w.w.w.w.w.w.w.w.w.<.w.f. .1 e e e e 9 l y.w.6.f.0.0.w.w.w.6.w.w.w.w.w.w.w.w.w.w.w.w.w.w.w.w.w.w.w.w.w.w.w.w.w.w.w.w.w.w.w.w.w.w.w.w.w.w.w.w.w.w.w.w.w.w.w.w.w.w.w.w.w.w.w.w.0.0.w.<.w.w.9 t 9 t e e 5 :.w.w.0.p.6.0.y.6.0.w.w.w.w.w.w.w.w.w.w.w.w.w.w.w.w.w.w.w.w.w.w.w.w.w.w.w.w.w.w.w.w.w.w.w.w.w.w.w.w.w.w.w.w.w.w.w.w.w.w.w.w.w.w.w.w.w.w.w.w.w.w.w.w.w.w.w.w.w.w.w.w.w.0.6.p.$.1 9 t e e e e y.w.w.w.w.w.0.y.w.0.0.6.w.w.w.w.w.w.w.w.w.w.w.w.w.w.w.w.w.w.w.w.w.w.w.w.w.w.w.w.w.w.w.w.w.w.w.w.w.w.w.w.w.w.w.w.w.w.w.w.w.w.w.w.w.w.w.w.w.w.w.w.w.w.w.w.w.w.w.w.w.w.w.w.w.f.^ > t e d t 9 l y.0.w.0.w.w.w.",
"9 d 9 9 1 l 1 &.y.y.w.w.w.w.w.0.0.0.0.0.0.0.0.0.0.w.w.6.6.t l 1 e t t 9 0.0.w.w.0.0.0.0.0.0.0.0.0.0.0.0.0.0.0.0.0.0.0.0.0.0.0.0.0.0.0.0.0.0.0.0.0.0.0.0.0.0.0.0.0.0.0.0.0.0.0.0.6.6.y.0.w.:.> h h 1 9 d 9 0.6.0.0.0.0.0.0.0.0.0.0.0.0.0.0.0.0.0.0.0.0.0.0.0.0.0.0.0.0.0.0.0.0.0.0.0.0.0.0.0.0.0.0.0.0.0.0.0.0.0.0.0.0.0.0.0.0.0.0.0.0.0.0.0.0.0.6.y.y.<.f.h 5 e 9 t h >  .f.<.w.0.0.0.0.0.0.0.0.0.0.0.0.0.0.0.0.0.0.0.0.0.0.0.0.0.0.0.0.0.0.0.0.0.0.0.0.0.0.0.0.0.0.0.0.0.0.0.0.0.0.0.0.0.0.0.0.0.0.0.0.0.0.0.0.0.0.0.0.0.0.0.0.0.0.0.0.0.0.0.0.0.6.0.9 d 9 1 h h > <.w.0.y.6.6.0.0.0.0.0.0.0.0.0.0.0.0.0.0.0.0.0.0.0.0.0.0.0.0.0.0.0.0.0.0.0.0.0.0.0.0.0.0.0.0.0.0.0.0.0.0.0.0.0.0.0.0.0.0.0.0.0.0.0.0.0.0.0.0.0.0.0.0.0.0.0.0.0.w.w.w.w.w.y.y.:.5 d e 5 e e t 0.0.0.0.0.0.0.0.0.0.0.0.0.0.0.0.0.0.0.0.0.0.0.0.0.0.0.0.0.0.0.0.0.0.0.0.0.0.0.0.0.0.0.0.0.0.0.0.0.0.0.0.0.0.0.0.0.0.0.0.0.0.0.0.0.0.0.0.0.0.0.0.0.0.0.0.0.0.0.0.p.0.y.y.0.w.' = d t 5 e e h f.:.0.0.0.0.0.0.0.0.0.0.0.0.0.0.0.0.0.0.0.0.0.0.0.0.0.0.0.0.0.0.0.0.0.0.0.0.0.0.0.0.0.0.0.0.0.0.0.0.0.0.0.0.0.0.0.0.0.0.0.0.0.0.0.0.6.y.y.w.6.w.> t d 9 5 d > :.y.0.0.0.0.0.0.0.0.0.0.0.0.0.0.0.0.0.0.0.0.0.0.0.0.0.0.0.0.0.0.0.0.0.0.0.0.0.0.0.0.0.0.0.0.0.0.0.0.0.0.0.0.0.0.0.0.0.0.0.0.0.0.0.0.0.0.0.0.0.0.0.0.0.0.0.0.0.0.0.0.0.w.0.w.<.5 h t e e d t y.6.y.f.:.0.0.0.0.0.0.0.0.0.0.0.0.0.0.0.0.0.0.0.0.0.0.0.0.0.0.0.0.0.0.0.0.0.0.0.0.0.0.0.0.0.0.0.0.0.0.0.0.0.0.0.0.0.0.0.0.0.0.0.0.0.0.0.0.0.0.0.0.0.0.0.0.0.0.0.0.0.0.0.0.p.$.= l e e e 9 l k.<.p.w.p.0.w.",
"5 e 9 t 5 d > &.y.y.w.w.w.w.w.w.y.y.y.y.y.y.y.y.y.w.w.w.<.1 t 9 9 9 9 9 0.w.y.w.y.y.y.y.y.y.y.y.y.y.y.y.y.y.y.y.y.y.y.y.y.y.y.y.y.y.y.y.y.y.y.y.y.y.y.y.y.y.y.y.y.y.y.y.y.y.y.y.y.w.y.0.w.<.1 d e 5 e t e y.y.w.y.y.y.y.y.y.y.y.y.y.y.y.y.y.y.y.y.y.y.y.y.y.y.y.y.y.y.y.y.y.y.y.y.y.y.y.y.y.y.y.y.y.y.y.y.y.y.y.y.y.y.y.y.y.y.y.y.y.y.y.y.y.y.y.y.p.y.0.k.h 5 d 9 9 t = ' k.0.y.y.y.y.y.y.y.y.y.y.y.y.y.y.y.y.y.y.y.y.y.y.y.y.y.y.y.y.y.y.y.y.y.y.y.y.y.y.y.y.y.y.y.y.y.y.y.y.y.y.y.y.y.y.y.y.y.y.y.y.y.y.y.y.y.y.y.y.y.y.y.y.y.y.y.y.y.y.y.y.y.w.y.y.e t e 5 e t > <.w.0.y.0.y.y.y.y.y.y.y.y.y.y.y.y.y.y.y.y.y.y.y.y.y.y.y.y.y.y.y.y.y.y.y.y.y.y.y.y.y.y.y.y.y.y.y.y.y.y.y.y.y.y.y.y.y.y.y.y.y.y.y.y.y.y.y.y.y.y.y.y.y.y.y.y.y.0.w.w.w.w.w.y.y.:.> e t t e 9 e y.y.y.y.y.y.y.y.y.y.y.y.y.y.y.y.y.y.y.y.y.y.y.y.y.y.y.y.y.y.y.y.y.y.y.y.y.y.y.y.y.y.y.y.y.y.y.y.y.y.y.y.y.y.y.y.y.y.y.y.y.y.y.y.y.y.y.y.y.y.y.y.y.y.y.y.y.y.y.y.w.<.0.w.w.p.$.5 e t 9 t e h f.6.y.y.y.y.y.y.y.y.y.y.y.y.y.y.y.y.y.y.y.y.y.y.y.y.y.y.y.y.y.y.y.y.y.y.y.y.y.y.y.y.y.y.y.y.y.y.y.y.y.y.y.y.y.y.y.y.y.y.y.y.y.y.y.y.y.p.y.y.w.y.5 t e 9 e d 1 6.f.0.y.y.y.y.y.y.y.y.y.y.y.y.y.y.y.y.y.y.y.y.y.y.y.y.y.y.y.y.y.y.y.y.y.y.y.y.y.y.y.y.y.y.y.y.y.y.y.y.y.y.y.y.y.y.y.y.y.y.y.y.y.y.y.y.y.y.y.y.y.y.y.y.y.y.y.y.y.y.y.y.y.y.y.:.1 t e 9 e 9 9 y.0.w.p.0.y.y.y.y.y.y.y.y.y.y.y.y.y.y.y.y.y.y.y.y.y.y.y.y.y.y.y.y.y.y.y.y.y.y.y.y.y.y.y.y.y.y.y.y.y.y.y.y.y.y.y.y.y.y.y.y.y.y.y.y.y.y.y.y.y.y.y.y.y.y.y.y.y.y.y.y.y.y.y.y.0.' . d e t e 9 b f.<.y.6.w.0.y.",
"5 9 9 d 9 e 1 :.y.w.w.0.w.w.0.0.0.0.0.0.0.0.0.0.y.6.0.p.6.1 e d t e 9 e 6.w.w.6.0.0.0.0.0.0.0.0.0.0.0.0.0.0.0.0.0.0.0.0.0.0.0.0.0.0.0.0.0.0.0.0.0.0.0.0.0.0.0.0.0.0.0.0.0.0.0.0.0.<.6.6.w.<.1 9 e e t 5 1 0.y.6.0.0.0.0.0.0.0.0.0.0.0.0.0.0.0.0.0.0.0.0.0.0.0.0.0.0.0.0.0.0.0.0.0.0.0.0.0.0.0.0.0.0.0.0.0.0.0.0.0.0.0.0.0.0.0.0.0.0.0.0.0.0.0.0.6.6.6.0.p.d 1 t t e e = ' p.6.0.0.0.0.0.0.0.0.0.0.0.0.0.0.0.0.0.0.0.0.0.0.0.0.0.0.0.0.0.0.0.0.0.0.0.0.0.0.0.0.0.0.0.0.0.0.0.0.0.0.0.0.0.0.0.0.0.0.0.0.0.0.0.0.0.0.0.0.0.0.0.0.0.0.0.0.0.0.0.0.0.6.y.0.1 5 t e e 9 1 <.w.6.6.<.0.0.0.0.0.0.0.0.0.0.0.0.0.0.0.0.0.0.0.0.0.0.0.0.0.0.0.0.0.0.0.0.0.0.0.0.0.0.0.0.0.0.0.0.0.0.0.0.0.0.0.0.0.0.0.0.0.0.0.0.0.0.0.0.0.0.0.0.0.0.0.0.0.0.0.w.w.0.w.w.y.<.1 9 t d 9 5 9 0.0.0.0.0.0.0.0.0.0.0.0.0.0.0.0.0.0.0.0.0.0.0.0.0.0.0.0.0.0.0.0.0.0.0.0.0.0.0.0.0.0.0.0.0.0.0.0.0.0.0.0.0.0.0.0.0.0.0.0.0.0.0.0.0.0.0.0.0.0.0.0.0.0.0.0.0.0.0.0.y.6.6.0.w.y.' > 9 t 9 e 5 t w.6.0.0.0.0.0.0.0.0.0.0.0.0.0.0.0.0.0.0.0.0.0.0.0.0.0.0.0.0.0.0.0.0.0.0.0.0.0.0.0.0.0.0.0.0.0.0.0.0.0.0.0.0.0.0.0.0.0.0.0.0.0.0.0.0.6.6.6.0.0.w.9 e e t t 9 > :.y.<.0.0.0.0.0.0.0.0.0.0.0.0.0.0.0.0.0.0.0.0.0.0.0.0.0.0.0.0.0.0.0.0.0.0.0.0.0.0.0.0.0.0.0.0.0.0.0.0.0.0.0.0.0.0.0.0.0.0.0.0.0.0.0.0.0.0.0.0.0.0.0.0.0.0.0.0.0.0.0.0.0.w.y.&.1 e e t t 9 e p.y.6.0.w.0.0.0.0.0.0.0.0.0.0.0.0.0.0.0.0.0.0.0.0.0.0.0.0.0.0.0.0.0.0.0.0.0.0.0.0.0.0.0.0.0.0.0.0.0.0.0.0.0.0.0.0.0.0.0.0.0.0.0.0.0.0.0.0.0.0.0.0.0.0.0.0.0.0.0.0.0.0.0.0.f...> t e t e 5 h w.<.y.6.6.6.y.",
"9 e 9 e 5 e e &.f.p.p.p.p.p.p.p.y.y.y.y.y.y.y.y.f.y.f.k.0.e 9 e e e t h 6.p.f.p.y.y.y.y.y.y.y.y.y.y.y.y.y.y.y.y.y.y.y.y.y.y.y.y.y.y.y.y.y.y.y.y.y.y.y.y.y.y.y.y.y.y.y.y.y.y.y.y.k.p.p.p.y.<.9 5 9 e e 5 e 0.f.p.y.y.y.y.y.y.y.y.y.y.y.y.y.y.y.y.y.y.y.y.y.y.y.y.y.y.y.y.y.y.y.y.y.y.y.y.y.y.y.y.y.y.y.y.y.y.y.y.y.y.y.y.y.y.y.y.y.y.y.y.y.y.y.y.f.f.p.p.p.b 9 e e 9 t 5 ..p.p.f.y.y.y.y.y.y.y.y.y.y.y.y.y.y.y.y.y.y.y.y.y.y.y.y.y.y.y.y.y.y.y.y.y.y.y.y.y.y.y.y.y.y.y.y.y.y.y.y.y.y.y.y.y.y.y.y.y.y.y.y.y.y.y.y.y.y.y.y.y.y.y.y.y.y.y.y.y.y.y.y.p.f.0.e 5 e e 9 9 9 6.y.p.f.f.k.y.y.y.y.y.y.y.y.y.y.y.y.y.y.y.y.y.y.y.y.y.y.y.y.y.y.y.y.y.y.y.y.y.y.y.y.y.y.y.y.y.y.y.y.y.y.y.y.y.y.y.y.y.y.y.y.y.y.y.y.y.y.y.y.y.y.y.y.y.y.y.y.p.p.p.p.p.p.p.f.&.e e 9 t 9 e e y.y.y.y.y.y.y.y.y.y.y.y.y.y.y.y.y.y.y.y.y.y.y.y.y.y.y.y.y.y.y.y.y.y.y.y.y.y.y.y.y.y.y.y.y.y.y.y.y.y.y.y.y.y.y.y.y.y.y.y.y.y.y.y.y.y.y.y.y.y.y.y.y.y.y.y.y.y.y.y.k.p.p.f.f.y. .e 9 e 9 e t b f.f.y.y.y.y.y.y.y.y.y.y.y.y.y.y.y.y.y.y.y.y.y.y.y.y.y.y.y.y.y.y.y.y.y.y.y.y.y.y.y.y.y.y.y.y.y.y.y.y.y.y.y.y.y.y.y.y.y.y.y.y.y.y.y.y.f.f.f.p.y.0.t 9 9 9 e e e <.f.p.y.y.y.y.y.y.y.y.y.y.y.y.y.y.y.y.y.y.y.y.y.y.y.y.y.y.y.y.y.y.y.y.y.y.y.y.y.y.y.y.y.y.y.y.y.y.y.y.y.y.y.y.y.y.y.y.y.y.y.y.y.y.y.y.y.y.y.y.y.y.y.y.y.y.y.y.y.y.y.y.p.p.p.&.e t 9 e e 9 h y.f.y.p.f.y.y.y.y.y.y.y.y.y.y.y.y.y.y.y.y.y.y.y.y.y.y.y.y.y.y.y.y.y.y.y.y.y.y.y.y.y.y.y.y.y.y.y.y.y.y.y.y.y.y.y.y.y.y.y.y.y.y.y.y.y.y.y.y.y.y.y.y.y.y.y.y.y.y.y.y.y.y.y.y.f.$.9 t 9 e e 9 D y.y.k.p.p.y.f.",
"9 d e 9 5 t e K ( ^ ^ ^ ^ ^ ^ ^ ^ ^ ^ ^ ^ ^ ^ ^ W W ( ( W e e 9 e t e e P ^ ^ W ^ ^ ^ ^ ^ ^ ^ ^ ^ ^ ^ ^ ^ ^ ^ ^ ^ ^ ^ ^ ^ ^ ^ ^ ^ ^ ^ ^ ^ ^ ^ ^ ^ ^ ^ ^ ^ ^ ^ ^ ^ ^ ^ ^ ^ ^ ^ ^ ^ ^ ^ ( ^ ^ 5 9 e e 9 9 e P ^ ^ ^ ^ ^ ^ ^ ^ ^ ^ ^ ^ ^ ^ ^ ^ ^ ^ ^ ^ ^ ^ ^ ^ ^ ^ ^ ^ ^ ^ ^ ^ ^ ^ ^ ^ ^ ^ ^ ^ ^ ^ ^ ^ ^ ^ ^ ^ ^ ^ ^ ^ ^ ^ ^ ^ ^ ^ ^ ^ ^ ^ ^ ^ ^ ^ W ' ( W ^ h t e 9 e t 5 D W W W ^ ^ ^ ^ ^ ^ ^ ^ ^ ^ ^ ^ ^ ^ ^ ^ ^ ^ ^ ^ ^ ^ ^ ^ ^ ^ ^ ^ ^ ^ ^ ^ ^ ^ ^ ^ ^ ^ ^ ^ ^ ^ ^ ^ ^ ^ ^ ^ ^ ^ ^ ^ ^ ^ ^ ^ ^ ^ ^ ^ ^ ^ ^ ^ ^ ^ ^ ^ ^ ^ ^ ^ ^ ^ ^ ^ ^ ^ ^ ^ ^ ^ P e 9 9 e e 9 5 W ^ ^ ^ ^ ^ ^ ^ ^ ^ ^ ^ ^ ^ ^ ^ ^ ^ ^ ^ ^ ^ ^ ^ ^ ^ ^ ^ ^ ^ ^ ^ ^ ^ ^ ^ ^ ^ ^ ^ ^ ^ ^ ^ ^ ^ ^ ^ ^ ^ ^ ^ ^ ^ ^ ^ ^ ^ ^ ^ ^ ^ ^ ^ ^ ^ ^ ^ ^ ^ ^ ^ ^ ^ ^ ^ ^ ^ ^ ^ ^ ^ ^ ^ ^ ( K e t 5 e e d e ^ ^ ^ ^ ^ ^ ^ ^ ^ ^ ^ ^ ^ ^ ^ ^ ^ ^ ^ ^ ^ ^ ^ ^ ^ ^ ^ ^ ^ ^ ^ ^ ^ ^ ^ ^ ^ ^ ^ ^ ^ ^ ^ ^ ^ ^ ^ ^ ^ ^ ^ ^ ^ ^ ^ ^ ^ ^ ^ ^ ^ ^ ^ ^ ^ ^ ^ ^ ^ ^ ^ ^ ^ ^ ^ ^ ^ ^ ^ ^ W ^ ^ ^ ( ^ A e t e e 9 t t ' ^ ^ ^ ^ ^ ^ ^ ^ ^ ^ ^ ^ ^ ^ ^ ^ ^ ^ ^ ^ ^ ^ ^ ^ ^ ^ ^ ^ ^ ^ ^ ^ ^ ^ ^ ^ ^ ^ ^ ^ ^ ^ ^ ^ ^ ^ ^ ^ ^ ^ ^ ^ ^ ^ ^ ^ ^ ^ ^ ^ ^ ^ ^ ^ ^ ^ ^ ( ( ^ ^ 9 e t 5 9 t e K W ^ ^ ^ ^ ^ ^ ^ ^ ^ ^ ^ ^ ^ ^ ^ ^ ^ ^ ^ ^ ^ ^ ^ ^ ^ ^ ^ ^ ^ ^ ^ ^ ^ ^ ^ ^ ^ ^ ^ ^ ^ ^ ^ ^ ^ ^ ^ ^ ^ ^ ^ ^ ^ ^ ^ ^ ^ ^ ^ ^ ^ ^ ^ ^ ^ ^ ^ ^ ^ ^ ^ ^ ^ ^ ^ ^ ^ ^ ^ ^ ^ W W ^ K 9 t 9 9 e e t ^ ^ ^ W W ^ ^ ^ ^ ^ ^ ^ ^ ^ ^ ^ ^ ^ ^ ^ ^ ^ ^ ^ ^ ^ ^ ^ ^ ^ ^ ^ ^ ^ ^ ^ ^ ^ ^ ^ ^ ^ ^ ^ ^ ^ ^ ^ ^ ^ ^ ^ ^ ^ ^ ^ ^ ^ ^ ^ ^ ^ ^ ^ ^ ^ ^ ^ ^ ^ ^ ^ ^ ^ ^ ^ ^ ^ ^ ^ ^ ^ ^ ^ ^ ^ A 5 9 5 e e e h ^ W ( ^ ( W ^ ",
"5 t t 9 e t 9 9 5 5 1 1 5 5 5 5 5 5 5 5 5 5 5 5 > 1 5 1 9 9 t e e t e 1 9 5 1 > 5 5 5 5 5 5 5 5 5 5 5 5 5 5 5 5 5 5 5 5 5 5 5 5 5 5 5 5 5 5 5 5 5 5 5 5 5 5 5 5 5 5 5 5 5 5 5 5 > > > 1 1 d 1 t t e 9 e 9 9 > > 5 5 5 5 5 5 5 5 5 5 5 5 5 5 5 5 5 5 5 5 5 5 5 5 5 5 5 5 5 5 5 5 5 5 5 5 5 5 5 5 5 5 5 5 5 5 5 1 5 5 5 5 5 5 5 5 5 5 5 5 5 5 5 5 = 9 > = 5 1 e e e t t > e 1 5 1 5 5 5 5 5 5 5 5 5 5 5 5 5 5 5 5 5 5 5 5 5 5 5 5 5 5 5 5 5 5 5 5 5 5 5 5 5 5 5 5 5 5 5 5 5 5 5 5 5 5 5 5 5 5 5 5 5 5 5 5 5 5 5 5 5 5 5 5 5 5 5 5 5 5 5 5 5 5 5 5 > > 9 9 e 9 e t t 1 d 1 1 > > > 5 5 5 5 5 5 5 5 5 5 5 5 5 5 5 5 5 5 5 5 5 5 5 5 5 5 5 5 5 5 5 5 5 5 5 5 5 5 5 5 5 5 5 5 5 5 5 5 5 5 5 5 5 5 5 5 5 5 5 5 5 5 5 5 5 5 5 5 5 5 5 5 5 5 5 5 1 1 5 5 9 5 d 9 t e d 9 5 5 5 5 5 5 5 5 5 5 5 5 5 5 5 5 5 5 5 5 5 5 5 5 5 5 5 5 5 5 5 5 5 5 5 5 5 5 5 5 5 5 5 5 5 5 5 5 5 5 5 5 5 5 5 5 5 5 5 5 5 5 5 5 5 5 5 5 5 5 5 5 5 5 5 5 5 5 5 5 1 5 5 1 1 5 5 5 t e e 9 e = e > 5 5 5 5 5 5 5 5 5 5 5 5 5 5 5 5 5 5 5 5 5 5 5 5 5 5 5 5 5 5 5 5 5 5 5 5 5 5 5 5 5 5 5 5 5 5 5 5 5 5 5 5 5 5 5 5 5 5 5 5 5 5 5 5 > > 1 > 5 t 1 t t 5 e t 9 9 > 1 5 5 5 5 5 5 5 5 5 5 5 5 5 5 5 5 5 5 5 5 5 5 5 5 5 5 5 5 5 5 5 5 5 5 5 5 5 5 5 5 5 5 5 5 5 5 5 5 5 5 5 5 5 5 5 5 5 5 5 5 5 5 5 5 5 5 5 5 5 5 5 5 5 5 5 5 5 5 5 5 1 > 9 9 5 d e e d t 9 5 1 5 1 > 5 5 5 5 5 5 5 5 5 5 5 5 5 5 5 5 5 5 5 5 5 5 5 5 5 5 5 5 5 5 5 5 5 5 5 5 5 5 5 5 5 5 5 5 5 5 5 5 5 5 5 5 5 5 5 5 5 5 5 5 5 5 5 5 5 5 5 5 5 5 5 5 5 5 5 5 5 5 5 5 9 9 9 e 9 e e e 1 e 1 > 1 5 1 1 ",
"9 e 9 e t 9 9 1 t t e t t t t t e e e e e e e e d d t 5 5 e 9 9 5 e e e e t d d e e e e e e e e e e e e e e e e e e e e e e e e e e e e e e e e e e e e e e e e e e e e e e e e h h t t 5 d 5 e 5 9 9 t h t t d e e e e e e e e e e e e e e e e e e e e e e e e e e e e e e e e e e e e e e e e e e e e e e e e e e e e e e e e e e e e e e e e h l t e e 9 t t 5 e t 9 d e h d e e e e e e e e e e e e e e e e e e e e e e e e e e e e e e e e e e e e e e e e e e e e e e e e e e e e e e e e e e e e e e e e e e e e e e e e e e e e e e e e d t t h t 9 9 5 t 9 d 9 t t h l e e e e e e e e e e e e e e e e e e e e e e e e e e e e e e e e e e e e e e e e e e e e e e e e e e e e e e e e e e e e e e e e e e e e e e e e t t t t t e t t 5 5 t e d 9 t 9 e e e e e e e e e e e e e e e e e e e e e e e e e e e e e e e e e e e e e e e e e e e e e e e e e e e e e e e e e e e e e e e e e e e e e e e e e e e e e e e e t d d e t t t h 9 9 e e h e h e e e e e e e e e e e e e e e e e e e e e e e e e e e e e e e e e e e e e e e e e e e e e e e e e e e e e e e e e e e e e e e e e l d d e 9 e 9 t 9 1 t t d h e t e e e e e e e e e e e e e e e e e e e e e e e e e e e e e e e e e e e e e e e e e e e e e e e e e e e e e e e e e e e e e e e e e e e e e e e e e e e e e e e e h t h e e d 9 9 9 e e 5 9 t t d e e e e e e e e e e e e e e e e e e e e e e e e e e e e e e e e e e e e e e e e e e e e e e e e e e e e e e e e e e e e e e e e e e e e e e e e e e e e e e e e 5 9 t e e e 9 e h d t 9 e t e t ",
"t 9 5 e t 5 t d t e e e e t t e e e e e e e e e e e t e e t e t 9 t e e 9 e e 9 e e e e e e e e e e e e e e e e e e e e e e e e e e e e e e e e e e e e e e e e e e e e e e e e 5 9 5 t 9 d 5 9 e t 9 5 e 5 e t e e e e e e e e e e e e e e e e e e e e e e e e e e e e e e e e e e e e e e e e e e e e e e e e e e e e e e e e e e e e e e e e 5 9 5 d d 9 e e e e t 9 t 1 t 9 e e e e e e e e e e e e e e e e e e e e e e e e e e e e e e e e e e e e e e e e e e e e e e e e e e e e e e e e e e e e e e e e e e e e e e e e e e e e e e e e t e 5 e 5 9 t e 5 5 d 9 e 5 9 5 e e e e e e e e e e e e e e e e e e e e e e e e e e e e e e e e e e e e e e e e e e e e e e e e e e e e e e e e e e e e e e e e e e e e e e e e e t t e e e e t d e e e d 1 e e e e e e e e e e e e e e e e e e e e e e e e e e e e e e e e e e e e e e e e e e e e e e e e e e e e e e e e e e e e e e e e e e e e e e e e e e e e e e e e e e 1 e t t t e 5 9 t e e 5 e > e 9 e e e e e e e e e e e e e e e e e e e e e e e e e e e e e e e e e e e e e e e e e e e e e e e e e e e e e e e e e e e e e e e e 9 5 e e t t e e t e d 1 5 t 9 9 e e e e e e e e e e e e e e e e e e e e e e e e e e e e e e e e e e e e e e e e e e e e e e e e e e e e e e e e e e e e e e e e e e e e e e e e e e e e e e e e e 5 e 5 9 t 9 e e t d e d t 5 9 e e e e e e e e e e e e e e e e e e e e e e e e e e e e e e e e e e e e e e e e e e e e e e e e e e e e e e e e e e e e e e e e e e e e e e e e e e e e e e e e e e d 5 5 9 e t 9 5 e e t t e e ",
"9 e 9 e e 5 e e e 9 t e e d 9 e e e e e e e e e e e e e e e e e e e e e e e e e e e e e e e e e e e e e e e e e e e e e e e e e 9 t t 9 e e 9 e d 9 t t 9 9 e e 9 e e e e e e e e e e e e e e e e e e e e e e e e e e e e e e e e e e e e e e e e e e e e e e e e e e e e e e e e t 9 5 e t 9 e e 9 t e e t 9 e e e e e 9 9 e e e e e e e e e e e e e e e e e e e e e e e e e e e e e e e e e e e e e e e e e e e e e e e e e e e e e e e e e e 9 e e 9 9 e e e t e 5 e e 9 e e e 9 9 9 e e d 1 e e e e e e e e e e e e e e e e e e e e e e e e e e e e e e e e e e e e e e e e e e e e e e e e e e e e e e e e e e e e e e e e 9 9 e t e 9 9 e t e e e e 9 9 e 9 9 d t e e 9 t e e e e e e e e e e e e e e e e e e e e e e e e e e e e e e e e e e e e e e e e e e e e e e e e e e e e e e e e e e e e e e e e e 9 9 e e e e e 9 e e e 9 e 9 9 e t e e 9 5 e e e e e e e e e e e e e e e e e e e e d e 9 e 9 t 9 9 e e e 9 9 e e e e e e e e e e e e e e e e e e e e e e e e e e e e e e e e e e e e e e e e e e e e e e e e e e d 9 e e 5 t e t e t 9 e d e 9 e 9 t t 9 9 e 5 e e e e e e e e e e e e e e e e e e e e e e e e e e e e e e e e e e e e e e e e e e e e e e e e e e e e e e e e e e e e e e e e e d 9 9 e 9 e t e e e e e e e e e e e e e e e e e e e e e e e e e e e e e e e e e e e e e e e e e e e e e e e e e e e e e e e e e e e e e e e e e e e e e e e e 9 9 e e 5 9 e 9 e 5 e e 5 d t 9 e t t e 9 e e 9 e e e e e e e e e e e e e e e e e e e e e e e e e e e e e e e e e e e e e e e e e e e e e e e e ",
"9 t e e t t t 9 t e d 9 9 t 9 t e e e e e e e e e e e e e e e e e e e e e e e e e e e e e e e e e e e e e e e e e e e e e e e e 5 e e e e e 9 e t 9 t t 9 e e t 9 e e e e e e e e e e e e e e e e e e e e e e e e e e e e e e e e e e e e e e e e e e e e e e e e e e e e e e e 5 e e 9 e e 9 e e e t e e t e e e e e e e 9 e e e e e e e e e e e e e e e e e e e e e e e e e e e e e e e e e e e e e e e e e e e e e e e e e e e e e e e e e e 9 e e 9 9 e e e 9 t 9 9 e t t 9 t e e e 9 e t 9 e e e e e e e e e e e e e e e e e e e e e e e e e e e e e e e e e e e e e e e e e e e e e e e e e e e e e e e e e e e e e e e e e e e t e e e t e 9 9 e 9 e t t e 9 e e e e 9 e e e e e e e e e e e e e e e e e e e e e e e e e e e e e e e e e e e e e e e e e e e e e e e e e e e e e e e e e e e e e e e e e t e 9 e e 9 9 e 9 t t e e e e t e t e e e e t e e e e e e e e e e e e e e e e e 9 e e 9 e t e t e 9 9 e e 9 9 e e e e e e e e e e e e e e e e e e e e e e e e e e e e e e e e e e e e e e e e e e e e e e e e e 9 t 9 e e 9 t e t 9 9 e t t 9 t 9 9 e t 9 e t 9 e e e e e e e e e e e e e e e e e e e e e e e e e e e e e e e e e e e e e e e e e e e e e e e e e e e e e e e e e e e e e e e e 9 t 9 9 t 9 9 e e e t e 9 e e e e e e e e e e e e e e e e e e e e e e e e e e e e e e e e e e e e e e e e e e e e e e e e e e e e e e e e e e e e e e e e e e e e 9 e e 5 9 t e t 9 9 9 5 e t 9 t t t e e e e t e e e e e e e e e e e e e e e e e e e e e e e e e e e e e e e e e e e e e e e e e e e e e e e e ",
"9 d t 9 9 t 9 5 5 5 e 5 1 e 9 e 9 9 9 9 9 9 9 9 9 9 9 9 9 9 9 9 9 9 9 9 9 9 9 9 9 9 9 9 9 9 9 9 9 9 9 9 9 9 9 9 9 9 9 9 9 9 9 9 9 9 e e e e 9 9 9 5 5 9 1 5 e 5 5 9 9 e 9 9 9 e 9 9 9 9 9 9 9 9 9 9 9 9 9 9 9 9 9 9 9 9 9 9 9 9 9 9 9 9 9 9 9 9 9 9 9 9 9 9 9 9 9 9 9 9 9 9 9 9 9 9 e e e 9 9 9 5 9 9 5 5 9 9 5 9 9 9 9 9 9 9 e 9 9 9 9 9 9 9 9 9 9 9 9 9 9 9 9 9 9 9 9 9 9 9 9 9 9 9 9 9 9 9 9 9 9 9 9 9 9 9 9 9 9 9 9 9 9 9 9 9 9 9 9 9 9 9 9 9 e e 9 9 e e 9 9 d t 5 9 e 9 9 5 9 5 5 5 e 9 9 9 9 9 9 9 9 9 9 9 9 9 9 9 9 9 9 9 9 9 9 9 9 9 9 9 9 9 9 9 9 9 9 9 9 9 9 9 9 9 9 9 9 9 9 9 9 9 9 9 9 9 9 9 9 9 9 9 9 9 9 9 9 9 9 e e e 9 9 e e 9 9 9 t t 9 5 9 1 9 5 5 9 e 9 9 e 9 9 9 9 9 9 9 9 9 9 9 9 9 9 9 9 9 9 9 9 9 9 9 9 9 9 9 9 9 9 9 9 9 9 9 9 9 9 9 9 9 9 9 9 9 9 9 9 9 9 9 9 9 9 9 9 9 9 9 9 9 9 9 9 9 5 5 9 e 9 e t e t e 5 e 9 5 5 5 9 9 9 9 t t e 9 9 9 9 9 9 9 9 9 9 9 9 9 9 9 9 5 e 9 1 5 9 5 1 9 9 9 9 9 9 9 9 9 9 9 9 9 9 9 9 9 9 9 9 9 9 9 9 9 9 9 9 9 9 9 9 9 9 9 9 9 9 9 9 9 9 9 9 9 9 9 9 9 9 9 9 9 9 9 9 9 t 9 e t 9 t e e 9 5 9 e 5 1 e 9 5 9 e 9 9 e 9 9 9 9 9 9 9 9 9 9 9 9 9 9 9 9 9 9 9 9 9 9 9 9 9 9 9 9 9 9 9 9 9 9 9 9 9 9 9 9 9 9 9 9 9 9 9 9 9 9 9 9 9 9 9 9 9 9 9 9 9 9 9 9 9 9 e 9 e t 9 5 t 1 1 9 9 1 9 e 9 9 9 9 9 9 9 9 9 9 9 9 9 9 9 9 9 9 9 9 9 9 9 9 9 9 9 9 9 9 9 9 9 9 9 9 9 9 9 9 9 9 9 9 9 9 9 9 9 9 9 9 9 9 9 9 9 9 9 9 9 9 9 9 9 9 9 9 9 5 9 t 9 e 9 t t e 5 9 1 9 9 5 5 e 9 9 t 9 9 9 9 9 9 9 9 9 9 9 9 9 9 9 9 9 9 9 9 9 9 9 9 9 9 9 9 9 9 9 9 9 9 9 9 9 9 9 9 9 9 9 9 9 9 9 9 ",
"9 t 9 9 5 t 9 b B b A b b A d t d d d d d d d d d d d d d d d d d d d d d d d d d d d d d d d d d d d d d d d d d d d d d d d d t 9 e e e e e 9 l b b B b b A d d d h h d d d h d d d d d d d d d d d d d d d d d d d d d d d d d d d d d d d d d d d d d d d d d d d d d d d d d e e e 9 9 9 9 h B B B B B B h d d h h d d d h d d d d d d d d d d d d d d d d d d d d d d d d d d d d d d d d d d d d d d d d d d d d d d d d d d d d d d d d d h h d d h h t 9 t t 5 9 e t D b B b B b A t t d d d d d d d d d d d d d d d d d d d d d d d d d d d d d d d d d d d d d d d d d d d d d d d d d d d d d d d d d d d d d d d d d h d d d d t 9 t e t t 9 h A B B B b A b e t d d d d d d d d d d d d d d d d d d d d d d d d d d d d d d d d d d d d d d d d d d d d d d d d d d d d d d d d d d d d d d d d d h d d h d e e t 9 9 9 1 B B B b b B A d e d t t d d d d d d d d d d d d d d d d t A B b B b b l h d d d h d d d d d d d d d d d d d d d d d d d d d d d d d d d d d d d d d d d d d d d d d d d d d d d d d d d d h 9 e e 9 t 9 5 b B A A l b A l t d h d d h d d d d d d d d d d d d d d d d d d d d d d d d d d d d d d d d d d d d d d d d d d d d d d d d d d d d d d d d d h h h h h h h h t e e e e 9 5 h b b B B l B B e d d d d d d d d d d d d d d d d d d d d d d d d d d d d d d d d d d d d d d d d d d d d d d d d d d d d d d d d d d d d d d d d d d h d t h h e e 9 t t e 5 B A b A b B A l e d d d d d d d d d d d d d d d d d d d d d d d d d d d d d d d d d d d d d d d d d d d d d d d d d ",
"9 9 5 t 9 d t &.p.y.f.y.y.y. .D D D D D D D D D D D D D D D D D D D D D D D D D D D D D D D D D D D D D D D D D D D D D D D D D b e e e 9 9 e 9 0.p.y.p.p.y.p.$.A A D D D D D D D D D D D D D D D D D D D D D D D D D D D D D D D D D D D D D D D D D D D D D D D D D D D D D D A t 9 e 9 e e 5 :.p.y.p.p.y.p.:.A A D D D D D D D D D D D D D D D D D D D D D D D D D D D D D D D D D D D D D D D D D D D D D D D D D D D D D D D D D D D D D D D D D A D D D B 9 9 t e t t l 0.y.p.y.y.w.y.W K D D D D D D D D D D D D D D D D D D D D D D D D D D D D D D D D D D D D D D D D D D D D D D D D D D D D D D D D D D D D D D D D A D D D D A l t d 9 9 9 9 W y.f.y.p.w.y.&.D K P D D D D D D D D D D D D D D D D D D D D D D D D D D D D D D D D D D D D D D D D D D D D D D D D D D D D D D D D D D D D D D D D K D D D b t 5 9 d d d l 6.p.f.p.y.y.p. .K P D K D D D D D D D D D D D D D D D D W y.y.w.f.y.p.f.K D A D D D A D D D D D D D D D D D D D D D D D D D D D D D D D D D D D D D D D D D D D D D D D D D D D D D D D A B e e e 9 e 9 d <.y.y.p.w.p.f.W D D K A A D A D D D D D D D D D D D D D D D D D D D D D D D D D D D D D D D D D D D D D D D D D D D D D D D D D D D D D D D D D D D D D D D D h 9 e 9 e e 5 B k.p.f.f.w.p.6.P D D D D D D D D D D D D D D D D D D D D D D D D D D D D D D D D D D D D D D D D D D D D D D D D D D D D D D D D D D D D D D D D A A D D A D A d t 9 e 5 9 5 $.y.y.f.y.y.p.$.D P D D D D D D D D D D D D D D D D D D D D D D D D D D D D D D D D D D D D D D D D D D D D D D D D ",
"t e 5 d 5 e 5 0.w.0.w.0.y.y.( l D D D D D D D D D D D D D D D D D D D D D D D D D D D D D D D D D D D D D D D D D D D D D D D D D t 9 t 5 9 t 9 :.y.6.y.w.0.w.( A D D D D D D D D D D D D D D D D D D D D D D D D D D D D D D D D D D D D D D D D D D D D D D D D D D D D D D D P t 9 e 9 e t 5  .y.0.w.w.0.y. .A A D D D D D D D D D D D D D D D D D D D D D D D D D D D D D D D D D D D D D D D D D D D D D D D D D D D D D D D D D D D D D D D D D D D K D B t 9 t 9 e 9 d f.0.w.6.w.w.p.A B D D D D D D D D D D D D D D D D D D D D D D D D D D D D D D D D D D D D D D D D D D D D D D D D D D D D D D D D D D D D D D D D D K K D K D l 9 e 1 e e 9 ^ f.f.6.w.6.y.$.l B A D D D D D D D D D D D D D D D D D D D D D D D D D D D D D D D D D D D D D D D D D D D D D D D D D D D D D D D D D D D D D D D D D A D P A t 9 e 5 5 5 9 <.w.w.0.0.w.y.W l A l A D D D D D D D D D D D D D D D D B w.0.0.y.6.y.y.P D A D D D D D D D D D D D D D D D D D D D D D D D D D D D D D D D D D D D D D D D D D D D D D D D D D D D D D K A t e e 9 t 5 > 6.p.w.y.0.y.w.( D D K D A D A D D D D D D D D D D D D D D D D D D D D D D D D D D D D D D D D D D D D D D D D D D D D D D D D D D D D D D D D D D D D D D D D l 9 t 9 e e 5 D p.0.w.y.6.p.<.b D D D D D D D D D D D D D D D D D D D D D D D D D D D D D D D D D D D D D D D D D D D D D D D D D D D D D D D D D D D D D D D D A D K D D K A e 9 9 e e t 1 &.f.6.w.0.w.p. .l B D D D D D D D D D D D D D D D D D D D D D D D D D D D D D D D D D D D D D D D D D D D D D D D D ",
"e t 9 t 1 e = &.w.0.w.0.p.f...A B B B B B B B B B B B B B B B B B B B B B B B B B B B B B B B B B B B B B B B B B B B B B B B B D e 9 t 5 9 t 5 <.p.6.w.w.0.p.( B B A B B B B A B B B B B B B B B B B B B B B B B B B B B B B B B B B B B B B B B B B B B B B B B B B B B B B B K e 9 t 9 e t 5 ..p.0.w.w.0.p...b B A A A A B A B B B B B B B B B B B B B B B B B B B B B B B B B B B B B B B B B B B B B B B B B B B B B B B B B B B B B B B B A A B B A A B l t 9 t 5 e 9 e w.6.w.0.w.w.k.D P B B B B B B B B B B B B B B B B B B B B B B B B B B B B B B B B B B B B B B B B B B B B B B B B B B B B B B B B B B B B B B B B B A A B A A h 1 9 5 d t 5 P 6.&.0.y.6.f.<.B K P B B B B B B B B B B B B B B B B B B B B B B B B B B B B B B B B B B B B B B B B B B B B B B B B B B B B B B B B B B B B B B B B B b A K B t 9 t d h d e 0.0.0.6.0.w.f.^ B W A P B B B B B B B B B B B B B B B B D f.w.6.y.<.w.0.K A b B A B B B B B B B B B B B B B B B B B B B B B B B B B B B B B B B B B B B B B B B B B B B B B B B B B B B K A e e e 9 t 9 9 w.p.y.p.6.y.w.W A B A B B A B B B B B B B B B B B B B B B B B B B B B B B B B B B B B B B B B B B B B B B B B B B B B B B B B B B B B B B B B A A A A A A A A l 5 t e e e 1 K y.<.w.w.6.f.w.A B B B B B B B B B B B B B B B B B B B B B B B B B B B B B B B B B B B B B B B B B B B B B B B B B B B B B B B B B B B B B B B B B B A B B D B 9 5 5 t t h > ..6.6.w.6.w.k...B P B B B B B B B B B B B B B B B B B B B B B B B B B B B B B B B B B B B B B B B B B B B B B B B B ",
"1 e 9 t 5 l > &.p.w.y.6.0.w.' B D D D D D D D D D D D D D D D D D D D D D D D D D D D D D D D D D D D D D D D D D D D D D D D D A 5 5 d 9 9 d 5 <.p.6.w.w.w.f.' A D D D D D D D D D D D D D D D D D D D D D D D D D D D D D D D D D D D D D D D D D D D D D D D D D D D D D D D D 9 9 d 5 9 d 5 ..f.0.w.w.0.f...B A D K D D D D D D D D D D D D D D D D D D D D D D D D D D D D D D D D D D D D D D D D D D D D D D D D D D D D D D D D D D D D D D D D D K D b 9 9 d 5 d h h y.w.p.w.0.<.p.b K D D D D D D D D D D D D D D D D D D D D D D D D D D D D D D D D D D D D D D D D D D D D D D D D D D D D D D D D D D D D D D D D A D A B D D l 9 t 5 t 9 1 W f.p.y.p.<.p.:.b A A D D D D D D D D D D D D D D D D D D D D D D D D D D D D D D D D D D D D D D D D D D D D D D D D D D D D D D D D D D D D D D D D K D D K B t 9 t 1 9 e 5 6.0.y.p.0.0.p.W b P b B D D D D D D D D D D D D D D D D D k.0.<.y.6.y.w.W D A A D D D D D D D D D D D D D D D D D D D D D D D D D D D D D D D D D D D D D D D D D D D D D D D D D D D D A b 9 e t e d 9 9 6.6.0.p.<.y.p.( D A D D D K K D D D D D D D D D D D D D D D D D D D D D D D D D D D D D D D D D D D D D D D D D D D D D D D D D D D D D D D D D D D D D D D D l 1 t e e e > D f.0.p.y.<.y.0.A D D D D D D D D D D D D D D D D D D D D D D D D D D D D D D D D D D D D D D D D D D D D D D D D D D D D D D D D D D D D D D D D D D D A D P D t d 9 5 5 d > :.p.w.p.<.6.p. .l K D D D D D D D D D D D D D D D D D D D D D D D D D D D D D D D D D D D D D D D D D D D D D D D D ",
"e 9 9 e e e 5 &.y.w.w.y.6.p.' B D D D D D D D D D D A D D D A A D D D D D D A A D D D D D D D D D D D D D D D D D D D D D D D A A 9 e t 9 t e 9 :.y.0.w.w.w.y.( B D D D A D D D D D D D D D D D D D D D D D D D D D D D D D D D D D D D D D D D D D D D D D D A D D D D D D D D D t 9 t 9 e t 5 ..p.w.w.w.w.p...B A D D A D D A D D D D D D A A D D D D D D D D D D D D D D D D D D D D D D D A D D D D D D D D D D D A D A D D A D D D D D D D D A D D A D D b e 9 e e 9 t t y.w.w.w.0.w.y.D D D D D D D D D D D D D D D D D D D D D D D D A A D D D D D D D D D D D D D D D D D D D D D D D A D D D D D A D D D A A D D D D D D A A D B K t e 9 t 9 t 1 W y.w.0.y.w.w.<.b K A D D D D D D D D D D D D D D D D D D D D D D D A D D D D D D A A D D D D D D D D D D D D D D D D D D D D D D D D D D D D D D D D D D D A A 9 t 9 e e e e 6.w.w.0.w.6.p.W A D A D D D D D D D D D D D D D D D D A P w.w.y.0.w.w.y.P A A D A A D A D D D D D D D D D D D D D D D D D D D D D D D D D D D D D D D A D D A D D D D A D D D D D D D D D D 5 e 9 e 9 e 9 6.y.y.0.y.0.y.^ B D D A K A D D D D D D D D A D D D D D D D D D D D D D D D D D D D D D D D D D D D D D D D D D D D D D D D D D D D D D D D A A D D D A A D D h 5 t 9 e t 5 A p.w.w.0.y.0.0.D D D D D D A D D D D D D D D D D D D D D D D D A D D D D D D D D D D D D D D A D D D D D D D D D A D D D D A D D D D D D D D D D D D B D D D A e e 9 t 9 t 1 &.y.w.w.w.w.w...B D D D D D D D D D D D D D D D D D D D D D D D A A D D D D D D D D D D D D D D D D D D D D D D D A ",
"e 9 9 e e e 5 &.y.w.w.y.6.p.' B D D D D D D D D D D A D D D D D D D A D D D D D D D D D D D D D D D D D D D D D D D D D D D D A A 9 e t 9 t e 9 :.y.0.w.w.w.y.( B D D D A D D D D D D D D D D D D D D D D D D D D D D D D D D D D D D D D D D D D D D A D D D D D D D D D D D D D t 9 t 9 e t 5 ..p.w.w.w.w.p...B A D D A D D A D D A D D D D D D D D D D D D D D D D D D D D D D D D D D D D A D D D D D D D D D D D A D D D D D D A D D D D D D A D D A D D b e 9 e e 9 t t y.w.w.w.0.w.y.D D D D D D D D D D D D D D D A D D D D A D D D D D D D D D D D D D D D D D D D D D D D D D D D D A D D D D D A D D D D D D A A D D D A A D B K t e 9 t 9 t 1 W y.w.0.y.w.w.<.b K A D D D D D D D D D D D D D D D D D D D D D D D A D D A D D D D D D D D D D D D D D D D D D D D D D D D D A D D D D D D D D D D D D D D A A 9 t 9 e e e e 6.w.y.0.w.6.p.W A D A D D D D D D D D D D D D D D D D A P w.w.y.0.w.w.y.P A A D A A D A D D D D D D D D D D D D D D D D D D D D D D D D D D D A D D D D D D D D D D D A D D D D D D D D D D 5 e 9 e 9 e 9 6.y.y.0.y.0.y.^ B D D A K A D D D D D D D D D D D D A D D D D D D D D D D D D D D D D D D D D D D D D D D D D D D D D D D D D D D D A D D D D A D D D A A D D h 5 t 9 e t 5 A p.w.w.0.y.0.0.D D D D D D D D D D D D D D D D D D D D D D D D A D D D D D D D D D D A D D D A D D D D D D D D D D D D D D A D D D D D D D D D D D D B D D D A e e 9 t 9 t 1 &.y.w.w.w.w.w...B D D D D D D D D D D D D D A D D D D D A D D D D D D D D D D D D D D D D D D D D D D D D D D D D A ",
"e 9 9 e e e 5 &.y.w.w.y.6.p.' B D D D D D D D D D D D D D D D D D D D D D D D D D D D D D D D D D D D D D D A A A D D D D D D D A 9 e t 9 t e 9 :.y.0.w.w.w.y.( B D D D A D D D D D D D D A D D D D D D D D D D D D D D D D D D D A A D D D D A D D D D D D D D D D D D D D D D D t 9 t 9 e t 5 ..p.w.w.w.w.p...B A D D A D D A D D D D D D D D D D D D D D D D D D D D D D A A A D D D D D D D D D A D A D D D D D D D D D D D D D D D D D D D D A D D A D D b e 9 e e 9 t t y.w.w.w.0.w.y.D D D D D D D D D D D D D A D D D D D D D D D D D D D D D D D D D D D D D D D D A A A D D D D D D D D D D D D D D D D D D D D D D D D A A D B K t e 9 t 9 t 1 W y.w.0.y.w.w.<.b K A D D D D D D D D D D D D D D A A A D D D D D D D D D D D D D D D D D D D D D D D D D A A D D D D D A D D A D D D D D D D D D A A D D D A A 9 t 9 e 9 e e 6.w.y.0.w.0.p.W A D A D D D D D D D A A A D D D D D D D P w.w.y.0.w.w.y.P A A D A A D A D D D D D D D D D D D D D D D D D A A D D D D A D D D D D D D D D D D D D D D D D D D D D D D D D D 5 e 9 e 9 e 9 6.y.y.0.y.0.y.^ B D D A K A D D D D D D D D D D D D D D D A A D D D D D A D D D D D D D D D D D D D D D D D D D A A D D D D A D D D D D D D D A D D D A A D D h 5 t 9 e t 5 A p.w.w.0.y.0.0.D D D D D D D D D D D D D D D A A A D D D D D D D D D D D D D D D D D A D D D D D D D D D D D D D D D D D D D D D D D D D D D A A D D B D D D A e e 9 t 9 t 1 &.y.w.w.w.w.w...B D D D A A D D D D D A D D A D D D D D D D D D D D D D D D D D D D D D D D D D A A A D D D D D D D ",
"e 9 9 e e e 5 &.y.w.w.y.6.p.' B D D D A D D D D D D D D D D D D D D D D D D D D D D D A D D D D D D D D D D A D D D D D D D D D A 9 e t 9 t e 9 :.y.0.w.w.w.y.( B D D D A D D D A A D D D D D D D D D D D D D D D A A D A A D D D D D D D D D D D D D D D D D D D D D D D D D D D t 9 t 9 e t 5 ..p.w.w.w.w.p...B A D D A D D A D D D D D D D D D D D A D D D D D D D D D D A D D D D D D D D D D D A D D D D D D D D D D D D D D D D D D D D D D A D D A D D b e 9 e e 9 t t y.w.w.w.0.w.y.D D D D D D D D D D D D D A D D D D D D D D D D D D D D D A D D D D D D D D D D A D D D D D D D D D D D D A D D D D D D D D D D D D D A A D B K t e 9 t 9 t 1 W y.w.0.y.w.w.<.b K A D D D A D D D D D D D D D D A D D D D D D D D D D D D D D D D D D D D D D A D D D D D D D D A D D A D D D D D D D D D D D D A D D D D A A 9 t 9 e e e e 6.w.y.0.w.0.p.W A D A D D D D D D D A D D D D D D D D D P w.w.y.0.w.w.y.P A A D A A D A D D D D D D D D D A A D A A D D D D D D D D D D D D D D D D D D D D D D D D D D D D D D A D D D D D 5 e 9 e 9 e 9 6.y.y.0.y.0.y.^ B D D A K A D D D D D D D D D D D D D D D D D A A D D D D D D D D D D D D D D D A A D A A D D D D D D D D D D D D D D D D D D A D D D A A D D h 5 t 9 e t 5 A p.w.w.0.y.0.0.D D D D D D D D D D D D D D D A D D D D D D D D D D A D D A A D D D D D D D D D D D D D A A D D D D D D D D D D D D D D D D D A D D D B D D D A e e 9 t 9 t 1 &.y.w.w.w.w.w...B D D D D D D D A D D A D D D D D D D D D D D D D D D D D A D D D D D D D D D D A D D D D D D D D D ",
"e 9 9 e e e 5 &.y.w.w.y.6.p.' B D D A A D A D D A A D D D A D D D D D D D D D D D D D D D D D A D D D D A D D D A A D D D D D D A 9 e t 9 t e 9 :.y.0.w.w.w.y.( B D D D A D D D D D D D D A A D D D D D A D D D D D D D D D D D D D D D D D D D D D A D A D D D D D D D A D D D D t 9 t 9 e t 5 ..p.w.w.w.w.p...B A D D A D D A D D D D D D D D D D D D D D D A D D D D A D D D A A D D D D D D D D D D D D D D D D D D D D D D D D D D D D D D D A D D A D D b e 9 e e 9 t t y.w.w.w.0.w.y.K D D D D D D D D D D D D D D D D D D D D D D D D D D D D D D D D A D D D D A D D D A A D D D D D D D D D A D D D D D D D D D D D D D A A D B K t e 9 t 9 t 1 W y.w.0.y.w.w.<.b K A D D D D D D D A D D D D A D D D A A D D D D D D D A A D A A D D A A D D D D D D D D A A D D D D D D D D A D D D D D D D A D D D D D D A A 9 t 9 e e e e 6.w.y.0.w.0.p.W A D A D D D D D A D D D A A D D D D D D P w.w.y.0.w.w.y.P A A D A A D A D D D D A D D D D D D D D D D D D D D D D D D D D D A D A D D D D D D D D D D D A D D D D D D D D D 5 e 9 e 9 e 9 6.y.y.0.y.0.y.^ B D D A K A D D D D D D D A D D D D A D D D D D D D D D A A D D D D D A D D D D D D D D D D D D D D D D D D D D D A D A D D D A D D D A A D D h 5 t 9 e t 1 A p.w.w.0.y.0.0.D D D D D D D D D D D D D A D D D A A D D D D D D D D D D D D D D D D D D D D D D D D D D D D D D D D D D D D D D D D D D A D D D D D B D D D A e e 9 t 9 t 1 &.y.w.w.w.w.w...B D D D A A D D D D D D D D A D D D D D D D D D D D D D D D D D D A D D D D A D D D A A D D D D D D ",
"e 9 9 e e e 5 &.y.w.w.y.6.p.' B D D D A D D D D D D D D D D D D D D D D D D D D A A D D D D D A D D D D D D D D D D D D D D A D A 9 e t 9 t e 9 :.y.0.w.w.w.y.( B D D D A D D D D D D D D D D D D D D D D D D D D D D D D D D D D D D D D D D D D D A D A D D D D D D D D D D D D t 9 t 9 e t 5 ..p.w.w.w.w.p...B A D D A D D A D D D D D D D D A A D D D D D A D D D D D D D D D D D D D D A D D D D D D D D D D D D D D D D D D D D D D D D D D A D D A D D b e 9 e e 9 t t y.w.w.w.0.w.p.K D D D D D D D D D D D D D D D D D D D D D D D D D A A D D D D D A D D D D D D D D D D D D D D A D D D D D D D D D D D D D D D D D D A A D B K t e 9 t 9 t 1 W y.w.0.y.w.w.<.b K A A A D D D D D A D D D D D D D D D D D D D D A D D D D D D D D D D D D D A A D D D D D D D D D D D D D D D D D D D D D D D D D D D D D A A 9 t 9 e e e e 6.w.y.0.w.0.p.W A D A D D D D D D D D D D D D D D D A D P w.w.y.0.w.w.y.P A A D A A D A D D D D D D D D D D D D D D D D D D D D D D D D D D A D A D D D D D A D D D D D A D D D D D A A D D 5 e 9 e 9 e 9 6.y.y.0.y.0.y.^ B D D A K A D D D D A D D A D D D D A D D D D D D D D D D D D D D D D D D D D D D D D D D D D D D D D D D D D D D A D A D D D A D D D A A D D h 5 t 9 e t 5 A p.w.w.0.y.0.0.D D D D D D D D D D D D D D D D D D D D D D D A D D D D D D D D D D D D D D D D D A D D D D D A A D D D D D D D D D D D D D D D D D D B D D D A e e 9 t 9 t 1 &.y.w.w.w.w.w...B D D D D D D D D D D D D D D D D D D D D D D D D D A A D D D D D A D D D D D D D D D D D D D D A D ",
"e 9 9 e e e 5 &.y.w.w.y.6.p.' B D D D D D D D D D D D D D D D D D D A A D D D D D D D D D D D D D D D D D D D D D D D D D D A D A 9 e t 9 t e 9 :.y.0.w.w.w.y.( B D D D A D D A D D D D D D D D D D A A D D D D D D A D D D D D A A D D D D D D D D D D D D D D D D A A D D D D D t 9 t 9 e t 5 ..p.w.w.w.w.p...B A D D A D D A D D A A D D D D D D D D D D D D D D D D D D D D D D D D D D A D D D D A D D D D D A A D D D D D D D D D D D D D D A D D A D D b e 9 e e 9 t t y.w.w.w.0.w.y.D D D D D D D A D D D D D D D D D D D D A A D D D D D D D D D D D D D D D D D D D D D D D D D D A D D D D D D D D D D D D D D A D D D A A D B K t e 9 t 9 t 1 W y.0.0.y.w.w.<.b K A D D D D D D D D D D D D D D D D D D D D D D A D D D D D D D D D D D D D D D D D D D D D D D D D D D D D D D D D D D D D D D D D D D D A A 9 t 9 e e e e 6.w.w.0.w.0.p.W A D A D D D D D D D D D D D D D D D A D P w.w.y.0.w.w.y.P A A D A A D A D D A A D D D D D D A D D D D D A A D D D D D D D D D D D D D D D D A D D D A D D D D D D D D D D D 5 e 9 e 9 e 9 <.y.y.0.y.0.y.^ B D D A K A D D D D A D D D D D D D D D D D A D D D D D D D D D D A A D D D D D D A D D D D D A A D D D D D D D D D D D D D D A D D D A A D D h 5 t 9 e t 5 A p.w.w.0.y.0.0.D D A D D D D A D D D D D D D D D D D D D D D A D D D A D D D D D D D D D D D D A D D D D D D D D D D D D A A D D D D D D D D D D D D B D D D A e e 9 t 9 t 1 &.y.w.w.w.w.w...B D D D D D D D D D D D D D D D D D D D A A D D D D D D D D D D D D D D D D D D D D D D D D D D A D ",
"e 9 9 e e e 5 &.y.w.w.y.6.p.' B D D D D D D D D D D D D D D D D D D D D D A A D D D D D D D D D D D D D D D D D D D D D D D D D A 9 e t 9 t e 9 :.y.0.w.w.w.y.( B D D D A D D A D D D D D D D D D D A D D D D D D D D D D D A A D D D D D D A A D D D D D D D D D D A D D D D D D t 9 t 9 e t 5 ..p.w.w.w.w.p...B A D D A D D A D D D D D A A D D D D D D D D D D D D D D D D D D D D D D D D D D D D A D D D D D D D D D D A A D A A D D D D D D A D D A D D b e 9 e e 9 t t y.w.w.w.0.w.y.D D D D D D A D D D D D D D A A D D D D D D D A A D D D D D D D D D D D D D D D D D D D D D D D D D D D D D D A D D A D D D D A D D D A A D B K t e 9 t 9 t 1 W y.0.0.y.w.w.<.b K A D D D D D D D D D D D D D D D D D D D D D D D D D D D D D D D D D D D D D D D D D D D D D D D A A D D D D D D D D D D D D D D D D D D A A 9 t 9 e e e e 6.w.w.0.w.0.p.W A D A D D D D D D D D D D D D D D D D D P w.w.y.0.w.w.y.P A A D A A D A D D A D D D D D D D D D D D A A D D D D D D A A D D D D D D D D D D D D D D A D D D D D D D D D D D 5 e 9 e 9 e 9 <.y.y.0.w.0.y.^ B D D A K A D D D D D D D D D D D D D D D D A D D D D D D D D D D A D D D D D D D D D D D A A D D D D D D A A D D D D D D D D A D D D A A D D h 5 t 9 e t 5 A p.w.w.0.y.0.0.D D D D D D D A A D D D D D D D D D D D D D D D D D D A D D D A A D D A A D D D D D D D D D D D D D A A D D D D D D D D D D D D D D D B D D D A e e 9 t 9 t 1 &.y.w.w.w.w.w...B D D D D D D D D A A D D D D D D D D D D D D A A D D D D D D D D D D D D D D D D D D D D D D D D D ",
"e 9 9 e e e 5 &.y.0.0.w.6.p.' B D D D D D D D D D D D D D D D D D D D D D D D D A A D D D D D D D D D D D D D D D D D D D D D D D 9 t t 9 e e 9 :.y.0.w.w.w.y.( B D D D A D D D D D D D D D D D D D A D A D D D D D D D D D D D D D D D D D D D D A A D D D D D D D A D A D D D D t 9 t 9 e t 5 ..p.w.w.w.w.p...B A D D A D D A D D D D D D D D A A D D D D D D D D D D D D D D D D D D D D D D D D D D D D A A D D A D D D D A D D A D D D D D D A D D A D D b e 9 e e 9 t t y.w.w.w.0.w.y.D D A D D D D D D D D D D D D D A D D D D D D D D D A A D D D D D D D D D D D D D D D D D D D D D D A A D D D D D D D D D D D D D D D A A D B K t e 9 t 9 t 5 ^ y.w.0.y.w.w.<.b K A A A D D D D D D D D D D D D D D D D D D D D D D D D D D D D D D D D D D D D D D D D D D D D D D D D D D D D D D D D D D D D D D D D D A A 9 t 9 e e e e 6.w.w.0.w.0.p.W A D A D D D D D D D D D D D D D D D D D P w.w.y.0.w.w.y.P A A D A D D A D D A D A D D D D D D D D D D D D D D D D D D D D A A D D D D D D D D D D D D D A D D D D D D D D D 5 e 9 e 9 e 9 6.y.y.0.y.0.y.^ B D D A K A D D D D D D D D D D D D D D D D D D D D D D D D D D D A D A D D D D D D D D D D D D D D D D D D D D A A D D D D D A D D D A A D D h 5 t 9 e t 5 A p.w.w.0.y.0.0.D A D D D D A D D D D D D D D D D D D D D D D D D D D D A D D D D D D A D D D D D D D D D D D A A D D D D D D D D D D D D D D D D A K A A A D D e e 9 t 9 t 1 &.y.w.w.w.w.w...B D D D D D D D D D D D D D D D D D D D D D D D D D A A D D D D D D D D D D D D D D D D D D D D D D ",
"e 9 9 e e e 5 &.y.0.0.w.6.p.' B D D D D D D D D D D D D D A D D D D D D D D D D D D D D D D A A D D D A D D D D D D D D D D D D D 9 t t 9 e e 9 :.y.0.w.w.w.y.( B D D D A D D D D A D D D D D D D D D D A D D D D D D D D D D D D D D D D D D D D D D D A A D D D D D D A D D D D t 9 t 9 e t 5 ..p.w.w.w.w.p...B A D D A D D A D D D D D D D D D D D D D D A A D D D A D D D D D D D D D D D D D D A D D D D D D D D D D D D A D D A D D D D D D A D D A D D b e 9 e e 9 t t y.w.w.w.0.w.y.D D A D D D D D D D D D A D D D A D D D D D D D D D D D D D D D A A D D D A D D D D D D D D D D D D D D D D D D A A D D D D D D D D D A A D B K t e 9 t 9 t 5 ^ y.w.0.y.w.w.<.b K A D D D D D D A A D D D A D D D D D D D D D D D D D D D D D D D D D D D D D D D D D D D D D D D D D D D D D D D D D D D D D D D D D D D A A 9 t 9 e e e e 6.w.y.0.w.0.p.W A D A D D D D A D D D D D D D D D D D D P w.w.y.0.w.w.y.P A A D A D D A D D D D A D D D D D D D D D D D D D D D D D D D D D D D A A D D D D D D D D D D D D D D D D D A D D 5 e 9 e 9 e 9 6.y.y.0.y.0.y.^ B D D A K A D D D D D D D D D D D D D D D D D D A D D D D D D D D D D A D D D D D D D D D D D D D D D D D D D D D D D A A D D A D D D A A D D h 5 t 9 e t 5 A p.w.w.0.y.0.0.D A D D D D D D D D D D A D D D D D D D D D D D D D D D A D D D D D A D D D D D D A A D D D D D D D D D D D D D D D A D D D D D D A K A A A D D e e 9 t 9 t 1 &.y.w.w.w.w.w...B D D D D D D D D D D D D D D D D D D D D D D D D D D D D D D D A A D D D A D D D D D D D D D D D D ",
"e 9 9 e e e 5 &.y.0.0.w.0.p.' B D D D D D D D D D D D D A A D D D D D A D A D D D D D D D D D D D D D A D D A D D D D A D A D D D 9 t t 9 e e 9 :.y.0.w.w.w.y.( B D D D A D D D A D D D D D D D D D D D D D D D D D D D D D D D A D D D D D A A D D D D D D D D D D D D D D D D D t 9 t 9 e t 5 ..p.w.w.w.w.p...B A D D A D D A D D D A D A D D D D D D D D D D D D D A D D A D D D D A D A D D D D D D D D D D D D D D D D D D D D D D D D D D D A D D A D D b e 9 e e 9 t t y.w.w.w.0.w.y.K D D D D D A D D D D D A D D D D D D D D A D A D D D D D D D D D D D D D A D D A D D D D A D A D D D D D D D D D D D D D A D D D D D A A D B K t e 9 t 9 t 5 ^ y.w.0.y.w.w.<.b K A D D D D D D D D D D D A D D A D D D D A D A D D A D D D D A A D D D D D D D D D D A D D D D A D A D D D D A A D D D D D D D D D D D D A A 9 t 9 e e e e 6.w.y.0.w.0.p.W A D A D D D D A D D A D D D D A D A D D P w.w.y.0.w.w.y.P A A D A D D A D D D D D D D D D D D D D D D D A D D D D D A A D D D D D D D D D D D D D D D D D A D D D D D A D D 5 e 9 e 9 e 9 6.y.y.0.y.0.y.^ B D D A K A D D D D D D D D D D A A D D D D A A D D D D D D D D D D D D D D D D D D D D D D D A D D D D D A A D D D D D D D D A D D D A A D D h 5 t 9 e t 5 A p.w.w.0.y.0.0.D D D D D D D D D D D D A D D A D D D D A D A D D D D D D D D D D D D D D D D D D D D D D D D D D D D D D A D D D D D D D D D D D A K A A A D D e e 9 t 9 t 1 &.y.w.w.w.w.w...B D D A D D D D A D A D D D D A A D D D D A D A D D D D D D D D D D D D D A D D A D D D D A D A D D ",
"e 9 9 e e e 5 &.y.0.0.w.6.p.' B D D D D D D D D D D D D D D D D D D D A D A D D D D D D D D D D D D D D D D D D D D D D D A D D D 9 t t 9 e e 9 :.y.0.w.w.w.y.( B D D D A D D D D D D D D D A A D D D D D D D D D D A D D D D D A D D D D D D D D D D D D D D D D D D D D D D D D t 9 t 9 e t 5 ..p.w.w.w.w.p...B A D D A D D A D D D A D A D D D D D D D D D D D D D D D D D D D D D D D A D D D D D D D D D D D D D D D D D D D D D D A D D D D A D D A D D b e 9 e e 9 t t y.w.w.w.0.w.p.D D D D D D A D D D D D D D D D D D D D D A D A D D D D D D D D D D D D D D D D D D D D D D D A D D D D D D D D D D D D D D D D D D D A A D B K t e 9 t 9 t 5 ^ y.w.0.y.w.w.<.b K A D D D D D D D D D D D D D D D D D D D D D A D D D D D D D D D D D D D D A D D D D A D D D D D D D D D D D D A D D D D D A D D D D D D A A 9 t 9 e e e e 6.w.y.0.w.0.p.W A D A D D D D D D D D D D D D D D A D D P w.w.y.0.w.w.y.P A A D A D D A D D D D D D D D D D A D D D D D A D D D D D D D D D D D D D D D D D A A D A A D D D D D D D D D D D 5 e 9 e 9 e 9 6.y.y.0.y.0.y.^ B D D A K A D D D A A D D D D D D D D D D D A D D D D D D A A D D D D D D D D D D A D D D D D A D D D D D D D D D D D D D D D A D D D A D D D h 5 t 9 e t 5 A p.w.w.0.y.0.0.D D D D D D D D D D D D D D D D D D D D D D A D D D D D D D D D D D D D D D D D D D D D D D D D D D D A D A D D D D A D D D D D D A K A A A D D e e 9 t 9 t 1 &.y.w.w.w.w.w...B D D A D D D D D D D D D D D D A D D D D A D A D D D D D D D D D D D D D D D D D D D D D D D A D D ",
"e 9 9 e e e 5 &.y.0.0.w.6.p.' B D D D D D D D D D D D D D D D D D D D D D D D D D D D D D D D D D D D A D D D D D D D D D D D D D 9 t t 9 e e 9 :.y.0.w.w.w.y.( B D D D A D D D D D D D D D D D D D D D D D D D D D D D D D A A D D D D A D D D D D D D D D D D D D D D D D D D D t 9 t 9 e t 5 ..p.w.w.w.w.p...B A D D A D D A D D D D D D D D D D D D D D D D D D D A D D D D D D D D D D D D D A A D A A D D D D D D D D D D D D D D D D D D D A D D A D D b e 9 e e 9 t t y.w.w.w.0.w.y.D D D D D D D D D D D D D D D D D D D D D D D D D D D D D D D D D D D D D A D D D D D D D D D D D D D D D D D D D D D D A A D D D D D A A D B K t e 9 t 9 t 5 ^ y.w.0.y.w.w.<.b K A D D D D D D D D D D D A D D D D D D D D D D D D D D D D D D D D A D D D D D D D D D D D D D D D D D D D D D D D A D D D D D D D D D D A A 9 t 9 e 9 e e 6.w.y.0.w.0.p.W A D A D D D D A D D D D D D D D D D D D P w.w.y.0.w.w.y.P A A D A D D A D D D D D D D D D D D D D D A A D D D D A D D D D D D D D D D D D D D D D D D D D D D D D D D D D D 5 e 9 e 9 e 9 6.y.y.0.y.0.y.^ B D D A K A D D D D D D D D A D D D D D D D D D D D D D D D D D D D D D D D D D D D D D D A A D D D D A D D D D D D D D D D D A D D D A A D D h 5 t 9 e t 1 A p.w.w.0.y.0.0.D D D D D D D D D D D D A D D D D D D D D D D D D D D D D D D D D D D D D D D D D D D D D D D D D D D D D D D D D D D D D D D D D A K A A A D D e e 9 t 9 t 1 &.y.w.w.w.w.w...B D D D D D D D D D D D D D D D D D D D D D D D D D D D D D D D D D D D D A D D D D D D D D D D D D ",
"e 9 9 e e e 5 &.y.0.0.w.6.p.' B D D D D D D D D D D D D D D D D D D D D D D D D A D D D D A A D D D D A D D D D D D D D D D D D D 9 t t 9 e e 9 :.y.0.w.w.w.y.( B D D D A D D D D D D D D D D D D D D D D D D D D D A A D D D D D D D D D D D D D D D D D D D D D D D D D D D D D t 9 t 9 e t 5 ..p.w.w.w.w.p...B A D D A D D A D D D D D D D D A D D D D A A D D D D A D D D D D D D D D D D D D D D D D D D D D D A D D D D D D D D D D D D D D A D D A D D b e 9 e e 5 t t y.w.w.w.0.w.y.D D A A D D D D D D D D D D D D D D D D D D D D D D A D D D D A A D D D D A D D D D D D D D D D D D A A D D D D A D D D D A D D D D D A A D B K t e 9 t 9 t 5 ^ y.w.0.y.w.w.<.b K A A D D D D A A D D D D A D D D D D D D D D D D D D D D D D D D D A D D D D D A A A D D D D D D D D D D D D D D D A A D D D D D D D D D A A 9 t 9 e 9 e e 6.w.y.0.w.0.p.W A D A D D D D A D D D D D D D D D D D D P w.w.y.0.w.w.y.P A A D A D D A D D D D D D D D D D A A D D D D D D D D D D D D D D D D D D D D D D D D D D D D D D D D D D D D D D 5 e 9 e 9 e 9 6.y.y.0.y.0.y.^ B D D A K A D D A D D D D D A D D D D D D D D D D D D D D D D D D D D D D D D D D A A D D D D D D D D D D D D D D D D D D D D A D D D A A D D h 5 t 9 e t 5 A p.w.w.0.y.0.0.D D D D D D A D D D D D A D D D D D D D D D D D D D D A D A D D D D D D D D D D D D A D D D D A A D D D D D D D D D D D D D D A D A K A A A D D e e 9 t 9 t 1 &.y.w.w.w.w.w...B D A D D D D D D D D D D D D D D D D D D D D D D D A D D D D A A D D D D A D D D D D D D D D D D D ",
"e 9 9 e e e 5 &.y.0.0.w.6.p.' B D D D D D D D D D D D D D D D D D D D D A D D D D D D D D D D D D D D D D D D A D D D D A D D D D 9 t t 9 e e 9 :.y.0.w.w.w.y.( B D D D A D D D D D D D D D D D D D D D D A A D D D D D D D D D D D D D D D D D D D D D D A D D D D D D D A A D D t 9 t 9 e t 5 ..p.w.w.w.w.p...B A D D A D D A D D D D A D D D D D D D D D D D D D D D D D D A D D D D A D D D D D D D D D D D D D A D D D A D D D D D D D D D D A D D A D D b e 9 e e 9 t t y.w.w.w.0.w.y.D D D D D D A D D D D D D D D D D A D D D D A D D D D D D D D D D D D D D D D D D A D D D D A D D D D D D D D D D D D D D D D D D D D A A D B K t e 9 t 9 t 5 ^ y.w.0.y.w.w.<.b K A D D D D D D D D D D D D D D D A D D D D A D D D D D D D D D A A D D D D D D D D A D D D D D D A D D D D D D D D D D D D D D D D D D D A A 9 t 9 e 9 e e 6.w.y.0.w.0.p.W A D A D D D D D D D D A D D D D A D D D P w.w.y.0.w.w.y.P A A D A D D A D D D D D A A D D D D D D D D D D D D D D D D D D D D D D A D D D D D D D A D D D D D D D D D D D D 5 e 9 e 9 e 9 <.y.y.0.y.0.y.^ B D D A K A D D D D D D D D D A A D D D D D D D D D D D D D D D D D D D A A D D D D D D D D D D D D D D D D D D D D D D A D D A D D D A A D D h 5 t 9 e t 5 A p.w.w.0.y.0.0.D D A D D D A D D D D D D D D D A D D D D A D D D D D D D A D D D D D D A D D D D D D D D D D D D D D A A D D D D D D D D A A D D A K A A A D D e e 9 t 9 t 1 &.y.w.w.w.w.w...B D A D D D D D D A D D D D D D D D D D D D A D D D D D D D D D D D D D D D D D D A D D D D A D D D ",
"e 9 9 e e e 5 &.y.0.0.w.6.p.' B D D D D D D D D D D D D A D D D A D D D D D D D D D D D D D D D D D D D D D D A D D D D A D D D D 9 t t 9 e e 9 :.y.0.w.w.w.y.( B D D D A D D D D D D D D D D D A A D D D D D D D D D D D D D D D D D D D D D D A A D D D D D D A A D D D D D D D t 9 t 9 e t 5 ..p.w.w.w.w.p...B A D D A D D A A D D D D D D D D D D D D D D D D D D D D D D A D D D D A D D D D D D D D D D D D D D D D D A D D D A A D D D D D A D D A D D b e 9 e e 9 t t y.w.w.w.0.w.y.D D D D D D D D D D D D A A D D D D A D D D D D D D D D D D D D D D D D D D D D D A D D D D A D D D D D D D D D D D D D D D D D D D D A A D B K t e 9 t 9 t 5 ^ y.w.0.y.w.w.<.b K A D D D D D D D D D D D D D D D A D D D D A D D D A A D D D D D D D D D D D D D D D D D D D D D A D D D D D D D D D D D D D D D D D D D A A 9 t 9 e e e e 6.w.y.0.w.0.p.W A D A D D D D D D D D A D D D D A D D D P w.w.y.0.w.w.y.W A A K A D D A A A D D D D D D D D D D D D D D D D D D D D D D A A D D D D D D A A D D D D D D D D D D D D D D D D 5 e 9 e 9 e 9 <.y.y.0.w.0.y.^ B D D A K A D D D D D D D D D D D D D D D A D D D D D D D D D A A D D D D D D D D D D D D D D D D D D D D D D A A D D D D D D A D D D A A D D h 5 t 9 e t 5 A p.w.w.0.y.0.0.D D A D D D D D D D D D D D D D A D D D D A D D D D D D D D D D D D D D A D D D D D D D D D D D D D D D D D D D A A D D D D D D D A K A A A D D e e 9 t 9 t 1 &.y.w.w.w.w.w...B D D D D D D D D A D D D D D D D D A D D D D D D D D D D D D D D D D D D D D D D A D D D D A D D D ",
"e 9 9 e e e 5 &.y.w.0.w.p.w.' b B B B B B B B B B B B B B B B B B B B B B B B B B B B B B B B B b A b B P K A P A K A K K A K P D t = 9 > 9 5 = <.w.y.0.w.p.6.' B B B B B B B B B B B B B B B B B B B B B B B B B B B B B B B B B B B B B B B B B B B B B B B B B B B B B B B B K 1 d e e 9 t 1 ..p.0.6.p.y.6...B B B b B B B B B B B B B B B B B B B B B B B B B B B B B B B B B B B B B B B B B B B B B B B B B B B B B B B B B B B B B B B B A l b b B l P h 9 e 9 t 9 9 d w.y.0.0.y.p.<.^ l B B B B B B B B B B B B B B B B B B B B B B B B B B B B B B B B B B B B B B B B B B B B B B B B B B B B B B B B B K h l P h D D K D A P K A h > 5 = 9 1 # W f.6.w.0.y.y...B l D B B B B B B B B B B B B B B B B B B B B B B B B B B B B B B B B B B B B B B B B B B B B B B B B B B B B B B B B B B B B B B B B B B b l K > d e e e e e 6.w.y.w.6.p.w.^ b l B B B B B B B B B B B B B B B B B B K <.p.w.0.w.y.y.B B B B B B B B B B B B B B B B B B B B B B B B B B B B B B B B B B B B B B B B B B B B B B B B B B B B B B b b h A 1 t t 9 9 t 9 6.0.w.0.w.y.y.P A b B B b b B B B B B B B B B B B B B B B B B B B B B B B B B B B B B B B B B B B B B B B B B B B B B B B B B B B B B B B B B b B B b B b b D l > e d e e 9 B y.w.0.w.y.p.&.B B B B B B B B B B B B B B B B B B B B B B B B B B B B B B B B B B B B B B B B B B B B B B B B B B B B B B B B B B A b B b b K b P D K W B W B 9 1 5 9 5 > e ( f.w.0.w.p.w.^ l b B B B B B B B B B B B B B B B B B B B B B B B B B B B B B B B B B B B B B B B B B B B B B B B B ",
"e 9 9 e e e 5 &.p.y.w.0.w.y.<...&.&.&.&.&.&.&.&.&.&.&.&.&.&.&.&.&.&.&.&.&.&.&.&.&.&.&.&.&.&.&.&.:.:.^ B D D B D D A d h h t h d l ^ ' $.^  ... .0.y.y.0.w.p.w.&.&.&.&.&.&.&.&.&.&.&.&.&.&.&.&.&.&.&.&.&.&.&.&.&.&.&.&.&.&.&.&.&.&.&.&.&.&.&.&.&.&.&.&.&.&.&.&.&.&.&.&.&.&.&.&.&...t t e e 9 t 5 ..p.y.0.y.w.w.<.&.&.&.&.&.&.&.&.&.&.&.&.&.&.&.&.&.&.&.&.&.&.&.&.&.&.&.&.&.&.&.&.&.&.&.&.&.&.&.&.&.&.&.&.&.&.&.&.&.&.&.&.&.&.&.&.&.&.&.&.&.&.&.&.:.$.&.&.:...6.( 9 e 9 t 9 9 d w.y.w.0.0.w.0.:...&.&.&.&.&.&.&.&.&.&.&.&.&.&.&.&.&.&.&.&.&.&.&.&.&.&.&.&.&.&.&.&.&.&.&.&.&.&.&.&.&.&.&.&.&.&.&.&.&.&.&.&.&.&.&.&...<.....6.....B h h h h e d W ....( $...^ &.f.0.0.0.y.f.w.&.$.6.&.&.&.&.&.&.&.&.&.&.&.&.&.&.&.&.&.&.&.&.&.&.&.&.&.&.&.&.&.&.&.&.&.&.&.&.&.&.&.&.&.&.&.&.&.&.&.&.&.&.&.&.&.&.&.&.&.&.&.&.&.&.&.&.:.:.&.....5 t e e e e e 6.0.w.0.6.y.y.:...$.:.:.&.&.&.&.&.&.&.&.&.&.&.&.&.&.&.&...w.p.w.w.y.w.w.&.&.&.&.&.&.&.&.&.&.&.&.&.&.&.&.&.&.&.&.&.&.&.&.&.&.&.&.&.&.&.&.&.&.&.&.&.&.&.&.&.&.&.&.&.&.&.&.&.&.&.&.&.&.&.&.$.$.e e e 9 e t 9 0.0.y.w.w.y.y.<.&...$.&.$.$.$.&.&.&.&.&.&.&.&.&.&.&.&.&.&.&.&.&.&.&.&.&.&.&.&.&.&.&.&.&.&.&.&.&.&.&.&.&.&.&.&.&.&.&.&.&.&.&.&.&.&.&.&.&.&.&.&.&.:.&.&.:.$.$.<.A 1 t t e e 9 B p.w.0.0.w.p.w.$.&.&.&.&.&.&.&.&.&.&.&.&.&.&.&.&.&.&.&.&.&.&.&.&.&.&.&.&.&.&.&.&.&.&.&.&.&.&.&.&.&.&.&.&.&.&.&.&.&.&.&.&.&.&.&.&.$.&.$.&.$.$.<...e t h b 9 h b ( $.' ' ' '  .&.w.y.w.0.y.p.<.$.<.&.&.&.&.&.&.&.&.&.&.&.&.&.&.&.&.&.&.&.&.&.&.&.&.&.&.&.&.&.&.&.&.&.&.&.&.&.&.&.&.&.&.&.&.&.&.&.&.",
"e 9 9 e e e 5 &.y.y.w.0.6.w.y.y.y.y.y.y.y.y.y.y.y.y.y.y.y.y.y.y.y.y.y.y.y.y.y.y.y.y.y.y.y.y.y.y.p.p. .B B A A D K B 9 e t 9 e 5 e 0.k.f.6.w.y.y.w.w.w.0.w.y.w.0.y.y.y.y.y.y.y.y.y.y.y.y.y.y.y.y.y.y.y.y.y.y.y.y.y.y.y.y.y.y.y.y.y.y.y.y.y.y.y.y.y.y.y.y.y.y.y.y.y.y.y.y.y.y.y.y.w.h e 9 t e t 9  .p.y.6.w.0.w.w.y.y.y.y.y.y.y.y.y.y.y.y.y.y.y.y.y.y.y.y.y.y.y.y.y.y.y.y.y.y.y.y.y.y.y.y.y.y.y.y.y.y.y.y.y.y.y.y.y.y.y.y.y.y.y.y.y.y.y.y.y.y.y.y.p.w.p.p.p.0.p.$.9 e 9 t 9 9 d w.y.w.0.0.0.w.w.y.y.y.y.y.y.y.y.y.y.y.y.y.y.y.y.y.y.y.y.y.y.y.y.y.y.y.y.y.y.y.y.y.y.y.y.y.y.y.y.y.y.y.y.y.y.y.y.y.y.y.y.y.y.y.y.y.0.p.y.0.p.y.0.t 5 e t t 5 5  .f.p.0.y.f.y.0.y.y.w.w.w.y.y.w.y.p.y.y.y.y.y.y.y.y.y.y.y.y.y.y.y.y.y.y.y.y.y.y.y.y.y.y.y.y.y.y.y.y.y.y.y.y.y.y.y.y.y.y.y.y.y.y.y.y.y.y.y.y.y.y.y.y.y.y.y.y.y.y.y.y.y.p.p.w.6.5 e t e e e e 6.w.y.0.0.w.w.w.w.y.y.w.y.y.y.y.y.y.y.y.y.y.y.y.y.y.y.y.0.p.y.0.w.w.0.w.y.y.y.y.y.y.y.y.y.y.y.y.y.y.y.y.y.y.y.y.y.y.y.y.y.y.y.y.y.y.y.y.y.y.y.y.y.y.y.y.y.y.y.y.y.y.y.y.y.y.y.y.y.y.y.y.y.<.e 5 9 e e t 9 6.0.y.0.0.w.w.p.w.w.w.y.y.y.y.y.y.y.y.y.y.y.y.y.y.y.y.y.y.y.y.y.y.y.y.y.y.y.y.y.y.y.y.y.y.y.y.y.y.y.y.y.y.y.y.y.y.y.y.y.y.y.y.y.y.y.y.y.y.y.y.y.p.y.y.y.w.w.f.P 9 e e 9 e 9 A p.0.0.0.6.w.p.y.y.y.y.y.y.y.y.y.y.y.y.y.y.y.y.y.y.y.y.y.y.y.y.y.y.y.y.y.y.y.y.y.y.y.y.y.y.y.y.y.y.y.y.y.y.y.y.y.y.y.y.y.y.y.y.y.y.y.w.p.w.w.p.6.5 9 e d 1 1 d w.f.w.0.p.f.y.w.0.y.y.0.0.w.w.w.p.y.y.y.y.y.y.y.y.y.y.y.y.y.y.y.y.y.y.y.y.y.y.y.y.y.y.y.y.y.y.y.y.y.y.y.y.y.y.y.y.y.y.y.y.y.y.y.y.",
"e 9 9 e e e 5 &.w.y.y.w.0.0.w.p.w.w.w.w.w.w.w.w.w.w.w.w.w.w.w.w.w.w.w.w.w.w.w.w.w.w.w.w.w.w.w.w.6.w. .B B K D D K B 9 9 t e t 9 t p.p.w.6.w.0.6.y.w.w.w.w.0.w.p.w.w.w.w.0.0.w.w.w.w.w.w.w.w.w.w.w.w.w.w.w.w.w.w.w.w.w.w.w.w.w.w.w.w.w.w.w.w.w.w.w.w.w.w.w.w.w.w.w.w.w.w.w.w.w.w.y.d 5 9 t 9 t e ' y.y.0.w.6.w.y.w.w.w.w.w.w.w.w.w.w.w.w.w.w.w.w.w.w.w.w.w.w.w.w.w.w.w.w.w.w.w.w.w.w.w.w.w.w.w.w.w.w.w.w.w.w.w.w.w.w.w.w.w.w.w.w.w.w.w.w.w.w.w.w.w.0.w.w.y.6.y. .5 e 9 t 9 9 d y.w.w.w.w.0.0.0.w.w.w.w.w.w.w.w.w.w.w.w.w.w.w.w.w.w.w.w.w.w.w.w.w.w.w.w.w.w.w.w.w.w.w.w.w.w.w.w.w.w.w.w.w.w.w.w.w.w.w.w.w.w.w.w.w.w.y.w.6.0.w.w.5 e 9 9 d t 9 ..y.w.0.0.y.y.6.6.y.w.w.0.6.6.0.w.0.w.w.w.w.w.w.w.w.w.w.w.w.w.w.w.w.w.w.w.w.w.w.w.w.w.w.w.w.w.w.w.w.w.w.w.w.w.w.w.w.w.w.w.w.w.w.w.w.w.w.w.w.w.w.w.w.w.w.w.w.w.w.w.w.0.0.w.y.6.1 9 t e e e e 6.w.p.w.w.0.w.y.y.w.0.0.w.w.w.w.w.w.w.w.0.w.w.w.w.w.w.w.y.y.0.0.y.w.0.y.w.w.w.w.w.w.w.w.w.w.w.w.w.w.w.w.w.w.w.w.w.w.w.w.w.w.w.w.w.w.w.w.w.w.w.w.w.w.w.w.w.w.w.w.w.w.w.w.w.w.w.w.w.w.0.0.w.:.9 5 e e e e 9 0.0.y.0.0.w.w.w.0.0.w.w.w.w.w.w.w.w.w.w.w.w.w.w.w.w.w.w.w.w.w.w.w.w.w.w.w.w.w.w.w.w.w.w.w.w.w.w.w.w.w.w.w.w.w.w.w.w.w.w.w.w.w.w.w.w.w.w.w.w.w.0.w.w.0.w.0.0.p.^ 9 e e e t 9 B y.6.w.y.0.6.w.y.w.w.w.w.w.w.w.w.w.w.w.w.w.w.w.w.w.w.w.w.w.w.w.w.w.w.w.w.w.w.w.w.w.w.w.w.w.w.w.w.w.w.w.w.w.w.w.w.w.w.w.w.w.w.w.w.w.w.0.y.w.0.y.:.t t e t e 9 9 0.w.0.w.y.y.w.w.y.0.y.w.6.0.w.6.0.w.w.w.w.w.w.w.w.w.w.w.w.w.w.w.w.w.w.w.w.w.w.w.w.w.w.w.w.w.w.w.w.w.w.w.w.w.w.w.w.w.w.w.w.w.w.w.w.",
"e 9 9 e e e 5 &.w.y.y.y.y.w.w.w.w.w.w.w.w.w.w.w.w.w.w.w.w.w.w.w.w.w.w.w.w.w.w.w.w.w.w.w.w.w.w.w.6.y...A A P D B A b 9 e e 9 t 9 d y.6.0.y.w.w.w.y.w.w.y.w.0.w.y.w.w.w.w.w.w.w.w.w.w.w.w.w.w.w.w.w.w.w.w.w.w.w.w.w.w.w.w.w.w.w.w.w.w.w.w.w.w.w.w.w.w.w.w.w.w.w.w.w.w.w.w.w.w.w.w.w.t 5 9 t 5 9 9  .p.w.0.y.0.w.w.w.w.w.w.w.w.w.w.w.w.w.w.w.w.w.w.w.w.w.w.w.w.w.w.w.w.w.w.w.w.w.w.w.w.w.w.w.w.w.w.w.w.w.w.w.w.w.w.w.w.w.w.w.w.w.w.w.w.w.w.w.w.w.w.y.0.y.w.y.0.p...5 e 9 t 9 9 d y.w.w.y.y.y.w.0.6.w.w.w.w.w.w.w.w.w.w.w.w.w.w.w.w.w.w.w.w.w.w.w.w.w.w.w.w.w.w.w.w.w.w.w.w.w.w.w.w.w.w.w.w.w.w.w.w.w.w.w.w.w.w.w.w.y.0.0.0.0.0.y.t h e 1 e d 5 &.p.w.p.w.0.w.w.0.y.0.y.y.0.0.w.y.w.w.w.w.w.w.w.w.w.w.w.w.w.w.w.w.w.w.w.w.w.w.w.w.w.w.w.w.w.w.w.w.w.w.w.w.w.w.w.w.w.w.w.w.w.w.w.w.w.w.w.w.w.w.w.w.w.w.w.w.w.w.w.w.w.y.0.w.y.0.1 9 e e e e e 6.w.y.w.w.0.w.y.y.0.0.y.w.w.w.w.w.w.w.w.w.w.w.w.w.w.w.w.w.w.0.w.y.w.w.f.w.w.w.w.w.w.w.w.w.w.w.w.w.w.w.w.w.w.w.w.w.w.w.w.w.w.w.w.w.w.w.w.w.w.w.w.w.w.w.w.w.w.w.w.w.w.w.w.w.w.w.w.w.w.w.w.w.<.t e t e 9 9 e 0.w.p.w.w.w.w.0.w.w.w.w.w.0.0.w.w.w.w.w.w.w.w.w.w.w.w.w.w.w.w.w.w.w.w.w.w.w.w.w.w.w.w.w.w.w.w.w.w.w.w.w.w.w.w.w.w.w.w.w.w.w.w.w.w.w.w.w.w.w.w.w.y.w.w.w.0.0.p.W 5 9 e e t 9 B p.0.w.f.y.0.w.w.w.w.w.w.w.w.w.w.w.w.w.w.w.w.w.w.w.w.w.w.w.w.w.w.w.w.w.w.w.w.w.w.w.w.w.w.w.w.w.w.w.w.w.w.w.w.w.w.w.w.w.w.w.w.w.w.w.w.0.y.w.0.y.&.9 e e 9 t h 9 <.0.0.w.w.0.6.0.w.6.y.w.0.y.p.w.w.w.w.w.w.w.w.w.w.w.w.w.w.w.w.w.w.w.w.w.w.w.w.w.w.w.w.w.w.w.w.w.w.w.w.w.w.w.w.w.w.w.w.w.w.w.w.w.w.",
"e 9 9 e e e 5 &.y.w.0.w.w.w.w.w.w.w.w.w.w.w.w.w.w.w.w.w.w.w.w.w.w.w.w.w.w.w.w.w.w.w.w.w.w.w.w.w.0.y...B B K A A A b e e e 9 e 9 e y.6.y.y.6.w.y.0.0.0.w.w.0.0.0.w.w.w.w.w.w.w.w.w.w.w.w.w.w.w.w.w.w.w.w.w.w.w.w.w.w.w.w.w.w.w.w.w.w.w.w.w.w.w.w.w.w.w.w.w.w.w.w.w.w.w.w.w.w.w.w.w.d e e t 5 9 5  .w.0.0.y.0.0.0.w.w.w.w.w.w.w.w.w.w.w.w.w.w.w.w.w.w.w.w.w.w.w.w.w.w.w.w.w.w.w.w.w.w.w.w.w.w.w.w.w.w.w.w.w.w.w.w.w.w.w.w.w.w.w.w.w.w.w.w.w.w.w.w.y.0.w.0.w.0.f...5 e 9 t 9 9 h y.0.0.0.0.w.w.w.0.w.w.w.w.w.w.w.w.w.w.w.w.w.w.w.w.w.w.w.w.w.w.w.w.w.w.w.w.w.w.w.w.w.w.w.w.w.w.w.w.w.w.w.w.w.w.w.w.w.w.w.w.w.w.w.w.y.0.w.y.w.6.w.t t e 5 e d > &.p.0.p.y.0.w.y.w.w.0.w.y.w.0.w.w.w.w.w.w.w.w.w.w.w.w.w.w.w.w.w.w.w.w.w.w.w.w.w.w.w.w.w.w.w.w.w.w.w.w.w.w.w.w.w.w.w.w.w.w.w.w.w.w.w.w.w.w.w.w.w.w.w.w.w.w.w.w.w.w.w.y.w.0.w.6.5 9 e e e e e <.0.w.6.0.0.w.w.0.6.0.y.w.w.w.w.w.w.w.w.w.w.w.w.w.w.w.w.6.w.0.0.w.0.6.y.w.w.w.w.w.w.w.w.w.w.w.w.w.w.w.w.w.w.w.w.w.w.w.w.w.w.w.w.w.w.w.w.w.w.w.w.w.w.w.w.w.w.w.w.w.w.w.w.w.w.w.w.w.w.w.w.w.<.e 9 e 9 e e 5 6.0.y.w.0.w.0.w.w.w.w.w.w.w.0.w.w.w.w.w.w.w.w.w.w.w.w.w.w.w.w.w.w.w.w.w.w.w.w.w.w.w.w.w.w.w.w.w.w.w.w.w.w.w.w.w.w.w.w.w.w.w.w.w.w.w.w.w.w.w.w.0.y.w.w.w.0.0.p.W 1 9 t e e 5 B f.0.0.y.w.0.w.0.w.w.w.w.w.w.w.w.w.w.w.w.w.w.w.w.w.w.w.w.w.w.w.w.w.w.w.w.w.w.w.w.w.w.w.w.w.w.w.w.w.w.w.w.w.w.w.w.w.w.w.w.w.w.w.w.w.w.0.y.w.w.y.:.5 e d 5 5 d 9 0.w.0.6.0.w.w.0.6.6.w.0.6.w.w.w.w.w.w.w.w.w.w.w.w.w.w.w.w.w.w.w.w.w.w.w.w.w.w.w.w.w.w.w.w.w.w.w.w.w.w.w.w.w.w.w.w.w.w.w.w.w.w.w.w.",
"e 9 9 e e e 5 &.p.w.0.w.w.w.w.y.w.w.w.w.w.w.w.w.w.w.w.w.w.w.w.w.w.w.w.w.w.w.w.w.w.w.w.w.w.w.w.w.w.y. .B A D D K K B e e t 9 t 9 e y.0.p.w.<.y.6.0.w.w.0.w.w.w.0.w.w.w.w.w.w.w.w.w.w.w.w.w.w.w.w.w.w.w.w.w.w.w.w.w.w.w.w.w.w.w.w.w.w.w.w.w.w.w.w.w.w.w.w.w.w.w.w.w.w.w.w.w.w.w.w.y.h e 9 e 9 e 5  .w.0.0.y.0.0.w.w.w.w.0.w.w.w.w.w.w.w.w.w.w.w.w.w.w.w.w.w.w.w.w.w.w.w.w.w.w.w.w.w.w.w.w.w.w.w.w.w.w.w.w.w.w.w.w.w.w.w.w.w.w.w.w.w.w.w.w.w.w.w.w.w.0.w.0.w.0.p. .5 e 9 t 9 e h y.0.0.0.0.w.w.w.w.w.w.w.w.w.w.w.w.w.w.w.w.w.w.w.w.w.w.w.w.w.w.w.w.w.w.w.w.w.w.w.w.w.w.w.w.w.w.w.w.w.w.w.w.w.w.w.w.w.w.w.w.w.w.w.w.w.y.y.w.y.0.0.t 5 t e t d = &.w.6.0.w.0.w.y.y.0.w.w.w.w.w.0.0.0.w.w.w.w.w.w.w.w.w.w.w.w.w.w.w.w.w.w.w.w.w.w.w.w.w.w.w.w.w.w.w.w.w.w.w.w.w.w.w.w.w.w.w.w.w.w.w.w.w.w.w.w.w.w.w.w.w.w.w.w.w.w.w.w.0.0.0.0.6.5 e e e e e e 6.w.y.w.w.w.w.0.0.0.0.0.w.w.w.w.w.w.w.w.w.w.w.w.w.w.w.w.0.y.w.0.w.w.0.w.w.w.w.w.w.w.w.w.w.w.w.w.w.w.w.w.w.w.w.w.w.w.w.w.w.w.w.w.w.w.w.w.w.w.w.w.w.w.w.w.w.w.w.w.w.w.w.w.w.w.w.w.w.w.w.w.w.:.9 5 9 e e t 5 6.0.y.w.w.w.0.w.y.y.w.0.w.w.0.w.w.w.w.w.w.w.w.w.w.w.w.w.w.w.w.w.w.w.w.w.w.w.w.w.w.w.w.w.w.w.w.w.w.w.w.w.w.w.w.w.w.w.w.w.w.w.w.w.w.w.w.w.w.w.w.0.w.w.0.w.0.0.p.W 5 9 t e e 5 A f.w.0.w.0.w.y.w.w.w.w.w.w.w.w.w.w.w.w.w.w.w.w.w.w.w.w.w.w.w.w.w.w.w.w.w.w.w.w.w.w.w.w.w.w.w.w.w.w.w.w.w.w.w.w.w.w.w.w.w.w.w.w.w.w.w.0.w.w.w.y.:.e 9 h e 5 t 9 w.w.0.0.0.w.y.y.w.0.w.0.0.w.0.6.w.w.w.w.w.w.w.w.w.w.w.w.w.w.w.w.w.w.w.w.w.w.w.w.w.w.w.w.w.w.w.w.w.w.w.w.w.w.w.w.w.w.w.w.w.w.w.w.w.",
"e 9 9 e e e 5 &.f.p.y.f.p.y.w.y.p.p.p.p.p.p.p.p.p.p.p.p.p.p.p.p.p.p.p.p.p.p.p.p.p.p.p.p.p.p.p.p.f.p.$.D K K A K K B 9 9 e 9 t 9 d f.0.p.w.p.m.w.y.p.p.y.p.f.f.p.p.p.p.p.p.p.p.p.p.p.p.p.p.p.p.p.p.p.p.p.p.p.p.p.p.p.p.p.p.p.p.p.p.p.p.p.p.p.p.p.p.p.p.p.p.p.p.p.p.p.p.p.p.p.p.p.y.h 5 1 9 e t 5 $.f.p.y.f.w.p.k.p.p.p.p.p.p.p.p.p.p.p.p.p.p.p.p.p.p.p.p.p.p.p.p.p.p.p.p.p.p.p.p.p.p.p.p.p.p.p.p.p.p.p.p.p.p.p.p.p.p.p.p.p.p.p.p.p.p.p.p.p.p.p.p.p.y.p.y.p.y.k...5 e 9 t 9 e h y.y.p.f.f.p.y.y.y.p.p.p.p.p.p.p.p.p.p.p.p.p.p.p.p.p.p.p.p.p.p.p.p.p.p.p.p.p.p.p.p.p.p.p.p.p.p.p.p.p.p.p.p.p.p.p.p.p.p.p.p.p.p.p.p.w.k.p.0.p.p.p.h e t 5 5 t > 0.p.k.p.p.p.y.y.p.p.f.y.w.p.f.p.p.f.p.p.p.p.p.p.p.p.p.p.p.p.p.p.p.p.p.p.p.p.p.p.p.p.p.p.p.p.p.p.p.p.p.p.p.p.p.p.p.p.p.p.p.p.p.p.p.p.p.p.p.p.p.p.p.p.p.p.p.p.p.p.p.p.y.p.f.y.0.9 t e 9 9 e t w.p.k.f.y.p.p.y.p.f.f.y.p.p.p.p.p.p.p.p.p.p.p.p.p.p.p.p.p.k.p.w.p.f.p.p.p.p.p.p.p.p.p.p.p.p.p.p.p.p.p.p.p.p.p.p.p.p.p.p.p.p.p.p.p.p.p.p.p.p.p.p.p.p.p.p.p.p.p.p.p.p.p.p.p.p.p.p.p.p.p.p.f.6.t e t t 9 5 e 0.y.f.p.p.p.p.w.p.p.w.w.y.p.y.p.p.p.p.p.p.p.p.p.p.p.p.p.p.p.p.p.p.p.p.p.p.p.p.p.p.p.p.p.p.p.p.p.p.p.p.p.p.p.p.p.p.p.p.p.p.p.p.p.p.p.p.p.p.p.p.p.f.p.p.f.y.y.k.^ 5 9 t e 9 5 D f.p.p.y.w.y.p.w.p.p.p.p.p.p.p.p.p.p.p.p.p.p.p.p.p.p.p.p.p.p.p.p.p.p.p.p.p.p.p.p.p.p.p.p.p.p.p.p.p.p.p.p.p.p.p.p.p.p.p.p.p.p.p.p.p.y.w.y.y.y.f.6.e > t d 9 d 9 w.p.f.f.y.w.w.p.f.y.y.y.p.k.p.w.p.p.p.p.p.p.p.p.p.p.p.p.p.p.p.p.p.p.p.p.p.p.p.p.p.p.p.p.p.p.p.p.p.p.p.p.p.p.p.p.p.p.p.p.p.p.p.p.p.",
"d e 9 e 9 5 h K ' ' ' ( ( ( ' ' ' ' ' ' ' ' ' ' ' ' ' ' ' ' ( (  .' ' ' ' ( ( ( ' ' ' ' ' ' ( ( ..( K b h h b B b l d e 9 e e t h P  . .' ' ' ( ' ' ' ' ' ' ' ' ' ' ' ' ' ' ' ' ' ' ' ' ' ' ' ' ' ' ' ' ' ' ' '  . .' ' ' ' ( ( ' ' ' ' ' ' ( ( ' ' ' ' ' ' ' ' ' ' ' ' ' ' ' ' ^ b 9 9 e 9 9 e ^ ( ( '  . .' ' ' ' ' ' ' ' ' ' ' ' ' ' ' ' ' ' ' ' ' ' ' ' ' ' ' ' ' ' ' ' ( (  . .' ' ' ' ( (  .' ' ' ' ' ' ' ' ' ' ' ' ' ' ' ' ' ' ' ' ' ' ' ' '  . .' ( ( ^ e 9 9 e 9 9 b ^ ' ' ' ' ' ' ' ' ' ' ' ' ' ' ' ' ' ' ' ' ' ' ' ' ' ' ' ' ' ' ' ' ' ' ' ( ( ( ( ( ( ( ( ( ( ' ' ' ' ' ' ' ' ' ' ' ' ' ' ' ' ' ' ' ( ' ' '  . .P h t t e 5 5 d P ..' ' ' ' ' ' ' ' ' ' ' ' ' ' ' ' ' ' ' ' ' ' ' ' ' ' ' ' ' ' ' ' ' ' ' ' ' ' ' ' ' ' ' ' ' ' ' ' ' ' ' ' ' ' ' ' ' ' ' ' ' ' ' ' ' ' ' ' ' ' ' ' ' ' ' ' ' ' ' ' ( (  . .P d 5 9 e 9 9 h P ' ' ( ' ' ' ' ' ' ' ' ' ' ' ' ' ' ' ' ' ' ' ' ' ' ' ' ' ' ' ' ' ' ' ' ' ' ' ' ' ' ' ' ' ' ' ' ' ' ' ' ' ' ' ' ' ' ' '  .' ' ' ( ( ( ( ' ' ' ' ( ( ( ( ' ' ' ' ' ' ' ' ' ' ' ' ' ' ' ' $.P d 5 5 e t e d K '  .( ' ' ( ' ' ' ' ' ' ' ' ' ' ' ' ' ' ' ' ' ' ' ' ' ' ' '  .' ' ' ' ' ' ' ' ' ' ' ' ( ( ( ' ' ' ' ' ' ( ( ' ' ' ' ' ' ' ' ' ' ' ' ' ' ' ' ' ' ' ' ' ' ' ' h t 9 e e 9 t h ' ' ' ' ' ' ' ' ' ' ' ' ' ' ' ' ' ' ' ' ' ' ' ' ' ' ' ' ' ' ' ' ' ' ' ' ' ' ( ( ' ' ' ' ' ( ( ( ' ' ' ' ( ( ' ' ' ' ' ' ' ' ' ' ' ' ' ' ' ' ' ' e 9 9 9 5 9 l W ' ' ' ' ' ' ' ' ' ' ' ' ' ' ' ' ' ' ' ' ' ' ' ' ' ' ' ' ' ' ' ' ' ' ' ' ' ' ' ' ' ' ' ' ' ' ' ' ' ' ' ' ' ' ' ' ( ' ' ' ' ' ' ' ",
"e 9 e t e 5 e d 5 5 5 1 1 1 5 5 1 1 1 1 1 1 1 1 5 5 5 1 1 1 1 1 1 1 1 1 1 1 5 5 1 1 1 1 1 5 5 5 9 9 5 5 9 9 e e t e e 9 9 9 e e > 9 e 5 > 1 1 > 1 1 1 1 1 1 1 1 1 1 1 1 1 1 1 1 1 1 1 1 1 1 1 1 5 5 5 5 5 5 5 5 1 1 1 1 1 5 5 5 1 1 1 1 1 5 5 5 1 1 1 1 1 1 1 1 1 1 1 1 1 1 1 1 t 5 1 9 e 9 5 e > > 1 5 5 5 5 1 1 1 1 1 1 1 1 1 1 1 1 1 1 1 1 1 1 1 1 1 1 1 1 1 5 5 5 1 1 1 1 1 > > 1 1 1 1 1 1 1 1 1 1 1 1 1 1 1 1 1 1 1 1 1 1 1 1 1 1 1 1 1 1 1 5 5 5 5 1 > > e 9 9 e 9 1 5 e 1 1 1 1 1 1 1 1 1 1 1 1 1 1 1 1 1 1 1 1 1 1 1 1 1 1 1 1 1 1 1 1 1 1 1 1 1 1 1 1 5 5 5 5 5 1 1 1 1 1 5 5 1 1 1 1 1 1 1 1 1 1 1 1 > 1 1 > 5 e 9 > 1 9 e e 9 5 5 9 1 1 1 1 1 1 1 1 1 1 1 1 1 1 1 1 1 1 1 1 1 1 1 1 1 1 1 1 1 1 1 1 1 1 1 1 1 1 1 1 1 1 1 1 1 1 1 1 1 1 1 1 1 1 1 1 1 1 1 1 1 1 1 1 1 1 1 1 1 1 1 1 1 1 1 1 1 1 1 1 = > 5 e 9 5 9 d d t 9 9 9 9 1 > 1 1 1 1 1 1 1 1 1 1 1 1 1 1 1 1 1 1 1 1 1 1 1 1 1 1 1 1 1 1 1 1 1 1 1 1 1 1 1 1 1 1 1 1 1 1 1 1 1 1 1 1 1 1 1 1 1 1 1 1 1 5 5 5 1 1 1 1 5 5 5 5 1 1 1 1 1 1 1 1 1 1 1 1 5 1 1 1 1 1 1 9 t t e 9 > 9 9 1 > 1 1 > 1 1 1 1 1 1 1 1 1 1 1 1 1 1 1 1 1 1 1 1 1 1 1 1 5 5 5 1 1 1 1 1 1 1 1 1 1 5 5 5 1 1 1 1 1 5 5 5 1 1 1 1 1 1 1 1 1 1 1 1 1 1 1 1 1 1 1 1 1 1 1 1 d 9 9 e e 9 9 d 1 1 1 1 1 1 1 1 1 1 1 1 1 1 1 1 1 1 1 1 1 1 1 1 1 1 1 1 1 1 1 1 5 5 5 1 1 1 1 1 1 1 1 1 5 5 5 5 1 1 1 1 1 1 1 1 1 1 1 1 1 1 1 1 1 1 1 1 1 1 1 1 t e e t 9 1 5 t 1 1 1 1 1 1 1 1 1 1 1 1 1 1 1 1 1 1 1 1 1 1 1 1 1 1 1 1 1 1 1 1 1 1 1 1 1 1 1 1 1 1 1 1 1 1 1 1 1 1 1 1 1 1 1 1 1 5 5 5 5 5 5 5 ",
"9 e t t e 9 5 5 t t t e e t t t t t t t t t t t t t t t t t t t t t t t t e e e e e e e e e e e 5 5 9 e t e e e 5 9 9 e e e e e d d t 9 e d d e t t t t t t t t t t t t t t t t t t t t t t t t t t t t t t t t t t t t t t t e e e e e e e e e t t t t t t t t t t t t t t t t 9 9 e d d e e t e t t t d t t t t t t t t t t t t t t t t t t t t t t t t t t t t t t t t t t t t t t t e e e e t t e e e e t t t t t t t t t t t t t t t t t t t t t d t t t e t e e d d e 9 9 t t t t t t t t t t t t t t t t t t t t t t t t t t t t t t t t t t t t t t t t e t t t t t e e t t t t t t t t t t t t t t t t e d d e 9 t d d t t t t d t 9 5 t t t t t t t t t t t t t t t t t t t t t t t t t t t t t t t t t t t t t t t t t t t t t t t t t t t t t t t t e e e e e e e e t t t t t t t t t t t t t t t t h t e t e 9 9 d 9 9 e e e e t t t t t t t t t t t t t t t t t t t t t t t t t t t t t t t t t t t t t t t t t t t t t t t t t t e e t t t t t t t t t t t t t e t t t t t t t t t t t t t t t t t t t t t t t t e t d d t e 9 9 h h t 9 e t t e t t t t t t t t t t t t t t t t t t t t t t t t t t t t t t t t t t t t t t t t e e e e e e e e t t t t t t t t t t t t t t t t t t t t t t t t e 9 9 t t 9 9 e t t t t t t t t t t t t t t t t t t t t t t t t t t t t t t t t t t t t t t t t t t t e e e e e t t t t t t t t t t t t t t t t t t t t t t t t t 9 9 t t 9 5 5 t t t t t t t t t t t t t t t t t t t t t t t t t t t t t t t t t t t t t t t t t t t t t t t t t t t t t t t t t t t t t t t t ",
"e t e 9 e e e 9 9 9 9 9 9 9 9 9 9 9 9 9 9 9 9 9 9 9 9 9 9 9 9 9 e e 9 9 9 9 9 9 e e 9 9 9 9 9 5 d d t e e e e e 9 e e t t e e e 5 5 5 5 9 t e 5 9 9 9 9 9 9 9 9 9 9 9 9 9 9 9 9 9 9 9 9 9 9 9 9 9 9 9 9 9 9 9 9 e e 9 9 9 9 9 9 e e 9 9 9 9 9 5 9 9 9 9 9 9 9 9 9 9 9 9 9 9 9 9 e e e t e 5 9 e 9 9 e e e e 9 9 9 9 9 9 9 9 9 9 9 9 9 9 9 9 9 9 9 9 9 9 9 9 9 9 9 9 9 9 9 9 9 9 e e e e 9 9 9 9 e e e 9 9 9 9 9 9 9 9 9 9 9 9 9 9 9 9 9 9 9 9 9 9 9 e e e e 9 9 e 9 5 e t e e e 9 9 9 9 9 9 9 9 9 9 9 9 9 9 9 9 9 9 9 9 9 9 9 9 9 9 9 9 9 9 9 9 9 9 9 9 9 9 9 9 9 9 9 9 9 e e e 9 9 9 9 9 9 9 e 9 9 9 9 9 9 9 9 5 e t 9 5 5 5 5 t 9 5 5 9 t d d e e e e e e e e 9 9 9 9 9 9 9 9 9 9 9 9 9 9 9 9 9 9 9 9 9 9 9 9 9 9 9 9 9 9 9 9 9 9 9 9 9 9 9 9 e e e e e e e e 9 9 9 9 9 9 9 9 9 9 9 9 9 9 9 9 9 9 9 9 9 9 9 9 t e e t t 9 9 9 9 e t t e e t d 9 9 9 9 9 9 9 9 9 9 9 9 9 9 9 9 9 9 9 9 9 9 9 9 9 9 9 9 9 9 9 9 9 9 9 9 9 9 9 9 9 9 9 9 9 9 9 9 9 9 9 9 9 e e e e e e e e 9 9 9 e e e 9 9 9 9 9 9 9 9 9 9 9 9 9 e e e e e e e e t t e 9 5 9 e d 9 9 5 5 9 e e 5 9 9 9 9 9 9 9 9 9 9 9 9 9 9 9 9 9 9 9 9 9 9 9 9 9 9 9 9 9 e e e e e e e 9 9 9 9 e e 9 9 9 9 9 5 9 9 9 9 9 9 9 9 9 9 9 9 9 9 9 9 9 9 9 9 9 9 9 9 e 9 e t t e 9 e 9 9 9 9 9 9 9 9 9 9 9 9 9 9 9 9 9 9 9 9 9 9 9 9 9 9 9 9 9 9 9 9 9 9 9 9 9 9 9 9 e 9 9 9 9 9 9 9 9 e e e 9 9 9 5 9 9 9 9 9 9 9 9 e e e e e e e e t 9 9 e t t e t 9 9 9 9 9 9 9 9 9 9 9 9 9 9 9 9 9 9 9 9 9 9 9 9 9 9 9 9 9 9 9 9 9 9 9 9 9 9 9 9 9 9 9 9 9 9 9 9 e e e e e e e e 9 9 9 9 9 9 9 9 ",
"t t e 9 9 t t e t t t t t t t t t t t t t t t t e e e e e e e e 9 e e e t t d d t t t t t t t t e e e 9 9 9 e e t t e e e e e e e t t t t t e e t t t t t t t t t t t t t t t t t t t t t t t t t t t t t t t t 9 e e e t t t d t t t t t t t t t t t t t t t t t t t t t t t t e 9 9 9 e e e t t t t t t t t e t t t t t t t t t t t t t t t t t t t t t t t t e e e e e e e e e e e t t t d d t t t t t t t t t t t t t t t t t t t t t t t t e t t t t t t t t e e e 9 9 9 e t t t t t t t t t t t t t t t t t t t t t t t t t t t t t t t t t t t t t t t t d t t t t t t d t t e e e e t t t t t t t t t t e e t t t t t e 9 9 e e e 9 9 9 t t t t t t t t t t t t t t t t t t t t t t t t t t t t t t t t t t t t t t t t t t t t t t t t e e e e e e e e t t t t t t t t t t t t t t t t t t t t t t t t 1 1 1 9 e e e e t t e e 9 5 5 1 t t t t t t t t t t t t t t t t t t t t t t t t t t t t t t t t t t t t t t t t t t t t t t t t t t t t t t t t e e e t t d d d t t t t t t t t t t t t t t t t t t t t t t t t 5 5 9 e e e e 9 t t d t t t t e t t t t t t t t t t t t t t t t t t t t t t t t t t t t t t t t e e e t t t d d t t t t t t t t t t t t t t t t t t t t t t t t t t t t t t t t e e e e e e e e t t t t t t t t t t t t t t t t t t t t t t t t t t t t t t t t e e e e e e e e e e t t t d d h t t t t t t e e t t t t t t t t t t t t t t t t t t e e e 9 e e t t t t t t t t t t t t t t t t t t t t t t t t t t t t t t t t t t t t t t t t t t t t t t t t e e e e e e e e t t t t t t t t ",
"e e e e e e e 9 9 9 e e 9 9 9 9 e e e e e e e e e e e e e 9 9 9 e e e e 9 9 9 9 9 9 9 9 9 e e e 9 9 e e t t e e e 9 9 9 9 9 e e e e e 9 9 9 9 e e e e e e e e e e e e e e e e e e e e e e e e e e e e e e e e e e e 9 9 9 9 9 9 9 9 9 9 9 e e e e e e e e e e e e e e e e e e e e e e t t t e e e e e 9 9 9 9 9 e e e e e e e e e e e e e e e e e e e e e e e e e e e e e 9 9 9 9 9 9 9 9 9 9 9 9 9 9 9 9 e e e e e e e e e e e e e e e e e e e 9 9 9 9 9 e e e e e t t t e e e e e e e e e e e e e e e e e e e e e e e e e e e e e e e e e e e e e e e e e e 9 e e 9 9 5 5 9 9 e e 9 9 9 9 9 9 e e e e e e e e e 9 9 9 9 e e e e t t t e e e e 9 9 9 9 9 9 9 9 e e e e e e e e e e e e e e e e e e e e e e e e e e e e e e e e e e e e e e e e e e e e e e e e 9 9 9 9 9 9 9 9 e e e e e e e e e e e e e e e e h d t e e e e e e 9 9 e t t t t e e e e e e e e e e e e e e e e e e e e e e e e e e e e e e e e e e e e e e e e e e e e e e e e e e e e e e e e e e e 9 9 9 9 9 5 5 9 9 9 9 e e e e e e e e e e 9 9 9 9 9 9 9 9 d t t t t e 9 5 e e e 9 9 9 e t e e e e e e e e e e e e e e e e e e e e e e e e e e e e e 9 9 9 e e e e 9 9 9 9 9 9 9 9 9 e e e e e e e e e e e e e e e e e e e e e e e e e e e e e 9 9 9 9 e e e e e e e e e e e e e e e e e e e e e e e e e e e e e e e e e e e e e e e 9 9 9 9 9 e e e 9 9 9 9 9 9 9 9 e e e e e e e e e e e 9 9 e e 9 9 9 9 5 9 e e e 9 9 9 e e e e e e e e e e e e e e e e e e e e e e e e e e e e e e e e e e e e e e e e e e e e e e e e e e e e e e e e 9 9 9 9 9 9 e e ",
"e 9 9 t t 9 9 e e e e e e e 9 9 e e e e e e e e e e e e 9 9 9 9 t t e e e e e 9 9 9 9 9 9 9 9 9 9 9 e e e 9 9 5 e e e e e e e e e 9 9 9 9 9 e t e e e e e e e e e e e e e e e e e e e e e e e e t e e e e 9 9 9 t e e e e e 9 9 9 9 9 9 9 9 9 9 e e e e e e e e e e e e e e e e 9 9 9 9 9 9 5 1 e e e e e e e e e e e e e e e e e e e e e e e e e e e e e e e e e e e e 9 9 9 9 e e e e e 9 9 9 e e e e e e e e e e e e e e e e e e e e e e e e e e e e e e e e 1 5 9 9 9 9 9 9 e e e e e e e e e e e e e e e e e e e e e e e e e e e e e e e e e e e e 9 9 9 9 9 9 9 e e e 9 9 t t e 9 9 9 9 e e e e e e e e e t e 9 9 9 9 9 e 9 9 9 9 5 9 e t e e e e e e e e e e e e e e e e e e e e e e e e e e e e e e e e e e e e e e e e e e e e e e e e e e e e e e e e e e e e e e e e e e e e e e e e e e e e e e e e 5 5 5 5 5 5 9 9 e e e e e e e 9 e e e e e e e e e e e e e e e e e e e e e e e e e e e e e e e e e e e e e e e e e e e e e e e e e e e e e e 9 9 t t e 9 9 9 e e 9 9 9 9 9 9 9 9 e e e e e e e e e e e e e e e e 9 9 5 5 9 e t t 9 9 9 9 9 9 e t e e e e e e e e e e e e e e e e e e e e e e e e e e e e 9 9 9 9 e e e e e 9 9 9 9 9 9 9 9 9 9 9 e e e e e e e e e e e e e e e e e e e e e e e e e e e e e e e e e e e e e e e e e e e e e e e e e e e e e e e e e e e e e e e e e e e e 9 9 9 9 9 e e e e 9 5 5 t t e 9 9 e e t e e e e e e e e e e e e e e e e 5 9 e e e e e e e e e e e e e e e e e e e e e e e e e e e e e e e e e e e e e e e e e e e e e e e e e e e e e e e e e e e e e e 9 9 9 e e e e t ",
"t 9 9 e e 5 e l l l l l l h h d t t t t t t t t t t t t e e e 9 9 9 e t h l l b b l l h d t t t d d t t t t d d t t d d t t t t d d d h h d t e t t t t t t t t t t t t t t t t t t t t t t t t d t t t e e e e 9 9 e t d h l b b l l h d t t t t t t t t t t t t t t t t t t t t t t t t d h l t t t t t d d d t t t t t t t t t t t t t t t t t t t t t t t t t t t t e e e 9 9 e t d h l b b l l h d d t t t t t t t t t t t t t t t t t t t d d d t t t t t l h d t t t t t t t t t t t t t t t t t t t t t t t t t t t t t t t t t t t t t t t t e e e 9 9 9 t d l b b l h h h d t t t t t t t t t t t t t e t d h h d d d e e t d h d t e t t t t t t t t t t t t t t t t t t t t t t t t t t t t t t t t t t t t t t t t t t t t t t t t e e e e e e e e h h h h h h h h t t t t t t t t t t t t t t t t e d h h d d d d d d d d t t t d t t t t t t t t t t t t t t t t t t t t t t t t t t t t t t t t t t t t t t t t t t t t t t t t d d d t t t t e e 9 9 e t h l b b l l h d d t t t t t t t t t t t t t t d t t t t d h h d t e 9 d d d h h d t e t t t t t t t t t t t t t t t t t t t t t t t t d d t t t e e e 9 9 e t d h l l b l l h d t t t t t t t t t t t t t t t t t t t t t t t t t t t e t t t t t t e t t t t t t t t t t t t t t t t t t t t t t t t t t t t t t t t t t t t e e e 9 9 e t h l b b l b l h t t e t t t t t t t t t t t t t t t t t t h d t e e t t t t t t t t t t t t t t t t t t t t t t t t t t t t t t t t t t t t t t t t t t t t t t t t t t t e e e e e e e e h h h h l l l b ",
"e 9 9 e e e 5 &.f.y.y.p.0.f. .A D D D D D D D D D D D A A 9 t 9 e e t t 0.y.f.y.y.w.f.^ D K D K D D D D D D D D D D D D D D D D D D D D D D D D D D D D D D D D D D D D D D D D D D D D D D D D D D A A K 9 e e e e d 5 <.p.p.y.y.w.f. .A P D K D D D D D D D D D D D D D D D D D D D D D D D D D D D D D D D D D D D D D D D D D D D D D D D D D D D D D D D D D D A D h 5 t e e e 5 K f.w.f.y.y.p.0.D K K D K D D D D D D D D D D D D D D D D D D D D D D D D D D D D D D D D D D D D D D D D D D D D D D D D D D D D D D D D D D D D D D D D A D D 9 e e 9 e t e <.p.p.w.y.y.f.' D D K D K D D D D D D D D D D D D D D D D D D D D D D D D D D D D D D D D D D D D D D D D D D D D D D D D D D D D D D D D D D D D D D D D D D D D D D D D D B 9 e e 9 e 9 t w.p.y.y.p.w.f.W A D D D D D D D D D D D D D D D D D D D D D D D D D D D D D D D D D D D D D D D D D D D D D D D D D D D D D D D D D D D D D D D D D D D D D D D D D D D D D D D D A D A D B 9 e e 9 e e 9 w.y.w.y.p.w.p.^ D K K D D D D D D D D D D D D D D D D D D D D D D D D D D D D D D D D D D D D D D D D D D D D D D D D D D D D D D D D A D A A K e e e e 5 t 5  .f.y.y.y.y.p.:.B K D K D D D D D D D D D D D D D D D D D D D D D D D D D D D D D D D D D D D D D D D D D D D D D D D D D D D D D D D D D D D D D D D D A K A A 9 e e e t e t p.y.y.p.y.w.f.P K D K K D D D D D D D D D D D D D D D D D D D D D D D D D D D D D D D D D D D D D D D D D D D D D D D D D D D D D D D D D D D D D D D D D D D D D D D D D D b 9 e t 9 t 9 B f.y.y.w.y.p.y.",
"e 9 9 e e e 5 &.p.w.w.y.6.p.' B D D D D D D D D D D D A A 9 t 9 e e e e 6.w.p.w.w.0.p.W A D A D D D D D D D D D D D D D D D D D D D D D D D D D D D D D D D D D D D D D D D D D D D D D D D D D D D A A K 9 e e e 9 t 5 :.y.y.w.w.0.p.' B K A D D D D D D D D D D D D D D D D D D D D D D D D D D D D D D D D D D D D D D D D D D D D D D D D D D D D D D D D D D D A D h 5 t e e e 5 K f.w.p.w.w.y.6.B D D A D D D D D D D D D D D D D D D D D D D D D D D D D D D D D D D D D D D D D D D D D D D D D D D D D D D D D D D D D D D D D D D D D A D D 9 e e 9 e e 5 :.y.y.0.w.w.p.' A D D D D D D D D D D D D D D D D D D D D D D D D D D D D D D D D D D D D D D D D D D D D D D D D D D D D D D D D D D D D D D D D D D D D D D D D D D D D D B 9 e e 9 e 9 t 6.w.0.0.w.6.p.P A D D D D D D D D D D D D D D D D D D D D D D D D D D D D D D D D D D D D D D D D D D D D D D D D D D D D D D D D D D D D D D D D D D D D D D D D D D D D D D D D A D A D B 9 e e 9 e e 9 w.w.w.w.y.0.y.W A D D D D D D D D D D D D D D D D D D D D D D D D D D D D D D D D D D D D D D D D D D D D D D D D D D D D D D D D D D A D A A K e e e t 5 t 5  .f.w.w.w.w.y.&.b D A A D D D D D D D D D D D D D D D D D D D D D D D D D D D D D D D D D D D D D D D D D D D D D D D D D D D D D D D D D D D D D D D D A K A A 9 e e e e 9 e y.w.w.w.w.w.p.P D A D K D D D D D D D D D D D D D D D D D D D D D D D D D D D D D D D D D D D D D D D D D D D D D D D D D D D D D D D D D D D D D D D D D D D D D D D D D D b 9 e t 9 t 9 b p.w.w.0.w.y.w.",
"e 9 9 e e e 5 &.y.0.0.w.6.y.' B D D D D D D D D D D D A A 9 t 9 e 9 e e 6.w.y.w.0.6.p.P A A B D D D D D D D D D D D D D D D D D D D D D D D D D D D D D D D D D D D D D D D D D D D D D D D D D D D A A K 9 e e e 9 t 1 &.y.w.0.w.0.p.' b D B D D D D D D D D D D D D D D D D D D D D D D D D D D D D D D D D D D D D D D D D D D D D D D D D D D D D D D D D D D D A D h 5 t e e e 1 D p.0.y.0.0.w.<.B A D A D D D D D D D D D D D D D D D D D D D D D D D D D D D D D D D D D D D D D D D D D D D D D D D D D D D D D D D D D D D D D D D D D A D D 9 e e 9 e e 5 &.y.w.0.0.w.p.( B A D A D A D D D D D D D D D D D D D D D D D D D D D D D D D D D D D D D D D D D D D D D D D D D D D D D D D D D D D D D D D D D D D D D D D D D D D D D D B 9 e e 9 e 9 t 6.w.0.0.w.6.p.P A D D D D D D D D D D D D D D D D D D D D D D D D D D D D D D D D D D D D D D D D D D D D D D D D D D D D D D D D D D D D D D D D D D D D D D D D D D D D D D D D A D A D B 9 e e e e e 9 0.w.w.w.w.0.y.W B A A D D D D D D D D D D D D D D D D D D D D D D D D D D D D D D D D D D D D D D D D D D D D D D D D D D D D D D D D A D A A K e e e t 9 t 5  .p.w.w.0.0.w.$.l D A A D D D D D D D D D D D D D D D D D D D D D D D D D D D D D D D D D D D D D D D D D D D D D D D D D D D D D D D D D D D D D D D D A K A A 9 e e e e 9 e w.0.0.0.0.0.p.K D A A D A D D D D D D D D D D D D D D D D D D D D D D D D D D D D D D D D D D D D D D D D D D D D D D D D D D D D D D D D D D D D D D D D D D D D D D D D D b 9 e t 9 t 9 l y.0.w.0.w.w.0.",
"e 9 9 e e e 5 &.y.w.w.y.6.p.' B D D D D D D D D D D D A A 9 t 9 e e e e <.0.y.0.w.0.p.W A D A D D D D D D D D D D D D D D D D D D D D D D D D D D D D D D D D D D D D D D D D D D D D D D D D D A D A A K 9 e e e 9 t 1 &.w.w.0.w.0.p.' B K A D D D D D D D D D D D D D D D D D D D D D D D D D D D D D D D D D D D D D D D D D D D D D D D D D D D D D D D D D D D A D h 5 t e e e 1 D p.6.y.6.w.y.6.B D D A D D D D D D D D D D D D D D D D D D D D D D D D D D D D D D D D D D D D D D D D D D D D D D D D D D D D D D D D D D D D D D D D D A D D 9 e e 9 e e 5 :.y.w.0.0.w.y.( B A A A A A D D D D D D D D D D D D D D D D D D D D D D D D D D D D D D D D D D D D D D D D D D D D D D D D D D D D D D D D D D D D D D D D D D A A D D D D B 9 e e 9 e 9 t 0.y.w.w.y.0.p.P A A D D D D D D D D D D D D D D D D D D D D D D D D D D D D D D D D D D D D D D D D D D D D D D D D D D D D D D D D D D D D D D D D D D D D D D D D D D D D D D D A D A D B 9 e e e e e 9 0.w.0.w.y.0.y.W B D D D D D D D D D D D D D D D D D D D D D D D D D D D D D D D D D D D D D D D D D D D D D D D D D D D D D D D D D D A D A A K 9 e e t 9 t 5 ' p.0.0.w.w.y.&.b D A A D D D D D D D D D D D D D D D D D D D D D D D D D D D D D D D D D D D D D D D D D D D D D D D D D D D D D D D D D D D D D D D D A K A A 9 e e e e e e y.w.0.w.0.0.p.K A A A D A D D D D D D D D D D D D D D D D D D D D D D D D D D D D D D D D D D D D D D D D D D D D D D D D D D D D D D D D D D D D D D D D D D D D D D D D D b 9 e t 9 t 9 l p.w.w.0.w.w.w.",
"e 9 9 e e e 5 &.p.w.w.y.6.p.' B D D D D D D D D D D D A A 9 t 9 t e e e 6.0.y.0.w.0.p.W A D A K D D D D D D D D D D D D D D D D D D D D D D D D D D D D D D D D D D D D D D D D D D D D D D D D D D A A K 9 e e t e t 5 &.w.w.0.w.0.f.' B K A D D D D D D D D D D D D D D D D D D D D D D D D D D D D D D D D D D D D D D D D D D D D D D D D D D D D D D D D D D D A D h 5 t e t t 5 K p.0.y.6.w.y.6.A D D A D D D D D D D D D D D D D D D D D D D D D D D D D D D D D D D D D D D D D D D D D D D D D D D D D D D D D D D D D D D D D D D D D A D D 9 e e 9 e e 9 :.y.y.0.w.w.p.( A A D A D A D D D D D D D D D D D D D D D D D D D D D D D D D D D D D D D D D D D D D D D D D D D D D D D D D D D D D D D D D D D D D D D D D A A A A D D D B 9 e e 9 e 9 t 0.w.0.0.w.6.p.P A A D D D A D D D D D D D D D D D D D D D D D D D D D D D D D D D D D D D D D D D D D D D D D D D D D D D D D D D D D D D D D D D D D D D D D D D D D D D D D D D A D A D B 9 e e e e e 9 0.w.0.w.y.0.y.^ A D D D D D D D D D D D D D D D D D D D D D D D D D D D D D D D D D D D D D D D D D D D D D D D D D D D D D D D D D D A D A A K e e e t 9 t 5 ' p.0.0.w.w.y.&.b D A D D D D D D D D D D D D D D D D D D D D D D D D D D D D D D D D D D D D D D D D D D D D D D D D D D D D D D D D D D D D D D D D D A D A A 9 e e e t e t y.w.0.w.0.0.p.K D A D D A D D D D D D D D D D D D D D D D D D D D D D D D D D D D D D D D D D D D D D D D D D D D D D D D D D D D D D D D D D D D D D D D D D D D D D D D D b 9 e t 9 t 9 b p.w.w.0.w.y.w.",
"e 9 9 e e e 5 &.y.w.w.y.6.p.' B A A A A A A A A D D D A A 9 t 9 t e e e 6.w.y.w.w.6.p.W A D A D A A A A A A A A A A A A A A A A A A A A A A A A A A A A A A A A A A A A A A A A A A A A A A A A A D A A K 9 e e t e d 5 :.y.w.0.w.0.p.' B K A D A A A A A A A A A A A A A A A A A A A A A A A A A A A A A A A A A A A A A A A A A A A A A A A A A A A A A A A A D D A D h 5 t e t t 5 K p.0.y.0.0.y.6.B D D A D A A A A A A A A A A A A A A A A A A A A A A A A A A A A A A A A A A A A A A A A A A A A A A A A A A A A A A A A A A A A A A A A A D D 9 e e 9 e e 5 &.y.w.0.0.w.p.' A A D A D D A A A A A A A A A A A A A A A A A A A A A A A A A A A A A A A A A A A A A A A A A A A A A A A A A A A A A A A A A A A A A A A A A A A A A D D D B 9 e e 9 e 9 t 0.w.0.0.w.6.p.P A A D D D A D D A A A A A A A A A A A A A A A A A A A A A A A A A A A A A A A A A A A A A A A A A A A A A A A A A A A A A A A A A A A A A A A A A A A A A A A A D A D A D B 9 e e e e e 9 0.w.w.w.w.0.y.W B D A A A A A A A A A A A A A A A A A A A A A A A A A A A A A A A A A A A A A A A A A A A A A A A A A A A A A A A A A A D A A K e e e t 9 t 1 ' p.0.0.w.w.y.&.b D A A A A A A A A A A A A A A A A A A A A A A A A A A A A A A A A A A A A A A A A A A A A A A A A A A A A A A A A A A A A A A A A A A A D A A 9 e e e e 9 e y.w.0.w.0.0.p.P D A D D A A A A A A A A A A A A A A A A A A A A A A A A A A A A A A A A A A A A A A A A A A A A A A A A A A A A A A A A A A A A A A A A A A A A A A A A A D b 9 e t 9 t 9 l y.0.w.0.w.w.w.",
"e 9 9 e e e 5 &.y.0.w.y.6.p.' B A A A A A A A A D D D A A 9 t 9 e e e e 6.w.y.w.w.6.p.W A A A D A A A A A A A A A A A A A A A A A A A A A A A A A A A A A A A A A A A A A A A A A A A A A A A A A D A A K 9 e e e e t 5 :.y.w.0.w.0.p.' b K A D A A A A A A A A A A A A A A A A A A A A A A A A A A A A A A A A A A A A A A A A A A A A A A A A A A A A A A A A D D A D h 5 t e e e 5 K p.0.y.0.0.y.6.B D D A D A A A A A A A A A A A A A A A A A A A A A A A A A A A A A A A A A A A A A A A A A A A A A A A A A A A A A A A A A A A A A A A A A D D 9 e e 9 e e 5 &.y.w.0.0.w.p.( A A D A D A A A A A A A A A A A A A A A A A A A A A A A A A A A A A A A A A A A A A A A A A A A A A A A A A A A A A A A A A A A A A A A A A A A A A A A D D B 9 e e 9 e 9 t 0.y.w.0.y.0.p.P A A D D A A A D A A A A A A A A A A A A A A A A A A A A A A A A A A A A A A A A A A A A A A A A A A A A A A A A A A A A A A A A A A A A A A A A A A A A A A A A D A D A D B 9 e e 9 e e 9 w.w.w.w.w.0.y.W B D A A A A A A A A A A A A A A A A A A A A A A A A A A A A A A A A A A A A A A A A A A A A A A A A A A A A A A A A A A D A A K e e e t 5 t 1 ' p.0.0.0.w.w.&.b D A A A A A A A A A A A A A A A A A A A A A A A A A A A A A A A A A A A A A A A A A A A A A A A A A A A A A A A A A A A A A A A A A A A K A A 9 e e e e 9 e y.w.0.w.w.0.p.P D A D D A A A A A A A A A A A A A A A A A A A A A A A A A A A A A A A A A A A A A A A A A A A A A A A A A A A A A A A A A A A A A A A A A A A A A A A A A D b 9 e t 9 t 9 l y.0.w.0.w.w.w.",
"e 9 9 e e e 5 &.p.w.w.y.6.p.' B A A A A A A A A D D D A A 9 t 9 e e e e 6.w.y.w.w.0.p.W A D A D A A A A A A A A A A A A A A A A A A A A A A A A A A A A A A A A A A A A A A A A A A A A A A A A A D A A K 9 e e e 9 t 1 &.y.w.0.w.0.p.' B K A D A A A A A A A A A A A A A A A A A A A A A A A A A A A A A A A A A A A A A A A A A A A A A A A A A A A A A A A A D D A D h 5 t e e e 1 D p.0.y.0.w.y.6.B D D A D A A A A A A A A A A A A A A A A A A A A A A A A A A A A A A A A A A A A A A A A A A A A A A A A A A A A A A A A A A A A A A A A A D D 9 e e 9 e e 5 :.y.y.0.w.w.p.( A A D A D A A A A A A A A A A A A A A A A A A A A A A A A A A A A A A A A A A A A A A A A A A A A A A A A A A A A A A A A A A A A A A A A A A A A A A A D D B 9 e e 9 e 9 t 0.w.w.0.y.6.p.P A A D D A A A D A A A A A A A A A A A A A A A A A A A A A A A A A A A A A A A A A A A A A A A A A A A A A A A A A A A A A A A A A A A A A A A A A A A A A A A A D A D A D B 9 e e 9 e e 9 w.y.w.w.y.0.y.W A D D A A A A A A A A A A A A A A A A A A A A A A A A A A A A A A A A A A A A A A A A A A A A A A A A A A A A A A A A A D A A K e e e t 5 t 1 ' p.0.0.w.w.y.&.b D A A A A A A A A A A A A A A A A A A A A A A A A A A A A A A A A A A A A A A A A A A A A A A A A A A A A A A A A A A A A A A A A A A A K A A 9 e e e e 9 e y.w.w.y.w.0.p.K D A A D A A A A A A A A A A A A A A A A A A A A A A A A A A A A A A A A A A A A A A A A A A A A A A A A A A A A A A A A A A A A A A A A A A A A A A A A A D b 9 e t 9 t 9 b p.w.w.0.w.y.w.",
"e 9 9 e e e 5 &.y.0.w.w.y.w.( A K D A D K D A K B B D D b d 9 9 t 9 e e <.0.y.0.w.w.p.^ D B D K D D D D D D D D D D D D D D D D D D D D D D D D D D D D D D D D D D D D D D D D B K A A D A D K l D A K A e t 9 t 9 d 1 &.w.y.0.w.w.p...A A D K D D D D D D D D D D D D D D D D D D D D D D D D D D D D D D D D D D D D D D D D D D D D D D D D D D D D D D D D K D A K d 5 d e e e 5 K p.6.y.0.w.y.6.A D A B K D D D D D D D D D D D D D D D D D D D D D D D D D D D D D D D D D D D D D D D D D D D D D D D D D D D D D D D D D D D D D D D D A A D 9 t e e t e 9 :.y.w.0.w.w.y.' A A A D K D D D D D D D D D D D D D D D D D D D D D D D D D D D D D D D D D D D D D D D D D D D D D D D D D D D D D D D D D D D D D D D D D A A D A A A D D b e e e e e 5 d y.<.w.y.w.0.p.K B A D D A A A D D D D D D D D D D D D D D D D D D D D D D D D D D D D D D D D D D D D D D D D D D D D D D D D D D D D D D D D D D D D D D D D D P D A D D A A A K A B A A h t e 9 9 d 5 5 p.6.y.p.0.0.f.P B K A D D D D D D D D D D D D D D D D D D D D D D D D D D D D D D D D D D D D D D D D D D D D D D D D D D D D D D D D A D D A P t t e e 5 t 1 ' p.0.w.y.w.p...b D K D D D D D D D D D D D D D D D D D D D D D D D D D D D D D D D D D D D D D D D D D D D D D D D D D D D D D D D D D D D D D D D D D D D D B 9 t 5 d e e e y.w.w.w.w.0.y.P l P D A P D D D D D D D D D D D D D D D D D D D D D D D D D D D D D D D D D D D D D D D D D D D D D D D D D D D D D D D D D D D D D D D D D D D D D D D D K h 5 t t 9 t 5 l y.0.w.0.w.w.w.",
"e 9 9 e e e 5 &.y.w.y.0.w.w.( A K D D K D A A A D K D B b e e 1 e 9 t 9 <.6.w.0.6.0.y.W A A D D D D D D D D D D D D D D D D D D D D D D D D D D D D D D D D D D D D D D D D D D A D A A A A A B D P D A B 9 t 1 e 9 t 1 $.w.w.0.0.0.w.' B A A A D D D D D D D D D D D D D D D D D D D D D D D D D D D D D D D D D D D D D D D D D D D D D D D D D D D D D D D D K D D P h 5 d 9 e e 5 K p.6.y.0.<.6.:.B D D D K D D D D D D D D D D D D D D D D D D D D D D D D D D D D D D D D D D D D D D D D D D D D D D D D D D D D D D D D D D D D D D D D W K K e t 9 5 e e 9 :.y.w.0.w.w.y.( A D A A A A D D D D D D D D D D D D D D D D D D D D D D D D D D D D D D D D D D D D D D D D D D D D D D D D D D D D D D D D D D D D D D D D A D D D A A D D B e e e e t 9 t w.6.y.w.0.0.p.P A A D D D A D D D D D D D D D D D D D D D D D D D D D D D D D D D D D D D D D D D D D D D D D D D D D D D D D D D D D D D D D D D D D D D D D D A A A A A D A B A A D D D b 9 e e e t e 9 y.:.w.p.0.0.f.W A P D D D D D D D D D D D D D D D D D D D D D D D D D D D D D D D D D D D D D D D D D D D D D D D D D D D D D D D D D D K K A D 9 9 1 e 5 t 1 ' p.0.w.w.0.p...B K P D D D D D D D D D D D D D D D D D D D D D D D D D D D D D D D D D D D D D D D D D D D D D D D D D D D D D D D D D D D D D D D D D D K K A 9 t 5 t e e e y.w.w.w.w.0.w.P b P D b A D D D D D D D D D D D D D D D D D D D D D D D D D D D D D D D D D D D D D D D D D D D D D D D D D D D D D D D D D D D D D D D D D D D D D D D D K h 5 e e 9 t 5 l y.0.w.0.w.w.w.",
"e 9 9 e e e 5 &.y.w.y.6.0.w.' A b b A A B A K A A D A B A 9 h 9 9 9 t 5 y.w.f.p.p.p.f.^ D D D B D D D D D D D D D D D D D D D D D D D D D D D D D D D D D D D D D D D D D D D D D B A D D P P D D D D B D t h 9 9 e e 1 :.p.y.f.p.p.p. .A D A b D D D D D D D D D D D D D D D D D D D D D D D D D D D D D D D D D D D D D D D D D D D D D D D D D D D D D D D D b l B K d 5 d e e e 5 K p.6.y.0.y.f.w.A D D B B D D D D D D D D D D D D D D D D D D D D D D D D D D D D D D D D D D D D D D D D D D D D D D D D D D D D D D D D D D D D D D A D A l b 5 t e 9 d e 9 :.y.w.0.w.w.p.' D K K D D D D D D D D D A D D D D D D D A D D D D D D D A D D D D D D D A D D D D D D D A D D D D D D D A D D D D D D D A D D D D D D D A D A A D A A A D D B e e 9 9 t e e 0.0.p.0.0.0.p.P B A D D A A A D D D D D D D D D D D D D D D D D D D D D D D D D D D D D D D D D D D D D D D D D D D D D D D D D D D D D D D D D D D D D D D D D A K K D D P K A K K P A K B > 9 9 5 5 t 9 p.<.p.p.w.0.p.P l B l D D D D D D D D D D D D D D D D D D D D D D D D D D D D D D D D D D D D D D D D D D D D D D D D D D D D D D D D b D D A P d h e e 5 t 1 ' p.0.w.w.w.p...b B B l D D D D D D D D D D D D D D D D D D D D D D D D D D D D D D D D D D D D D D D D D D D D D D D D D D D D D D D D D D D D D D D D l b A b 5 t 9 t e e e y.w.w.w.w.w.y.^ A W K A A D D D D D D A D D D D D D D A D D D D D D D A D D D D D D D A D D D D D D D A D D D D D D D A D D D D D D D A D D D D D D D A D A A A A A A A A K l 5 9 9 9 d 5 l y.0.w.0.w.w.w.",
"e 9 9 e e e 5 &.y.w.y.6.w.p. .B W P P K B D K A K K D D K > t 5 t t d 1 w.<.0.<.<.0.w.P A D P K D D D D D D D D D D D D D D D D D D D D D D D D D D D D D D D D D D D D D D D D W A D D B A B B P D P D K 9 e 9 t d e 1 $.w.:.6.<.0.w.( b K K D D D D D D D D D D D D D D D D D D D D D D D D D D D D D D D D D D D D D D D D D D D D D D D D D D D D D D D D D ^ K D W l 5 t 5 e e 5 K p.6.y.0.6.w.<.b A D A D D D D D D D D D D D D D D D D D D D D D D D D D D D D D D D D D D D D D D D D D D D D D D D D D D D D D D D D D D D D D D D D D W D D e d e 9 e e 9 :.y.w.0.w.w.y.^ b A D A A A D D D D D D D D D D D D D D D D D D D D D D D D D D D D D D D D D D D D D D D D D D D D D D D D D D D D D D D D D D D D D D D D D D D D D D D K b 9 e 9 5 t e 9 0.0.y.0.0.0.y.P A A D D D D A D D D D D D D D D D D D D D D D D D D D D D D D D D D D D D D D D D D D D D D D D D D D D D D D D D D D D D D D D D D D D D D D D B D D A B A A D B B D b K K 9 d d d 9 t 1 y.:.0.0.0.0.p.^ D P P D D D D D D D D D D D D D D D D D D D D D D D D D D D D D D D D D D D D D D D D D D D D D D D D D D D D D D D D A K D B D e e 1 e 5 t 1 ' p.0.w.0.0.p.$.A K W P D D D D D D D D D D D D D D D D D D D D D D D D D D D D D D D D D D D D D D D D D D D D D D D D D D D D D D D D D D D D D D D D P K P A 5 d 9 5 e e e y.w.w.w.w.w.0.P b K A A A D D D D D D D D D D D D D D D D D D D D D D D D D D D D D D D D D D D D D D D D D D D D D D D D D D D D D D D D D D D D D D D D A A A A A A A A D b e e 9 9 d 1 l y.0.w.0.w.w.w.",
"e 9 9 e e e 5 &.y.0.w.6.y.f.' b A A A B B D K D b b B K K 1 t d e 9 t 9 y.w.p.w.p.p.f.^ D D K K D D D D D D D D D D D D D D D D D D D D D D D D D D D D D D D D D D D D D D D D P B K D D P D ^ A l D K K e e h e e 9 9 :.f.w.p.y.p.f. .B K K K D D D D D D D D D D D D D D D D D D D D D D D D D D D D D D D D D D D D D D D D D D D D D D D D D D D D D D D D K B b K h 5 t 9 e e 5 K p.6.y.0.y.y.6.A K P D K D D D D D D D D D D D D D D D D D D D D D D D D D D D D D D D D D D D D D D D D D D D D D D D D D D D D D D D D D D D D D D D D K A A 9 t e 5 9 e 9 :.y.w.0.w.w.k.' B A K K K D D D D D D D D D D D D D D D D D D D D D D D D D D D D D D D D D D D D D D D D D D D D D D D D D D D D D D D D D D D D D D D D D D K K K D D K K b 5 t t 5 e t 9 0.0.w.0.y.w.w.P D D K K D D D K D D D D D D D D D D D D D D D D D D D D D D D D D D D D D D D D D D D D D D D D D D D D D D D D D D D D D D D D D D D D D D D D K K K K D A D W D D K B D A 5 5 9 d 9 e 5 p.p.p.0.y.w.y.P b B A D D D D D D D D D D D D D D D D D D D D D D D D D D D D D D D D D D D D D D D D D D D D D D D D D D D D D D D D K P K D P t d e e 5 t 1 ' p.0.w.w.0.p.$.b b A D D D D D D D D D D D D D D D D D D D D D D D D D D D D D D D D D D D D D D D D D D D D D D D D D D D D D D D D D D D D D D D D D A b A B 1 d e 5 e e e y.w.w.w.w.f.y.^ A K D K K D D D D D D D D D D D D D D D D D D D D D D D D D D D D D D D D D D D D D D D D D D D D D D D D D D D D D D D D D D D D D D D D D D D D D D D D A l e t e 9 t 1 b y.w.w.0.w.w.w.",
"e 9 9 e e e 5 &.y.0.w.0.y.y.' D B A b A P K B A ^ K K K l e 1 9 1 > 5 e &.6.y.6.w.6.0.W A l b b B B B B B B B B B B B B B B B B B B B B B B B B B B B B B B B B B B B B B B B B b h B b D K h D ( K K D l t > 9 1 > 1 t  .w.0.0.0.0.0.( b b b b B B B B B B B B B B B B B B B B B B B B B B B B B B B B B B B B B B B B B B B B B B B B B B B B B B B B B B B B D b b K h 5 t e e e 5 K p.6.y.0.w.6.&.B D B h b B B B B B B B B B B B B B B B B B B B B B B B B B B B B B B B B B B B B B B B B B B B B B B B B B B B B B B B B B B B B B B B B B A D 1 9 e e t e 9 :.y.w.0.w.w.w.^ b B B A A B B B B B B B B B B B B B B B B B B B B B B B B B B B B B B B B B B B B B B B B B B B B B B B B B B B B B B B B B B B B B B B B B B B B B b b B A D 5 e t 5 e t e w.0.w.0.p.0.0.( b B B B B B B B B B B B B B B B B B B B B B B B B B B B B B B B B B B B B B B B B B B B B B B B B B B B B B B B B B B B B B B B B B B B B B B B A B A A A B b l K K D A B l d 5 = 5 1 5 9 <.0.0.w.p.0.w.W B B A B B B B B B B B B B B B B B B B B B B B B B B B B B B B B B B B B B B B B B B B B B B B B B B B B B B B B B B B l b b B K 9 9 9 e 5 t 5 ' p.0.w.y.0.p.$.B B A A B B B B B B B B B B B B B B B B B B B B B B B B B B B B B B B B B B B B B B B B B B B B B B B B B B B B B B B B B B B B B B B B A b D B > d d 9 e e e y.w.w.w.w.6.<.W B B B D A B B B B B B B B B B B B B B B B B B B B B B B B B B B B B B B B B B B B B B B B B B B B B B B B B B B B B B B B B B B B B B B B B B B B b b B B K l 9 t e 9 t 5 l y.w.w.0.w.w.w.",
"e 9 9 e e e 5 &.y.0.w.0.w.w.&.$.6.0.&.&.0.^ e t 5 9 e t h :...:.:.$.&.&.0.y.p.6.w.6.p.<.0.<.6.w.6.6.6.6.6.6.6.6.6.6.6.6.6.6.6.6.6.6.6.6.6.6.6.6.6.6.6.6.6.6.6.6.6.6.6.6.6.6.6.6.0.6.0.&.6...e l 5 e e d h &...:.<...&.&.6.p.w.0.w.6.y.0.:.6.6.0.6.6.6.6.6.6.6.6.6.6.6.6.6.6.6.6.6.6.6.6.6.6.6.6.6.6.6.6.6.6.6.6.6.6.6.6.6.6.6.6.6.6.6.6.6.6.6.6.6.6.6.6.6.6.6.6.0.<.<.6.D 1 9 5 e e 5 K p.6.y.0.y.w.w.$.0.<.:.w.6.6.6.6.6.6.6.6.6.6.6.6.6.6.6.6.6.6.6.6.6.6.6.6.6.6.6.6.6.6.6.6.6.6.6.6.6.6.6.6.6.6.6.6.6.6.6.6.6.6.6.6.6.6.6.6.6.6.6.6.6.6.6.6.<.6.:.d e t t e e 9 :.y.w.0.w.w.f.6.:.:.:.:.<.&.6.6.6.6.6.6.6.6.6.6.6.6.6.6.6.6.6.6.6.6.6.6.6.6.6.6.6.6.6.6.6.6.6.6.6.6.6.6.6.6.6.6.6.6.6.6.6.6.6.6.6.6.6.6.6.6.6.6.6.6.6.6.6.6.6.6.6.6.<.6.6.0.' 9 9 t 5 e t e w.w.w.w.p.<.w.<.<.6.6.6.6.6.6.6.6.6.6.6.6.6.6.6.6.6.6.6.6.6.6.6.6.6.6.6.6.6.6.6.6.6.6.6.6.6.6.6.6.6.6.6.6.6.6.6.6.6.6.6.6.6.6.6.6.6.6.6.6.6.6.6.6.6.6.6.6.6.6.6.&.<.:.&.<.6.' l e d e b d B :...6.<.<.:.&.p.p.y.6.y.6.p.<.<.6.0.6.6.6.6.6.6.6.6.6.6.6.6.6.6.6.6.6.6.6.6.6.6.6.6.6.6.6.6.6.6.6.6.6.6.6.6.6.6.6.6.6.6.6.6.6.6.6.6.6.6.6.6.6.6.6.6.6.<.:.<.<.l t t e 5 t 1 ' p.0.w.0.<.y.0.$.6.0.<.6.6.6.6.6.6.6.6.6.6.6.6.6.6.6.6.6.6.6.6.6.6.6.6.6.6.6.6.6.6.6.6.6.6.6.6.6.6.6.6.6.6.6.6.6.6.6.6.6.6.6.6.6.6.6.6.6.6.6.6.6.6.6.6.0.<.0...5 e e 5 e e e y.w.w.w.w.p.f.6.<.:.&.6.:.6.6.6.6.6.6.6.6.6.6.6.6.6.6.6.6.6.6.6.6.6.6.6.6.6.6.6.6.6.6.6.6.6.6.6.6.6.6.6.6.6.6.6.6.6.6.6.6.6.6.6.6.6.6.6.6.6.6.6.6.6.6.6.6.6.6.6.6.<.<.6.6.:.D 5 e t 9 e 5 l y.0.w.0.w.w.w.",
"e 9 9 e e e 5 &.y.6.y.w.w.y.w.k.w.f.6.w.m. .5 9 e t e 5 t m.w.y.p.w.y.p.6.w.y.6.p.<.y.w.f.y.0.w.w.w.w.w.w.w.w.w.w.w.w.w.w.w.w.w.w.w.w.w.w.w.w.w.w.w.w.w.w.w.w.w.w.w.w.w.w.w.w.w.w.w.y.6.k.<.1 e 9 h 9 5 e f.y.y.p.0.f.p.6.y.w.0.y.<.y.y.w.y.0.0.w.w.w.w.w.w.w.w.w.w.w.w.w.w.w.w.w.w.w.w.w.w.w.w.w.w.w.w.w.w.w.w.w.w.w.w.w.w.w.w.w.w.w.w.w.w.w.w.w.w.w.w.w.w.w.w.0.w.p.p.W 5 e t e e 5 K p.6.y.0.w.6.w.<.f.w.6.f.w.w.w.w.w.w.w.w.w.w.w.w.w.w.w.w.w.w.w.w.w.w.w.w.w.w.w.w.w.w.w.w.w.w.w.w.w.w.w.w.w.w.w.w.w.w.w.w.w.w.w.w.w.w.w.w.w.w.w.w.w.w.w.w.w.p.6.d 5 e t 9 e 9 :.y.w.0.w.w.6.0.y.p.w.y.p.y.w.w.w.w.w.w.w.w.w.w.w.w.w.w.w.w.w.w.w.w.w.w.w.w.w.w.w.w.w.w.w.w.w.w.w.w.w.w.w.w.w.w.w.w.w.w.w.w.w.w.w.w.w.w.w.w.w.w.w.w.w.w.w.w.0.w.w.w.0.w.w.y.<.e 5 t 5 e t e w.w.w.w.p.:.y.p.0.0.w.w.0.0.w.w.w.w.w.w.w.w.w.w.w.w.w.w.w.w.w.w.w.w.w.w.w.w.w.w.w.w.w.w.w.w.w.w.w.w.w.w.w.w.w.w.w.w.w.w.w.w.w.w.w.w.w.w.w.w.w.w.w.w.w.w.w.w.w.w.0.f.y.<.w.f.' > e t 5 d 1 h k.f.y.6.y.p.y.0.0.0.y.p.<.y.w.y.w.0.w.w.w.w.w.w.w.w.w.w.w.w.w.w.w.w.w.w.w.w.w.w.w.w.w.w.w.w.w.w.w.w.w.w.w.w.w.w.w.w.w.w.w.w.w.w.w.w.w.w.w.w.w.w.w.w.p.0.0.p.w.l e e e 5 t 1 ' p.0.w.p.6.p.y.0.f.p.6.w.w.w.w.w.w.w.w.w.w.w.w.w.w.w.w.w.w.w.w.w.w.w.w.w.w.w.w.w.w.w.w.w.w.w.w.w.w.w.w.w.w.w.w.w.w.w.w.w.w.w.w.w.w.w.w.w.w.w.w.w.w.w.w.w.0.f.&.1 9 t e e e e y.w.w.w.w.6.y.w.y.y.w.f.y.w.w.w.w.w.w.w.w.w.w.w.w.w.w.w.w.w.w.w.w.w.w.w.w.w.w.w.w.w.w.w.w.w.w.w.w.w.w.w.w.w.w.w.w.w.w.w.w.w.w.w.w.w.w.w.w.w.w.w.w.w.w.w.w.w.w.w.w.0.0.w.w.m.( 9 e t 9 e 5 l y.w.w.0.w.w.w.",
"d 5 d 5 1 d 5 &.y.w.w.w.w.w.w.w.y.<.y.0.w...9 t t 9 t 9 t p.:.y.w.w.w.w.w.w.w.w.w.w.w.w.w.w.w.w.0.0.w.w.w.w.w.w.w.w.w.w.w.w.w.w.w.w.w.w.w.w.w.w.w.w.w.w.w.w.w.w.w.w.w.w.w.w.w.w.y.<.y.w.0.:.5 d t e e e e w.<.w.w.w.w.w.w.w.w.w.w.w.w.w.w.w.w.w.0.0.w.w.w.w.w.w.w.w.w.w.w.w.w.w.w.w.w.w.w.w.w.w.w.w.w.w.w.w.w.w.w.w.w.w.w.w.w.w.w.w.w.w.w.w.w.w.w.w.w.w.w.w.w.w.w.w.<.f.A 5 l 9 9 l 5 A f.<.w.w.w.w.w.w.w.w.w.w.w.w.w.w.w.w.w.w.w.w.w.w.w.w.w.w.w.w.w.w.w.w.w.w.w.w.w.w.w.w.w.w.w.w.w.w.w.w.w.w.w.w.w.w.w.w.w.w.w.w.w.w.w.w.w.w.w.w.w.w.w.w.w.w.w.<.w.e e e e t d 5 :.0.w.y.<.p.w.w.w.w.w.w.w.w.w.w.w.w.w.w.w.w.w.w.w.w.w.w.w.w.w.w.w.w.w.w.w.w.w.w.w.w.w.w.w.w.w.w.w.w.w.w.w.w.w.w.w.w.w.w.w.w.w.w.w.w.w.w.w.w.w.w.w.w.w.w.w.w.w.w.w.w.w.w.w.y.&.5 d 1 9 t 5 h w.w.w.w.w.w.w.w.w.w.w.w.w.w.w.w.w.w.w.w.w.w.w.w.w.w.w.w.w.w.w.w.w.w.w.w.w.w.w.w.w.w.w.w.w.w.w.w.w.w.w.w.w.w.w.w.w.w.w.w.w.w.w.w.w.w.w.w.w.w.w.w.w.w.w.w.w.w.w.w.y.w.w.0.w.w.( 5 5 h 9 9 e h p.6.w.w.w.w.w.w.w.w.w.w.w.w.w.w.w.w.0.0.w.w.w.w.w.w.w.w.w.w.w.w.w.w.w.w.w.w.w.w.w.w.w.w.w.w.w.w.w.w.w.w.w.w.w.w.w.w.w.w.w.w.w.w.w.w.w.w.w.w.w.w.w.w.6.y.w.:.p.l 9 d e e h 1 ..p.:.y.w.w.w.w.w.w.w.w.w.w.w.w.w.w.w.w.w.w.w.w.w.w.w.w.w.w.w.w.w.w.w.w.w.w.w.w.w.w.w.w.w.w.w.w.w.w.w.w.w.w.w.w.w.w.w.w.w.w.w.w.w.w.w.w.w.w.w.w.w.w.w.w.6.w.0.$.5 d 9 t 9 d e y.w.w.w.6.w.w.w.w.w.w.w.w.w.w.w.w.w.w.w.w.w.w.w.w.w.w.w.w.w.w.w.w.w.w.w.w.w.w.w.w.w.w.w.w.w.w.w.w.w.w.w.w.w.w.w.w.w.w.w.w.w.w.w.w.w.w.w.w.w.w.w.w.w.w.w.w.w.w.w.w.w.w.w.w.p. .= e d t t 1 b y.<.f.y.6.y.<.",
"9 5 d e 9 h 5 :.y.w.w.w.w.w.w.w.p.0.p.w.p. .> 5 9 9 t t l v.0.f.w.w.w.w.w.w.w.w.w.w.w.w.w.w.w.w.w.w.w.w.w.w.w.w.w.w.w.w.w.w.w.w.w.w.w.w.w.w.w.w.w.w.w.w.w.w.w.w.w.w.w.w.w.w.w.w.y.0.p.y.y.:.= 9 e 9 5 5 e y.w.f.w.w.w.w.w.w.w.w.w.w.w.w.w.w.w.w.w.w.w.w.w.w.w.w.w.w.w.w.w.w.w.w.w.w.w.w.w.w.w.w.w.w.w.w.w.w.w.w.w.w.w.w.w.w.w.w.w.w.w.w.w.w.w.w.w.w.w.w.w.w.w.w.p.p.w.v.D 1 d 9 9 d 1 D v.w.p.p.w.w.w.w.w.w.w.w.w.w.w.w.w.w.w.w.w.w.w.w.w.w.w.w.w.w.w.w.w.w.w.w.w.w.w.w.w.w.w.w.w.w.w.w.w.w.w.w.w.w.w.w.w.w.w.w.w.w.w.w.w.w.w.w.w.w.w.w.w.w.w.w.f.w.y.e 5 5 9 e 9 = :.y.y.p.0.y.w.w.w.w.w.w.w.w.w.w.w.w.w.w.w.w.w.w.w.w.w.w.w.w.w.w.w.w.w.w.w.w.w.w.w.w.w.w.w.w.w.w.w.w.w.w.w.w.w.w.w.w.w.w.w.w.w.w.w.w.w.w.w.w.w.w.w.w.w.w.w.w.w.w.w.w.w.w.w.y.:.5 h e e t 1 e w.w.w.w.w.w.w.w.w.w.w.w.w.w.w.w.w.w.w.w.w.w.w.w.w.w.w.w.w.w.w.w.w.w.w.w.w.w.w.w.w.w.w.w.w.w.w.w.w.w.w.w.w.w.w.w.w.w.w.w.w.w.w.w.w.w.w.w.w.w.w.w.w.w.w.w.w.w.w.w.0.0.w.w.y.y.^ = 9 d 5 9 9 l v.y.w.w.w.w.w.w.w.w.w.w.w.w.w.w.w.w.w.w.w.w.w.w.w.w.w.w.w.w.w.w.w.w.w.w.w.w.w.w.w.w.w.w.w.w.w.w.w.w.w.w.w.w.w.w.w.w.w.w.w.w.w.w.w.w.w.w.w.w.w.w.w.w.0.y.y.6.f.h > 5 9 9 t > ..k.w.p.w.w.w.w.w.w.w.w.w.w.w.w.w.w.w.w.w.w.w.w.w.w.w.w.w.w.w.w.w.w.w.w.w.w.w.w.w.w.w.w.w.w.w.w.w.w.w.w.w.w.w.w.w.w.w.w.w.w.w.w.w.w.w.w.w.w.w.w.w.w.w.w.y.p.p.:.1 t 9 9 5 e 5 6.0.w.y.w.w.w.w.w.w.w.w.w.w.w.w.w.w.w.w.w.w.w.w.w.w.w.w.w.w.w.w.w.w.w.w.w.w.w.w.w.w.w.w.w.w.w.w.w.w.w.w.w.w.w.w.w.w.w.w.w.w.w.w.w.w.w.w.w.w.w.w.w.w.w.w.w.w.w.w.w.w.w.w.w.p. .> e 9 5 t e l p.<.w.w.0.p.w.",
"9 9 t e e t > :.y.w.w.w.w.w.w.w.y.0.0.0.f...5 h e e t 5 d y.<.0.w.w.w.w.w.w.w.w.w.w.w.w.w.w.w.w.w.w.w.w.w.w.w.w.w.w.w.w.w.w.w.w.w.w.w.w.w.w.w.w.w.w.w.w.w.w.w.w.w.w.w.w.w.w.w.w.w.w.w.0.y.<.5 h e e e 9 e 0.6.6.w.w.w.w.w.w.w.w.w.w.w.w.w.w.w.w.w.w.w.w.w.w.w.w.w.w.w.w.w.w.w.w.w.w.w.w.w.w.w.w.w.w.w.w.w.w.w.w.w.w.w.w.w.w.w.w.w.w.w.w.w.w.w.w.w.w.w.w.w.w.w.w.0.0.6.k.D 1 e e e e 1 D k.6.0.0.w.w.w.w.w.w.w.w.w.w.w.w.w.w.w.w.w.w.w.w.w.w.w.w.w.w.w.w.w.w.w.w.w.w.w.w.w.w.w.w.w.w.w.w.w.w.w.w.w.w.w.w.w.w.w.w.w.w.w.w.w.w.w.w.w.w.w.w.w.w.w.w.6.6.0.e 9 e e e h 5 <.y.0.w.0.w.w.w.w.w.w.w.w.w.w.w.w.w.w.w.w.w.w.w.w.w.w.w.w.w.w.w.w.w.w.w.w.w.w.w.w.w.w.w.w.w.w.w.w.w.w.w.w.w.w.w.w.w.w.w.w.w.w.w.w.w.w.w.w.w.w.w.w.w.w.w.w.w.w.w.w.w.w.w.w.y.:.> t e e t 9 e 0.0.w.w.w.w.w.0.w.w.w.w.w.w.w.w.w.w.w.w.w.w.w.w.w.w.w.w.w.w.w.w.w.w.w.w.w.w.w.w.w.w.w.w.w.w.w.w.w.w.w.w.w.w.w.w.w.w.w.w.w.w.w.w.w.w.w.w.w.w.w.w.w.w.w.w.w.w.w.w.w.w.0.6.w.p. .5 e t e t 5 d y.<.w.w.w.w.w.w.w.w.w.w.w.w.w.w.w.w.w.w.w.w.w.w.w.w.w.w.w.w.w.w.w.w.w.w.w.w.w.w.w.w.w.w.w.w.w.w.w.w.w.w.w.w.w.w.w.w.w.w.w.w.w.w.w.w.w.w.w.w.w.w.w.w.w.w.w.0.f.b e h t e t = ' p.0.0.w.w.w.w.w.w.w.w.w.w.w.w.w.w.w.w.w.w.w.w.w.w.w.w.w.w.w.w.w.w.w.w.w.w.w.w.w.w.w.w.w.w.w.w.w.w.w.w.w.w.w.w.w.w.w.w.w.w.w.w.w.w.w.w.w.w.w.w.w.w.w.w.6.6.w.&.> e e e d t t w.y.w.w.w.w.w.w.w.w.w.w.w.w.w.w.w.w.w.w.w.w.w.w.w.w.w.w.w.w.w.w.w.w.w.w.w.w.w.w.w.w.w.w.w.w.w.w.w.w.w.w.w.w.w.w.w.w.w.w.w.w.w.w.w.w.w.w.w.w.w.w.w.w.w.w.w.w.w.w.w.w.w.w.w.w.( > t t 9 e e l k.0.w.w.0.w.w.",
"e t e 9 9 e 1 <.w.0.0.0.0.0.0.0.0.6.<.6.p.' > e t t e 1 d w.0.w.0.0.0.0.0.0.0.0.0.0.0.0.0.0.0.0.0.0.0.0.0.0.0.0.0.0.0.0.0.0.0.0.0.0.0.0.0.0.0.0.0.0.0.0.0.0.0.0.0.0.0.0.0.0.0.0.6.0.6.<.w.&.> e e t e 9 d 0.w.0.0.0.0.0.0.0.0.0.0.0.0.0.0.0.0.0.0.0.0.0.0.0.0.0.0.0.0.0.0.0.0.0.0.0.0.0.0.0.0.0.0.0.0.0.0.0.0.0.0.0.0.0.0.0.0.0.0.0.0.0.0.0.0.0.0.0.0.0.0.0.0.0.w.w.w.k.P 5 e t t e 5 P k.w.w.w.0.0.0.0.0.0.0.0.0.0.0.0.0.0.0.0.0.0.0.0.0.0.0.0.0.0.0.0.0.0.0.0.0.0.0.0.0.0.0.0.0.0.0.0.0.0.0.0.0.0.0.0.0.0.0.0.0.0.0.0.0.0.0.0.0.0.0.0.0.0.0.0.0.w.0.d 9 e t e e > &.0.<.<.0.6.0.0.0.0.0.0.0.0.0.0.0.0.0.0.0.0.0.0.0.0.0.0.0.0.0.0.0.0.0.0.0.0.0.0.0.0.0.0.0.0.0.0.0.0.0.0.0.0.0.0.0.0.0.0.0.0.0.0.0.0.0.0.0.0.0.0.0.0.0.0.0.0.0.0.0.0.0.0.0.w.6.1 e 9 9 e e t 6.6.0.0.0.0.6.6.0.0.0.0.0.0.0.0.0.0.0.0.0.0.0.0.0.0.0.0.0.0.0.0.0.0.0.0.0.0.0.0.0.0.0.0.0.0.0.0.0.0.0.0.0.0.0.0.0.0.0.0.0.0.0.0.0.0.0.0.0.0.0.0.0.0.0.0.0.0.0.0.0.w.0.6.0.y.( > t e t t 5 h p.6.0.0.0.0.0.0.0.0.0.0.0.0.0.0.0.0.0.0.0.0.0.0.0.0.0.0.0.0.0.0.0.0.0.0.0.0.0.0.0.0.0.0.0.0.0.0.0.0.0.0.0.0.0.0.0.0.0.0.0.0.0.0.0.0.0.0.0.0.0.0.0.0.0.0.6.0.y.l 9 e t t t 1 ' p.y.0.0.0.0.0.0.0.0.0.0.0.0.0.0.0.0.0.0.0.0.0.0.0.0.0.0.0.0.0.0.0.0.0.0.0.0.0.0.0.0.0.0.0.0.0.0.0.0.0.0.0.0.0.0.0.0.0.0.0.0.0.0.0.0.0.0.0.0.0.0.0.0.0.w.6.p.:.1 e t t 9 5 t 0.y.w.6.<.0.0.0.0.0.0.0.0.0.0.0.0.0.0.0.0.0.0.0.0.0.0.0.0.0.0.0.0.0.0.0.0.0.0.0.0.0.0.0.0.0.0.0.0.0.0.0.0.0.0.0.0.0.0.0.0.0.0.0.0.0.0.0.0.0.0.0.0.0.0.0.0.0.0.0.0.0.0.0.0.k.( = e d d 9 5 d p.0.w.w.0.6.0.",
"9 e e e e t e :.k.k.f.f.f.f.f.f.p.f.f.k.m...9 e e e t 9 b w.y.p.f.f.f.f.f.f.f.f.f.f.f.f.f.f.f.f.f.f.f.f.f.f.f.f.f.f.f.f.f.f.f.f.f.f.f.f.f.f.f.f.f.f.f.f.f.f.f.f.f.f.f.f.f.f.f.f.p.v.k.k.f.<.9 e t e 9 5 d <.f.f.f.f.f.f.p.p.f.f.f.f.f.f.f.f.f.f.f.f.f.f.f.f.f.f.f.f.f.f.f.f.f.f.f.f.f.f.f.f.f.f.f.f.f.f.f.f.f.f.f.f.f.f.f.f.f.f.f.f.f.f.f.f.f.f.f.f.f.f.f.f.f.f.p.p.w.p.P e 5 e e 5 e P p.w.p.p.f.f.f.f.f.f.f.f.f.f.f.f.f.f.f.f.f.f.f.f.f.f.f.f.f.f.f.f.f.f.f.f.f.f.f.f.f.f.f.f.f.f.f.f.f.f.f.f.f.f.f.f.f.f.f.f.f.f.f.f.f.f.f.f.f.f.f.f.f.f.f.f.f.f.<.d 5 9 e t e 9 <.f.f.f.k.p.f.f.f.f.f.f.f.f.f.f.f.f.f.f.f.f.f.f.f.f.f.f.f.f.f.f.f.f.f.f.f.f.f.f.f.f.f.f.f.f.f.f.f.f.f.f.f.f.f.f.f.f.f.f.f.f.f.f.f.f.f.f.f.f.f.f.f.f.f.f.f.f.f.f.f.f.f.f.k.k.:.e t t e 9 e e f.f.f.f.f.f.f.f.f.f.f.f.f.f.f.f.f.f.f.f.f.f.f.f.f.f.f.f.f.f.f.f.f.f.f.f.f.f.f.f.f.f.f.f.f.f.f.f.f.f.f.f.f.f.f.f.f.f.f.f.f.f.f.f.f.f.f.f.f.f.f.f.f.f.f.f.f.f.f.f.y.p.k.f.f.f. .9 t 9 e 9 9 b f.p.f.f.f.f.f.f.f.f.f.f.f.f.f.f.f.f.f.f.f.f.f.f.f.f.f.f.f.f.f.f.f.f.f.f.f.f.f.f.f.f.f.f.f.f.f.f.f.f.f.f.f.f.f.f.f.f.f.f.f.f.f.f.f.f.f.f.f.f.f.f.f.f.f.f.p.v.f.D e 9 9 9 e 9 ' y.p.w.f.f.f.f.f.f.f.f.f.f.f.f.f.f.f.f.f.f.f.f.f.f.f.f.f.f.f.f.f.f.f.f.f.f.f.f.f.f.f.f.f.f.f.f.f.f.f.f.f.f.f.f.f.f.f.f.f.f.f.f.f.f.f.f.f.f.f.f.f.f.f.f.p.w.p.&.e e e 9 t e b 0.f.f.f.f.f.f.f.f.f.f.f.f.f.f.f.f.f.f.f.f.f.f.f.f.f.f.f.f.f.f.f.f.f.f.f.f.f.f.f.f.f.f.f.f.f.f.f.f.f.f.f.f.f.f.f.f.f.f.f.f.f.f.f.f.f.f.f.f.f.f.f.f.f.f.f.f.f.f.f.f.f.f.f.f.v.' 5 9 9 e 9 9 A f.p.f.k.k.f.k.",
"9 e e d 9 t 5 K P K K K K K K K K P D K P l 5 5 9 e t 9 h ^ W P K K K K K K K K K K K K K K K K K K K K K K K K K K K K K K K K K K K K K K K K K K K K K K K K K K K K K K K K P P K K D D 1 9 9 9 e 9 t P ( P K K K K D K K K K K K K K K K K K K K K K K K K K K K K K K K K K K K K K K K K K K K K K K K K K K K K D K K K K K K K K K K K K K K K K K K K W W W ^ h e 5 e e 5 e h ^ W W W K K K K K K K K K K K K D K K K K K K K K K K K K K K K K K K K K K K K K K K K K K K K K K K K K K K K K K K K K K K K D K K K K K K K K K K K P ( P t 9 e 9 9 9 1 D D K D P P K K K K K K K K K K K K K K K K K K K K K K K K K K K K K K K K K K K K K K K K K K K K K K K K K K K K K K K K K K K K K K K K K K K K K K K K K K K K K K K P K 5 e e d 9 e 9 D K K K K K K D K K K K K K K K K K K K K K K K K K K K K K K K K K K K K K K K K K K K K K K K K K K K K K K K K K K K K K K K K K K K K K K K K K K K D K K K K D K D D P B 5 e 9 e e e t ^ P K K K K K K K K K K K K K K K K K K K K K K K K K K K K K K K K K K K K K K K K K K K K K K K K K K K K K K K K K K K K K K K K K K K K K K K K P P A P K e 5 9 e e e 5 A W ^ P K K K K K K K K K K K K K K K K K K K K K K K K K K K K K K K K K K K K K K K K K K K K K K K K K K K K K K K K K K K K K K K K K K K K K K K K W K ^ D 9 9 9 e 9 > 9 A K K K P K K K K K K K K K K K K K K K K K K K K K K K K K K K K K K K K K K K K K K K K K K K K K K K K K K K K K K K K K K K K K K K K K K K K K K K K K K K K K K K K P B 9 t 9 e 5 e t W D K D K K P ",
"e e e d 1 e 1 9 9 9 5 5 5 5 5 5 9 9 1 1 5 9 d d e e t 5 9 e 1 > 5 5 5 5 5 5 5 5 5 5 5 5 5 5 5 5 5 5 5 5 5 5 5 5 5 5 5 5 5 5 5 5 5 5 5 5 5 5 5 5 5 5 5 5 5 5 5 5 5 5 5 5 5 5 5 5 e 5 1 9 1 t e h 5 9 t t e 9 9 = 5 5 5 5 5 5 5 5 5 5 5 5 5 5 5 5 5 5 5 5 5 5 5 5 5 5 5 5 5 5 5 5 5 5 5 5 5 5 5 5 5 5 5 5 5 5 5 5 5 5 5 5 5 5 5 5 5 5 5 5 5 5 5 5 5 5 5 5 5 5 5 5 1 5 5 e 1 t 9 t t 9 t 1 e 5 5 1 5 5 5 5 5 5 5 5 5 5 5 5 5 5 5 5 5 5 5 5 5 5 5 5 5 5 5 5 5 5 5 5 5 5 5 5 5 5 5 5 5 5 5 5 5 5 5 5 5 5 5 5 5 5 5 5 5 5 5 5 5 5 5 5 5 5 5 5 5 5 5 5 = 9 9 e t t 9 5 h e t 1 9 1 5 e 5 5 5 5 5 5 5 5 5 5 5 5 5 5 5 5 5 5 5 5 5 5 5 5 5 5 5 5 5 5 5 5 5 5 5 5 5 5 5 5 5 5 5 5 5 5 5 5 5 5 5 5 5 5 5 5 5 5 5 5 5 5 5 5 5 5 5 5 5 5 5 5 5 5 5 5 5 5 9 9 9 1 e 5 d 9 9 t 5 5 5 5 5 5 5 5 5 5 5 5 5 5 5 5 5 5 5 5 5 5 5 5 5 5 5 5 5 5 5 5 5 5 5 5 5 5 5 5 5 5 5 5 5 5 5 5 5 5 5 5 5 5 5 5 5 5 5 5 5 5 5 5 5 5 5 5 5 5 5 5 5 5 5 5 5 5 5 5 e 5 5 5 1 e d t 5 e d 9 d 1 5 > 5 5 5 5 5 5 5 5 5 5 5 5 5 5 5 5 5 5 5 5 5 5 5 5 5 5 5 5 5 5 5 5 5 5 5 5 5 5 5 5 5 5 5 5 5 5 5 5 5 5 5 5 5 5 5 5 5 5 5 5 5 5 5 5 5 5 5 5 5 5 5 5 e e > 5 9 5 d l d e e 5 t 5 9 5 5 5 5 5 5 5 5 5 5 5 5 5 5 5 5 5 5 5 5 5 5 5 5 5 5 5 5 5 5 5 5 5 5 5 5 5 5 5 5 5 5 5 5 5 5 5 5 5 5 5 5 5 5 5 5 5 5 5 5 5 5 5 5 5 5 5 5 5 5 5 5 5 > 1 e 5 5 e 5 t d 9 e t 9 5 9 9 5 5 5 5 5 5 5 5 5 5 5 5 5 5 5 5 5 5 5 5 5 5 5 5 5 5 5 5 5 5 5 5 5 5 5 5 5 5 5 5 5 5 5 5 5 5 5 5 5 5 5 5 5 5 5 5 5 5 5 5 5 5 5 5 5 5 5 5 5 5 5 5 5 5 5 5 5 5 5 5 > 9 e d 9 d 5 9 9 t 5 t 1 9 9 5 ",
"t 9 9 d 1 h d e t t e e e e e e 9 e t d 5 9 h 5 t e t e t t e t e e e e e e e e e e e e e e e e e e e e e e e e e e e e e e e e e e e e e e e e e e e e e e e e e e e e e e e e e 5 e h 1 t 9 5 t e e e 9 5 d t e e e e e e e e e e e e e e e e e e e e e e e e e e e e e e e e e e e e e e e e e e e e e e e e e e e e e e e e e e e e e e e e e e e e e e e e e t 9 9 5 h e e e e h 5 9 9 t e e e e e e e e e e e e e e e e e e e e e e e e e e e e e e e e e e e e e e e e e e e e e e e e e e e e e e e e e e e e e e e e e e e e e e e e e t d 5 9 e e e t 5 9 t 5 l e 9 e e e e e e e e e e e e e e e e e e e e e e e e e e e e e e e e e e e e e e e e e e e e e e e e e e e e e e e e e e e e e e e e e e e e e e e e e e e e e e e t t e d d 1 d 9 9 d e e e t t e e e e e e e e e e e e e e e e e e e e e e e e e e e e e e e e e e e e e e e e e e e e e e e e e e e e e e e e e e e e e e e e e e e e e e e e e e e e 9 t d 9 5 9 9 e t e > d 9 t d e e e e e e e e e e e e e e e e e e e e e e e e e e e e e e e e e e e e e e e e e e e e e e e e e e e e e e e e e e e e e e e e e e e e e e e e 9 t 5 t e e t 9 e 9 t t h 1 e e e e e e e e e e e e e e e e e e e e e e e e e e e e e e e e e e e e e e e e e e e e e e e e e e e e e e e e e e e e e e e e e e e e e e e e e e 9 e t 5 d d 5 t e 5 t e 9 e e e e e e e e e e e e e e e e e e e e e e e e e e e e e e e e e e e e e e e e e e e e e e e e e e e e e e e e e e e e e e e e e e e e e e e e e e e e e e e e e e e t d e e 1 h e e e 5 5 l 9 t t 9 ",
"9 5 e e d 1 t t e 9 5 9 t t e 9 e e e e e e e e e e e e e e e e e e e e e e e e e 9 9 e t t e 9 e e e e e t e 9 e 9 e 9 t d e 9 e e 9 9 e e e e e e e e 9 e e e e e e e e e e e e e 9 9 e e e e e e e e e e e e e e e e e e e e e 9 e e e e 9 9 t t e 9 t e 9 t 9 d e t t 9 e d e t 9 5 t t 9 9 e e e e e 9 e e e e e e e e e e e e 9 9 e e e e e e e e 9 e e e e e e e e e e e e e 9 9 e e e e e e e e e 9 e e e e e e e e e e e e e e e e e e e t 9 9 9 9 t 9 t t 9 5 e 9 5 e e e 9 9 e e e e e e e e e 9 e e e e e e e e e e e e e e 9 e e e e e e e e e 9 9 e e e e 9 e e e e e e e e e 9 9 e e e e 9 e e e t e t t 9 9 e e t e e 9 e h e e t e t e 5 9 t 9 e e e e 9 e e e e e e e e e 9 9 e e e e 9 e e e e e e e e e 9 9 e e e e e e e e e e e e e e 9 9 e e e e 9 e e e 9 e t t t e e e t 5 9 9 e t 9 e t t t t e d 9 9 e e 9 9 e e e e e e e e 9 e e e e e e e e e e e e 9 e e e e 9 9 e e e e e 9 e e e e e e e e e e e e 9 9 e e e e e e e 9 9 e e e e e e e e e e e e e 9 9 e e e e e 9 9 e t t e 9 e 9 9 t d e e d t 1 t 5 d t t 5 e e e e 9 e e e e e e e e e e e e 9 e e e e 9 9 e e e e e 9 e e e e e e e e e e e e 9 9 e e e e e e e e 9 e e e e e e e e e e e e e e e e e e e t e e t e t t 9 9 9 9 5 e t 9 t e e e e e e e e e e e e 9 e e e e e e e e e e e e 9 e e e e 9 9 e e e e e e e e e e e e e e e e e e e e 9 e e e e e e e e e 9 9 e e e e e e e e 9 e 9 t t e t t t e 1 9 e e t e e e e e e e e e e e e e 9 e e e e e e e e e 9 9 e e e e 9 e e e e e e e e e e e e e e e 9 e e e e e e e e e 9 9 ",
"t 9 e 5 d 5 t t e e t t t t e 9 e e e e e e e e e e e e e e e e e e e e 9 e 9 9 t e e e t t e 9 9 9 9 9 9 9 9 1 t e e 9 9 e 9 e e e 9 9 e e e e e e e e e e e e e e e e 9 e 9 9 e e 9 9 e e e e e e e e e 9 e e e e e e e 9 e e e 9 9 e e e e e e t e e t e 9 t 9 e 9 9 e 5 1 1 e t 9 5 9 e e t e e e e e e e e e e e e e 9 e e e e 9 9 e e e e e e e e e e e e e e e e 9 e 9 9 e e 9 9 e e e e e e e e e e e e e e e e e 9 e e e e e e e e e e 9 e e e e e e 9 e t t t t e 9 t e e 9 9 e e e e e e e e e e e e e e e e e 9 e e e e e e e e e e e e e e e e 9 9 e e e e e e e e e e e e e e 9 9 e e e e e e e e e 9 e e 5 9 e e e e t 9 5 5 5 5 5 5 e e 9 e t e e e e e e e e e e e e e e e 9 9 e e e e e e e e e e e e e e 9 9 e e e e e e e e e e e e e e 9 9 e e e e e e e e e e e e 9 9 9 9 t 9 9 9 9 9 9 9 5 5 9 5 9 t e e e e 9 9 e e e e e e e e e e e e e e e e 9 e 9 9 e 9 e e e e 9 9 e e e e e e e e e e e e e 9 e e e e 9 9 e e e e e e e e e e e e e e e e 9 e 9 9 e e 9 9 e e e e t e e e t t e 9 e 5 9 e 9 5 5 5 d 9 t 5 e 5 e 9 e e e e e e e e e e e e 9 e 9 9 e 9 e e e e 9 9 e e e e e e e e e e e e e 9 e e e e 9 9 e e e e e e e e 9 e e e e e e e 9 e 9 9 e e e e e e e e t 9 e t 9 e e 5 e t t e d d 9 e e e e e e e e 9 e e e e e e e e e e e e 9 e 9 9 e 9 e e e e 9 9 e e e e e 9 e e e e e e e 9 e e e e e e e e e e e e 9 e e e e e 9 e e e e e e e t t 5 9 e t t t t t e t t e e 9 e e e e e e e e e e e e e e e e e e e e e e 9 9 e e e e e e e e e e e e 9 e e 9 e e e e 9 e e e e e e e e e 9 9 ",
"t e e 5 d e 9 9 9 e e e e e e e t t t t t t t t t t t t e e e e t t t e e e e e e 9 9 e e e e e t 9 t d t t h d e t t e e 9 t d t t e e t t t t t t t t e e t e t t t t e e e e t t t e t t e t e t t t e e e t e e e e t e e t t t t t t t e t 5 e e 9 t e 9 e e 9 e 9 d d h d 9 e t t e e t d t t t t t e e t e e e e t e e t t t e e t t t t t t t t e e t e t t t t e e e e t t t e t t e t t t t t t e e t e e e e t e e t t t t t t t t t 9 9 e e e e 9 9 5 9 t e 9 9 e t t t t e t t e t t t t t t e e t e e e e t e e t t t t t e e t e e e e e t e e e t t t t e e t e t t t t t e e e t t t t e e t e e 9 e e 9 e d e 9 9 e e t t d d h d d d t e 9 9 t t t t e e t e e e e e t e e e t t t t e e t e e e e e t e e e t t t t e e e e e e e e t e e e t t t t e e t e t t e e e e e t 9 9 e t e t d t l h d t t 9 e e t t e e t t t t t t t t e e t e t t t e e e e e t t t t t t e e t t t t t e e t e e e e t e e t t t e e t t t t t t t t t t t t t t t t e e e e t t t e t t e t e 9 9 e e e e e t e e t e t d t e e d 9 e 5 t t t t t t e e t e t t t e e e e e t t t t t t e e t t t t t e e t e e e e t e e t t t e e t t t t t t t t t e t t t t t t e e e e t t t t t t t t e 9 e e 9 9 e 5 9 t e 9 e e 9 9 e e t t t t t e t t t t e e t e t t t e e e e e t t t t t t e e t t t t e e t t e e e e t e e t t t t t e e t e t t t t e e e e e t t t t t e e t t 9 5 e t 9 9 9 e t e 9 9 9 e t t t t t t t t t t t t e e t e t t t e t e e e t t t t e e t e t t e e e e e e t t t t t e t e t t t t t e e e ",
"9 e t 9 d e 1 e 9 9 9 5 9 e e e 9 9 9 9 9 9 9 9 9 9 9 9 9 9 9 9 9 9 9 9 9 9 9 9 9 e 9 9 9 9 e e t 5 9 e > > 1 1 5 9 5 9 e 5 e e 9 9 9 9 9 9 9 9 9 9 9 9 9 9 9 9 9 9 9 9 9 9 9 9 9 9 9 9 9 9 9 9 9 9 9 9 9 9 9 9 9 9 9 9 9 9 9 9 9 9 9 9 9 9 9 9 5 t e 9 e e 9 e e 5 t 1 1 1 1 > 5 1 5 e 9 5 5 5 9 9 9 9 9 9 9 9 9 9 9 9 9 9 9 9 9 9 9 9 9 9 9 9 9 9 9 9 9 9 9 9 9 9 9 9 9 9 9 9 9 9 9 9 9 9 9 9 9 9 9 9 9 9 9 9 9 9 9 9 9 9 9 9 9 9 9 9 9 9 9 9 9 5 e e e 9 5 e 5 9 9 5 1 9 e 9 9 9 9 9 9 9 9 9 9 9 9 9 9 9 9 9 9 9 9 9 9 9 9 9 9 9 9 9 9 9 9 9 9 9 9 9 9 9 9 9 9 9 9 9 9 9 9 9 9 9 9 9 9 9 9 9 9 9 9 9 9 9 9 9 9 5 5 9 5 9 e 5 t 9 5 5 t 5 9 > 1 > > 1 5 5 1 9 9 9 9 9 9 9 9 9 9 9 9 9 9 9 9 9 9 9 9 9 9 9 9 9 9 9 9 9 9 9 9 9 9 9 9 9 9 9 9 9 9 9 9 9 9 9 9 9 9 9 9 9 9 9 9 9 9 9 5 5 9 e 9 5 e e t t 1 1 e > 1 1 1 5 e > 9 9 9 9 9 9 9 9 9 9 9 9 9 9 9 9 9 9 9 9 9 9 9 9 9 9 9 9 9 9 9 9 9 9 9 9 9 9 9 9 9 9 9 9 9 9 9 9 9 9 9 9 9 9 9 9 9 9 9 9 9 9 9 9 9 9 9 9 9 9 9 9 9 9 9 9 9 9 9 9 9 9 9 e 9 9 9 9 e e t 9 5 e = 1 1 > 1 9 5 5 9 1 9 9 9 9 9 9 9 9 9 9 9 9 9 9 9 9 9 9 9 9 9 9 9 9 9 9 9 9 9 9 9 9 9 9 9 9 9 9 9 9 9 9 9 9 9 9 9 9 9 9 9 9 9 9 9 9 9 9 9 9 9 9 9 9 9 9 9 9 9 9 9 9 9 9 e 5 9 t 9 9 e 9 5 d 9 1 5 5 9 9 5 5 9 9 9 9 9 9 9 9 9 9 9 9 9 9 9 9 9 9 9 9 9 9 9 9 9 9 9 9 9 9 9 9 9 9 9 9 9 9 9 9 9 9 9 9 9 9 9 9 9 9 9 9 9 9 9 9 9 9 9 9 9 9 9 9 9 9 9 9 5 5 9 e e 9 t t 1 e 9 5 e 5 5 e 9 e 9 9 9 9 9 9 9 9 9 9 9 9 9 9 9 9 9 9 9 9 9 9 9 9 9 9 9 9 9 9 9 9 9 9 9 9 9 9 9 9 9 9 9 9 9 9 9 9 9 9 9 9 9 9 9 9 ",
"5 e d 9 e t 5 A D A B B A D b t h h h h h h h h h h h h h h h h h h h h h h h h d h h e 9 9 e 9 e 1 h P D A K D K A t h l d b h h h h h h h h h h h h h h h h h h h h h h h h h h h h h h h h h h h h h h h h h h h h h h h h h h h h h h h h h h l d 9 e e 9 e e e W D D A D A K h d l h h h t h h h h h h h h h h h h h h h h h h h h h h h h h h h h h h h h h h h h h h h h h h h h h h h h h h h h h h h h h h h h h h h h h h h h h h h h d 5 e 9 9 e 5 h D A A B B D A e h h h h h h h h h h h h h h h h h h h h h h h h h h h h h h h h h h h h h h h h h h h h h h h h h h h h h h h h h h h h h h h h l d h h d h h 9 t e 9 5 d 1 b A D D A D P B d l h h h h h h h h h h h h h h h h h h h h h h h h h h h h h h h h h h h h h h h h h h h h h h h h h h h h h h h h h h h h h l d 9 9 e e t 5 d ^ D A A D D P t b h h h h h h h h h h h h h h h h h h h h h h h h h h h h h h h h h h h h h h h h h h h h h h h h h h h h h h h h h h h h h h h h h h h h h h h h h h h h h h h h h d h h e 9 9 e 9 9 5 d P B P K D D P d d l d h h h h h h h h h h h h h h h h h h h h h h h h h h h h h h h h h h h h h h h h h h h h h h h h h h h h h h h h h h h h h h h h h h h h h h h h h h h e e t e 9 e 9 d K A B A B D B d d h h h h h h h h h h h h h h h h h h h h h h h h h h h h h h h h h h h h h h h h h h h h h h h h h h h h h h h h h h h h h h h h h h h h d d 5 e d 9 t t 9 K D B D B A K h t h h h h h h h h h h h h h h h h h h h h h h h h h h h h h h h h h h h h h h h h h h h h h h h h h h h h h h h h ",
"9 e t 9 9 t e &.k.f.p.f.k.p.$.K K K K K K K K K K D D K D D K K K D K K K K K K A D A h e e e 9 e e ^ p.p.y.k.y.p.<.D D K A W D K K K K D K D D K D D K D D K K D K D K K D D D K K K K K K D D D D K K K K K K D D K K K K K K K K K K K K K K D K b e e e 9 e 9 d y.w.p.p.k.f.w.^ A K D D K A D D K K K K K K D D K K K K K K K K K K D K D D K D D K D D K K D K D K K D D D K K K K K K D D D D K K K K K K D D K K K K K K K K K K K K K K l 5 t e 9 e 9 B k.p.f.f.p.k.0.P K K K K K K D D D D K K K K K K D D K K K K K K K D D K D D K K K K K K D K K K K D D K D D K K D D D D K K K D K D D K D D K K K D D D D K A d 9 e t e h 5 &.k.p.f.p.f.f...A D K D D K D D K K K K K K D K K K K D D K D D K K K K K K K K K K K D D K D D K K K K K K D K K K K D D K D D K K D K K D K D l e 9 e 5 e 9 K k.y.f.f.p.y.w.A W A K K K K D K D D K D D K D D K K K K D D D D D K K K K K K K K K D D K K K K K K D D K K K K K K K K K K D K D K K D D D D D K K D K D K K D D D K K K K K K D D A D A h e e e 9 9 9 D f.0.k.f.y.y.y.D A K D D D K D D K D D K K K K D D D D D K K K K K K K K K D D K K K K K K D D K K K K K K K K K K D K D K K D D D K D K K K D D K K K K K D D D D D D D D A d e t e 9 9 5  .k.f.f.k.p.f.6.D D D K K K K K K D D K D D K K K K D D D D D K K K K K K K K K K D K K D K K K D D K K K K K K K D D K D D K K K D K K K K K K K K K K K D D D e e d 5 e e d <.k.y.k.p.f.f.' K K K K K K K K K K D D K D D K K D K D D K D D K K D D K D D K K K K D D D K K K K D D D K D K K D D D D K K K D ",
"e e e 9 9 t 9 6.w.0.0.0.y.6.^ h A A A A A A A A A A A A A A A A A A A A A A A A A K D h e e t e t 9 ^ p.w.6.0.:.f.<.B A D b P B A A A A A A A A A A A A A A A A A A A A A A A A A A A A A A A A A A A A A A A A A A A A A A A A A A A A A A A A K P B e e e e e 5 t p.0.w.0.y.6.y.P B D B B K A A A A A A A A A A A A A A A A A A A A A A A A A A A A A A A A A A A A A A A A A A A A A A A A A A A A A A A A A A A A A A A A A A A A A A A A A b 5 d e 9 t 5 A y.6.0.w.6.y.:.l A A A A A A A A A A A A A A A A A A A A A A A A A A A A A A A A A A A A A A A A A A A A A A A A A A A A A A A A A A A A A A A A A B A A A D B 9 e t t 9 t # ..f.6.0.6.y.p. .B D A A A A A A A A A A A A A A A A A A A A A A A A A A A A A A A A A A A A A A A A A A A A A A A A A A A A A A A A A D A B A A d 1 t d 9 9 > b y.<.0.0.w.0.0.b P A A A A A A A A A A A A A A A A A A A A A A A A A A A A A A A A A A A A A A A A A A A A A A A A A A A A A A A A A A A A A A A A A A A A A A A A A A A A A A A A A A K D h e e t e e 5 A k.<.w.<.<.y.p.A B A B A A A A A A A A A A A A A A A A A A A A A A A A A A A A A A A A A A A A A A A A A A A A A A A A A A A A A A A A A A A A A A A A A A A A A A A A A A K d 9 e e 9 9 5 P w.0.w.w.<.w.$.B A A A A D D A A A A A A A A A A A A A A A A A A A A A A A A A A A A A A A A A A A A A A A A A A A A A A A A A A A A A A A A A A D D A A A A B t 9 t 5 e e t y.w.<.y.6.0.w.K h A A A A A A A A A A A A A A A A A A A A A A A A A A A A A A A A A A A A A A A A A A A A A A A A A A A A A A A A ",
"e e e t e e > :.y.w.0.w.y.y.$.D D D D D D D D D D D D D D D D D D D A D A D D D b A B d 9 9 t t t 5 P y.0.0.f.y.0.&.b D P B W A D D D D D D D D D D D D D D D D D D D D D D D D D D D D D D D D D D D D A A D D D D D D A A D D D D D A D D D D B D l e e t e t t t p.6.0.0.p.w.0.D B P A A P A D D D D A A D A D D D D A A D D D D D D D D D D D D D D D D D D D D D D D D D D D D D D D D D D D D D D A A D A D D D D A A D D D D D D D D D D l > t e 9 e 1 A p.0.w.0.6.p.0.K D D D D D D D D D D D D A A D A D D D D A A D D D D D D D D D D D D D A A A D D D D D D D D D D D D D D D D D D D D D D D D D D D A D D D P A e 9 9 5 9 b 5 &.y.y.p.0.w.f. .B P D D D D D D D D D D D A A A D D D D D D D D D D D D A A A A D D D D D D D D D D D D D A A A D D D D D D D D D D A D A A D D l 9 5 e 9 d 9 D v.0.y.y.y.w.w.l P B D D D D D D D D D D D D D D D D D D D D D D A D D D D A D D D A D D D D A A D A D D D D A A D D D D D D D D D D D D D D D D D D D D D D D D D D D D D D D D D D b A B d 9 9 t t d 1 b k.<.y.w.p.<.y.B D K D D D D D D D D D D D D D D D D D A D D D D A D D D A D D D D A A D A D D D D A A D D D D D D D D D D D D D D D D D D D D A D D D D D A A A A A A A A K t 1 9 e e e 9 ( f.w.w.0.6.f.<.A A D D D D D D D D D D D D D D D D D D D D A D D D D A D D D A D D D D A A D D D D D D A A D D D D D D D D D D D A A A D D D D D D D D D D A A t 5 t 9 d 5 1 0.y.6.p.6.w.f.( K D D D D D D D D D D D D D D D D D D D D D D D D D D D D D D D D D D D D D D D D D D D D D D D D D D D D D D D D ",
"e 9 9 e e e 5 &.y.w.w.y.6.p.' B D D D D D D D D D D D D D D D A D D D D D D D D A D K d 9 t 9 e e 5 W p.0.y.0.w.y.<.b D D A A A D D D D D D D D D D D D D A D D D D D D D D D A A A D D D D D D D D D D D D D D D D D D A D D D D D D A A A D D A D B 5 e 9 t 9 9 h y.0.y.0.y.0.w.K A D A D A D D D D D D D D D D D D D D D A A D D D D D D D D D D D D D A D D D D D D D D D A A A D D D D D D D D D D A D D D D D D A D D D D A D D D A A D D h 5 t 9 e t 5 A p.w.w.0.y.0.0.D D D D D D A D D D D D D D D D D D D D D D D A A D D D D D D D A A D D D D D D D A D D D D D D D D D D D D D D D D D D D D D D A A D B D D D A e e 9 t 9 t 1 &.y.w.w.w.w.w...B D D D D D D D D A A D D D D D D D D D D D D D D D D D D D D A A D D D D D D D D A A D D D D D D D D D D D D D D D A D D A D D l 9 e t 9 e 5 A p.0.w.w.0.y.6.B K A D D D A D D D A A A D D D D D D D D D D D D D D D D D D D D D A D D D D D D D D D D D D D D A A D D D D D D D D D D D D D A D D D D D D D D D A A A D D D D D D D A K l 9 e e e t 5 D p.w.w.w.w.w.0.B D K D D D D D D D D D D D D D D D D D D D D D D D D D D A D D D D D D D D D D D D D D A A D D D D D D D D D D D D D A D D D D D D D D D A A A D D D D D D K t 9 t 9 e e 1 ^ p.w.0.y.0.w.:.B D D D A D D D D D D D D D D D D D D D D D D D D D D D D D D A D D D D D D D D D D D D D D A A D D D D D D D A A D D D D D D D D D D A D D D B e e e t 9 e e 6.w.w.w.w.0.p.P A D D D D D D D D D D D A D D D D A D D D D D D D D D D D D D D A A D D D D D D D A D D D D D D D D D D D D D D D ",
"e 9 9 e e e 5 &.y.w.w.y.6.p.' B D D D D D D D D D D D D D D D A D D D D D D D D A D K d 9 t 9 e e 5 W p.0.y.0.w.y.<.b D D A A A D D A D D D D D D D D D D A D D A D D D D D D A D D D D D D D A D D D D D D D D A D D D D D D D A D A A D D D D A D B 5 e 9 t 9 9 h y.0.y.0.y.0.w.K A D A D A D D D D D D D D D D A A D D D D D D D A D D D D D D D D D D A D D A D D D D D D A D D D D D D D A A D D D D D D D D D D A D D D D A D D D A A D D h 5 t 9 e t 5 A p.w.w.0.y.0.0.D D D D D D D D D D D D D D D D D D A A D D D D D D D D D D D D D D D D D A A D D A D D D D D D A D D D D D D D D D D D D D D D D D D B D D D A e e 9 t 9 t 1 &.y.w.w.w.w.w...B D D D D D D D D D D D D D A A D D D D D D D D D D D D D A D D D D D D D D D D D D D D D D A A D D D A D D D D D D A D D A D D l 9 e t 9 e 5 A p.0.w.w.0.y.6.B K A D D A A D D D D D D D D D A D D D D D D D D D D D D D D D D D D D D D D D D D D D A A D D D D D D D A D D D D D D D D D D A D D A D D D D D D A D D D D D D D A D A K l 9 e e e t 5 D p.w.w.w.w.w.0.B D K D D D D D D D D D D D D D D D D D D D D D D D D D D D D D D D D D D D D A A D D D D D D D A D D D D D D D D D D A D D A D D D D D D A D D D D D D D A K t 9 t 9 e e 1 W p.w.0.y.0.w.:.B D D D A D D D D D D D D D D D D D D D D D D D D D D D D D D D D D D D D D D D D A A D D D D D D D D D D D D D D D D D A A D D D D D A D D D B e e e t 9 e e 6.w.w.w.w.0.p.P A D D D D D D D D D D D A D D D D A D D D D D D D D D D D D D D D D D D D A A D D A D D D D D D D D D D D D D D D ",
"e 9 9 e e e 5 &.y.w.w.y.6.p.' B D D D D D D A A A D D D D D D D D D D D D D D D A D K d 9 t 9 e e 5 W p.0.y.0.w.y.<.b D D A A A D A A D D D D D D D D D D D D D A D D D D D D D D D D D D D D D D D D D D D D D A D D D D D D D D D A D D D D D A D B 5 e 9 e 9 9 h y.0.y.0.y.0.w.K A D A D A D D D D D A A D D D D D D D D D D D A A D D D D D D D D D D D D D A D D D D D D D D D D D D D D D A D D D D D D D D D D D D D D A A D D D A A D D h 5 t 9 e t 5 A p.w.w.0.y.0.0.D D D D D D D D D D D D D A A D D D D D D D D D D D A D D D D D D D D D D D D D D D D D D D D D A A A D D D D D A D A D D D D D D D D B D D D A e e 9 t 9 t 1 &.y.w.w.w.w.w...B D D A D D D D D D D D D D D D D D D D A D A D D D D D D D D D D D D A D D D D D D D D D D D D D D D A D D D D D D A D D A D D l 9 e t 9 e 5 A p.0.w.w.0.y.6.B K A D A A A D D D D D D D D D D D D D A D D D D A D D D D D D D D D D D D D A A D D D D D D D D D D D A A D D D D D D D D D D D D D A D D D D D D D D D D D D D D D D A K l 5 e e e t 5 D p.w.w.w.w.w.0.B D K D A D A D D D D D D D D A D D D D A D D D D D D D D D D D D D A A D D D D D D D D D D D A A D D D D D D D D D D D D D A D D D D D D D D D D D D D D D K t 9 t 9 e e 1 W p.w.0.y.0.w.:.B D D D A D D D D D D D D D D D D A D D D D A D D D D D D D D D D D D D A A D D D D D D D D D D D A D D D D D D D D D D D D D D D D D A D D D B e e e t 9 e e 6.w.w.w.w.w.p.P A D D D D D D D D D D D D D D D D D D D D A D D D D A D D D D D D D D D D D D D D D D D D D D D A D A D D D D D A ",
"e 9 9 e e e 5 &.y.w.w.y.6.p.' B D D D D D D A D D D D D D D D D D A A D A A D D A D K d 9 t 9 e e 5 W p.0.y.0.w.y.<.b D D A A A A A A A D D D D D D D A D D D D D D D D D D D D D D D D D D D D D D A D D D D A D D D D D D D D D D D D D D D D A D B 5 e 9 t 9 9 h y.0.y.0.y.0.w.K A D A D A D A A D D D D D D D D D D D D D D A A A A D D D D D D D A D D D D D D D D D D D D D D D D D D D D D D D D D D D D D D D D D D D D A D D D A A D D h 5 t 9 e t 5 A p.w.w.0.y.0.0.D D D D D D D D D A A D D D D D D D D D D D D D D D A A A D D D D D D D D D D D D D D D D D D D D D D D D D D D A D A A A D D D D D D B D D D A e e 9 t 9 t 1 &.y.w.w.w.w.w...B D D A A A D D D D D D D D D D D D D D A D A D D D D D D D D D D D D A A A D D D D D D D D D D D D D D D D D D A A A D D A D D l 9 e t 9 e 5 A p.0.w.w.0.y.6.B K A D D D A D D D D D D D D D D D D D D D D D D A D D D A A D D D D A A D D D D D D D D D D D D D D A A A A D D D D D D D A D D D D D D D D D D D D D D D D D D D D D A K h 5 e e e t 5 D p.w.w.w.w.w.0.B D K D A D A A D D D D D D D D D D D D A D D D A A D D D D A A D D D D D D D D D D D D D D A A A A D D D D D D D A D D D D D D D D D D D D D D D D D D D D K t 9 t 9 e e 1 W p.w.0.y.0.w.:.B D D D A D D D D D D D D D D D D D D D D D A D D D A A D D D D A A D D D D D D D D D D D D D D D A A A D D D D D D D D D D D D D D D A D D D B e e e t 9 e e 6.w.w.w.w.w.p.P A D D D D D D D D D D D D D D D D D D D D A D D D D A A A D D D D D D D D D D D D D D D D D D D D D A D D D D D A ",
"e 9 9 e e e 5 &.y.w.w.y.6.p.' B D D D D A D D D A A D D D D D D D D D D D D D D A D K d 9 t 9 e e 5 W p.0.y.0.w.y.<.b D D A A A D D D D D D D D D D D D D D D D D A D D D D D D D D D D D D A D D A D D D D D A D D D D D D D D D D D D D D D D A D B 5 e 9 t 9 9 h y.0.y.0.y.0.w.K A D A D A D D D D D D A D D D D D D D D D D D D D D D D D D D D D D D D D D D A D D D D D D D D D D D D A D D D D D D D D D D D D D D D D D A D D D A A D D h 5 t 9 e t 1 A p.w.w.0.y.0.0.D D D D D D D D D D D D D D A D D D D D D D D D D D D D D D D A D D D D A D A D D D D D D D D A D D D D A D D D D D D D D D D A D D D B D D D A e e 9 t 9 t 1 &.y.w.w.w.w.w...B D D D D D D D A D D D D A D A D D D D D D D D D D D D D D D D D D D D D D D D A D D D D A D A D D D D D D D D D D A D D A D D l 9 e t 9 e 5 A p.0.w.w.0.y.6.B K A D D D D D D A D D D A A D A A D D D D D D D D D D D D D D D A D D D D D D A D D D D D D D D D D D D D D D D D D D D D D D D D D D A D D D D D D D D D D D D A D D B K h 9 e e e t 5 D p.w.w.w.w.w.0.B D K D D D D D D D D D D A D D D D D D D D D D D D D D A D D D D D D A D D D D D D D D D D D D D D D D D D D D D D D D D D D A D D D D D D D D D D D D A D K t 9 t 9 e e 1 W p.w.0.y.0.w.:.B D D D A D D D A D D D D D D D D D D D D D D D D D D D D D A D D D D D D A D D D D D D D D D D D D D D D D A D D D D A D A D D D D D A D D D B e e e t 9 e e 6.w.w.w.w.0.p.P A D D D D D D D D D D A D D D D D D D D D D D D D D D D D D D A D D D D A D A D D D D D D D D A A D D A A D D D D ",
"e 9 9 e e e 5 &.y.w.w.y.6.p.' B D D D D D D D D D D D D D D A D D D D D D D D D A D K d 9 t 9 e e 5 W p.0.y.0.w.y.<.b D D A A A D D D D D D D D D D D D D D D D D A D D D D A D A A D D D D A D D A D D D D D D D D D D A A D D D D D D D D D D A D B 5 e 9 t 9 9 h y.0.y.0.y.0.w.K A D A D A D D D D D D D D D D D D D D D D D D D D D D D D D D D D D D D D D D A D D D D A D A A D D D D A D D D D D A A D D D D A A D D D D A D D D A A D D h 5 t 9 e t 5 A p.w.w.0.y.0.0.D D D D D D D D D D D D D D D D D D D D D D D D D D D D D D D A D D D D A D D D D D A D D D D A D D D D D D D D D D D D D D D A D D D B D D D A e e 9 t 9 t 1 &.y.w.w.w.w.w...B D D D D D D D A D D D D A D D D D D D D D D D D D D D D D D D D D D D D D D D A D D D D A D D D D D D D D D D D A A D D A D D l 9 e t 9 e 5 A p.0.w.w.0.y.6.B K A D D D D D D D D D D D D D D D D D D D D D D D A D D A A D D D D D D D D D D D D D D D D D D D D D D D D D D D D D D D D D D D D D A D D D D A D A A D D D D A D A B K h 9 e e e t 5 D p.w.w.w.w.w.0.B D K D D D D A D D D D A A D D D D D D D A D D A A D D D D D D D D D D D D D D D D D D D D D D D D D D D D D D D D D D D D D A D D D D A D A A D D D D A D K t 9 t 9 e e 1 W p.w.0.y.0.w.:.B D D D A D D D A D D D D D D A D D D D D D D A D D A A D D D D D D D D D D D D D D D D D D D D D D D D D D A D D D D A D D D D D D D A D D D B e e e e 9 e e 6.w.w.w.w.0.p.P A D D D D D D D D D D A D A D D D D A D D A D D D D D D D D D A D D D D A D D D D D A D D D D D D D D D D D D D D ",
"e 9 9 e e e 5 &.y.w.w.y.6.p.' B D D D D D D D D D D D D D D A D D D A D D D D D A D K d 9 t 9 e e 5 W p.0.y.0.w.y.<.b D D A A A D D D D A D D D D D D D D D D D D D D D D D D D D D D D D D D D D D D D D D D D A A D D D D D D D D D D D D A D A D B 5 e 9 t 9 9 h y.0.y.0.y.0.w.K A D A D A D D D D D D D D D D D D A D D D D D D D D A D D D D D D D D D D D D D D D D D D D D D D D D D D D A A D D D D D D D D D D D D A A A D D D A A D D h 5 t 9 e t 5 A p.w.w.0.y.0.0.D D A D D D D A D D D D D D D D D D D D A D D D D D D D D D D D D D D D D D D D D D D D D D D D D D D D D D D D D D D D D D D D D D D B D D D A e e 9 t 9 t 1 &.y.w.w.w.w.w...B D D D D D D D D D D D D D D D D D D D D A D D D D D A A D D D D D D D D D D D D D D D D D D D D D A D D D D D D D A D D A D D l 9 e t 9 e 5 A p.0.w.w.0.y.6.B K A D D D D D D D D D D D D D D D D A D D D D D D A D D D D D D D D D D D D D D D D D D D A D D D D D D D D A D D D D D D D D D D D D D D D D D D D D D D D D D D D D A K h 9 e e e t 5 D p.w.w.w.w.w.0.B D K D D D D D D D D D D D A D D D D D D A D D D D D D D D D D D D D D D D D D D A D D D D D D D D A D D D D D D D D D D D D D D D D D D D D D D D D D D D K t 9 t 9 e e 1 ^ p.w.0.y.0.w.:.B D D D A D D D D D D D D D D A A D D D D D D A D D D D D D D D D D D D D D D D D D D A D D D D D D D D D D D D D D D D D D D D D D D A D D D B e e e t 9 e e 6.w.w.w.w.0.p.P A A A D D D D D D D D D D D D D D D D D D A D D D D D D D D D D D D D D D D D D D D A D D D D D D D D D D D D D D ",
"e 9 9 e e e 5 &.y.w.w.y.6.p.' B D D D D D D D D D D D D D D D D D D D D D D A A A D K d 9 t 9 e e 5 W p.0.y.0.w.y.<.b D D A A A A D D D D D D D D D D D A A D D D D D D D D D D D D D D D D D D D D D D D D D D D D D D D D D D D D D D D D A D A D B 5 e 9 t 9 9 h y.0.y.0.y.0.w.K A D A D A D D D D D D D D D D D D A D A D D A D D D D D D D D D D D A A D D D D D D D D D D D D D D D D D D D D D D D D D D D D D D D D D D A D D D A A D D h 5 t 9 e t 5 A p.w.w.0.y.0.0.D D D D D D D A A D D D D D D D D D D D A D A D D D D D D D D D D D D D D D D D D D D D D D D D D D D D D D D D D D D D D D D D D D D B D D D A e e 9 t 9 t 1 &.y.w.w.w.w.w...B D D D D D D D D D D D D D D D D D D D D A D D D D D D D D D D A A D D D D D D D D D D D D D D D D A D D D D D D D A D D A D D l 9 e t 9 e 5 A p.0.w.w.0.y.6.B K A D D D D D D D D D D D D D D D D A D D D D D D D D D D D D D D D D D D D D D D D D D D A D A D D A D D D D D D D D D D D A A D D D D D D D D D D D D D D D D D D D A K l 9 e e e t 5 D p.w.w.w.w.w.0.B D K D D D D D D D D D D D A D D D D D D D D D D D D D D D D D D D D D D D D D D A D A D D A D D D D D D D D D D D A A D D D D D D D D D D D D D D D D D D K t 9 t 9 9 e 1 ^ p.w.0.y.0.w.:.B D D D A D D D D D D D D D D D A D D D D D D D D D D D D D D D D D D D D D D D D D D A D A D D D D D D D D D D D D D D D D D D D D D A D D D B e e e t 9 e e 6.w.w.w.w.0.p.P A D A D D D D A D D D D D D D D D D D D D D D D D D D D D D D D D D D D D D D D D D D D D D D D D D D D D D D D D ",
"e 9 9 e e e 5 &.y.w.w.y.6.p.' B D D D D D D D D D D D D D D D D D D D A D D D D A D K d 9 t 9 e e 5 W p.0.y.0.w.y.<.b D D A A A A D D D D D D D D D D D D D A D D D D D D D D A A D D D D D D D D D D D D D D D D D D D D D D D D D D D D D D D A D B 5 e 9 t 9 9 h y.0.y.0.y.0.w.K A D A D A D A A D D D D D D D D D D D A D D A D D D D D D D D D D D D D A D D D D D D D D A A D D D D D D D D D D A A D D D D D D A A D D D A D D D A A D D h 5 t 9 e t 5 A p.w.w.0.y.0.0.D A D D D D A D D A A D D D D D D D D D D D A D D D D D D D D D D D D D D D D D D D D D D D D D D D D D D D D D D D D A D D D D D D D B D D D A e e 9 t 9 t 1 &.y.w.w.w.w.w...B D D D D D D D D D D D D D D D D D D D D D D D D A D D A D D D D A D D D D D D D D D D D D D D D D D D D D D A D D A D D A D D l 9 e t 9 e 5 A p.0.w.w.0.y.6.B K A D D D D D D D D D D D D D D D D D D D D D A D D A D D D D A D D A A D D D D D D D D D D D A D D A D D D D D D D D D D D D D A D D D D D D D D A A D D D D D D D D A K h 5 e e e t 5 D p.w.w.w.w.w.0.B D K D A D D D D D D D D D D D D D D A D D A D D D D A D D A A D D D D D D D D D D D A D D A D D D D D D D D D D D D D A D D D D D D D D A A D D D D D D D K t 9 t 9 e e 1 ^ p.w.0.y.0.w.:.B D D D A D D D D D D D D D D D D D D D D A D D A D D D D A D D A A D D D D D D D D D D D A D D D D D D D D D D D D D D D D D D D D D A D D D B e e e t 9 e e 6.w.w.y.w.0.p.P A D D D A D D D D D D D D D D D D D D D D D D D D D D D D D D D D D D D D D D D D D D D D D D D D D D D D D D D D ",
"e 9 9 e e e 5 &.y.w.w.y.6.p.' B D D D A D D D D D D D D D D D D D D D A D D D D A D K d 9 t 9 e e 5 W p.0.y.0.w.y.<.b D D A A A A D D D D D D D D D A D D D A D D D D D D D D D D D D D D D D D D D D D D D A A D D D D D D D D D D D D D D D D A D B 5 e 9 t 9 9 h y.0.y.0.y.0.w.K A D A D A D D D D D D A D D D D D D A A D D A D D D D D D D D D A D D D A D D D D D D D D D D D D D D D D D D D D D D D D D D D D D D D D D A D D D A A D D h 5 t 9 e t 5 A p.w.w.0.y.0.0.D A D D D D D D D D D D D D A D D D D D D A A D D D D D D D D D D D D D D D D D D D D D D D D D D D D D D A D D D D D D D D D D D D D B D D D A e e 9 t 9 t 1 &.y.w.w.w.w.w...B D D D D D D D D D D D D D D D D D D D A A D D D D D D A D D D D A D D D D D D D D D D D D D D D D D D D D A A D D A D D A D D l 9 e t 9 e 5 A p.0.w.w.0.y.6.B K A D D D D D D D D D D D D D D D D D D D D D A D D A D D D D D D D D D D D D A D D D D D D A A D D A D D D D D D D D D A D D D A D D D D D D D D D D D D D D D D D D A K h 5 e e e t 5 D p.w.w.w.w.w.0.B D K D D D D D D D D D D D D D D D D A D D A D D D D D D D D D D D D A D D D D D D A A D D A D D D D D D D D D A D D D A D D D D D D D D D D D D D D D D D K t 9 t 9 e e 1 W p.w.0.y.0.w.&.B D D D A D D D D D A A D D D D D D D D D A D D A D D D D D D D D D D D D A D D D D D D A A D D D D D D D D D D D D D D D D D D D D D A D D D B e e e t 9 e e 6.w.w.y.w.0.p.P A D D D D D D D D D A D D D D D D D D D D D D D D D D D D D D D D D D D D D D D D D D D D D D D D D D A D D D D D ",
"e 9 9 e e e 5 &.y.w.w.y.6.p.' B D D D A D D A D D D D A D A D D D D D D D D D D A D K d 9 t 9 e e 5 W p.0.y.0.w.y.<.b D D A A A D D D D A D D D D D A D D D D D D D D D D D D D D D D D D D D D A D D D D D D D D D D D D A D D D D D D D A D D A D B 5 e 9 t 9 9 h y.0.y.0.y.0.w.K A D A D A D D D D D D D D D D D D D D D D D D D D D A D D D D D A D D D D D D D D D D D D D D D D D D D D D D D D D D D D D D D D D D D D D A D D D A A D D h 5 t 9 e t 5 A p.w.w.0.y.0.0.D D D D D D D D D D D D D D D D D D D D D D D D D D D D D D D D D D A D D D D A A D D A D A D D D D A D D A D D D D D D D D D D D D D B D D D A e e 9 t 9 t 1 &.y.w.w.w.w.w...B D D D D D D D D D D A D D D D A A D D D D D D D D D D D D D D D D D D D D D D D D D A D D D D A A D D D D D D D D A D D A D D l 9 e t 9 e 5 A p.0.w.w.0.y.6.B K A D D D D D D D D D A A D D D D A D D D D D D D D D D D D D D D D D D D D D D D D D D D D D D D D D D D D A D D D D D A D D D D D D D D D D D D D D D D D D D D D D B K h 9 e e e t 5 D p.w.w.w.w.w.0.B D K D A D D D D D D D D D D D D D D D D D D D D D D D D D D D D D D D D D D D D D D D D D D D D D A D D D D D A D D D D D D D D D D D D D D D D D D D D D K t 9 t 9 e e 1 ^ p.w.0.y.0.w.:.B D D D A D D D D D D D A D D D D D D D D D D D D D D D D D D D D D D D D D D D D D D D D D D D D D D D D D D D D A D D D D A A D D D A D D D B e e e t 9 e e 6.w.w.w.w.0.p.P A D D D D D D D D D A D D D D D D D D D D D D D D D D D D D D D D D A D D D D A A D D A D A D D D D A D D D D D D ",
"e 9 9 e e e 5 &.y.w.w.y.6.p.' B D D D D D D D D D D D D D A D D D D D D D D D D A D K d 9 t 9 e e 5 W p.0.y.0.w.y.<.b D D A A A D D D D A D D D D D D D D D D D D D A A D D D D D D D D A D D D A D D D D D D D A A D D D A D D A D D D D A D D A D B 5 e 9 t 9 9 h y.0.y.0.y.0.w.K A D A D A D D D D D D D D D D D D A D D D D D D D D A D D D D D D D D D D D D D A A D D D D D D D D A D D D D D D D D D D D D D D D D D D D A D D D A D D D h 5 t 9 e t 5 A p.w.w.0.y.0.0.D D D D D D D D D D D D D D D D D D D D A D D D D D D D A A D D D D A D D D D D D D D A D A D D D D A D D D D D D D D D D D D D D D D B D D D A e e 9 t 9 t 1 &.y.w.w.w.w.w...B D D D D A A D D D D A D D D D D D D D D D D D D D D D D D D D D D D D D A A D D D D A D D D D D D D D D A D D D D A D D A D D l 9 e t 9 e 5 A p.0.w.w.0.y.6.B K A D D D A D D D D D D D D D D D D D D D A D D D D D D D D D D D D D D D D D D D D D D D A D D D D D D D D A D D D D D D D D D D D D D A A D D D D D D D D A D D D D A K h 9 e e e t 5 D p.w.w.w.w.w.0.B D K D A D D D A A D A A D D D D A D D D D D D D D D D D D D D D D D D D D D D D A D D D D D D D D A D D D D D D D D D D D D D A A D D D D D D D D A D D D K t 9 t 9 e e 1 ^ p.w.6.y.0.w.&.B D D D A D D D D D D D D D D D D D D A D D D D D D D D D D D D D D D D D D D D D D D A D D D D D D D A A D D D D A D D D D D D D D D A D D D B e e e t 9 e e 6.w.w.w.w.0.p.P A D D D D D D D D D D D D D D A A D D D A D D D D D D D A A D D D D A D D D D D D D D A D D D D D D D D D D D D D ",
"e 9 9 e e e 5 &.y.w.w.y.6.p.' B D D D A D D D D D D D D D D D D D D D D D D D D A D K d 9 t 9 e e 5 W p.0.y.0.w.y.<.b D D A A A D D D D D D D D D D D D D D D D D D D D D D A D D A D D D D D D A A D D D D D D D D D D D D D D A D D D D D D D A D B 5 e 9 t 9 9 h y.0.y.0.y.0.w.K A D A D A D D D A A D A A D D D D D D D D D D D D D D D D D D D D D D D D D D D D D D D A D D A D D D D D D D D D D D D D D D A D D D D D D A D D D A A D D h 5 t 9 e t 1 A p.w.w.0.y.0.0.D D D D D D D D D D D A A D A A D D D D D D D D D D D D D D D D D D D D D D D D D D D D D D D D D D D D D A D D D D D D D D D D D D D B D D D A e e 9 t 9 t 1 &.y.w.w.w.w.w...B D D D D D D D D D D D D D D D D D D A A D A A D D D D D D D D D D D D D D D D D D D D D D D D D D D D D D D D D D A D D A D D l 9 e t 9 e 5 A p.0.w.w.0.y.6.B K A D D D D D D D A D D D D D D D D D D D D D D D D D D D D D D D D D D A A D A A D D D D D D D D D D D D D D D D D D D D D D D D D D D D D D D A D D A D D D D D D D B K l 9 e e 9 t 5 D p.w.w.w.w.w.0.B D K D D D D D D D D D D D D D D D D D D D D D D D D D D D D D A A D A A D D D D D D D D D D D D D D D D D D D D D D D D D D D D D D D A D D A D D D D D D K t 9 t 9 e e 1 ^ p.w.6.y.0.w.:.B D D D A D D D D D D D D D D D D D D D D D D D D D D D D D D D D D A A D A A D D D D D D D D D D D D D D D D D D D D D D D D D D D D A D D D B e e e t 9 e e 6.w.w.w.w.0.p.P A D D D D A D D D D D D D D D D D D A D D D D D D D D D D D D D D D D D D D D D D D D D D D D D D D D D D D D A D ",
"e 9 9 e e e 5 &.y.w.w.y.6.p.' B D D D A D D D D D D D D D D D D A D A D D D D D A D K d 9 t 9 e e 5 W p.0.y.0.w.y.<.b D D A A A D A D D A D D D D D D D D D D D D D A A D D D D D A D D A D D D D D D D D D D D D D D D D D D D D D D D D D D D A D B 5 e 9 t 9 9 h y.0.y.0.y.0.w.K A D A D A D D D D D D D D D D D D D D D D D D A D D A D D D D D D D D D D D D D A A D D D D D A D D A D D D D D D D A D D D D D D A D D D D A D D D A A D D h 5 t 9 e t 5 A p.w.w.0.y.0.0.D D D D D D A D D D D D D D D D D D D D D D D D D A D D D D D A A A D D D D D D D D D D D D D D D D D D D D D D D D D A D D D D D D D B D D D A e e 9 t 9 t 1 &.y.w.w.w.w.w...B D A D D D D D A A A D D D D D D D D D D D D D D D D D D D D D D D A D D D D D A A A D D D D D D D D D D D D D D D A D D A D D l 9 e t 9 e 5 A p.0.w.w.0.y.6.B K A A A D D D D D A D D D D D D D D D D D D D D D D D D D D D A D D D D D D D D D D D D D D D D D D D A D D A D D D D D D D D D D D D D A A D D D D D A D D A D D D D A K l 9 e e e t 5 D p.w.w.w.w.w.0.B D K D D D D D D D D D D D D D D D D D D D D D D D D A D D D D D D D D D D D D D D D D D D D A D D A D D D D D D D D D D D D D A A D D D D D A D D A D D D K t 9 t 9 e e 1 ^ p.w.0.y.0.w.:.B D D D A D D D D D D D D D D D D D D D D D D D D D D D D A D D D D D D D D D D D D D D D D D D A D D D D D A A A D D D D D D D D D D A D D D B e e e t 9 e e 6.w.w.w.w.0.p.P A D D D D A D D D D D D D D D D A A A D D D D D D A D D D D D A A A D D D D D D D D D D D D D D D D D D D D D D D ",
"e 9 9 e e e 5 &.y.w.w.y.6.p.' B D D D D D D D A D D D D A D D D D D D D D D D D A D K d 9 t 9 e e 5 W p.0.y.0.w.y.<.b D D A A A D D D D A D D D D D D D D D D A D D D D D D D D D D D D A D D D D D D D D D A D D D D D D D A D D D D D D D D D A D B 5 e 9 t 9 9 h y.0.y.0.y.0.w.K A D A D A D D D D D D D D D D D D D D D D D D D D D A D D D D D D D D D D A D D D D D D D D D D D D A D D D D D A A D D D D D D D D D D D D A D D D A A D D h 5 t 9 e t 5 A p.w.w.0.y.0.0.D D A D D D A D D D D D D D D D D D D D D D D D D D D D D D D D D A D D D D D D D D D D A D D D D D D D D D D D D D D A A D D D D D D B D D D A e e 9 t 9 t 1 &.y.w.w.w.w.w...B D D D D D D D D D A D D D D D D D D D D D D D D D D D A D D D A D D D D D D D D D A D D D D D D D D D D D D D D D A D D A D D l 9 e t 9 e 5 A p.0.w.w.0.y.6.B K A D D D D D D D D A A D D D D D D D D D D D D D D D A D D D A D D D D D D D D D D D D D D D D D D D D D D A D D D D D D D D D D A D D D D D D D D D D D D A D D D D A K l 9 e e e t 5 D p.w.w.w.w.w.0.B D K D D D D D D D A A D D D D D D D D D D D A D D D A D D D D D D D D D D D D D D D D D D D D D D A D D D D D D D D D D A D D D D D D D D D D D D A D D D K t 9 t 9 e e 1 ^ p.w.0.y.0.w.:.B D D D A D D A D D D D D D D D D D D D D D D D D A D D D A D D D D D D D D D D D D D D D D D D D D D D D D D D A D D D D D D D D D D A D D D B e e e t 9 e e 6.w.w.w.w.0.p.P A D D A A D D D D A D D D D D D D D D D D D D D D D D D D D D D D A D D D D D D D D D D A D D D D A D D D D D D D ",
"e 9 9 e e e 5 &.y.w.w.y.6.p.' B D D D D D D D A D D D D A D D D D D D D D D D D A D K d 9 t 9 e e 5 W p.0.y.0.w.y.<.b D D A A A D D D D D D D D D D A D D D D A D D D D D D D D D D D D D D D D D D D D D D D D D D A D D D A D D D D D D D D D A D B 5 e 9 t 9 9 h y.0.y.0.y.0.w.K A D A D A D D D D D D D D D D D D D D D D D D D D D D D D D D D A D D D D A D D D D D D D D D D D D D D D D D D D D D D D D D D D D D D D D A D D D A A D D h 5 t 9 e t 5 A p.w.w.0.y.0.0.D D A D D D D D D D D D D D D D D D D D D D D D D D D D D D D D D D D D D D D D A D D D D D D D A A D D D D D D D D D D D D D D D D D B D D D A e e 9 t 9 t 1 &.y.w.w.w.w.w...B D D D D D D D D D D D D D D D D A D D D D D D D D D D D D D D A D D D D D D D D D D D D D D D D A D D D D D D D D A D D A D D l 9 e t 9 e 5 A p.0.w.w.0.y.6.B K A D D D D D D D D D D D D D D A A D D D D A A D D D A D D D D D D D D D D D D D D D D D D D D D D D D D D D D D D D D A D D D D A D D D D D D D D D D D D D D D D A B K l 9 e e e t 5 D p.w.w.w.w.w.0.B D K D D D A D D D D D D D D D D D A A D D D A D D D D D D D D D D D D D D D D D D D D D D D D D D D D D D D D A D D D D A D D D D D D D D D D D D D D D D K t 9 t 9 e e 1 ^ p.w.0.y.0.w.:.B D D D A D D D D D D A A D D D D D D D A A D D D A D D D D D D D D D D D D D D D D D D D D D D D D D D D D D D D D D D D D D A D D D A D D D B e e e t 9 e e 6.w.w.w.w.0.p.P A D D D D D D D D A D D D D D D D D D D D D D D D D D D D D D D D D D D D D D D A D D D A D D D D A D D D D D D D ",
"e 9 9 e e e 5 &.0.y.w.0.y.y...l D D D D D D D D D D D D D D D D D D D D D D D D K l P d t e 9 t e 5 W p.0.y.0.w.f...D B A D D K D D D D D D D D D D D D D D D D D D D D D D D D D D D D D D D D D D D D D D D D D D D D D D D D P b D K D D B D A D B 5 e 9 t 9 9 d y.0.y.0.y.0.p.D l P D A K K D D D D D D D D D D D D D D D D D D D D D D D D D D D D D D D D D D D D D D D D D D D D D D D D D D D D D D D D D D D D D D D D D K D D K D A P h 1 t e e e 5 B y.0.y.w.0.f.0.B D D D D D D D D D D D D D D D D D D D D D D D D D D D D D D D D D D D D D D D D D D D D D D D D D D D D D D D D D D D D D D D D A K B A P l D t 9 9 t 9 t > &.y.y.y.0.p.k. .l D D D D D D D D D D D D D D D D D D D D D D D D D D D D D D D D D D D D D D D D D D D D D D D D D D D D D D D D D K D A D B D t t e t 9 t 9 A y.w.w.6.w.f.<.K b K D D D D D D D D D D D D D D D D D D D D D D D D D D D D D D D D D D D D D D D D D D D D D D D D D D D D D D D D D D D D D D D D D D D D D D D D D P B P A D D D D A K l 9 e e e t 5 A p.w.w.0.w.p.0.D A A b W A D D D D D D D D D D D D D D D D D D D D D D D D D D D D D D D D D D D D D D D D D D D D D D D D D D D D D D D D D D D D D D D D D D D D D D D D A t t t 9 e t > ^ f.6.w.0.w.0.&.D D D D D D D D D D D D D D D D D D D D D D D D D D D D D D D D D D D D D D D D D D D D D D D D D D D D D D D D D D D D D D D D D D A K D D W A e e e e 9 e e 6.0.w.w.y.p.y. .b D D D D D D D D D D D D D D D D D D D D D D D D D D D D D D D D D D D D D D D D D D D D D D D D D D D D D D D D ",
"e 9 9 e e e 5 &.p.p.w.6.0.0. .A B B B B B B B B B B B B B B B B B B B B B B B B D l P e 5 5 5 9 e 5 W p.0.y.0.w.w...K A A B B B B B B B B B B B B B B B B B B B B B B B B B B B B B B B B B B B B B B B B B B B B B B B B B B B B h A A b D A D A D B 5 e 9 t 9 9 d y.6.y.0.y.0.0.K B P A B A B B B B B B B B B B B B B B B B B B B B B B B B B B B B B B B B B B B B B B B B B B B B B B B B B B B B B B B B B B B B B B B B B B A B B A b b D b 5 t e e e 5 B f.w.y.w.<.w.<.D B B B B B B B B B B B B B B B B B B B B B B B B B B B B B B B B B B B B B B B B B B B B B B B B B B B B B B B B B B B B B B B B b D B A P B D 5 9 9 t 9 t > &.y.y.y.6.0.y.' B K B B B B B B B B B B B B B B B B B B B B B B B B B B B B B B B B B B B B B B B B B B B B B B B B B B B B B B B B B B B D A P t 1 e t 9 t 9 A y.w.p.0.0.w.$.A h B B B B B B B B B B B B B B B B B B B B B B B B B B B B B B B B B B B B B B B B B B B B B B B B B B B B B B B B B B B B B B B B B B B B B B B B B h B l K b B A D A A K l 9 e e e t 5 A p.w.w.0.w.6.<.D D D b K b B B B B B B B B B B B B B B B B B B B B B B B B B B B B B B B B B B B B B B B B B B B B B B B B B B B B B B B B B B B B B B B B B B B B B B B B K e 5 9 9 e t 5 ^ f.6.w.0.w.0.:.B B B B B B B B B B B B B B B B B B B B B B B B B B B B B B B B B B B B B B B B B B B B B B B B B B B B B B B B B B B B B B B B A D B D A A P b e e e t 9 e e 6.y.y.w.0.w.6.' A B B B B B B B B B B B B B B B B B B B B B B B B B B B B B B B B B B B B B B B B B B B B B B B B B B B B B B B B ",
"e 9 9 e e e 5 &.y.y.w.0.w.w.<.$.:.:.:.:.:.:.:.:.:.:.:.:.:.:.:.:.:.:.:.:.:.:.:.:.<.$.6.B e t t t e 5 W p.0.y.0.w.p.6.:.:.:.$.$.&.:.:.:.:.:.:.:.:.:.:.:.:.:.:.:.:.:.:.:.:.:.:.:.:.:.:.:.:.:.:.:.:.:.:.:.:.:.:.:.:.:.:.:.:.:.:.:.:.<.:.<.' D D A B A D B 5 e 9 t 9 9 d y.0.y.0.y.0.y.$.$.<.&.&.:.&.:.:.:.:.:.:.:.:.:.:.:.:.:.:.:.:.:.:.:.:.:.:.:.:.:.:.:.:.:.:.:.:.:.:.:.:.:.:.:.:.:.:.:.:.:.:.:.:.:.:.:.:.:.:.:.:.:.:.:.:.:.:.:.:.:.<.:.:.<.:.&.6.A 5 e e e t 9 A p.0.w.w.6.w.w.$.:.:.:.:.:.:.:.:.:.:.:.:.:.:.:.:.:.:.:.:.:.:.:.:.:.:.:.:.:.:.:.:.:.:.:.:.:.:.:.:.:.:.:.:.:.:.:.:.:.:.:.:.:.:.:.:.:.:.:.:.:.:.:.:.&.6.&.&.6.$.$.d 9 9 t 9 t > &.y.w.y.6.6.y.<...&.:.:.:.:.:.:.:.:.:.:.:.:.:.:.:.:.:.:.:.:.:.:.:.:.:.:.:.:.:.:.:.:.:.:.:.:.:.:.:.:.:.:.:.:.:.:.:.:.:.:.:.:.:.:.:.:.$.&.&.&.$.6.A 9 e t 9 t 9 A y.0.w.0.w.y.w.:.:.6.:.:.:.:.:.:.:.:.:.:.:.:.:.:.:.:.:.:.:.:.:.:.:.:.:.:.:.:.:.:.:.:.:.:.:.:.:.:.:.:.:.:.:.:.:.:.:.:.:.:.:.:.:.:.:.:.:.:.:.:.:.:.:.:.:.:.:.:.:.:.:.:.:.6.&.<.P A A A A B K l 9 e e e t 5 A p.w.w.0.w.w.y.$.:.:.$.6.$.:.:.:.:.:.:.:.:.:.:.:.:.:.:.:.:.:.:.:.:.:.:.:.:.:.:.:.:.:.:.:.:.:.:.:.:.:.:.:.:.:.:.:.:.:.:.:.:.:.:.:.:.:.:.:.:.:.:.:.:.:.:.:.:.:.:.:.:.:.:.:.:.:.b 5 e e e e 5 ^ f.6.w.0.w.w.6.:.:.:.:.:.:.:.:.:.:.:.:.:.:.:.:.:.:.:.:.:.:.:.:.:.:.:.:.:.:.:.:.:.:.:.:.:.:.:.:.:.:.:.:.:.:.:.:.:.:.:.:.:.:.:.:.:.:.:.:.:.:.:.:.:.:.$.:.&.&.<...e e e t 9 e e 6.w.y.w.0.w.w.<...:.:.:.:.:.:.:.:.:.:.:.:.:.:.:.:.:.:.:.:.:.:.:.:.:.:.:.:.:.:.:.:.:.:.:.:.:.:.:.:.:.:.:.:.:.:.:.:.:.:.:.:.:.:.:.:.",
"e 9 9 e e e 5 &.w.0.0.w.y.w.y.y.y.y.y.y.y.y.y.y.y.y.y.y.y.y.y.w.y.y.y.y.y.y.y.w.p.y.f.A 9 e e 9 e 5 W p.0.y.0.w.w.w.w.y.y.y.y.f.y.y.y.y.y.y.w.y.y.y.y.y.y.y.y.y.y.y.y.y.y.y.w.y.y.y.y.y.y.y.y.y.y.y.y.y.y.y.y.y.y.y.y.y.y.y.y.y.w.y.p. .A K D A A D B 5 e 9 t 9 9 d y.0.y.0.y.0.w.6.w.p.w.y.f.p.y.y.y.y.y.y.y.y.y.y.y.y.y.y.y.y.y.y.y.y.y.y.w.y.y.y.y.y.y.y.y.y.y.y.y.y.y.y.w.y.y.y.y.y.y.y.y.y.y.y.y.y.y.y.y.y.y.y.y.y.y.y.y.y.y.y.w.w.y.w.w.f.K 9 e e e t 9 A y.6.w.y.w.y.f.y.y.y.y.y.y.y.y.y.y.y.y.y.y.y.y.y.y.y.y.y.y.y.y.w.y.y.y.y.y.y.y.y.y.y.y.y.y.y.y.y.y.y.y.y.y.y.y.w.y.y.y.y.y.y.y.y.y.y.y.y.y.y.y.y.y.k.p.w.f.y.0.d 9 9 t 9 t > &.y.0.y.w.0.p.p.y.p.y.y.y.y.y.y.y.y.y.y.y.y.y.y.y.y.y.y.y.y.y.y.y.w.y.y.y.y.y.y.y.y.y.y.y.y.y.y.y.y.y.y.y.y.y.y.y.w.y.y.y.y.y.y.y.y.y.p.y.w.w.f.P 1 e t 9 t 9 A y.0.y.w.w.y.y.y.y.y.y.y.y.y.y.y.y.y.y.y.y.y.y.y.y.w.y.y.y.y.y.y.y.w.y.y.y.y.y.y.y.y.y.y.y.y.y.y.y.y.y.y.y.y.y.y.y.w.y.y.y.y.y.y.w.y.y.y.y.y.y.y.y.y.y.y.y.y.y.y.y.y.y.f.y.f.( D K K A B K l 9 e e e t 5 A p.w.w.0.w.0.y.6.y.p.y.k.p.y.y.y.y.y.y.y.y.y.y.y.y.y.y.y.y.y.y.y.y.y.y.y.w.y.y.y.y.y.y.y.y.y.y.y.y.y.y.y.y.y.y.y.y.y.y.w.y.y.y.y.y.y.y.y.y.y.y.y.y.y.y.w.y.y.y.y.y.y.y.y.y.k.K 9 t t e 9 5 ^ f.6.w.0.w.y.0.y.y.y.y.y.y.y.y.y.y.y.y.y.y.y.w.y.y.y.y.y.y.y.w.y.y.y.y.y.y.y.y.y.y.y.y.y.y.y.y.y.y.y.y.y.y.y.w.y.y.y.y.y.y.y.y.y.y.y.y.y.y.y.y.p.p.w.p.y.w.p.6.e e e t 9 e e 6.0.w.y.w.w.y.p.y.y.y.y.y.y.y.y.w.y.y.y.y.y.y.y.y.y.y.y.y.y.y.y.y.y.y.y.y.y.y.y.y.y.y.y.y.y.y.y.y.y.y.y.y.y.y.y.w.y.y.y.y.y.y.y.y.",
"e 9 9 e e e 5 &.w.0.0.w.0.6.0.w.0.0.0.0.0.0.0.0.0.0.0.0.0.0.6.6.0.0.0.0.0.0.6.6.0.0.p.b 1 9 t 9 e 5 W p.0.y.0.w.0.w.w.y.0.6.0.w.0.0.0.0.0.0.0.0.0.0.0.0.0.0.0.0.0.0.0.0.0.0.0.0.0.0.0.0.0.0.0.0.0.0.0.0.0.0.0.0.0.0.6.0.0.0.0.0.<.0.y.( b K K A A D B 5 e 9 t 9 9 d y.0.y.0.y.0.w.w.y.w.6.0.w.w.0.0.0.0.0.0.0.0.0.0.6.0.0.0.0.0.0.0.0.0.0.0.0.0.0.0.0.0.0.0.0.0.0.0.0.0.0.0.0.0.0.0.0.0.0.0.0.0.0.0.0.0.6.0.6.0.0.0.0.0.0.0.0.0.0.0.6.6.0.6.6.y.P 9 e e t t 9 A p.w.w.y.w.6.0.w.0.0.0.0.0.0.0.0.0.0.0.0.0.0.0.0.0.0.0.0.0.0.6.6.0.0.0.0.0.0.0.0.6.0.6.0.0.0.0.0.0.0.0.0.0.0.6.6.0.0.0.0.0.0.0.0.0.0.0.0.0.0.0.0.0.y.0.6.y.y.y.t 9 9 t 9 t > &.y.0.y.w.6.0.w.0.0.0.0.0.0.0.0.0.0.0.0.6.0.0.0.0.0.0.0.0.0.0.0.6.6.0.0.0.0.0.0.0.0.0.0.0.0.0.0.0.0.0.0.0.0.0.0.6.6.0.0.0.0.0.0.0.0.0.w.0.6.0.f.P 1 e t 9 t 9 A y.w.y.w.w.0.0.w.0.<.0.0.0.0.0.0.0.0.0.0.0.0.0.0.6.6.0.0.0.0.0.0.6.6.0.0.0.0.0.0.0.0.0.0.0.0.0.0.0.0.0.0.0.0.0.0.6.6.0.0.0.0.0.0.0.0.0.0.0.0.0.0.0.0.0.0.0.0.0.0.0.0.<.0.0.p.P b D D D B K l 9 e e 9 t 5 A p.w.w.0.w.0.w.0.w.w.6.w.0.0.0.0.0.0.0.0.0.0.0.0.0.0.0.0.0.0.0.0.0.0.0.6.6.0.0.0.0.0.0.0.0.6.0.6.0.0.0.0.0.0.0.0.0.0.0.0.0.0.0.0.0.0.0.0.0.0.0.0.0.0.0.0.0.0.0.0.0.0.0.0.0.p.B 1 e t e e 9 ( p.6.w.0.w.y.w.0.0.0.0.0.0.0.0.0.0.0.0.0.0.6.6.0.0.0.0.0.0.6.6.0.0.0.0.0.0.0.0.0.0.0.0.6.6.6.0.0.0.0.0.0.0.6.6.0.0.0.0.0.0.0.0.0.0.6.0.0.0.0.0.w.w.6.w.0.6.w.&.e e e t 9 e e 6.w.y.y.w.0.0.w.w.0.0.0.0.0.0.6.6.0.0.0.0.0.0.0.0.0.0.6.0.0.0.0.0.0.0.0.0.0.0.0.0.0.0.6.0.0.0.0.0.0.0.0.0.0.0.6.6.0.0.0.0.0.0.0.0.",
"e 9 9 e e e 5 &.y.w.w.w.w.0.0.0.y.y.y.y.y.y.y.y.y.y.y.y.y.y.y.y.y.y.y.y.y.y.y.y.w.w.f.A 5 t d t e 5 W p.0.y.0.w.y.y.y.y.w.0.w.w.y.y.y.y.y.y.y.y.y.y.y.y.y.y.y.y.y.y.y.y.y.y.y.y.y.y.y.y.y.y.y.y.y.y.y.y.y.y.y.y.y.y.y.y.y.y.y.y.y.p.f. .B K K A A D B 5 e 9 t 9 9 d y.0.y.0.y.0.y.p.y.w.w.w.w.w.y.y.y.y.y.y.y.y.y.y.y.y.y.y.y.y.y.y.y.y.y.y.y.y.y.y.y.y.y.y.y.y.y.y.y.y.y.y.y.y.y.y.y.y.y.y.y.y.y.y.y.y.y.y.y.y.y.y.y.y.y.y.y.y.y.p.y.y.p.y.y.k.W 9 e e t t 5 A p.y.w.y.y.0.6.0.y.y.y.y.y.y.y.y.y.y.y.y.y.y.y.y.y.y.y.y.y.y.y.y.y.y.y.y.y.y.y.y.y.y.y.y.y.y.y.y.y.y.y.y.y.y.y.y.y.y.y.y.y.y.y.y.y.y.y.y.y.y.y.y.w.y.w.0.w.y.p.d 9 9 t 9 t > &.y.w.w.y.0.0.w.0.6.y.y.y.y.y.y.y.y.y.y.y.y.y.y.y.y.y.y.y.y.y.y.y.y.y.y.y.y.y.y.y.y.y.y.y.y.y.y.y.y.y.y.y.y.y.y.y.y.y.y.y.y.y.y.y.y.0.w.w.w.w.k.W 9 e t 9 t 9 A y.w.0.w.w.w.y.p.p.w.y.y.y.y.y.y.y.y.y.y.y.y.y.y.y.y.y.y.y.y.y.y.y.y.y.y.y.y.y.y.y.y.y.y.y.y.y.y.y.y.y.y.y.y.y.y.y.y.y.y.y.y.y.y.y.y.y.y.y.y.y.y.y.y.y.y.y.y.y.y.y.y.y.w.w.f.W b D A D B K l 9 e e 9 t 5 A p.w.w.0.w.y.y.y.y.w.w.w.w.y.y.y.y.y.y.y.y.y.y.y.y.y.y.y.y.y.y.y.y.y.y.y.y.y.y.y.y.y.y.y.y.y.y.y.y.y.y.y.y.y.y.y.y.y.y.y.y.y.y.y.y.y.y.y.y.y.y.y.y.y.y.y.y.y.y.y.y.y.y.y.y.y.b > e t e e 9 ( p.6.y.w.0.w.w.y.y.y.y.y.y.y.y.y.y.y.y.y.y.y.y.y.y.y.y.y.y.y.y.y.y.y.y.y.y.y.y.y.y.y.y.y.y.y.y.y.y.y.y.y.y.y.y.y.y.y.y.y.y.y.y.y.y.y.y.y.y.y.y.w.y.w.y.w.w.y.<.e e e t 9 e e 6.w.w.w.w.0.0.0.0.y.y.y.y.y.y.y.y.y.y.y.y.y.y.y.y.y.y.y.y.y.y.y.y.y.y.y.y.y.y.y.y.y.y.y.y.y.y.y.y.y.y.y.y.y.y.y.y.y.y.y.y.y.y.y.y.",
"e 9 9 e e e 5 &.w.w.0.0.w.p.y.w.0.0.0.0.0.0.0.0.0.0.0.0.0.0.0.0.0.0.0.0.0.0.0.0.w.0.p.B 5 9 e 9 e 5 W p.0.y.0.w.0.0.0.0.w.w.w.w.0.0.0.0.0.0.0.0.0.0.0.0.0.0.0.0.0.0.0.0.0.0.0.0.0.0.0.0.0.0.0.0.0.0.0.0.0.0.0.0.0.0.0.0.0.0.0.0.6.0.w.( B K K K A D B 5 e 9 t 9 9 d y.0.y.0.y.0.0.w.6.0.w.w.0.w.0.0.0.0.0.0.0.0.0.0.0.0.0.0.0.0.0.0.0.0.0.0.0.0.0.0.0.0.0.0.0.0.0.0.0.0.0.0.0.0.0.0.0.0.0.0.0.0.0.0.0.0.0.0.0.0.0.0.0.0.0.0.0.0.0.0.6.6.w.0.6.y.P 9 e e t e 5 D y.y.0.0.y.y.w.w.0.0.0.0.0.0.0.0.0.0.0.0.0.0.0.0.0.0.0.0.0.0.0.0.0.0.0.0.0.0.0.0.0.0.0.0.0.0.0.0.0.0.0.0.0.0.0.0.0.0.0.0.0.0.0.0.0.0.0.0.0.0.0.0.w.w.y.0.0.6.w.t 9 9 t 9 t > &.y.w.0.y.y.w.y.y.w.0.0.0.0.0.0.0.0.0.0.0.0.0.0.0.0.0.0.0.0.0.0.0.0.0.0.0.0.0.0.0.0.0.0.0.0.0.0.0.0.0.0.0.0.0.0.0.0.0.0.0.0.0.0.0.0.w.w.w.w.0.y.K 5 e t 9 t 9 A y.w.y.w.w.w.w.0.6.6.0.0.0.0.0.0.0.0.0.0.0.0.0.0.0.0.0.0.0.0.0.0.0.0.0.0.0.0.0.0.0.0.0.0.0.0.0.0.0.0.0.0.0.0.0.0.0.0.0.0.0.0.0.0.0.0.0.0.0.0.0.0.0.0.0.0.0.0.0.0.0.0.w.<.<.p.W B P D D A K l 9 e e e t 5 A p.w.w.0.w.0.0.w.w.w.y.w.w.0.0.0.0.0.0.0.0.0.0.0.0.0.0.0.0.0.0.0.0.0.0.0.0.0.0.0.0.0.0.0.0.0.0.0.0.0.0.0.0.0.0.0.0.0.0.0.0.0.0.0.0.0.0.0.0.0.0.0.0.0.0.0.0.0.0.0.0.0.0.0.0.y.A 9 t t 9 9 9 ^ p.6.y.w.0.0.w.0.0.0.0.0.0.0.0.0.0.0.0.0.0.0.0.0.0.0.0.0.0.0.0.0.0.0.0.0.0.0.0.0.0.0.0.0.0.0.0.0.0.0.0.0.0.0.0.0.0.0.0.0.0.0.0.0.0.0.0.0.0.0.0.w.w.0.y.w.w.y.<.e e e t 9 e e 6.y.w.0.w.y.y.y.w.0.0.0.0.0.0.0.0.0.0.0.0.0.0.0.0.0.0.0.0.0.0.0.0.0.0.0.0.0.0.0.0.0.0.0.0.0.0.0.0.0.0.0.0.0.0.0.0.0.0.0.0.0.0.0.0.",
"e 9 9 e e e 5 &.w.w.6.6.0.y.w.<.0.0.0.0.0.0.0.0.0.0.0.0.0.0.0.0.0.0.0.0.0.0.0.0.w.6.p.A 9 e e e e 5 W p.0.y.0.w.w.0.0.0.w.w.0.6.0.0.0.0.0.0.0.0.0.0.0.0.0.0.0.0.0.0.0.0.0.0.0.0.0.0.0.0.0.0.0.0.0.0.0.0.0.0.0.0.0.0.0.0.0.0.0.0.y.w.y.' A D D A A D B 5 e 9 t 9 9 d y.0.y.0.y.0.w.0.6.0.y.w.6.0.0.0.0.0.0.0.0.0.0.0.0.0.0.0.0.0.0.0.0.0.0.0.0.0.0.0.0.0.0.0.0.0.0.0.0.0.0.0.0.0.0.0.0.0.0.0.0.0.0.0.0.0.0.0.0.0.0.0.0.0.0.0.0.0.0.w.0.0.w.0.0.p.P 9 e t t e 5 D y.w.<.<.w.w.6.6.0.0.0.0.0.0.0.0.0.0.0.0.0.0.0.0.0.0.0.0.0.0.0.0.0.0.0.0.0.0.0.0.0.0.0.0.0.0.0.0.0.0.0.0.0.0.0.0.0.0.0.0.0.0.0.0.0.0.0.0.0.0.0.0.6.6.w.w.0.6.y.d 9 9 t 9 t > &.y.0.6.0.w.6.0.w.0.0.0.0.0.0.0.0.0.0.0.0.0.0.0.0.0.0.0.0.0.0.0.0.0.0.0.0.0.0.0.0.0.0.0.0.0.0.0.0.0.0.0.0.0.0.0.0.0.0.0.0.0.0.0.0.0.6.0.w.w.0.w.D e e t 9 t 9 A y.w.0.6.6.w.w.w.w.y.0.0.0.0.0.0.0.0.0.0.0.0.0.0.0.0.0.0.0.0.0.0.0.0.0.0.0.0.0.0.0.0.0.0.0.0.0.0.0.0.0.0.0.0.0.0.0.0.0.0.0.0.0.0.0.0.0.0.0.0.0.0.0.0.0.0.0.0.0.0.0.0.f.6.6.f.P B K B D B K l 9 e e e t 5 A p.w.w.0.w.w.0.w.w.w.y.0.w.0.0.0.0.0.0.0.0.0.0.0.0.0.0.0.0.0.0.0.0.0.0.0.0.0.0.0.0.0.0.0.0.0.0.0.0.0.0.0.0.0.0.0.0.0.0.0.0.0.0.0.0.0.0.0.0.0.0.0.0.0.0.0.0.0.0.0.0.0.0.0.0.w.A 9 e e 9 e 9 ^ p.6.y.w.6.0.0.0.0.0.0.0.0.0.0.0.0.0.0.0.0.0.0.0.0.0.0.0.0.0.0.0.0.0.0.0.0.0.0.0.0.0.0.0.0.0.0.0.0.0.0.0.0.0.0.0.0.0.0.0.0.0.0.0.0.0.0.0.0.0.0.0.0.6.w.0.0.y.:.e e e t 9 e e 6.p.w.0.0.w.y.w.0.0.0.0.0.0.0.0.0.0.0.0.0.0.0.0.0.0.0.0.0.0.0.0.0.0.0.0.0.0.0.0.0.0.0.0.0.0.0.0.0.0.0.0.0.0.0.0.0.0.0.0.0.0.0.0.0.",
"e e e 9 l 9 5 6.p.p.p.p.p.p.p.p.p.p.p.p.p.p.p.p.p.p.p.p.p.p.p.p.p.p.p.p.p.p.p.p.p.v.f.A 1 t t t d > W m.f.w.k.p.p.p.p.p.p.p.p.p.p.p.p.p.p.p.p.p.p.p.p.p.p.p.p.p.p.p.p.p.p.p.p.p.p.p.p.p.p.p.p.p.p.p.p.p.p.p.p.p.p.p.p.p.p.p.p.p.y.v.p. .A A K K K K b t 9 e e e 5 l 0.p.p.f.6.f.p.p.p.p.p.p.p.p.p.p.p.p.p.p.p.p.p.p.p.p.p.p.p.p.p.p.p.p.p.p.p.p.p.p.p.p.p.p.p.p.p.p.p.p.p.p.p.p.p.p.p.p.p.p.p.p.p.p.p.p.p.p.p.p.p.p.p.p.p.p.p.p.p.p.p.p.p.p.p.p.^ 5 e e e e 1 D p.p.p.p.p.p.p.p.p.p.p.p.p.p.p.p.p.p.p.p.p.p.p.p.p.p.p.p.p.p.p.p.p.p.p.p.p.p.p.p.p.p.p.p.p.p.p.p.p.p.p.p.p.p.p.p.p.p.p.p.p.p.p.p.p.p.p.p.p.p.p.p.y.w.v.f.6.v.y.t t t 1 t e t $.v.p.p.p.p.p.p.p.p.p.p.p.p.p.p.p.p.p.p.p.p.p.p.p.p.p.p.p.p.p.p.p.p.p.p.p.p.p.p.p.p.p.p.p.p.p.p.p.p.p.p.p.p.p.p.p.p.p.p.p.p.p.p.p.p.y.p.p.y.f.y.^ 5 t 5 d t > P k.p.p.p.p.p.p.p.p.p.p.p.p.p.p.p.p.p.p.p.p.p.p.p.p.p.p.p.p.p.p.p.p.p.p.p.p.p.p.p.p.p.p.p.p.p.p.p.p.p.p.p.p.p.y.y.p.p.p.p.p.p.p.p.p.p.p.p.p.p.p.p.p.p.p.p.p.p.p.p.p.p.y.p.k.y.' A D K D P D l e 9 e e t # K k.f.w.f.p.p.p.p.p.p.p.p.p.p.p.p.p.p.p.p.p.p.p.p.p.p.p.p.p.p.p.p.p.p.p.p.p.p.p.p.p.p.p.p.p.p.p.p.p.p.p.p.p.p.p.p.p.p.p.p.p.p.p.p.p.p.p.p.p.p.p.p.p.p.p.p.p.p.p.p.p.p.p.p.p.A.l > t 9 e d > ' y.v.p.y.f.f.p.p.p.p.p.p.p.p.p.p.p.p.p.p.p.p.p.p.p.p.p.p.p.p.p.p.p.p.p.p.p.p.p.p.p.p.p.p.p.p.p.p.p.p.p.p.p.p.p.p.p.p.p.p.p.p.p.p.p.p.p.p.p.p.p.p.y.y.p.p.p.w.6.t d 1 9 l 1 d y.p.p.p.p.p.p.p.p.p.p.p.p.p.p.p.p.p.p.p.p.p.p.p.p.p.p.p.p.p.p.p.p.p.p.p.p.p.p.p.p.p.p.p.p.p.p.p.p.p.p.p.p.p.p.p.p.p.p.p.p.p.p.p.p.",
"9 t t 5 d e 1 P ^ ^ ^ ^ ^ ^ ^ ^ ^ ^ ^ ^ ^ ^ ^ ^ ^ ^ ^ ^ ^ ^ ^ ^ ^ ^ ^ ^ ^ ^ ^ ^ D K W h 5 t 9 e t 1 B ' P P ( W ^ ^ ^ ^ ^ ^ ^ ^ W ^ ^ ^ ^ ^ ^ ^ ^ ^ ^ ^ ^ ^ ^ ^ W ^ ^ ^ ^ ^ ^ ^ ^ ^ ^ ^ ^ ^ ^ ^ W W ^ ^ ^ ^ ^ ^ ^ ^ ^ ^ ^ ^ ^ ^ P ^ W B h l b l h l d e 9 e e e t h ( ^ W ' K ' ^ ^ ^ ^ ^ ^ ^ ^ W W ^ ^ ^ ^ ^ ^ ^ ^ ^ ^ ^ ^ ^ ^ W ^ ^ ^ ^ ^ ^ ^ ^ ^ ^ ^ ^ ^ ^ ^ ^ ^ ^ ^ ^ ^ ^ ^ ^ ^ ^ ^ ^ ^ ^ ^ ^ ^ ^ ^ ^ ^ ^ ^ W W ^ ^ ^ ^ ^ ^ ^ ^ ^ ^ ^ ^ ^ ^ B 5 t e e d 1 h ^ ^ ^ ^ ^ ^ ^ ^ W W ^ ^ ^ ^ ^ ^ ^ ^ ^ ^ ^ ^ ^ ^ ^ ^ ^ ^ ^ ^ ^ ^ W W ^ ^ ^ ^ ^ ^ ^ ^ ^ ^ ^ ^ ^ ^ ^ ^ ^ ^ ^ ^ ^ ^ W W ^ ^ ^ ^ ^ ^ ^ ^ ^ ^ ^ ^ ^ ^ ( P ( ^ D ( ( t 9 e 1 t e 5 B W ^ ^ ^ ^ ^ ^ ^ ^ W W ^ ^ ^ ^ ^ ^ ^ ^ ^ ^ ^ ^ ^ ^ ^ ^ ^ ^ ^ ^ ^ ^ ^ ^ ^ ^ ^ ^ ^ ^ ^ ^ ^ ^ ^ ^ ^ ^ ^ ^ ^ ^ ^ ^ ^ ^ W W ^ ^ ^ ^ ^ ^ ^ ^ W P ^ ( A 9 e 5 t e > l ^ K ^ ^ ^ ^ ^ ^ ^ ^ ^ ^ ^ ^ ^ ^ ^ ^ ^ ^ ^ ^ ^ ^ ^ ^ ^ ^ ^ ^ ^ ^ ^ ^ W W ^ ^ ^ ^ ^ ^ ^ ^ ^ ^ ^ ^ ^ ^ ^ ^ ^ ^ W ^ ^ ^ ^ ^ ^ ^ ^ ^ ^ ^ ^ ^ ^ ^ ^ ^ ^ ^ W ^ ^ ^ ^ ^ ^ ^ W P ^ ^ B h l l h l l t 9 9 e e d 1 l ( P P ( P ^ ^ ^ ^ ^ ^ ^ ^ W W ^ ^ ^ ^ ^ ^ ^ ^ ^ ^ ^ ^ ^ ^ ^ ^ ^ ^ ^ ^ ^ ^ W W ^ ^ ^ ^ ^ ^ ^ ^ ^ ^ ^ ^ ^ ^ W ^ ^ ^ ^ ^ ^ ^ ^ ^ ^ ^ ^ ^ ^ ^ W ^ ^ ^ ^ ^ ^ ^ ^ ^ ^ ^ ^ ^ ^ ^ ^ e e h 5 5 d 9 B ^ ' W W ^ ^ W ^ ^ ^ ^ ^ ^ ^ ^ ^ ^ ^ ^ ^ ^ ^ ^ ^ ^ ^ ^ ^ ^ ^ ^ W W ^ ^ ^ ^ ^ ^ ^ ^ ^ ^ ^ ^ ^ ^ ^ ^ ^ ^ ^ ^ ^ ^ W W ^ ^ ^ ^ ^ ^ ^ ^ ^ ^ ^ ^ ^ ^ ^ ^ W ^ ^ ^ W K 5 t 5 9 h 5 5 P ^ ^ ^ ^ ^ ^ ^ ^ ^ ^ ^ ^ ^ ^ ^ ^ W W ^ ^ ^ ^ ^ ^ ^ ^ ^ ^ ^ ^ ^ ^ ^ ^ ^ ^ ^ ^ ^ ^ ^ ^ ^ ^ ^ ^ ^ ^ ^ ^ ^ ^ ^ ^ ^ ^ W W ^ ^ ^ ^ ^ ^ ",
"9 t t 5 e t 5 9 1 1 1 1 1 1 1 1 1 1 1 1 1 1 1 1 1 1 1 1 1 1 1 1 1 1 1 1 1 1 1 1 e 5 e e t t 5 9 9 5 e 9 > 5 e 5 1 1 1 1 1 1 1 1 1 1 1 1 1 1 1 1 1 1 1 1 1 1 1 1 1 1 1 1 1 1 1 1 1 1 1 1 1 1 1 1 1 1 1 1 1 1 1 1 1 1 1 1 1 1 1 1 5 5 5 5 5 9 9 5 9 9 e 9 9 e e e 9 > 9 > > 9 = 5 1 1 1 1 1 1 1 1 1 1 1 1 1 1 1 1 1 1 1 1 1 1 1 1 1 1 1 1 1 1 1 1 1 1 1 1 1 1 1 1 1 1 1 1 1 1 1 1 1 1 1 1 1 1 1 1 1 1 1 1 1 1 1 1 1 1 1 1 1 1 1 1 1 1 1 1 1 1 1 1 t 5 d 9 9 h 5 9 1 1 1 1 1 1 1 1 1 1 1 1 1 1 1 1 1 1 1 1 1 1 1 1 1 1 1 1 1 1 1 1 1 1 1 1 1 1 1 1 1 1 1 1 1 1 1 1 1 1 1 1 1 1 1 1 1 1 1 1 1 1 1 1 1 1 1 1 1 1 1 1 5 > 1 1 = > 9 1 e t 9 t t 5 e 9 1 1 1 1 1 1 1 1 1 1 1 1 1 1 1 1 1 1 1 1 1 1 1 1 1 1 1 1 1 1 1 1 1 1 1 1 1 1 1 1 1 1 1 1 1 1 1 1 1 1 1 1 1 1 1 1 1 1 1 1 1 1 1 1 1 1 1 > 1 5 5 1 t 9 t t 9 e t 1 1 1 1 1 1 1 1 1 1 1 1 1 1 1 1 1 1 1 1 1 1 1 1 1 1 1 1 1 1 1 1 1 1 1 1 1 1 1 1 1 1 1 1 1 1 1 1 1 1 1 1 1 1 1 1 1 1 1 1 1 1 1 1 1 1 1 1 1 1 1 1 1 1 1 1 1 1 1 1 1 9 1 5 9 9 9 9 5 9 e e 9 9 e e e e 5 9 9 > 5 9 1 1 1 1 1 1 1 1 1 1 1 1 1 1 1 1 1 1 1 1 1 1 1 1 1 1 1 1 1 1 1 1 1 1 1 1 1 1 1 1 1 1 1 1 1 1 1 1 1 1 1 1 1 1 1 1 1 1 1 1 1 1 1 1 1 1 1 1 1 1 1 1 1 1 1 1 1 1 1 1 1 1 9 d d 5 5 t e 1 5 1 > 1 5 1 1 1 1 1 1 1 1 1 1 1 1 1 1 1 1 1 1 1 1 1 1 1 1 1 1 1 1 1 1 1 1 1 1 1 1 1 1 1 1 1 1 1 1 1 1 1 1 1 1 1 1 1 1 1 1 1 1 1 1 1 1 1 1 1 1 5 1 1 1 5 5 1 > 5 e 9 9 t e 5 9 1 1 1 1 1 1 1 1 1 1 1 1 1 1 1 1 1 1 1 1 1 1 1 1 1 1 1 1 1 1 1 1 1 1 1 1 1 1 1 1 1 1 1 1 1 1 1 1 1 1 1 1 1 1 1 1 1 1 1 1 1 1 1 1 ",
"e e t e e d t 1 t t t t t t t t t t t t t t t t t t t t t d d d t t t t t t t t d 5 5 e t t 9 e 9 d d 9 9 e 9 9 t t t t t t t t t t t t t t t t t t t t t t t t t t t t t t t t t t t t t t t t t t t t t t t t t t t t t t t t e 9 9 t t t e 9 9 e e e e e e e h e d e t h e t t t t t t t t t t t t t t t t t t t t t t t t t t t t t t t t t t t t t t t t t t t t t t d d d t t t t t t t t t t t t t t t t t t t t t t t t t t t t t t t t e 9 t 1 5 d 9 9 t t t t t t t t t t t t t t t t t t t t t t t t t t t t t t t t t t t t t t t t t t t t t d d d t t t t t t t t t t t t t t t t t t t t t t t t t t t d d e t h t t e e t t t 9 t t t t t t t t t t t t t t t t t t t t t t t t d d d t t t d d t t t t t d d d t t t t t t t t t t t t t t t t t t t t t t t t t t t d t t t d t t e e t e 9 9 t t t t t t t t t t t t t t t t t t t t t t t t t t t t t t t t t t t t t t t t t t t t t t t t t d d d d t d d t t t t t t t t t t t t t t t t t t t t t t t t d 9 9 e e t t 9 9 9 9 9 e e e e e d t 9 9 e 9 5 t t t t t t t t t t t t t t t t t t t t t t t t t t t t t t t t t t t t t t t t t t t t t d d d t t t t t t t t t t t t t t t t t t t t t t t t t t t t t t t t 5 t t 9 9 e e 9 d d e e h d t h t t t t t t t t t t t t t t t t t t t t t t t t t t t t t t t t t t t t t d d d t t t t t t t t t t t t t t t t t t t t t t t t d d t t d d d d e 9 9 9 9 e e 1 t t t t t t t t t t t t t t t t t t t t t t t t t t t t t t t t t t t t t d d d t t t t t t t t t t t t t t t t t t t t t t t t ",
"t 9 9 t e e d e 9 9 9 9 9 9 9 9 9 9 9 9 9 9 9 9 9 9 9 9 9 9 9 9 9 9 9 9 9 9 9 9 t e 5 9 e e t t 9 d t e d t e d 9 9 9 9 9 9 9 9 9 9 9 9 9 9 9 9 9 9 9 9 9 9 9 9 9 9 9 9 9 9 9 9 9 9 9 9 9 9 9 9 9 9 9 9 9 9 9 9 9 9 9 9 9 9 9 9 d t e t t e 9 e t t e e e e e e 9 5 9 9 9 t 9 e 9 9 9 9 9 9 9 9 9 9 9 9 9 9 9 9 9 9 9 9 9 9 9 9 9 9 9 9 9 9 9 9 9 9 9 9 9 9 9 9 9 9 9 9 9 9 9 9 9 9 9 9 9 9 9 9 9 9 9 9 9 9 9 9 9 9 9 9 9 9 9 9 9 9 9 9 9 9 9 9 t 9 9 9 9 e 9 t 9 9 9 9 9 9 9 9 9 9 9 9 9 9 9 9 9 9 9 9 9 9 9 9 9 9 9 9 9 9 9 9 9 9 9 9 9 9 9 9 9 9 9 9 9 9 9 9 9 9 9 9 9 9 9 9 9 9 9 9 9 9 9 9 9 9 9 9 9 9 9 9 1 e e 5 e 9 1 5 9 e e 9 e d t t 9 9 9 9 9 9 9 9 9 9 9 9 9 9 9 9 9 9 9 9 9 9 9 9 9 9 9 9 9 9 9 9 9 9 9 9 9 9 9 9 9 9 9 9 9 9 9 9 9 9 9 9 9 9 9 9 9 9 9 9 9 9 9 9 9 5 9 e 9 5 1 5 9 e 9 9 t e 9 d 9 9 9 9 9 9 9 9 9 9 9 9 9 9 9 9 9 9 9 9 9 9 9 9 9 9 9 9 9 9 9 9 9 9 9 9 9 9 9 9 9 9 9 9 9 9 9 9 9 9 9 9 9 9 9 9 9 9 9 9 9 9 9 9 9 9 9 9 9 9 9 9 9 9 9 9 9 9 9 9 h t t t e t t 9 e e e e t t e e 9 t e e d t e t 9 9 9 9 9 9 9 9 9 9 9 9 9 9 9 9 9 9 9 9 9 9 9 9 9 9 9 9 9 9 9 9 9 9 9 9 9 9 9 9 9 9 9 9 9 9 9 9 9 9 9 9 9 9 9 9 9 9 9 9 9 9 9 9 9 9 9 9 9 9 9 9 9 9 9 9 9 9 9 9 t d 9 5 t t 9 e 9 9 5 9 e 9 9 t 9 9 9 9 9 9 9 9 9 9 9 9 9 9 9 9 9 9 9 9 9 9 9 9 9 9 9 9 9 9 9 9 9 9 9 9 9 9 9 9 9 9 9 9 9 9 9 9 9 9 9 9 9 9 9 9 9 9 9 9 9 9 9 9 e 9 9 9 9 9 e e d 5 9 e 9 9 t e 9 9 9 9 9 9 9 9 9 9 9 9 9 9 9 9 9 9 9 9 9 9 9 9 9 9 9 9 9 9 9 9 9 9 9 9 9 9 9 9 9 9 9 9 9 9 9 9 9 9 9 9 9 9 9 9 9 9 9 9 9 9 9 9 ",
"t e 9 t 9 5 d t e e e e e e e e e e e e e e e e e e e e e e e e e e e e e e e e 9 t 9 e e e t 9 9 9 5 5 e 9 5 e e e e e e e e e e e e e e e e e e e e e e e e e e e e e e e e e e e e e e e e e e e e e e e e e e e e e e e e e 9 5 5 9 5 5 5 9 t e e e e e e t t e t e e e e t e e e e e e e e e e e e e e e e e e e e e e e e e e e e e e e e e e e e e e e e e e e e e e e e e e e e e e e e e e e e e e e e e e e e e e e e e e e e e e e e t 5 9 d d 9 9 t e e e e e e e e e e e e e e e e e e e e e e e e e e e e e e e e e e e e e e e e e e e e e e e e e e e e e e e e e e e e e e e e e e e e e e e e 9 d e 5 e t e e 9 9 d e e t 9 e e e e e e e e e e e e e e e e e e e e e e e e e e e e e e e e e e e e e e e e e e e e e e e e e e e e e e e e e e e e e e e e e t e 9 e e e e t 5 e e e t 9 9 t e e e e e e e e e e e e e e e e e e e e e e e e e e e e e e e e e e e e e e e e e e e e e e e e e e e e e e e e e e e e e e e e e e e e e e e e e e e e e e e e e 9 9 9 5 9 e 5 e 9 9 e t e e e 5 5 1 5 e 9 5 e e e e e e e e e e e e e e e e e e e e e e e e e e e e e e e e e e e e e e e e e e e e e e e e e e e e e e e e e e e e e e e e e e e e e e e e e e e e e e e e e 9 e 9 e t e 9 t e t e e t e 9 t e e e e e e e e e e e e e e e e e e e e e e e e e e e e e e e e e e e e e e e e e e e e e e e e e e e e e e e e e e e e e e e e e e e e e e e e t 5 9 d e 5 e e e e e e e e e e e e e e e e e e e e e e e e e e e e e e e e e e e e e e e e e e e e e e e e e e e e e e e e e e e e e e e e e e ",
"9 d 9 e e 5 t e 9 9 e e e e e e e e e e e e e e t t e e e 9 9 9 e e e e e e e e 9 d 9 d t 5 e 5 d t e e e e t t e e e e e e e e e e e e e e e e e e e e e e e e e e e e e e e e e e e 9 e e e e e e e e e e e e e e e e e e e e e e e e e t t t e 9 9 e e 9 9 e e t e e 9 9 e e e e e e e e e e e e e e e e e e e e e e e e e e e e e e e e e e e e e e e e e e t t e e e 9 9 9 e e e e e e e e e e e e e e e e e e e e e e e e e e e e e e e e e 9 9 d t 9 9 e e e e e e e e e e e e e e e e e e e e e e e e e e e e e e e e e e e e e e e e e t t e e e 9 9 9 e e e e e e e e e e e e e e e e e e e e e e e e t t e 9 e t t e t 9 d e e t 5 e e e e e e e e e e e e e e e e e e e e e e e e e e e e e e e e e t t e e e 9 9 9 e e e e e e e e e e e e e e e e e e e e e e e e e e e 9 e t t t 9 e t e e e e 9 e e e e e e e e e e e e e e e e e e e e e e e e e e e e e e e e e e e e e e e e e e e e e e e e e e e e e e e e 9 9 e e e e e e e e e e e e e e e e e e e e e e e e t t e t d e e 9 9 e e 9 9 t t t t e e e t t e e e e e e e e e e e e e e e e e e e e e e e e e e e e e e e e e e e e e e e e t t e e e 9 9 9 e e e e e e e e e e e e e e e e e e e e e e e e e e e e e e e e 5 9 e e e e e e e d e 9 t t 9 9 e e e e e e e e e e e e e e e e e e e e e e e e e e e e e e e e t t e e e 9 9 9 e e e e e e e e e e e e e e e e e e e e e e e e e e e e e e e e 9 9 e t e 9 9 e e e e e e e e e e e e e e e e e e e e e e e e e e e e e e e e e t t e e e 9 9 9 e e e e e e e e e e e e e e e e e e e e e e e e ",
"1 h 9 e t e t 5 5 5 9 9 9 9 9 9 9 9 9 9 9 9 9 9 e e e 9 9 5 5 5 9 9 9 9 9 9 9 9 9 e 1 t d 1 e 9 5 9 e 9 5 e t 1 9 9 9 9 9 9 9 9 9 9 9 9 9 9 9 9 9 9 9 9 9 9 9 9 9 9 9 9 9 9 9 9 9 9 9 5 9 9 9 9 9 9 9 9 9 9 9 9 9 9 9 9 9 9 9 9 9 e 9 5 9 t e 5 e 9 9 e e 9 9 9 5 9 9 e e 9 e 9 9 9 9 9 9 9 9 9 9 9 9 9 9 9 9 9 9 9 9 9 9 9 9 9 9 9 9 9 9 9 9 9 9 9 9 9 9 9 9 9 e e e 9 9 5 5 5 9 9 9 9 9 9 9 9 9 9 9 9 9 9 9 9 9 9 9 9 9 9 9 9 9 9 9 9 9 9 9 9 e e 9 9 9 5 e e 9 9 9 9 9 9 9 9 9 9 9 9 9 9 9 9 9 9 9 9 9 9 9 9 9 9 9 9 9 9 9 9 9 9 9 9 9 9 9 9 e e e 9 9 5 5 5 9 9 9 9 9 9 9 9 9 9 9 9 9 9 9 9 9 9 9 9 9 9 9 9 e 5 9 t 9 5 9 9 t 1 e 9 9 e 1 d 9 9 9 9 9 9 9 9 9 9 9 9 9 9 9 9 9 9 9 9 9 9 9 9 9 9 9 9 9 9 9 9 e e e 9 9 5 5 5 9 9 9 9 9 9 9 9 9 9 9 9 9 9 9 9 9 9 9 9 9 9 9 9 5 e e 5 5 9 9 1 e 9 9 5 1 e t 9 9 9 9 9 9 9 9 9 9 9 9 9 9 9 9 9 9 9 9 9 9 9 9 9 9 9 9 9 9 9 9 9 9 9 9 9 9 9 9 9 9 9 9 9 9 9 9 9 9 9 9 9 9 9 9 9 5 5 9 9 9 9 9 9 9 9 9 9 9 9 9 9 9 9 9 9 9 9 9 9 9 9 e 9 5 e e 1 e 9 9 e e 5 9 e 5 9 t e 5 e t 1 9 9 9 9 9 9 9 9 9 9 9 9 9 9 9 9 9 9 9 9 9 9 9 9 9 9 9 9 9 9 9 9 9 9 9 9 9 9 9 9 e e e 9 9 5 5 5 9 9 9 9 9 9 9 9 9 9 9 9 9 9 9 9 9 9 9 9 9 9 9 9 9 9 9 9 9 9 9 9 e e 9 5 5 t d 5 9 t 9 5 e t 9 5 9 9 9 9 9 9 9 9 9 9 9 9 9 9 9 9 9 9 9 9 9 9 9 9 9 9 9 9 9 9 9 9 e e e 9 9 5 5 5 9 9 9 9 9 9 9 9 9 9 9 9 9 9 9 9 9 9 9 9 9 9 9 9 9 9 e e 9 9 9 9 5 t e 5 9 e e e 9 9 9 9 9 9 9 9 9 9 9 9 9 9 9 9 9 9 9 9 9 9 9 9 9 9 9 9 9 9 9 9 e e e 9 9 5 5 5 9 9 9 9 9 9 9 9 9 9 9 9 9 9 9 9 9 9 9 9 9 9 9 9 ",
"9 e e 9 9 d = A A A B b l K h t d e d t h t 1 t e e t d 1 P b A A b b K t d d d d d d d d d d d d d d d d d d d d d d d d d d d d d d d d d d d t h d h d h l 9 e e 9 t l e e D B B B B B K 5 l d d d d d d d d d d d d d d d d d d d d d d d d d d d d d d d d d d d d d d d d d d d d d d d d d d d d d d d d d d d d d d d d d d d d d d d d d t d t l 5 9 e t e d > b K l B B l B B 5 l d t d d d d d d d d d d d d d d d d d d d d d d d d d d d d d d d d d d d d d d d d d d d d d d d d d d d d d d d d d d d d d d d d t d d h 1 e e e e e > P l b A l l P e d h h h t d d d d d d d d d d d d d d d d d d d d d d d d d d d d d d d d d d d d d d d d d d d d d d d d d d d d d d d d t t b 5 9 e e 9 d > B A h B b B B b 9 l d d d h d d d d d d d d d d d d d d d d d d d d d d d d d d d d d d d d d d d d d d d d d d d d d d d d d d d d d d d d d d d d d d d d d d d d d d d d d d d d d d d d e e e e e h > B A b A B b A A e d d d d d d d d d d d d d d d d d d d d d d d d d d d d d d d d d d d d d d d d d d d d d d d d d d d d d d d d d d d d d d d d d d d d d d d d d t d e h h 9 e 9 9 e h 1 K b l B b h K d e d d d d d d d d d d d d d d d d d d d d d d d d d d d d d d d d d d d d d d d d d d d d d d d d d d d d d d d d d d d d d d d d d d t d d b d 5 t t t d e 9 ^ l B A b B D e h d d h d d d d d d d d d d d d d d d d d d d d d d d d d d d d d d d d d d d d d d d d d d d d d d d d d d d d d d d d t d t h 1 e e e 9 d > P b b B B B P h e l l h t d d d d d d d d d d d d d d d d ",
"9 e e 9 9 h e $.f.f.p.p.w.f. .K W K P K K B e d 9 5 9 d h y.w.f.k.f.p.p.^ K D D D D D D D D D D D D D D D D D D D D D D D D D D D D D D D D D D D K D K D D P l e t 9 5 9 9 K f.p.p.f.p.w.0.D W D D D D D D D D D D D D D D D D D D D D D D D D D D D D D D D D D D D D D D D D D D D D D D D D D D D D D D D D D D D D D D D D D D D D D D D D K K P A K d e t 9 1 t 9  .p.y.f.k.p.f.6.K W D A D D D D D D D D D D D D D D D D D D D D D D D D D D D D D D D D D D D D D D D D D D D D D D D D D D D D D D D D D D D D D D D D D K A A 9 t 9 9 e d h y.w.f.v.k.0.p.W K D D K D D D D D D D D D D D D D D D D D D D D D D D D D D D D D D D D D D D D D D D D D D D D D D D D D D D D D D D D D D A P t t e 9 5 9 5 ..p.p.v.f.p.w.:.D P D K K K D D D D D D D D D D D D D D D D D D D D D D D D D D D D D D D D D D D D D D D D D D D D D D D D D D D D D D D D D D D D D D D D D D D D D D D D D D D D D D D D t e e e 5 d 9 ( k.p.f.f.y.p.<.K D D D D D D D D D D D D D D D D D D D D D D D D D D D D D D D D D D D D D D D D D D D D D D D D D D D D D D D D D D D D D D D D D D D D D D D D P K P D K A t t t e 5 t 9 <.p.k.v.f.y.f.' K K D D D D D D D D D D D D D D D D D D D D D D D D D D D D D D D D D D D D D D D D D D D D D D D D D D D D D D D D D D D D D D D D D K D D K l 9 t 9 5 9 e l y.0.f.f.k.p.w.W P D A K D D D D D D D D D D D D D D D D D D D D D D D D D D D D D D D D D D D D D D D D D D D D D D D D D D D D D D D D D D A A e e 9 9 9 t e 6.w.f.k.f.w.y.' A D D D A D D D D D D D D D D D D D D D D ",
"e e e 9 5 e 9 <.w.0.6.0.6.y.W h D B D D D b 5 e d e 9 9 t y.0.0.<.6.0.6.D B B D A A A A A A A A A A A A A A A A A A A A A A A A A A A A A A A A B D B A B B D d 5 t t e 9 5 P m.<.6.w.w.6.:.d l A A A A A A A A A A A A A A A A A A A A A A A A A A A A A A A A A A A A A A A A A A A A A A A A A A A A A A A A A A A A A A A A A A A A A A A A A A K A K t 9 9 d 9 t 1 ' p.0.w.<.<.0.$.l A B D A A A A A A A A A A A A A A A A A A A A A A A A A A A A A A A A A A A A A A A A A A A A A A A A A A A A A A A A A A A A A A A A K P D A 9 t e e 5 5 e w.6.6.6.<.y.f.P A B A D D A A A A A A A A A A A A A A A A A A A A A A A A A A A A A A A A A A A A A A A A A A A A A A A A A A A A A A A A K D P t t e e 9 5 1  .w.6.w.:.:.f.&.b A B D D A A A A A A A A A A A A A A A A A A A A A A A A A A A A A A A A A A A A A A A A A A A A A A A A A A A A A A A A A A A A A A A A A A A A A A A A A A A A A A A A A d e e t 5 e 9 $.y.6.6.w.0.0. .d A A A A A A A A A A A A A A A A A A A A A A A A A A A A A A A A A A A A A A A A A A A A A A A A A A A A A A A A A A A A A A A A A A A A A A A A A A D A D B 9 9 d d e e 1 &.0.w.<.6.6.y.W b A D A A A A A A A A A A A A A A A A A A A A A A A A A A A A A A A A A A A A A A A A A A A A A A A A A A A A A A A A A A A A A A A A P K K P b 9 t 9 t t e l p.0.y.0.w.0.:.A B A D K A A A A A A A A A A A A A A A A A A A A A A A A A A A A A A A A A A A A A A A A A A A A A A A A A A A A A A A A K K D D e t 9 e e e 5 6.w.w.0.<.p.f.' B A A D D A A A A A A A A A A A A A A A A ",
"e 9 e t 9 5 > $.p.w.0.w.w.k. .A B b A D D b 9 t 9 e 9 9 d p.0.<.y.p.f.p.P D K P D D D D D D D D D D D D D D D D D D D D D D D D D D D D D D D D A D A D B B D d 9 t e t t 9 A 0.0.w.y.y.w.0.D P D D D D D D D D D D D D D D D D D D D D D D D D D D D D D D D D D D D D D D D D D D D D D D D D D D D D D D D D D D D D D D D D D D D D D D D D B B K A P h t t d 9 e > ( y.6.6.y.y.f.<.B K K W D D D D D D D D D D D D D D D D D D D D D D D D D D D D D D D D D D D D D D D D D D D D D D D D D D D D D D D D D D D D D D D D B A B B 5 e e e d t t p.y.w.y.p.<.w.D A A D D D D D D D D D D D D D D D D D D D D D D D D D D D D D D D D D D D D D D D D D D D D D D D D D D D D D D D D D D D A B D 9 e e t e l t $.y.0.p.y.p.0...l A A K D B D D D D D D D D D D D D D D D D D D D D D D D D D D D D D D D D D D D D D D D D D D D D D D D D D D D D D D D D D D D D D D D D D D D D D D D D D D D D D D D D t 9 e h e 9 1 ..f.0.0.w.w.p.:.B D D D D D D D D D D D D D D D D D D D D D D D D D D D D D D D D D D D D D D D D D D D D D D D D D D D D D D D D D D D D D D D D D D D D D D D D B B D A D A e e 5 t t t 5 <.0.<.w.y.y.k.' D K P D D D D D D D D D D D D D D D D D D D D D D D D D D D D D D D D D D D D D D D D D D D D D D D D D D D D D D D D D D D D D D D D A A A K l 9 t e t e 9 l p.0.w.<.y.y.0.P K D D K D D D D D D D D D D D D D D D D D D D D D D D D D D D D D D D D D D D D D D D D D D D D D D D D D D D D D D D D B A B A 9 e e t h t 5 6.y.y.w.y.6.w.( B D D K D D D D D D D D D D D D D D D D D ",
"9 5 9 d t e 1 &.y.w.6.0.6.y.^ B K D K K K b 9 t 1 9 e e h k.p.w.y.w.w.0.D B b B K K K K K K K K K K K K K K K K K K K K K K K K K K K K K K K K D K D K D A K h t e 5 9 t e K p.w.0.w.0.0.6.b D K K K K K K K K K K K K K K K K K K K K K K K K K K K K K K K K K K K K K K K K K K K K K K K K K K K K K K K K K K K K K K K K K K K K K K K K D D K A K d e e e 5 t 1 ' f.y.y.y.w.w.&.b A B A K K K K K K K K K K K K K K K K K K K K K K K K K K K K K K K K K K K K K K K K K K K K K K K K K K K K K K K K K K K K K K K K A D A A 5 e e e 9 1 5 w.w.0.y.p.w.p.P K D K K A K K K K K K K K K K K K K K K K K K K K K K K K K K K K K K K K K K K K K K K K K K K K K K K K K K K K K K K K D A K e e e t e 1 > ' y.0.y.w.y.y.&.A K D K D A K K K K K K K K K K K K K K K K K K K K K K K K K K K K K K K K K K K K K K K K K K K K K K K K K K K K K K K K K K K K K K K K K K K K K K K K K K K K K K K K t 5 e h e 9 > ' f.0.0.w.0.w.&.B K K K K K K K K K K K K K K K K K K K K K K K K K K K K K K K K K K K K K K K K K K K K K K K K K K K K K K K K K K K K K K K K K K K K K K K K K D K D K A e e 5 t e 9 5 0.f.p.w.w.0.p.^ B B B K K K K K K K K K K K K K K K K K K K K K K K K K K K K K K K K K K K K K K K K K K K K K K K K K K K K K K K K K K K K K K K K K D D K l 9 t e 5 9 9 l f.w.p.w.w.w.0.K D A b b K K K K K K K K K K K K K K K K K K K K K K K K K K K K K K K K K K K K K K K K K K K K K K K K K K K K K K K K A D A D 9 e 9 e 9 1 = :.0.0.w.p.0.y.' A D D D A K K K K K K K K K K K K K K K K ",
"t 9 5 e e e 9 :.w.w.w.y.w.p.( A D B D A A l 1 e e t t 9 e w.6.6.0.6.0.0.K D D D A A A A A A A A A A A A A A A A A A A A A A A A A A A A A A A A A D B A B B A d 9 e e e e 5 D k.w.w.y.y.w.0.B A A A A A A A A A A A A A A A A A A A A A A A A A A A A A A A A A A A A A A A A A A A A A A A A A A A A A A A A A A A A A A A A A A A A A A A A A A A D B A e 9 9 e 9 d 5 ( y.6.6.w.6.0.&.B K D K A A A A A A A A A A A A A A A A A A A A A A A A A A A A A A A A A A A A A A A A A A A A A A A A A A A A A A A A A A A A A A A A A D D A 9 e e t d e t p.w.0.6.6.w.p.K A B A D A A A A A A A A A A A A A A A A A A A A A A A A A A A A A A A A A A A A A A A A A A A A A A A A A A A A A A A A A D A K e e e t e t 9 ..p.0.0.<.6.w.&.B A B A D D A A A A A A A A A A A A A A A A A A A A A A A A A A A A A A A A A A A A A A A A A A A A A A A A A A A A A A A A A A A A A A A A A A A A A A A A A A A A A A A A d 5 9 t e t 5 ..y.0.y.p.w.y.&.B A A A A A A A A A A A A A A A A A A A A A A A A A A A A A A A A A A A A A A A A A A A A A A A A A A A A A A A A A A A A A A A A A A A A A A A A D A D B A b 9 9 e d e 9 > :.0.6.0.0.6.p.( D K D A A A A A A A A A A A A A A A A A A A A A A A A A A A A A A A A A A A A A A A A A A A A A A A A A A A A A A A A A A A A A A A A D D D K l 9 t e e e e l y.6.0.6.w.y.0.K K P P P A A A A A A A A A A A A A A A A A A A A A A A A A A A A A A A A A A A A A A A A A A A A A A A A A A A A A A A A A D D D e e e t d d e w.y.0.6.0.w.y.( b B B A A A A A A A A A A A A A A A A A A ",
"t e 9 9 5 e 5 &.w.w.w.y.w.f.' A D A D D D b 9 t t t e e d p.y.y.p.y.y.w.K A B A D D D D D D D D D D D D D D D D D D D D D D D D D D D D D D D D D K A D A A K h 5 e t d e > B p.0.0.w.y.y.w.A D D D D D D D D D D D D D D D D D D D D D D D D D D D D D D D D D D D D D D D D D D D D D D D D D D D D D D D D D D D D D D D D D D D D D D D D D D D K A P d t d e 9 d 5 ' f.y.y.p.y.y.:.B D A A D D D D D D D D D D D D D D D D D D D D D D D D D D D D D D D D D D D D D D D D D D D D D D D D D D D D D D D D D D D D D D D D b A A A 5 e e t e e e y.y.y.y.0.w.p.K A A K K D D D D D D D D D D D D D D D D D D D D D D D D D D D D D D D D D D D D D D D D D D D D D D D D D D D D D D D D D A B D 9 e e t e t 5  .y.0.w.0.p.y.&.B D A K K K D D D D D D D D D D D D D D D D D D D D D D D D D D D D D D D D D D D D D D D D D D D D D D D D D D D D D D D D D D D D D D D D D D D D D D D D D D D D D D D D d 9 9 t 9 t 9 ..w.6.w.y.y.y.&.B D D D D D D D D D D D D D D D D D D D D D D D D D D D D D D D D D D D D D D D D D D D D D D D D D D D D D D D D D D D D D D D D D D D D D D D D D A D A D A t t 9 t e d 9 <.w.w.p.p.w.f.( A A A D D D D D D D D D D D D D D D D D D D D D D D D D D D D D D D D D D D D D D D D D D D D D D D D D D D D D D D D D D D D D D D D A A B D l 9 t e e e e l f.w.p.y.y.y.0.A B A A B D D D D D D D D D D D D D D D D D D D D D D D D D D D D D D D D D D D D D D D D D D D D D D D D D D D D D D D D B D A D 9 e e d 5 9 5 6.0.w.0.0.w.p.( B D D K K D D D D D D D D D D D D D D D D ",
"9 e t e 9 t 9 :.p.y.0.0.6.p.( B D A K D D l 5 9 e 9 9 t h p.w.w.6.0.w.0.K A D K D D D D D D D D D D D D D D D D D D D D D D D D D D D D D D D D A D A D A A K h t t 9 e e 5 D k.w.w.w.0.0.0.A K D D D D D D D D D D D D D D D D D D D D D D D D D D D D D D D D D D D D D D D A D D D D D D D D D D D D D D D D D D D D D D D D D D D D D D D D A A K A K t 9 9 e 9 t > ( p.w.0.6.6.w.&.b D D K D D D D D D D D D D D D D D D D D D D D D D D D D D D D D D D D D D D D D D D D D D D D D D D D D D D D D D D D D D D D D D D D A K D A 5 9 9 9 e e 9 6.6.w.y.w.0.y.K D K K K A D D D D D D D D D D D D D D D A D D D D D D D D D D D D D D D D D D D D D D D D D D D D D D D D D D D D D D D D K D P e e e e 5 9 1 ..p.w.w.6.w.y.&.B K D K A B D D D D D D D D D D D D D D D D D D D D D D D D D D D D D D D D D D D D D D D D D D D D D D D D D D D D D D D D D D D D D D D D D D D D D D D D D D D D D D D D e 9 t t 9 e 5 ' f.0.w.w.w.y.&.b D D D D D D D D D D D D D D D A D D D D D D D D D D D D D D D D D D D D D D D D D D D D D D D D D D D D D D D D D D D D D D D D D D D D D D D D D D K A D B 9 9 t t 9 e 1 &.w.y.6.0.6.p.^ B D K D D D D D D D D D D D D D D A A D D D D D D D D D D D D D D D D D D D D D D D D D D D D D D D D D D D D D D D D D D D D D D D D D D A K h 5 e 9 e 9 5 h p.w.y.0.6.0.0.D D K K D D D D D D D D D D D D D D D D D D D D D D D D D D D D D D D D D D D D D D D D A D D D D D D D D D D D D D D D D D K D D 9 9 9 e e e 5 <.0.y.y.w.6.w.( A D A D A D D D D D D D D D D D D D D D D ",
"e 9 9 e e e 5 &.y.w.w.y.6.p.' B D A D D D b 9 e e e 9 e d y.0.0.w.w.w.w.K A A D D D D D D D D D D D D D D D D D D D D D D D D D D D D D D D D D A D A D A A D d 9 e t 9 t 5 K p.w.0.w.w.w.6.B K D D D D D D D D D A A D D D A D D D D A D D D D D D D D D D D D D D D D D D D A D D A D D D D A D D D D D D D D D D A D D D A D A A A D D D K K D B A P K d 5 d e 9 t 5  .f.w.0.0.0.y.&.b D D D D D D D D D D D D D D D D D D D D D D D D D D D D D D D D D D D D D D D D D D D D D D D D D D D D D D D D D D D D D D D D D D D A D A B 5 e e e e e e y.w.w.w.w.0.y.P A A K A A D D D D D D D D D D D D D D D A D D A D D D D A D D D D D D D D D D D D D D D D D D D D D D D D D D D D D D D D D A K e e e e 9 e 5  .y.w.y.0.w.y.$.b D A D D D D D A D D D D A D D D D D D D D D D D D D D D D D D D D D D D D D D D D D D D D D D D D D D D D D D D D D D D D D D D D D D D D D D D D D D D D D D D D D D D D t 9 e t 9 e 5 ' p.6.y.w.0.y.$.B D D D D D D D D D D D D D D D A D D A D D D D A D D D D D D D D D A A D D D A D D D D A D D D D D D D D D D D D D D D D D D D D D D A A D D D D D D K A D B e e d 9 e l 5 <.p.6.0.w.0.p.^ A D D D D D D D D D D D D D A D D D D D D D D D D D D D D D D D D D D D D D D D D D D D D D D D D D D D D D D D D D D D D D D D D D D A A A K l 9 t 9 e e 9 l p.0.y.w.w.w.0.D A D D D D D D D D D D D D A A D D D A D D D D A D D D D D D D D D D D D D D D D D D D A D D A D D D D A D D D D D D D D D D A A 9 e 9 e e e 9 0.w.w.w.w.w.y.^ A D A D A D D D A D D D D D D D D D D D D ",
"e 9 9 e e e 5 &.y.w.w.y.6.p.' B D A D D D b 9 e e e 9 e d y.0.0.w.w.w.w.K A A D D D D D D D D D D D D D D D D D A A D D D D D D D D D D D D D D A D A D A A D d 9 e t 9 t 5 K p.w.0.w.w.w.6.B K D D D D D D D D D D D D D D A D D D D A D D D D D D D D D D D D D D A A D D D D D D A D D D D A D D D D D D D D A D D D D D A D D D D D D A A B P K D D A t 5 t t e d 5 ( 0.<.y.p.y.p.:.B K A A D D D D D D D D A A D D D D D D D D D D D D D D A A D D D D D D D D D D D D D D A A D D D D D D D D D D D D D D A A D D D D D D A D A B 5 e e e e e e y.w.w.w.w.0.y.P A A K A A D D D D D D D D D D A A D D D D D D A D D D D A D D D D D D D D D D D D D D D D D D D D D D D D D D D D D D D D D A K e e e e 9 e 5  .y.w.y.0.w.y.$.b D A D D D D D A D D D D A D D D D D D D D D A D D D D D D D D D D D D D D A A D D D D D D D D D D D D D D A A D D D D D D D D D D D D D D A A D D D D D D D D D D D D D D t 9 e t 9 t 5  .p.6.y.w.0.y.$.B D D D D D D D D D D A A D D D D D D A D D D D A D D D D D D D D D D D D D D A D D D D A D D D D D D D D D D D D D D D D A A D D A A D D D D D D P A A B D D e 9 1 9 9 t > 0.p.6.p.p.w.f.( A A B D D D D D D D D D D D A D D D D D A D D D D D D D D D D D D D D A A D D D D D D D D D D D D D D A A D D D D D D D D D D D D D D A A A K l 9 t 9 e e 9 l p.0.y.w.w.w.0.D A D D D D D D D D D D D D D D D D D A D D D D A D D D D D D D D D D D D D D A A D D D D D D A D D D D A D D D D D D D D D D A A 9 e 9 e e e 9 0.w.w.w.w.w.y.^ A D A D A D D D A D D D D D D D D D D D D ",
"e 9 9 e e e 5 &.y.w.w.y.6.p.' B D A D D D b 9 e e e 9 e d y.0.0.w.w.w.w.K A A D D D D D D D A A D D D D D D D D D D D D A A D D D D D D D D D D A D A D A A D d 9 e t 9 t 5 K p.w.0.0.w.w.6.B K D D D D D D D D D D D D D D D D D D D D D D D A D D D D A A D D D D D D D D D D D D D D D D D D D D D D D D D D D D D D D D D D A D D K D D D A B A A D A h 9 e e 9 e 1 $.f.0.v.6.6.0.$.b K D D D D D D D D D D D D D D A A D D D D D D D D D D D D D D A A D D D D D D D D D D D D D D A A D D D D D D D D D D D D D D A A D D A D A B 5 e e e e e e y.w.w.w.w.0.y.W A A K A A D D D D A A D D D D D D D D D D D D D D D D D D D D D D D D D D A A D D D D A D D D D D D D D D A D D D D A A D D A K e e e e 9 e 5  .y.w.y.0.w.y.$.b D A D D D D D D D D D D D D D D D D D D D D D D D D D D D D D D D D D D D D D D D A A D D D D D D D D D D D D D D A A D D D D D D D D D D D D D D A A D D D D D D D D D D t 9 e t 9 t 5  .p.6.y.w.0.y.$.B D D D D A A D D D D D D D D D D D D D D D D D D D D D D D D D D D D D D D D D D D D D D D D D A D D D D A A D D D D D A D D D D A D D D D D D D b b A A P K t 9 d h 9 d = 6.y.w.6.6.<.y.^ D K A D D D D A A D D D D D D D D D D D D D A D D D D D D D D D D D D D D D D A A D D D D D D D D D D D D D D A A D D D D D D D D D D A A A K l 9 t 9 e e 9 l p.0.y.w.w.w.0.D A D D D D D D D D D D D D D D D D D D D D D D D D D D A D D D D A A D D D D D D D D D D D D D D D D D D D D D D D D D D D D A A 9 e 9 e e e 9 0.w.w.w.w.w.y.( A D A D A D D D D D D D A D D D D A A D D ",
"e 9 9 e e e 5 &.y.w.w.y.6.p.' B D A D D D b 9 e e e 9 e d y.0.0.w.w.w.w.K A A D D D D D D D A D D D D D D D D A D D D D D D D D D D D D A A D D A D A D A A D d 9 e t 9 t 5 K p.w.0.0.w.w.6.B D D D D D A D D D D D D D D D D D D D D D D D D D D D D D D D D D D D D D D D D D D D D D D D D D D D D D A D D D D D D D D D D D A D D D D D D D K K D P D d 1 9 e t t >  .y.&.6.p.y.p.&.b D A D D D D D D D D A D D D D D D D D D D D D D D D A D D D D D D D D D D D D D D D A D D D D D D D D D D D D D D D A D D D D D D D D A D A B 5 e e e e e e y.w.w.w.w.w.y.W A A K A A D D D D D D D D D D D D D D D D D D D D D D D D D D D D A D D D D D D D D D A D D D D D A D D D A D D D D D D D D A K e e e e 9 e 5  .y.w.y.0.w.y.$.b D A D D D D D D D D D D D D D D D A D D D D D A D D D A A D D D D D D D A D D D D D D D D D D D D D D D A D D D D D D D D D D D D D D D A D D D D D D D D D D D D D D D A t 9 e t 9 t 5  .p.6.y.w.0.y.$.B D D D D D D D D D D D D D D D D D D D D D D D D D D D D A D D D D D D D D D D D D D D D D D D D D D D D D D D D D D D D D D D D D D D D A A A A D D P D A b 9 e e 9 > h 1 <.0.p.y.y.w.f.( D D B D D D D D D D D D D D D D D D D D D D D D D D D D D D D D D D A D D D D D D D D D D D D D D D A D D D D D D D D D D D D D D D A A A A K l 9 t 9 e e 9 l p.0.y.w.w.w.0.D A D D D D D D D A D D D D D D D D D D D D D D D D D D D D D D D D D D D D D D D D D D D D D D D D D D D D D D D A D D D D D A A 9 e 9 e e e 9 0.w.w.w.w.w.y.( A D A D A D D D D D D D D D D D D D D D D ",
"e 9 9 e e e 5 &.y.w.w.y.6.p.' B D A D D D b 9 e e e 9 e d y.0.0.w.w.w.w.K A A D D D D D A D D D D D A D D D D A D D D D D D D D A D D D D D D D A D A D A A D d 9 e t 9 t 5 K p.w.0.w.w.0.6.B D D D D D D D D D A D D D D A D D D D D D D D D D D D D D D D D D D A A D A D D D D D D D D D D D D D D D D D D D D D D D D D D D D D A A A B B A P A B K D d 9 l 1 t h 1 ' p.w.f.0.w.y.&.l A A D D D A D D D D A D D D D D D D D D D A D D D D A D D D D D D D D D D A D D D D A D D D D D D D D D D A D D D D A D D D D D D D D A D A B 5 e e e e e e y.w.w.w.w.w.y.W A A K A A D D D D D D D D D A A D A D D D D D D D D D D D D D D D D D D D D D D D D D D D D D D D D D D D D D D D D D D D D A K e e e e 9 e 5  .y.w.y.0.w.y.$.b D A D D D D D D D D D D D D D D D D D D D D D D D D D D D D D A D D D D A D D D D D D D D D D A D D D D A D D D D D D D D D D A D D D D A D D D D D D D D D D A D D D D A t 9 e t 9 t 5  .p.6.y.w.0.y.$.B D D D D D D D D D A A D A D D D D D D D D D D D D D D D D D D D A D D D D A D D D D D D D D D D D D D D D D D D D D D A D D D D D D D A A A D D K D D b B B t h 5 d e l e 6.6.0.0.w.w.p.^ B D A D D D D D D D D D D D D D D D D D D D D D D D D D D A D D D D A D D D D D D D D D D A D D D D A D D D D D D D D D D A D D D D A A A A K l 9 t 9 e e 9 l p.0.y.w.w.w.0.D A D D D D D D D D D D D A D D D D A D D D D D D D D D D D D D D D D D D D A A D A D D D D D D D D D D D D D D D D D D D D D A A 9 e 9 e e e 9 0.w.w.w.w.w.y.( A D A D A D D D D D D D D D D D D D D D D ",
"e 9 9 e e e 5 &.y.w.w.y.6.p.' B D B D D D b 9 e e e 9 e d y.0.0.w.w.w.w.K A A D D D D D D D D D D D A D D D D D A D D D D D D D A D D D D D D D A D A D A A D d 9 e t 9 t 5 K p.w.0.w.w.0.6.B D D D D D D D D D D D D D D A D D D D A A D D D D D D D D D D D D D D D D D D D D D D D D D D D D D D D D D D D D D D D D D D D D A A A A D D D K A B A K D t 1 e l t t > ( k.y.6.6.0.y.&.b D D K D D A D D D D D A D D D D D D D D D A D D D D D A D D D D D D D D D A D D D D D A D D D D D D D D D A D D D D D A D D D D D D D A D A B 5 e e e e e e y.w.w.w.w.w.y.W A A K A A D D D D D D D D D D D D D D D D D D D D D D D D D D D D D D D D D D D D D D D D D D D D D D D D D D D D D D D D D A K e e e e 9 e 5  .y.w.y.0.w.y.$.b D A D D D D D D D D D D D D D D D D D D D D D D D D A D D D D A D D D D D A D D D D D D D D D A D D D D D A D D D D D D D D D A D D D D D A D D D D D D D D D A D D D D D t 9 e t 9 t 5  .p.6.y.w.0.y.$.B D D D D D D D D D D D D D D D D D D D D D D D D D D D D D D D D D D D D D A D D D D A A D D D D D D D D D D D D D D D D D D D D D D A A D K K K D A A A P K e 5 5 h e 1 1 <.p.p.0.w.0.p.^ A K D D D D D D D D D D D A D A D D D D D D D D A D D D D A D D D D D A D D D D D D D D D A D D D D D A D D D D D D D D D A D D D D D A A A K l 9 t 9 e e 9 l p.0.y.w.w.w.0.D A D D D D D D D D D D D D D D D D A D D D D A A D D D D D D D D D D D D D D D D D D D D D D D D D D D D D D D D D D D D D D A A 9 e 9 e e e 9 0.w.w.w.w.w.y.( A D A D A D D A A D D D D D D D D D D D D ",
"e 9 9 e e e 5 &.y.w.w.y.6.p.' B D A D D D b 9 e e e 9 e d y.0.0.w.w.w.w.K A A D D D D D D D D D D D D D D D D D D D D D A D D D D D D D D D D D A D A D A A D d 9 e t 9 t 5 K p.w.0.w.w.0.6.B K D D A D D D D D D D D D D D D D D D D D D D A A D D D D D D D D D D D D D D D D D D A A D D D D D D A D D D D D D D D D D A D D B A D D K D D D B K K A B h 9 5 e   5 9 ( p.y.w.p.y.p.:.A P A B D D D D D D D D D D D D A D D D D D D D D D D D D D D D A D D D D D D D D D D D D D D D A D D D D D D D D D D D D D D D A D D D A D A B 5 e e e e e e y.w.w.w.w.w.y.W A A K A A D D D D D D D D D D D D D D D D D D A A D D D D D D A D D D D D D D D D D D D A D D A D D D D D D D D D D D A A D A K e e e e 9 e 5  .y.w.y.0.w.y.$.b D A D D D D D A A D D D D D D A D D D D D D D D D D D D D D D D D D D D D D D D D A D D D D D D D D D D D D D D D A D D D D D D D D D D D D D D D A D D D D D D D D D D D t 9 e t 9 t 5  .p.6.y.w.0.y...B D D D D D D D D D D D D D D D D D D A A D D D D D D A D D D D D D D D D D D D D D D D D D D A A D D D D D D D D D D D D D D D D D D A D K K A B K K K A D B 9 9 e t t 5 t ..0.y.f.p.0.y.^ D D B D D D D D D D D D D D D A D D D D D D A D D D D D D D D D D D D D D D D A D D D D D D D D D D D D D D D A D D D D D D D D D D D A A A K l 5 e 9 e e 9 l p.0.y.w.w.w.0.D A D D D D D A D D D D D D D D D D D D D D D D D D D A A D D D D D D D D D D D D D D D D D D A A D D D D D D A D D D D D D D A A 9 e 9 e e e 9 0.w.w.w.w.w.y.( A D A D A D D D D D D A A D D D D D D D D ",
"e 9 9 e e e 5 &.y.w.w.y.6.p.' B D A D D D b 9 e e e 9 e d y.0.0.w.w.w.w.K A A D D D D D D D D D D D D D D D D D D D D D A D D D D D D D D D D D A D A D A A D d 9 e t 9 t 5 K p.w.0.w.w.0.6.B K D D A A D D D D D D D D D D D D D D D D D D D D D D D A A D D D D D D D D D D D D D D D D D A D D D A A D D D D D D D D D D D D A D D D A b d t 9 l h 9 l ' :.6.0. .p.<.( D A P P K W P h P D A D D D D D D D D D D D D A D D D D D D D D D D D D D D D A D D D D D D D D D D D D D D D A D D D D D D D D D D D D D D D A D D D A D A B 5 e e e e e e y.w.w.w.w.w.y.W A A K A D D D D A A D D D D D D D D D D D D D D D D D A D D D A A D D D D A A D D D D D D D D A A D D D D D A D D D D A D D A K e e e e 9 e 5  .y.w.y.0.w.y.$.b D A D D D D D D D D D A D D D A A D D D D D D D D D D D D D D D D D D D D D D D D A D D D D D D D D D D D D D D D A D D D D D D D D D D D D D D D A D D D D D D D D D D D t 9 e t 9 t 5  .p.6.y.w.0.y.$.B D D D A A D D D D D D D D D D D D D D D D D A D D D A A D D D D D D D D D D D D D D D D D D D D D D D A A D D D D D D D D D D D K D A D K A l t e t d 9 e B ( y.6...<.<.:.( D W W K D ' A A D A D D D A A D D D D D D D D D D D D D D A D D D D D D D D D D D D D D D D A D D D D D D D D D D D D D D D A D D D D D D D D D D D A A A K l 9 e 9 e e 9 l p.0.y.w.w.w.0.D A D D D D D A A D D D D D D D D D D D D D D D D D D D D D D D A A D D D D D D D D D D D D D D D D D A D D D A A D D D D D D A A 9 e 9 e e e 9 0.w.w.w.w.w.y.( A D A D A D D D D D D D D D D D A A D D D ",
"e 9 9 e e e 5 &.y.0.y.w.p.y.' A K A D A B b e 9 e e 9 e d y.0.0.w.6.w.w.A A K A D D D D D D D D D D D D D D D D D D D D D D D D D A A D D D D D D D P D D B W h 9 e e e e 9 D p.6.p.0.w.p.6.b D D D D D D D D D D D D D D D D D D D D D D D D D D D D D D D D D D D D D D D D D D D D D D D D D D D D D D D D D D D D D D D D D B K D A B B 1 t 9 t e e 5 <.w.w.y.y.p.f.' l B B D D D D D D D D D D D D D D D D D D D D D D D D D D D D D D D D D D D D D D D D D D D D D D D D D D D D D D D D D D D D D D D D D D D D D D D D D D D b 5 e 1 t e e e y.w.w.w.w.0.y.P h K A B K D D D D D D D D D D D D D D D D D D D D D D D D D D D D D D D D D D D D D D D D D D D D D D D D D D D D D D D D A B K t t e 9 9 e 5  .y.w.y.0.w.y.$.b D A D D D D D D D D D D D D D D D D D D D D D D D D D D D D D D D D D D D D D D D D D D D D D D D D D D D D D D D D D D D D D D D D D D D D D D D D D D D D A A A A D D D t 9 e t 9 t 5  .y.w.w.y.y.y.$.B D D D D D D D D D D D D D D D D D D D D D D D D D D D D D D D D D D D D D D D D D D D D D D D D D D D D D D D D D D D D D D D D D A D D A D b 9 9 e t 5 t t 0.w.w.y.y.y.p.P A D D D D D D D D D D D D D D D D D D D D D D D D D D D D D D D D D D D D D D D D D D D D D D D D D D D D D D D D D D D D D D D D D D D D D D D D D D B b A l 9 t 9 e e 9 l p.0.y.w.0.w.6.A A D D D D A A D D D D D D D D D D D D D D D D D D D D D D D D D D D D D D D D D D D D D D D D D D D D D D D D D D D D D A P D B e e 5 e e e 5 6.w.w.w.w.6.f.( l D D A K D D D D D D D D D D D D D D D D ",
"e 9 9 e e e 5 &.y.w.y.0.w.w.' A D B K D A B e e e e 9 e d y.0.0.p.w.y.y.K D K A A A A A A A A A A A A A A A A A A A A A A A A A A A A A A A A A D B D A D b K t 9 e e e e 9 D p.0.p.0.0.y.<.B K A A A A A A A A A A A A A A A A A A A A A A A A A A A A A A A A A A A A A A A A A A A A A A A A A A A A A A A A A A A A A A A A B D A D D D 5 e 9 t e e 5 <.w.w.w.0.w.p. .A P P A A A A A A A A A A A A A A A A A A A A A A A A A A A A A A A A A A A A A A A A A A A A A A A A A A A A A A A A A A A A A A A A A A A A A A A A A D K A 9 d 9 d e e e y.w.w.w.w.0.y.W b P A B D A A A A A A A A A A A A A A A A A A A A A A A A A A A A A A A A A A A A A A A A A A A A A A A A A A A A A A A A K A P d t 9 e t e 5  .y.w.y.0.w.y.$.B K A A A A A A A A A A A A A A A A A A A A A A A A A A A A A A A A A A A A A A A A A A A A A A A A A A A A A A A A A A A A A A A A A A A A A A A A A A A A A A A A A A A A t 9 e t 9 t 5  .p.w.w.w.0.w.$.B A A A A A A A A A A A A A A A A A A A A A A A A A A A A A A A A A A A A A A A A A A A A A A A A A A A A A A A A A A A A A A A A D B A D D K b 9 9 e t 5 t t 0.w.w.w.0.0.y.K B D A A A A A A A A A A A A A A A A A A A A A A A A A A A A A A A A A A A A A A A A A A A A A A A A A A A A A A A A A A A A A A A A A A A A A A A A D D D K b e d e e e 9 l p.0.y.w.w.y.w.K D K K D A A A A A A A A A A A A A A A A A A A A A A A A A A A A A A A A A A A A A A A A A A A A A A A A A A A A A A A A A P K D e t e d e e 5 6.w.w.w.w.6.f.( b K D A D A A A A A A A A A A A A A A A A ",
"e 9 9 e e e 5 &.y.w.y.6.0.y.' A A A P K K B 9 e e e 9 e d y.0.0.0.6.0.0.A A A B D D D D D D D D D D D D D D D D D D D D D D D D D D D D D D D D P A D K K B P d 9 e e e e 9 D p.w.p.6.0.w.6.A K D D D D D D D D D D D D D D D D D D D D D D D D D D D D D D D D D D D D D D D D D D D D D D D D D D D D D D D D D D D D D D D D A K D K K P 9 e 9 t e e 5 <.w.w.y.0.0.w.( l B b D D D D D D D D D D D D D D D D D D D D D D D D D D D D D D D D D D D D D D D D D D D D D D D D D D D D D D D D D D D D D D D D D D D D D D D D B B D b 1 e 1 9 e e e y.w.w.w.w.0.y.( A P D A K D D D D D D D D D D D D D D D D D D D D D D D D D D D D D D D D D D D D D D D D D D D D D D D D D D D D D D D D D b A e 9 1 5 e e 5  .y.w.y.0.w.y.$.B P K D A D D D D D D D D D D D D D D D D D D D D D D D D D D D D D D D D D D D D D D D D D D D D D D D D D D D D D D D D D D D D D D D D D D D D D D D D D D D D D D D K K t 9 e t 9 t 5  .p.y.w.6.0.w.&.B D D D D D D D D D D D D D D D D D D D D D D D D D D D D D D D D D D D D D D D D D D D D D D D D D D D D D D D D D D D D D D D D D A D P P K b 9 9 e t 5 t t 0.w.w.0.6.0.y.K A P D D D D D D D D D D D D D D D D D D D D D D D D D D D D D D D D D D D D D D D D D D D D D D D D D D D D D D D D D D D D D D D D D D D D D D D D B D D D h 5 e 5 e e 9 l p.0.y.w.6.w.0.A B A A B D D D D D D D D D D D D D D D D D D D D D D D D D D D D D D D D D D D D D D D D D D D D D D D D D D D D D D D D B D A B 5 9 9 9 e e 9 0.w.w.w.w.0.p.( A P K D A D D D D D D D D D D D D D D D D ",
"e 9 9 e e e 5 &.y.w.y.6.w.p. .B B B D B A l 1 e e e 9 e d y.0.0.0.w.y.w.K D K K A A A A A A A A A A A A A A A A A A A A A A A A A A A A A A A A K B A A D l K d 9 e e e e 9 D p.0.y.0.w.y.0.D D A A A A A A A A A A A A A A A A A A A A A A A A A A A A A A A A A A A A A A A A A A A A A A A A A A A A A A A A A A A A A A A A B D B A A A 1 e 9 t e e 5 <.w.w.w.0.w.y. .D W K A A A A A A A A A A A A A A A A A A A A A A A A A A A A A A A A A A A A A A A A A A A A A A A A A A A A A A A A A A A A A A A A A A A A A A A A K D K A 5 d 9 9 e e e y.w.w.w.w.0.0.P b D B B A A A A A A A A A A A A A A A A A A A A A A A A A A A A A A A A A A A A A A A A A A A A A A A A A A A A A A A A A P A K d t 9 e t e 5  .y.w.y.0.w.y. .h D D A B A A A A A A A A A A A A A A A A A A A A A A A A A A A A A A A A A A A A A A A A A A A A A A A A A A A A A A A A A A A A A A A A A A A A A A A A A A A A A A A D D t 9 e t 9 t 5  .y.y.w.0.w.p.&.b A A A A A A A A A A A A A A A A A A A A A A A A A A A A A A A A A A A A A A A A A A A A A A A A A A A A A A A A A A A A A A A A D B A D A B l 9 9 e t 5 t t 0.w.w.w.6.w.p.K A K A A A A A A A A A A A A A A A A A A A A A A A A A A A A A A A A A A A A A A A A A A A A A A A A A A A A A A A A A A A A A A A A A A A A A A A A D K K K l t h 9 e e 9 l p.0.y.w.w.p.y.D A D K D A A A A A A A A A A A A A A A A A A A A A A A A A A A A A A A A A A A A A A A A A A A A A A A A A A A A A A A A K K D D 9 t e 9 e e 9 0.w.w.w.w.0.w.W b D A A B A A A A A A A A A A A A A A A A ",
"e 9 9 e e e 5 &.y.0.w.0.y.p.' l K K K A P B 9 l e e 9 e d y.0.0.0.y.y.0.K A A D D D D D D D D D D D D D D D D D D D D D D D D D D D D D D D D D P A D D D b W l 9 e e e e 9 D p.0.w.0.y.w.6.A B D D D D D D D D D D D D D D D D D D D D D D D D D D D D D D D D D D D D D D D D D D D D D D D D D D D D D D D D D D D D D D D D D P D D D K e h 9 t e e 5 <.w.w.0.w.y.p.' A K D D D D D D D D D D D D D D D D D D D D D D D D D D D D D D D D D D D D D D D D D D D D D D D D D D D D D D D D D D D D D D D D D D D D D D D D D D B D B 1 d e 5 e e e y.w.w.w.w.f.y.^ A K K P K D D D D D D D D D D D D D D D D D D D D D D D D D D D D D D D D D D D D D D D D D D D D D D D D D D D D D D D D K B D e t e e e e 5  .y.w.y.0.w.k.&.l K K K D K D D D D D D D D D D D D D D D D D D D D D D D D D D D D D D D D D D D D D D D D D D D D D D D D D D D D D D D D D D D D D D D D D D D D D D D D D D D D D K K K d 9 e t 9 e 5 ' y.w.w.0.y.p.$.l D D D D D D D D D D D D D D D D D D D D D D D D D D D D D D D D D D D D D D D D D D D D D D D D D D D D D D D D D D D D D D D D K D K K D D A h 9 e t 5 t t 0.w.w.w.0.w.p.P B A D D D D D D D D D D D D D D D D D D D D D D D D D D D D D D D D D D D D D D D D D D D D D D D D D D D D D D D D D D D D D D D D D D D D D D D D A D A A l t h e e e 9 l p.0.y.w.w.p.w.D A A A A D D D D D D D D D D D D D D D D D D D D D D D D D D D D D D D D D D D D D D D D D D D D D D D D D D D D D D D D K A A D 9 t t 9 e e 9 0.w.w.w.w.f.p.' D K D K K D D D D D D D D D D D D D D D D ",
"e 9 9 e e e 5 &.y.0.w.0.y.y.' A B A B b D l = e e e 9 e d y.0.0.6.w.0.<.K A b A B B B B B B B B B B B B B B B B B B B B B B B B B B B B B B B B A b A B B l K e 9 e e e e 9 D p.0.0.w.p.0.<.K D B B B B B B B B B B B B B B B B B B B B B B B B B B B B B B B B B B B B B B B B B B B B B B B B B B B B B B B B B B B B B B B B b A B B B B > 5 9 t e e 5 <.w.w.w.w.y.w.( b D b B B B B B B B B B B B B B B B B B B B B B B B B B B B B B B B B B B B B B B B B B B B B B B B B B B B B B B B B B B B B B B B B B B B B B B B B A b D B = t e 5 e e e y.w.w.w.w.0.:.K b B B A B B B B B B B B B B B B B B B B B B B B B B B B B B B B B B B B B B B B B B B B B B B B B B B B B B B B B B B B B D A D 5 5 9 9 5 e 5  .y.w.y.0.w.0. .h B b B b b B B B B B B B B B B B B B B B B B B B B B B B B B B B B B B B B B B B B B B B B B B B B B B B B B B B B B B B B B B B B B B B B B B B B B B B B B B B B B B B A d 9 e t 9 e 5 ' p.w.0.0.w.y.$.B B B B B B B B B B B B B B B B B B B B B B B B B B B B B B B B B B B B B B B B B B B B B B B B B B B B B B B B B B B B B B B B B b B B b b A b 1 9 e t 5 t t 0.w.0.y.w.0.y.W D A B B B B B B B B B B B B B B B B B B B B B B B B B B B B B B B B B B B B B B B B B B B B B B B B B B B B B B B B B B B B B B B B B B B B B B B B A A B D h 5 e 9 e e 9 l p.0.y.w.w.0.6.K D A A D B B B B B B B B B B B B B B B B B B B B B B B B B B B B B B B B B B B B B B B B B B B B B B B B B B B B B B B B A B A D 1 9 t 5 e e 9 0.w.w.w.w.0.6.W B B b A B B B B B B B B B B B B B B B B B ",
"e 9 9 e e e 5 &.y.0.w.w.w.w.$...&.:.&.$.6.( 9 h e e 9 e d y.0.0.y.p.w.y.&.&.....:.:.:.:.:.:.:.:.:.:.:.:.&.&.:.:.:.:.:.:.:.:.:.:.:.:.:.:.:.:.:.:.:.&.:.&.:.:.<.D 9 e e e e 9 D p.w.0.0.y.0.w. .$.:.:.:.:.:.:.:.:.:.:.:.:.:.:.:.:.:.:.:.:.:.:.:.:.:.:.:.:.:.:.:.:.:.:.:.:.:.:.:.:.:.:.:.:.:.:.:.:.:.:.:.:.:.:.:.:.:.:.:.:.:.:.:.:.$.:.$.&.&.$.h t 9 t e e 5 <.w.w.0.0.w.p.:.$.6.&.:.:.:.:.:.:.:.:.:.:.:.:.&.&.:.:.:.:.:.:.:.:.:.:.:.:.:.:.&.&.:.:.:.:.:.:.:.:.:.:.:.:.:.:.&.&.:.:.:.:.:.:.:.:.:.:.:.:.:.:.&.&.:.:.:.:.:.:.:.:.:.:.$...:.' 1 t d t e e e y.w.w.w.w.p.p.<.&.&.$.:.$.:.:.:.:.:.:.:.:.:.:.:.:.:.:.:.:.:.:.:.:.:.:.:.:.:.:.:.:.:.:.:.:.:.:.:.:.:.:.:.:.:.:.:.:.:.:.:.:.:.:.:.:.:.:.:.:...$.&.h 9 t d e e 5  .y.w.y.0.w.y.w...:.$.&.&.$.:.:.:.:.:.:.:.:.:.:.:.:.:.:.:.:.:.:.:.:.:.:.:.:.:.:.:.:.&.&.:.:.:.:.:.:.:.:.:.:.:.:.:.:.&.&.:.:.:.:.:.:.:.:.:.:.:.:.:.:.&.&.:.:.:.:.:.:.:.:.:.:.:.:.&.&.:.:.:.:.d 9 e t 9 e 5 ' p.w.0.w.0.w.<...:.:.:.:.:.:.:.:.:.:.:.:.:.:.:.:.:.:.:.:.:.:.:.:.:.:.:.:.:.:.:.:.:.:.:.:.:.:.:.:.:.:.:.:.:.:.:.:.:.:.:.:.:.:.:.:.:.:.:.:.:.:.:.:.$.:.:.$.&.<.' e 9 e t 5 t t 0.w.0.p.w.6.p.$... .:.:.:.:.:.:.:.:.:.:.:.:.:.:.:.:.:.:.:.:.:.:.:.:.:.:.:.:.:.:.:.:.:.:.:.:.&.&.:.:.:.:.:.:.:.:.:.:.:.:.:.:.&.&.:.:.:.:.:.:.:.:.:.:.:.:.:.:.:.:.:.:.$.$.$.&.P e t t e e 9 l p.0.y.w.p.w.y...:.$...&.:.:.:.:.:.:.:.:.:.:.:.:.:.:.:.:.:.:.:.:.:.:.:.:.:.:.:.:.:.:.:.:.:.:.:.:.:.:.:.:.:.:.:.:.:.:.:.:.:.:.:.:.:.:.:.:.$...&.$.e e h t e e 9 0.w.w.w.w.p.p.<.:.&.$.:.&.:.:.:.:.:.:.:.:.:.:.:.:.:.:.:.:.",
"e 9 9 e e e 5 &.y.0.y.w.w.w.0.f.w.p.y.w.f. .5 9 e e 9 e d y.0.0.0.w.6.y.w.f.y.y.y.y.y.y.y.y.y.y.y.y.y.y.y.y.y.y.y.y.y.y.y.y.y.y.y.y.y.y.y.y.y.y.y.w.y.0.p.p.y.D 9 e e e e 9 D p.w.0.0.y.0.f.0.f.y.y.y.y.y.y.y.y.y.y.y.y.y.y.y.y.y.y.y.y.y.y.y.y.y.y.y.y.y.y.y.y.y.y.y.y.y.y.y.y.y.y.y.y.y.y.y.y.y.y.y.y.y.y.y.y.y.y.y.y.y.y.y.y.y.y.0.y.y.6.d 5 9 t e e 5 <.w.w.y.0.0.p.0.0.k.w.y.y.y.y.y.y.y.y.y.y.y.y.y.y.y.y.y.y.y.y.y.y.y.y.y.y.y.y.y.y.y.y.y.y.y.y.y.y.y.y.y.y.y.y.y.y.y.y.y.y.y.y.y.y.y.y.y.y.y.y.y.y.y.y.y.y.y.y.y.y.y.y.p.y.v.:.1 9 e 9 e e e y.w.w.w.w.0.p.y.y.y.0.p.w.y.y.y.y.y.y.y.y.y.y.y.y.y.y.y.y.y.y.y.y.y.y.y.y.y.y.y.y.y.y.y.y.y.y.y.y.y.y.y.y.y.y.y.y.y.y.y.y.y.y.y.y.y.y.y.y.0.p.y.b 5 9 t e e 5  .y.w.y.0.w.6.p.0.f.w.y.p.y.y.y.y.y.y.y.y.y.y.y.y.y.y.y.y.y.y.y.y.y.y.y.y.y.y.y.y.y.y.y.y.y.y.y.y.y.y.y.y.y.y.y.y.y.y.y.y.y.y.y.y.y.y.y.y.y.y.y.y.y.y.y.y.y.y.y.y.y.y.y.y.y.w.w.w.w.w.y.y.y.d e e t 9 e 5 ' y.0.w.w.0.w.p.p.y.y.y.y.y.y.y.y.y.y.y.y.y.y.y.y.y.y.y.y.y.y.y.y.y.y.y.y.y.y.y.y.y.y.y.y.y.y.y.y.y.y.y.y.y.y.y.y.y.y.y.y.y.y.y.y.y.y.y.y.y.y.y.y.y.f.p.w.y.k...1 9 e t 5 t t 0.w.6.p.w.<.k.w.p.p.y.y.y.y.y.y.y.y.y.y.y.y.y.y.y.y.y.y.y.y.y.y.y.y.y.y.y.y.y.y.y.y.y.y.y.y.y.y.y.y.y.y.y.y.y.y.y.y.y.y.y.y.y.y.y.y.y.y.y.y.y.y.y.y.y.y.y.y.y.y.y.y.y.y.p.p.( 5 5 e e e 9 l p.0.y.w.w.6.y.6.f.y.0.p.y.y.y.y.y.y.y.y.y.y.y.y.y.y.y.y.y.y.y.y.y.y.y.y.y.y.y.y.y.y.y.y.y.y.y.y.y.y.y.y.y.y.y.y.y.y.y.y.y.y.y.y.y.y.y.y.p.p.k.0.t 5 e 9 e e 9 0.w.w.w.w.6.w.0.y.y.w.p.y.y.y.y.y.y.y.y.y.y.y.y.y.y.y.y.y.",
"t 1 d 9 1 h 5 $.w.w.0.0.w.w.w.0.y.<.y.w.y...5 e t 9 e 9 t p.:.p.w.w.w.w.w.w.w.w.0.0.0.0.0.0.0.0.0.0.0.0.0.0.0.0.0.0.0.0.0.0.0.0.0.0.0.0.0.0.0.0.6.p.6.w.w.&.p.D 1 d 9 1 t e A p.w.w.w.w.w.w.w.w.0.0.0.0.0.0.0.0.0.0.0.0.0.0.0.0.0.0.0.0.0.0.0.0.0.0.0.0.0.0.0.0.0.0.0.0.0.0.0.0.0.0.0.0.0.0.0.0.0.0.0.0.0.0.0.0.0.0.0.0.0.0.0.0.w.0.w.y.<.w.9 t t 5 9 h 1 :.y.0.w.w.w.w.w.w.w.w.0.0.0.0.0.0.0.0.0.0.0.0.0.0.0.0.0.0.0.0.0.0.0.0.0.0.0.0.0.0.0.0.0.0.0.0.0.0.0.0.0.0.0.0.0.0.0.0.0.0.0.0.0.0.0.0.0.0.0.0.0.0.0.0.0.0.0.0.0.0.0.0.6.y.w.&.5 d 9 t 5 d e w.w.w.w.0.w.w.w.w.w.w.w.w.0.0.0.0.0.0.0.0.0.0.0.0.0.0.0.0.0.0.0.0.0.0.0.0.0.0.0.0.0.0.0.0.0.0.0.0.0.0.0.0.0.0.0.0.0.0.0.0.0.0.0.0.0.0.0.0.y.:.p.d e t e t e 9 $.y.w.p.6.y.w.w.w.w.w.w.w.w.0.0.0.0.0.0.0.0.0.0.0.0.0.0.0.0.0.0.0.0.0.0.0.0.0.0.0.0.0.0.0.0.0.0.0.0.0.0.0.0.0.0.0.0.0.0.0.0.0.0.0.0.0.0.0.0.0.0.0.0.0.0.0.0.0.0.0.0.0.0.0.0.0.w.w.w.0.0.w.w.d 9 d 1 t d =  .y.w.0.w.w.0.0.0.0.0.0.0.0.0.0.0.0.0.0.0.0.0.0.0.0.0.0.0.0.0.0.0.0.0.0.0.0.0.0.0.0.0.0.0.0.0.0.0.0.0.0.0.0.0.0.0.0.0.0.0.0.0.0.0.0.0.0.0.0.0.0.0.0.6.w.p.6.0.&.5 e t 9 5 t 5 w.6.w.w.w.w.w.w.w.w.0.0.0.0.0.0.0.0.0.0.0.0.0.0.0.0.0.0.0.0.0.0.0.0.0.0.0.0.0.0.0.0.0.0.0.0.0.0.0.0.0.0.0.0.0.0.0.0.0.0.0.0.0.0.0.0.0.0.0.0.0.0.0.0.0.0.0.0.0.0.0.0.w.y.<.f.^ 1 b 9 t 9 e B p.6.y.w.w.w.w.w.w.w.w.w.0.0.0.0.0.0.0.0.0.0.0.0.0.0.0.0.0.0.0.0.0.0.0.0.0.0.0.0.0.0.0.0.0.0.0.0.0.0.0.0.0.0.0.0.0.0.0.0.0.0.0.0.0.0.0.0.w.p.0.<.e t 9 t 5 l 5 6.w.0.y.0.w.w.w.w.w.w.w.w.0.0.0.0.0.0.0.0.0.0.0.0.0.0.0.0.",
"e 5 t 9 9 h 5 :.y.y.w.w.w.y.w.w.y.6.y.w.p. .= 5 5 5 e e h f.<.y.w.w.w.w.w.w.w.w.w.w.w.w.w.w.w.w.w.w.w.w.w.w.w.w.w.w.w.w.w.w.w.w.w.w.w.w.w.w.w.w.w.f.w.y.y.<.f.A 5 d e 5 e 9 D k.w.w.w.w.w.w.w.w.w.w.w.w.w.w.w.w.w.w.w.w.w.w.w.w.w.w.w.w.w.w.w.w.w.w.w.w.w.w.w.w.w.w.w.w.w.w.w.w.w.w.w.w.w.w.w.w.w.w.w.w.w.w.w.w.w.w.w.w.w.w.w.w.w.w.w.w.6.w.> 5 t 9 9 d 5 6.f.y.w.w.w.w.w.w.w.w.w.w.w.w.w.w.w.w.w.w.w.w.w.w.w.w.w.w.w.w.w.w.w.w.w.w.w.w.w.w.w.w.w.w.w.w.w.w.w.w.w.w.w.w.w.w.w.w.w.w.w.w.w.w.w.w.w.w.w.w.w.w.w.w.w.w.w.w.w.w.w.w.w.y.y.&.1 e 5 9 > 9 9 0.y.w.w.0.w.w.w.w.w.w.w.w.w.w.w.w.w.w.w.w.w.w.w.w.w.w.w.w.w.w.w.w.w.w.w.w.w.w.w.w.w.w.w.w.w.w.w.w.w.w.w.w.w.w.w.w.w.w.w.w.w.w.w.w.w.w.w.w.y.<.f.h e e 1 5 1 >  .p.w.p.0.y.w.w.w.w.w.w.w.w.w.w.w.w.w.w.w.w.w.w.w.w.w.w.w.w.w.w.w.w.w.w.w.w.w.w.w.w.w.w.w.w.w.w.w.w.w.w.w.w.w.w.w.w.w.w.w.w.w.w.w.w.w.w.w.w.w.w.w.w.w.w.w.w.w.w.w.w.w.w.w.w.w.w.y.w.w.w.y.y.l 9 d 5 t t =  .p.y.w.y.y.w.w.w.w.w.w.w.w.w.w.w.w.w.w.w.w.w.w.w.w.w.w.w.w.w.w.w.w.w.w.w.w.w.w.w.w.w.w.w.w.w.w.w.w.w.w.w.w.w.w.w.w.w.w.w.w.w.w.w.w.w.w.w.w.w.w.w.w.0.y.f.0.w.&.> e e 9 9 t e k.p.y.y.y.y.y.y.y.y.w.w.w.w.w.w.w.w.w.w.w.w.w.w.w.w.w.w.w.w.w.w.w.w.w.w.w.w.w.w.w.w.w.w.w.w.w.w.w.w.w.w.w.w.w.w.w.w.w.w.w.w.w.w.w.w.w.w.w.w.w.w.w.w.w.w.w.w.w.w.w.w.y.y.<.f.W = t 1 9 5 5 l f.0.y.w.w.w.w.w.w.w.w.w.w.w.w.w.w.w.w.w.w.w.w.w.w.w.w.w.w.w.w.w.w.w.w.w.w.w.w.w.w.w.w.w.w.w.w.w.w.w.w.w.w.w.w.w.w.w.w.w.w.w.w.w.w.w.w.w.y.f.w.6.5 e 5 9 5 d = :.0.0.y.y.w.w.w.w.w.w.w.w.w.w.w.w.w.w.w.w.w.w.w.w.w.w.w.w.",
"e e t 9 9 e > :.y.w.w.w.w.w.w.w.y.0.6.6.p. .1 d t t d 9 h p.<.0.0.0.0.0.0.0.0.0.w.w.w.w.w.w.w.w.w.w.w.w.w.w.w.w.w.w.w.w.w.w.w.w.w.w.w.w.w.w.w.w.0.w.0.w.w.0.v.B > t t t t 5 b p.0.0.0.0.0.0.0.0.w.w.w.w.w.w.w.w.w.w.w.w.w.w.w.w.w.w.w.w.w.w.w.w.w.w.w.w.w.w.w.w.w.w.w.w.w.w.w.w.w.w.w.w.w.w.w.w.w.w.w.w.w.w.w.w.w.w.w.w.w.w.w.w.w.w.6.<.0.y.9 d e 9 t d 5 :.w.:.0.0.0.0.0.0.0.0.w.w.w.w.w.w.w.w.w.w.w.w.w.w.w.w.w.w.w.w.w.w.w.w.w.w.w.w.w.w.w.w.w.w.w.w.w.w.w.w.w.w.w.w.w.w.w.w.w.w.w.w.w.w.w.w.w.w.w.w.w.w.w.w.w.w.w.w.w.w.w.w.0.0.y.:.1 t d d h d e 6.w.0.0.w.0.0.0.0.0.0.0.0.w.w.w.w.w.w.w.w.w.w.w.w.w.w.w.w.w.w.w.w.w.w.w.w.w.w.w.w.w.w.w.w.w.w.w.w.w.w.w.w.w.w.w.w.w.w.w.w.w.w.w.w.w.w.w.w.0.6.f.h e d t t d 5 ..p.6.0.0.y.0.0.0.0.0.0.0.0.w.w.w.w.w.w.w.w.w.w.w.w.w.w.w.w.w.w.w.w.w.w.w.w.w.w.w.w.w.w.w.w.w.w.w.w.w.w.w.w.w.w.w.w.w.w.w.w.w.w.w.w.w.w.w.w.w.w.w.w.w.w.w.w.w.w.w.w.w.w.w.w.w.w.w.w.w.w.w.y.h 5 t 5 t 9 > ..y.w.0.w.w.0.0.w.w.w.w.w.w.w.w.w.w.w.w.w.w.w.w.w.w.w.w.w.w.w.w.w.w.w.w.w.w.w.w.w.w.w.w.w.w.w.w.w.w.w.w.w.w.w.w.w.w.w.w.w.w.w.w.w.w.w.w.w.w.w.w.w.y.w.0.0.6.y.:.5 e 9 t d e 9 w.6.w.w.w.w.w.w.w.w.w.w.w.w.w.w.w.w.w.w.w.w.w.w.w.w.w.w.w.w.w.w.w.w.w.w.w.w.w.w.w.w.w.w.w.w.w.w.w.w.w.w.w.w.w.w.w.w.w.w.w.w.w.w.w.w.w.w.w.w.w.w.w.w.w.w.w.w.w.w.w.w.6.0.6.f.( 1 d t t t 9 b f.w.0.0.0.0.0.0.0.0.0.0.w.w.w.w.w.w.w.w.w.w.w.w.w.w.w.w.w.w.w.w.w.w.w.w.w.w.w.w.w.w.w.w.w.w.w.w.w.w.w.w.w.w.w.w.w.w.w.w.w.w.w.w.w.w.w.w.0.y.0.y.5 d t d t h 5 <.w.6.0.0.0.0.0.0.0.0.0.0.w.w.w.w.w.w.w.w.w.w.w.w.w.w.w.w.",
"e t t e e e > :.y.w.0.0.w.w.w.0.y.w.6.6.f.' 1 d t e e > t 0.6.w.0.0.0.0.0.0.0.0.w.w.w.w.w.w.w.w.w.w.w.w.w.w.w.w.w.w.w.w.w.w.w.w.w.w.w.w.w.w.w.w.w.0.0.w.0.0.k.B > e t t e 5 D k.0.0.0.0.0.0.0.0.w.w.w.w.w.w.w.w.w.w.w.w.w.w.w.w.w.w.w.w.w.w.w.w.w.w.w.w.w.w.w.w.w.w.w.w.w.w.w.w.w.w.w.w.w.w.w.w.w.w.w.w.w.w.w.w.w.w.w.w.w.w.w.w.0.y.6.6.y.w.9 e e e t e 9 :.y.6.0.0.0.0.0.0.0.0.w.w.w.w.w.w.w.w.w.w.w.w.w.w.w.w.w.w.w.w.w.w.w.w.w.w.w.w.w.w.w.w.w.w.w.w.w.w.w.w.w.w.w.w.w.w.w.w.w.w.w.w.w.w.w.w.w.w.w.w.w.w.w.w.w.w.w.w.w.w.w.w.0.6.y.&.1 9 t e d e t 6.y.w.0.w.0.0.0.0.0.0.0.0.w.w.w.w.w.w.w.w.w.w.w.w.w.w.w.w.w.w.w.w.w.w.w.w.w.w.w.w.w.w.w.w.w.w.w.w.w.w.w.w.w.w.w.w.w.w.w.w.w.w.w.w.w.w.w.w.w.0.w.d 1 e e t t 5  .f.6.0.w.y.0.0.0.0.0.0.0.0.w.w.w.w.w.w.w.w.w.w.w.w.w.w.w.w.w.w.w.w.w.w.w.w.w.w.w.w.w.w.w.w.w.w.w.w.w.w.w.w.w.w.w.w.w.w.w.w.w.w.w.w.w.w.w.w.w.w.w.w.w.w.w.w.w.w.w.w.w.w.w.w.0.w.w.w.0.0.w.y.h 5 e 9 t 9 5 ..y.w.0.w.w.0.0.w.w.w.w.w.w.w.w.w.w.w.w.w.w.w.w.w.w.w.w.w.w.w.w.w.w.w.w.w.w.w.w.w.w.w.w.w.w.w.w.w.w.w.w.w.w.w.w.w.w.w.w.w.w.w.w.w.w.w.w.w.w.w.w.w.w.w.6.0.0.p.&.1 e 5 t d 5 e w.0.0.0.0.0.0.0.0.0.w.w.w.w.w.w.w.w.w.w.w.w.w.w.w.w.w.w.w.w.w.w.w.w.w.w.w.w.w.w.w.w.w.w.w.w.w.w.w.w.w.w.w.w.w.w.w.w.w.w.w.w.w.w.w.w.w.w.w.w.w.w.w.w.w.w.w.w.w.w.w.w.0.w.6.f.( 1 e t 9 t 5 l p.w.6.0.0.0.0.0.0.0.0.0.w.w.w.w.w.w.w.w.w.w.w.w.w.w.w.w.w.w.w.w.w.w.w.w.w.w.w.w.w.w.w.w.w.w.w.w.w.w.w.w.w.w.w.w.w.w.w.w.w.w.w.w.w.w.w.w.0.w.6.y.> t e e e t 9 6.p.0.0.6.0.0.0.0.0.0.0.0.w.w.w.w.w.w.w.w.w.w.w.w.w.w.w.w.",
"5 e e t t d e :.p.p.y.y.p.p.p.y.y.p.p.f.v. .5 5 9 e e 5 b w.p.f.p.p.p.p.p.p.p.p.p.p.p.p.p.p.p.p.p.p.p.p.p.p.p.p.p.p.p.p.p.p.p.p.p.p.p.p.p.p.p.p.f.p.p.y.y.w.k.K 9 e 9 5 5 e W v.p.p.p.p.p.p.p.p.p.p.p.p.p.p.p.p.p.p.p.p.p.p.p.p.p.p.p.p.p.p.p.p.p.p.p.p.p.p.p.p.p.p.p.p.p.p.p.p.p.p.p.p.p.p.p.p.p.p.p.p.p.p.p.p.p.p.p.p.p.p.p.p.w.f.p.p.k.6.e 1 e e e 5 e :.k.v.p.p.p.p.p.p.p.p.p.p.p.p.p.p.p.p.p.p.p.p.p.p.p.p.p.p.p.p.p.p.p.p.p.p.p.p.p.p.p.p.p.p.p.p.p.p.p.p.p.p.p.p.p.p.p.p.p.p.p.p.p.p.p.p.p.p.p.p.p.p.p.p.p.p.p.p.p.p.p.p.f.w.f.:.e e e 9 5 5 l 0.k.f.y.w.p.p.p.p.p.p.p.p.p.p.p.p.p.p.p.p.p.p.p.p.p.p.p.p.p.p.p.p.p.p.p.p.p.p.p.p.p.p.p.p.p.p.p.p.p.p.p.p.p.p.p.p.p.p.p.p.p.p.p.p.p.p.p.p.f.p.w.b 5 e 9 5 5 5  .k.p.p.f.y.p.p.p.p.p.p.p.p.p.p.p.p.p.p.p.p.p.p.p.p.p.p.p.p.p.p.p.p.p.p.p.p.p.p.p.p.p.p.p.p.p.p.p.p.p.p.p.p.p.p.p.p.p.p.p.p.p.p.p.p.p.p.p.p.p.p.p.p.p.p.p.p.p.p.p.p.p.p.p.p.y.p.p.p.y.y.p.p.h 9 t e t e e ' f.y.y.p.p.y.y.p.p.p.p.p.p.p.p.p.p.p.p.p.p.p.p.p.p.p.p.p.p.p.p.p.p.p.p.p.p.p.p.p.p.p.p.p.p.p.p.p.p.p.p.p.p.p.p.p.p.p.p.p.p.p.p.p.p.p.p.p.p.p.p.p.w.p.p.f.f.p...1 t 9 9 e 5 h y.k.y.y.y.y.y.y.y.y.p.p.p.p.p.p.p.p.p.p.p.p.p.p.p.p.p.p.p.p.p.p.p.p.p.p.p.p.p.p.p.p.p.p.p.p.p.p.p.p.p.p.p.p.p.p.p.p.p.p.p.p.p.p.p.p.p.p.p.p.p.p.p.p.p.p.p.p.p.p.p.p.p.f.y.p.' 5 9 e 5 t 9 B y.p.y.p.p.p.p.p.p.p.p.p.p.p.p.p.p.p.p.p.p.p.p.p.p.p.p.p.p.p.p.p.p.p.p.p.p.p.p.p.p.p.p.p.p.p.p.p.p.p.p.p.p.p.p.p.p.p.p.p.p.p.p.p.p.p.p.p.p.f.w.w.9 d 9 9 9 e t :.f.y.p.p.p.p.p.p.p.p.p.p.p.p.p.p.p.p.p.p.p.p.p.p.p.p.p.p.",
"9 e e t 9 e 9 P ' ( ( ( ( ( ( ( ( ( ^ ( ' D t t e t d e l ' ' ( ( ( ( ( ( ( ( ( ( ( ( ( ( ( ( ( ( ( ( ( ( ( ( ( ( ( ( ( ( ( ( ( ( ( ( ( ( ( ( ( ( ^ ( ^ ' ^  .l 9 t t e e 9 b ( ( ( ( ( ( ( ( ( ( ( ( ( ( ( ( ( ( ( ( ( ( ( ( ( ( ( ( ( ( ( ( ( ( ( ( ( ( ( ( ( ( ( ( ( ( ( ( ( ( ( ( ( ( ( ( ( ( ( ( ( ( ( ( ( ( ( ( ( ( ( ( ( ( ( ( ^ ' ^ t e 9 9 t 9 e W ( ( ( ( ( ( ( ( ( ( ( ( ( ( ( ( ( ( ( ( ( ( ( ( ( ( ( ( ( ( ( ( ( ( ( ( ( ( ( ( ( ( ( ( ( ( ( ( ( ( ( ( ( ( ( ( ( ( ( ( ( ( ( ( ( ( ( ( ( ( ( ( ( ( ( ( ( ( ( ( ( ( ' ^  .P t t e t d 9 h ^ ' ( ( ' ( ( ( ( ( ( ( ( ( ( ( ( ( ( ( ( ( ( ( ( ( ( ( ( ( ( ( ( ( ( ( ( ( ( ( ( ( ( ( ( ( ( ( ( ( ( ( ( ( ( ( ( ( ( ( ( ( ( ( ( ( ( ( ( ( ( ' l e d e e e t D ( ^ ^ ( ^ ( ( ( ( ( ( ( ( ( ( ( ( ( ( ( ( ( ( ( ( ( ( ( ( ( ( ( ( ( ( ( ( ( ( ( ( ( ( ( ( ( ( ( ( ( ( ( ( ( ( ( ( ( ( ( ( ( ( ( ( ( ( ( ( ( ( ( ( ( ( ( ( ( ( ( ( ( ( ( ( ( ( ( ( ( ( ( ' d 9 e e e 9 9 A ' ( ^ ( ( ( ( ( ( ( ( ( ( ( ( ( ( ( ( ( ( ( ( ( ( ( ( ( ( ( ( ( ( ( ( ( ( ( ( ( ( ( ( ( ( ( ( ( ( ( ( ( ( ( ( ( ( ( ( ( ( ( ( ( ( ( ( ( ( ( ( ( ( ' ^ ( ( ( P 9 e e e t 9 t W ^ ( ( ( ( ( ( ( ( ( ( ( ( ( ( ( ( ( ( ( ( ( ( ( ( ( ( ( ( ( ( ( ( ( ( ( ( ( ( ( ( ( ( ( ( ( ( ( ( ( ( ( ( ( ( ( ( ( ( ( ( ( ( ( ( ( ( ( ( ( ( ( ( ( ( ( ( ( ( ( ( ^ ' ( ' D 9 e t t d 9 b ' ' ' ( ( ( ( ( ( ( ( ( ( ( ( ( ( ( ( ( ( ( ( ( ( ( ( ( ( ( ( ( ( ( ( ( ( ( ( ( ( ( ( ( ( ( ( ( ( ( ( ( ( ( ( ( ( ( ( ( ( ( ( ( ( ( ( ( (  .( ( e d e t d t e P ' ^ ' ' ( ( ( ( ( ( ( ( ( ( ( ( ( ( ( ( ( ( ( ( ( ( ( ( ",
"t e e t > e 5 e 5 5 1 1 1 5 1 1 5 1 > > > 5 t e 9 9 e 1 5 9 5 1 5 5 5 5 5 5 5 5 5 5 5 5 5 5 5 5 5 5 5 5 5 5 5 5 5 5 5 5 5 5 5 5 5 5 5 5 5 5 5 5 > 1 1 = e 1 9 1 9 t d t t e 5 5 5 5 5 5 5 5 5 5 5 5 5 5 5 5 5 5 5 5 5 5 5 5 5 5 5 5 5 5 5 5 5 5 5 5 5 5 5 5 5 5 5 5 5 5 5 5 5 5 5 5 5 5 5 5 5 5 5 5 5 5 5 5 5 5 5 5 5 5 5 5 5 5 9 > 1 > > 9 e t 9 9 d e e d 5 1 5 5 5 5 5 5 5 5 5 5 5 5 5 5 5 5 5 5 5 5 5 5 5 5 5 5 5 5 5 5 5 5 5 5 5 5 5 5 5 5 5 5 5 5 5 5 5 5 5 5 5 5 5 5 5 5 5 5 5 5 5 5 5 5 5 5 5 5 5 5 5 5 5 5 5 5 5 5 5 5 1 1 e 1 5 9 1 e d 5 5 5 > 1 5 9 5 5 5 5 5 5 5 5 5 5 5 5 5 5 5 5 5 5 5 5 5 5 5 5 5 5 5 5 5 5 5 5 5 5 5 5 5 5 5 5 5 5 5 5 5 5 5 5 5 5 5 5 5 5 5 5 5 5 5 5 5 5 5 5 1 5 e 5 5 e 9 e e t 5 > > > 1 1 5 5 5 5 5 5 5 5 5 5 5 5 5 5 5 5 5 5 5 5 5 5 5 5 5 5 5 5 5 5 5 5 5 5 5 5 5 5 5 5 5 5 5 5 5 5 5 5 5 5 5 5 5 5 5 5 5 5 5 5 5 5 5 5 5 5 5 5 5 5 5 5 5 5 5 5 5 5 5 5 1 1 5 1 1 1 5 5 e 9 9 9 9 9 5 t 5 1 1 1 5 1 1 5 5 5 5 5 5 5 5 5 5 5 5 5 5 5 5 5 5 5 5 5 5 5 5 5 5 5 5 5 5 5 5 5 5 5 5 5 5 5 5 5 5 5 5 5 5 5 5 5 5 5 5 5 5 5 5 5 5 5 5 5 5 5 5 5 5 9 > > > 1 t 5 9 t e t e 5 1 1 5 5 5 5 5 5 5 5 5 5 5 5 5 5 5 5 5 5 5 5 5 5 5 5 5 5 5 5 5 5 5 5 5 5 5 5 5 5 5 5 5 5 5 5 5 5 5 5 5 5 5 5 5 5 5 5 5 5 5 5 5 5 5 5 5 5 5 5 5 5 5 5 5 5 5 5 5 5 5 5 = 5 1 9 e 5 5 9 e e 1 9 9 1 9 > 5 5 5 5 5 5 5 5 5 5 5 5 5 5 5 5 5 5 5 5 5 5 5 5 5 5 5 5 5 5 5 5 5 5 5 5 5 5 5 5 5 5 5 5 5 5 5 5 5 5 5 5 5 5 5 5 5 5 5 5 5 5 5 5 > 9 5 9 1 9 9 e e 9 1 9 9 1 5 5 5 5 5 5 5 5 5 5 5 5 5 5 5 5 5 5 5 5 5 5 5 5 5 5 ",
"t 9 e d 1 h t 9 t e e e e e e e e t d d 5 e h 5 t e t e e e t d e e e e e e e e e e e e e e e e e e e e e e e e e e e e e e e e e e e e e e e e t h d 9 h 5 9 d t t 9 5 9 d t 5 e e e e e e e e e e e e e e e e e e e e e e e e e e e e e e e e e e e e e e e e e e e e e e e e e e e e e e e e e e e e e e e e e e e e e e e e d 9 h d 9 9 t 9 e 5 t 9 e t 9 t e e e e e e e e e e e e e e e e e e e e e e e e e e e e e e e e e e e e e e e e e e e e e e e e e e e e e e e e e e e e e e e e e e e e e e e e e e e e e e e e e t t 5 d d 5 t e 5 d t e e e 9 e e e e e e e e e e e e e e e e e e e e e e e e e e e e e e e e e e e e e e e e e e e e e e e e e e e e e e e e e e e e e e e e e e e e 9 e e t 1 h e 5 t d t 9 e e e e e e e e e e e e e e e e e e e e e e e e e e e e e e e e e e e e e e e e e e e e e e e e e e e e e e e e e e e e e e e e e e e e e e e e e e e e e e e e e e e e e e e t e 9 e e e t e e t e 9 e t e e t e e e e e e e e e e e e e e e e e e e e e e e e e e e e e e e e e e e e e e e e e e e e e e e e e e e e e e e e e e e e e e e e 9 t e d t 5 t e 9 d 1 1 t t 9 t e e e e e e e e e e e e e e e e e e e e e e e e e e e e e e e e e e e e e e e e e e e e e e e e e e e e e e e e e e e e e e e e e e e e e e e e e e e e e e e e 9 t 9 9 t t e e t e 9 d 9 5 d 9 e e e e e e e e e e e e e e e e e e e e e e e e e e e e e e e e e e e e e e e e e e e e e e e e e e e e e e e e e e e e e e e e e d t 5 d t e t 9 e e e t e t e e e e e e e e e e e e e e e e e e e e e e e e e ",
"9 9 t e d 1 e 9 t 9 5 9 t t e 9 e e e e e e e e e e e e e e e e e e e e e e e e e e e e e e e e e e 9 9 e e e d e 9 1 e t e e 9 9 t 9 9 t t t e e e e e e e e e e e e e e e e e e e e e e e e e e e e e e e e e e e e e e e e e e e e e e e e e e t e 9 e e 9 t 5 t 9 t t 9 9 t 9 t 9 9 d d e e e e e e e e e e e e e e e e e e e e e e e e e e e e e e e e e e e e e e e e e e e e e e e e e e e e e e e e e e e e e e e e e e e e e e e e e e e t 9 9 9 9 t 9 e t 9 9 t d e e e e e e e e e e e e e e e e e e e e e e e e e e e e e e e e e e e e e e e e e e e e e e e e e e e e e e e e e e e e e e e e e e e 9 t t 9 9 e e t 9 9 9 9 d e e t e t e 5 9 t 9 e e e e e e e e e e e e e e e e e e e e e e e e e e e e e e e e e e e e e e e e e e e e e e e e e e e e e e e e e e e e e e e e e e e e e e e e t t e e e t e e 5 9 e e 9 e e t d d e e e 5 e t e e e e e e e e e e e e e e e e e e e e e e e e e e e e e e e e e e e e e e e e e e e e e e e e e e e e e e e e e e e e e e e e t e 9 e e e e 9 t 9 e t d 9 e t 9 5 t 1 h e 9 9 e e e e e e e e e e e e e e e e e e e e e e e e e e e e e e e e e e e e e e e e e e e e e e e e e e e e e e e e e e e e e e e e e e e e e e e e e 9 e t 9 e t 9 9 t e 5 e d 9 5 e e e e e e e 9 e e e e e e e e e e e e e e e e e e e e e e e e e e e e e e e e e e e e e e e e e e e e e e e e e e e e e e e e 9 e e e e e e e e e 9 e t e t 9 t e 5 9 t e t 9 e e e e e e e e e e e e e e e e e e e e e e e e e e e e e e e e e e e e e e e e e e e e e e e e e e e e e e e e ",
"e e e 5 d 9 t e e 9 e e e e 9 5 9 9 9 9 9 9 9 9 9 9 9 9 9 9 9 9 9 9 9 9 9 9 9 9 9 9 9 9 9 9 9 9 9 t e e t e 9 t e t e t e 5 5 5 9 t 9 5 9 9 e e 9 9 9 9 9 9 9 9 9 9 9 9 9 9 9 9 9 9 9 9 9 9 9 9 9 9 9 9 9 9 9 9 9 9 9 9 9 9 9 9 9 9 9 9 9 9 9 9 e t e e t e 9 e e t 9 e e 9 5 5 e t 9 5 9 e 9 e 9 9 9 9 9 9 9 9 9 9 9 9 9 9 9 9 9 9 9 9 9 9 9 9 9 9 9 9 9 9 9 9 9 9 9 9 9 9 9 9 9 9 9 9 9 9 9 9 9 9 9 9 9 9 9 9 9 9 9 9 9 9 9 9 9 9 9 9 9 9 9 9 9 e e e e e e 9 9 t t t t t e e 9 9 9 9 9 9 9 9 9 9 9 9 9 9 9 9 9 9 9 9 9 9 9 9 9 9 9 9 9 9 9 9 9 9 9 9 9 9 9 9 9 9 9 9 9 9 9 9 9 9 9 9 9 9 9 9 9 9 9 9 9 9 9 9 e 9 e e 5 5 e 9 e e t 9 1 5 5 9 5 5 9 e 9 e t e 9 9 9 9 9 9 9 9 9 9 9 9 9 9 9 9 9 9 9 9 9 9 9 9 9 9 9 9 9 9 9 9 9 9 9 9 9 9 9 9 9 9 9 9 9 9 9 9 9 9 9 9 9 9 9 9 9 9 9 9 9 9 9 9 9 9 9 9 9 9 9 9 9 9 9 5 9 9 9 9 d d e e t t 9 9 5 9 5 9 e 9 e e 9 9 9 9 9 9 9 9 9 9 9 9 9 9 9 9 9 9 9 9 9 9 9 9 9 9 9 9 9 9 9 9 9 9 9 9 9 9 9 9 9 9 9 9 9 9 9 9 9 9 9 9 9 9 9 9 9 9 9 9 9 9 9 9 t e e e t t e e t e e t e 5 5 5 t t d 5 d e e e 9 9 9 9 9 9 9 9 9 9 9 9 9 9 9 9 9 9 9 9 9 9 9 9 9 9 9 9 9 9 9 9 9 9 9 9 9 9 9 9 9 9 9 9 9 9 9 9 9 9 9 9 9 9 9 9 9 9 9 9 9 9 9 9 9 9 9 9 9 9 9 9 e 9 e t 9 e e 9 9 t e 9 t d 9 5 9 9 9 9 9 9 9 9 9 9 9 9 9 9 9 9 9 9 9 9 9 9 9 9 9 9 9 9 9 9 9 9 9 9 9 9 9 9 9 9 9 9 9 9 9 9 9 9 9 9 9 9 9 9 9 9 9 9 9 9 9 9 9 9 9 9 9 9 9 9 9 9 5 t e e 9 9 t d e e e t e 9 9 9 9 9 9 9 9 9 9 9 9 9 9 9 9 9 9 9 9 9 9 9 9 9 9 9 9 9 9 9 9 9 9 9 9 9 9 9 9 9 9 9 9 9 9 9 9 9 9 9 9 9 9 9 9 9 9 9 ",
"e e e 5 d t e e 9 e e e e e e e t t t t t t t t t t t t t t t t t t t t t t t t t t t t t t t t 5 e e e t e 9 e 9 9 9 9 e t d d e t d t e 9 e d t t t t t t t t t t t t t t t t t t t t t t t t t t t t t t t t t t t t t t t t t t t t t t t t 9 t e e t e 9 e 9 5 5 5 t t d t e t t t e e t d t t t t t t t t t t t t t t t t t t t t t t t t t t t t t t t t t t t t t t t t t t t t t t t t t t t t t t t t t t t t t t t t t t t t t t t t 9 9 e e e e 9 9 9 t d t e e t t t t t t t t t t t t t t t t t t t t t t t t t t t t t t t t t t t t t t t t t t t t t t t t t t t t t t t t t t t t t t t t t t t e t t e e d t 9 9 e t d t d d t t t t e 9 9 5 t t t t t t t t t t t t t t t t t t t t t t t t t t t t t t t t t t t t t t t t t t t t t t t t t t t t t t t t t t t t t t t t t t t t t t t t e e e e e t t t 5 9 5 5 t e e e d t t t e e 5 1 t t t t t t t t t t t t t t t t t t t t t t t t t t t t t t t t t t t t t t t t t t t t t t t t t t t t t t t t t t t t t t t t 9 9 9 e e t e e e 5 9 t 9 t d d 9 e e 1 t 9 9 e t t t t t t t t t t t t t t t t t t t t t t t t t t t t t t t t t t t t t t t t t t t t t t t t t t t t t t t t t t t t t t t t t t t t t t t t 9 5 e t 9 9 e 9 e t e 9 t t 9 e e t t t t t t t t t t t t t t t t t t t t t t t t t t t t t t t t t t t t t t t t t t t t t t t t t t t t t t t t t t t t t t t t t t t t t t e 9 t t 9 9 e 9 e 9 e t e 9 9 e t t t t t t t t t t t t t t t t t t t t t t t t t t t t t t t t t t t t t t t t t t t t t t t t t t t t t t t t t ",
"5 e t 5 t t 5 e 9 9 5 5 5 e t e 9 9 9 9 9 9 9 9 9 9 9 9 9 9 9 9 9 9 9 9 9 9 9 9 9 9 9 9 9 9 9 9 5 e e 9 e e 9 e h e t > 9 e 9 1 5 > 9 e 9 9 5 9 9 9 9 9 9 9 9 9 9 9 9 9 9 9 9 9 9 9 9 9 9 9 9 9 9 9 9 9 9 9 9 9 9 9 9 9 9 9 9 9 9 9 9 9 9 9 9 9 9 t e 9 t e 9 e d 9 d 5 5 5 9 5 9 1 9 e 9 5 9 9 9 9 9 9 9 9 9 9 9 9 9 9 9 9 9 9 9 9 9 9 9 9 9 9 9 9 9 9 9 9 9 9 9 9 9 9 9 9 9 9 9 9 9 9 9 9 9 9 9 9 9 9 9 9 9 9 9 9 9 9 9 9 9 9 9 9 9 9 9 9 9 9 9 5 e e e 9 5 e e 9 9 5 1 9 t 9 9 9 9 9 9 9 9 9 9 9 9 9 9 9 9 9 9 9 9 9 9 9 9 9 9 9 9 9 9 9 9 9 9 9 9 9 9 9 9 9 9 9 9 9 9 9 9 9 9 9 9 9 9 9 9 9 9 9 9 9 9 9 9 9 9 5 9 9 5 9 t 9 t 9 5 9 d 5 9 > 5 5 1 9 e e e d 9 9 9 9 9 9 9 9 9 9 9 9 9 9 9 9 9 9 9 9 9 9 9 9 9 9 9 9 9 9 9 9 9 9 9 9 9 9 9 9 9 9 9 9 9 9 9 9 9 9 9 9 9 9 9 9 9 9 9 9 9 9 9 9 9 9 9 9 9 9 9 9 5 5 5 9 9 9 9 e e d d 5 t 1 5 e 9 5 e 5 9 d e e 9 9 9 9 9 9 9 9 9 9 9 9 9 9 9 9 9 9 9 9 9 9 9 9 9 9 9 9 9 9 9 9 9 9 9 9 9 9 9 9 9 9 9 9 9 9 9 9 9 9 9 9 9 9 9 9 9 9 9 9 9 9 9 9 5 9 9 9 9 e e e d e 9 t > 9 9 5 5 e 9 9 d e t t 9 9 9 9 9 9 9 9 9 9 9 9 9 9 9 9 9 9 9 9 9 9 9 9 9 9 9 9 9 9 9 9 9 9 9 9 9 9 9 9 9 9 9 9 9 9 9 9 9 9 9 9 9 9 9 9 9 9 9 9 9 9 9 9 9 9 9 9 9 9 9 9 e 5 9 t 9 9 e e 9 t 5 1 9 5 9 e 5 9 9 9 9 9 9 9 9 9 9 9 9 9 9 9 9 9 9 9 9 9 9 9 9 9 9 9 9 9 9 9 9 9 9 9 9 9 9 9 9 9 9 9 9 9 9 9 9 9 9 9 9 9 9 9 9 9 9 9 9 9 9 9 9 9 9 9 9 9 9 9 e t e 5 t d 1 5 5 5 9 5 5 e e t 9 9 9 9 9 9 9 9 9 9 9 9 9 9 9 9 9 9 9 9 9 9 9 9 9 9 9 9 9 9 9 9 9 9 9 9 9 9 9 9 9 9 9 9 9 9 9 9 9 9 9 9 9 9 9 9 ",
"5 t d 9 e t 5 A B b l h b B h 9 d d d d d d d d d d d d d d d d d d d d d d d d d d d d d d d d d l t 9 9 e 9 e 5 e D h B B b h A e d d t h t d d d d d d d d d d d d d d d d d d d d d d d d d d d d d d d d d d d d d d d d d d d d d d d d d d l t 9 e e e e 5 5 D l l l b l D d t h d d d t d d d d d d d d d d d d d d d d d d d d d d d d d d d d d d d d d d d d d d d d d d d d d d d d d d d d d d d d d d d d d d d d d d d d d d d d d 5 e 9 9 e 5 h A l l l h B b 9 d d d d d d d d d d d d d d d d d d d d d d d d d d d d d d d d d d d d d d d d d d d d d d d d d d d d d d d d d d d d d d d d d t d d t d d 9 t e 9 9 d > b B l l h b A h 9 d d d d d d d d d d d d d d d d d d d d d d d d d d d d d d d d d d d d d d d d d d d d d d d d d d d d d d d d d d d d d d d d d d d d d d d d d d d d d t 9 9 e 1 5 5 > B l l B b l b e 9 d e t d d d d d d d d d d d d d d d d d d d d d d d d d d d d d d d d d d d d d d d d d d d d d d d d d d d d d d d d d d d d d d d d d h h t 9 e e 9 5 1 e D d b b h l B 9 e t 9 t e d d d d d d d d d d d d d d d d d d d d d d d d d d d d d d d d d d d d d d d d d d d d d d d d d d d d d d d d d d d d d d d d d d d d d d d d d e e t 9 9 e e t B h l b h b l t d d d d d d d d d d d d d d d d d d d d d d d d d d d d d d d d d d d d d d d d d d d d d d d d d d d d d d d d d d d d d d d d d d d d d d t 9 e t 1 t d 5 B B h b h l A t e d d d d d d d d d d d d d d d d d d d d d d d d d d d d d d d d d d d d d d d d d d d d d d d d d d d d d d d d ",
"9 t t 5 5 t e $.f.p.y.y.f.y...D D D D D D D D D D D D D D D D D D D D D D D D D D D D D D D D D A D l e 9 e 9 e 9 D v.w.f.y.p.k.0.D D A B K A D D D D D D D D D D D D D D D D D D D D D D D D D D D D D D D D D D D D D D D D D D D D D D D D D A D l e e e e e t l p.y.p.p.k.p.0.W B D A A K A D D D D D D D D D D D D D D D D D D D D D D D D D D D D D D D D D D D D D D D D D D D D D D D D D D D D D D D D D D D D D D D D D D D D D D D D l 5 t e 9 e 9 B k.w.y.p.p.f.0.P D D D D D D D D D D D D D D D D D D D D D D D D D D D D D D D D D D D D D D D D D D D D D D D D D D D D D D D D D D D D D D D D K D K D A D A d 9 e t e d 5 $.k.p.f.y.f.f...A D D D D D D D D D D D D D D D D D D D D D D D D D D D D D D D D D D D D D D D D D D D D D D D D D D D D D D D D D D D D D D D D D D D D D D D D D K D D K B d e t t e e t w.p.p.p.k.p.p.' K ^ A D D D D D D D D D D D D D D D D D D D D D D D D D D D D D D D D D D D D D D D D D D D D D D D D D D D D D D D D D D D D D D D D D A D A h e e e 9 e t K k.w.k.f.p.w.w.P P D D P P D D D D D D D D D D D D D D D D D D D D D D D D D D D D D D D D D D D D D D D D D D D D D D D D D D D D D D D D D D D D D D D D D D D D D D D D A d e t e 9 9 5  .p.y.p.f.w.p.<.A A D D D D D D D D D D D D D D D D D D D D D D D D D D D D D D D D D D D D D D D D D D D D D D D D D D D D D D D D D D D D D D D D D D D D A A 5 e d 5 9 e t <.f.w.f.y.p.f.' K D D D D D D D D D D D D D D D D D D D D D D D D D D D D D D D D D D D D D D D D D D D D D D D D D D D D D D D D ",
"e t t 9 9 t 9 <.y.y.w.w.y.0.( l D D D D D D D D D D D D D D D D D D D D D D D D D D D D D D D D D K b e e e e e > B v.6.w.6.<.6.y.A D D B K B D D D D D D D D D D D D D D D D D D D D D D D D D D D D D D D D D D D D D D D D D D D D D D D D D K P B e e e e e 9 t p.0.w.6.0.<.y.W B D B A K A D D D D D D D D D D D D D D D D D D D D D D D D D D D D D D D D D D D D D D D D D D D D D D D D D D D D D D D D D D D D D D D D D D D D D D D D b 5 d e 9 t 5 A f.0.w.y.w.p.:.B D D D D D D D D D D D D D D D D D D D D D D D D D D D D D D D D D D D D D D D D D D D D D D D D D D D D D D D D D D D D D D D D D D D D A D B e e t t 5 t . ..f.<.0.<.w.p. .b A D D D D D D D D D D D D D D D D D D D D D D D D D D D D D D D D D D D D D D D D D D D D D D D D D D D D D D D D D D D D D D D D D D D D D D D D D A D D b e 5 9 t 9 5 5 0.w.w.6.6.6.w.W b K b D D D D D D D D D D D D D D D D D D D D D D D D D D D D D D D D D D D D D D D D D D D D D D D D D D D D D D D D D D D D D D D D D D P D h e e e e 9 1 B k.<.w.6.6.y.w.A A B b D B D D D D D D D D D D D D D D D D D D D D D D D D D D D D D D D D D D D D D D D D D D D D D D D D D D D D D D D D D D D D D D D D D D D D D D D D K d 9 e e 9 9 5 P y.w.w.y.0.y.$.A A A A D D D D D D D D D D D D D D D D D D D D D D D D D D D D D D D D D D D D D D D D D D D D D D D D D D D D D D D D D D D D D D A A A A A A 9 9 d 5 e 9 t y.y.6.f.0.w.y.P l D D D D D D A D D D D D D D D D D D D D D D D D D D D D D D D D D D D D D D D D D D D D D D D D D D D D D D D D ",
"9 e t t e t > &.y.w.0.0.y.w...A D D D D D D D D D D D D D D D D D D D D D D D D D D D D D D D D B D l e e t e e 9 b f.&.y.p.y.w.6.b K K A P B D D D D D D D D D D D D D D D D D D D D D D D D D D D D D D D D D D D D D D D D D D D D D D D D D A K b e e t e e e t p.6.0.0.p.w.0.K B P D A K B D D D D D D D D D D D D D D D D D D D D D D D D D D D D D D D D D D D D D D D D D D D D D D D D D D D D D D D D D D D D D D D D D D D D D D D D l > t e 9 e 1 A k.0.0.w.6.y.6.D D D D D D D D D D D D D D D D D D D D D D D D D D D D D D D D D D D D D D D D D D D D D D D D D D D D D D D D D D D D D D D D D A A D D D K A e e e 9 9 b 1 &.y.y.y.6.w.p. .b K D D D D D D D D D D D D D D D D D D D D D D D D D D D D D D D D D D D D D D D D D D D D D D D D D D D D D D D D D D D D D D D D D D D D D D D D B B D K B t 9 e 9 e t e 0.6.0.y.y.y.k.( B W B K D D D D D D D D D D D D D D D D D D D D D D D D D D D D D D D D D D D D D D D D D D D D D D D D D D D D D D D D D D D D D D D D B D A d 5 9 e e h 5 B k.<.y.w.p.6.0.B K D D K B D D D D D D D D D D D D D D D D D D D D D D D D D D D D D D D D D D D D D D D D D D D D D D D D D D D D D D D D D D D D D D D D D D D D D D D D D t 5 9 e e e 9 W p.w.6.0.0.k.&.A A A D D D D D D D D D D D D D D D D D D D D D D D D D D D D D D D D D D D D D D D D D D D D D D D D D D D D D D D D D D D D D D D D D D A A A h 9 e 5 h e 1 :.y.<.p.6.w.p.^ D D D D D D D D D D D D D D D D D D D D D D D D D D D D D D D D D D D D D D D D D D D D D D D D D D D D D D D D D ",
"e 9 9 e e e 5 &.y.w.w.y.6.p.' B D D D D D D D D D D D D D D D D A A D D D D D D D D D D D D D D A K l 5 e t 9 e 9 b f.6.y.0.w.w.0.B K A D D A D D D D D D D D D D D D D D D D D D D D D D A A D D D D D D D D D D D D D D D D D D D D D D D D D A D B 5 e 9 t 9 9 h y.0.y.0.y.0.w.K A D A D A D D D D D D D D D D D D D D D D D D D D D D D D D D D D D D A A D D D D D D D D D D D D D D A A D A A D D D D D D D D D D D D D D A D D D A A D D h 5 t 9 e t 5 A p.w.w.0.y.0.0.D D D D D D D D D D D D D D D D D D D D D D D D D D D D D D D D D D D D D D A A D D D D D D D D D D D D D D A A D D D D D D D D D D D B D D D A e e 9 t 9 t 1 &.y.w.w.w.w.w...B D D D D D D D D D D D D D A A D D D D D D D D D D D D D D D D D D D D D D D D D D D D D D D A A D D D D D D D D D D D D D D A A D D D D D D D D D D D D A A 9 t 9 e e e e 6.w.w.0.w.0.p.W A D A D A A D D D D D D D D D D D D D D D D D D D D D D D D D D D D D D D D D D D D D D D D D D D A A D D D D D D D D D D D D D D A A D D A K h 5 e e e t 5 D p.w.w.w.w.w.0.B D K D A D D D D D D D D D D D D D D D D D D D D D A A D D D D D D D D D D D D D D D D D D D D D D D D D D D D D D D A A D D D D D D D D D D D D D D A A D K t 9 t 9 e e 1 ^ p.w.0.y.0.w.:.B D D D A D D D D D D D D D D D A A D D D D D D D D D D D D D D D D D D D D D D D D D D D D D D D D D D D D D D D D D D D A A D D D D A D D D B e e e t 9 e e 6.w.w.w.w.0.p.P A D D D D A A D D A A D D D D D D D D D D D D D D D D D D D D D D D D D D A A D D D D D D D D D D D D D D D D D D ",
"e 9 9 e e e 5 &.y.w.w.y.6.p.' B D D D D D D D D D D D D D D D D D D D D D A A D D D D D D D D D A K l 5 e t 9 e 9 b f.6.y.0.w.w.0.B K A D D A D D D D D D D D D D D D D D D D D D D D A D D D D D D D D D D D D D D D D D D D D D D D D D D D D A D B 5 e 9 t 9 9 h y.0.y.0.y.0.w.K A D A D A D D D D D D D D D D D D D A A D D D D D D D D D D D D D A D D D D D D D D D D D D D D D A D D D D D D D D D A A D D D D D D D D D A D D D A A D D h 5 t 9 e t 5 A p.w.w.0.y.0.0.D D D D D D D D D D A D D D D D D D D D D D D D D D D D D D D D D D D D A D D D D D D D D D D D D D D D A D D D D D D D D D D D D D D B D D D A e e 9 t 9 t 1 &.y.w.w.w.w.w...B D D D D D A A D D A D D D D D D D D D D D D D D D D D D D A A D D D D D D D D D D D D D A D D D D D D D D D D D D D D D A D D D D D D D D D D D D D D D A A 9 t 9 e e e e 6.w.y.0.w.0.p.W A D A D D D D D D A A D D D D D D D D D D A D D D D D D D D D D D D D D D D D D D D D D D D D A D D D D D D D D D D D D D D D A D D D D D A K l 5 e e e t 5 D p.w.w.w.w.w.0.B D K A A D D D D D D D D D D D D D A A D D A D D D D D D D D D D D D D D D D D D D A A D D D D D D D D D D D D D A D D D D D D D D D D D D D D D A D D D D K t 9 t 9 e e 1 ^ p.w.0.y.0.w.:.B D D D A D D D D D D D D D D D D D D D D A A D D D D D D D D D D A D D D D D D D D D D D D D D D D D D D D D D D D D A D D D D D D D A D D D B e e e t 9 e e 6.w.w.w.w.0.p.P A D D D D D D D D D D D D D A A D D D D D D D D D D D D D A A D D A D D D D D D D D D D D D D D D D D D D A A D D ",
"e 9 9 e e e 5 &.y.w.w.y.6.p.' B A D D D D A A D D D D D D D D D D D D D D D D D D D D D D D D D A K l 9 e t 9 e 9 b f.6.y.0.w.w.0.B K A D D A D D D D D D D A A D D D D D D D D D D D D D D D D D D D D D D D D D D D D D A D D D D D D D A D D A D B 5 e 9 t 9 9 h y.0.y.0.y.0.w.K A D A D A D D D D D D D D D D D D A D D D D D D D D D D D D D D D D D D D D D D D D D D D D D D D D D D D D D D D D D D D D D D D D D D D D A D D D A A D D h 5 t 9 e e 5 A p.w.w.0.y.0.0.D D D D D D D D D D D D D D D D D D D D D D D D D D D D D D D D D D D D D D D D D D D D D D D D D D D D D D D D D D D D D D D D D D D B D D D A e e 9 t 9 t 1 &.y.w.w.w.w.w...B D D D D A D D D D A D D D D D D D D D D D D D D D D D D A D D D D D D D D D D D D D D D D D D D D D D D D D D D D D D D D D D D D D D D D D D D D D D D A A 9 t 9 e e e e 6.w.y.0.w.0.p.W A D A D D D D D D D D D D D D D D D D D D D D D D D D D D D D D D D D D D D D D D D D D D D D D D D D D D D D D D D D D D D D D D D D D D A K h 9 e e e t 5 D p.w.w.w.w.w.0.B D K D A D D D D D D D D D D D D A D D D D A D D D D D D D D D D D D D D D D D D A D D D D D D D D D D D D D D D D D D D D D D D D D D D D D D D D D D D D K t 9 t 9 e e 1 ^ p.w.0.y.0.w.&.B D D D A D D D D D D D D D D D D D D D D D D D D D D D D D D D D D D D D D D D D D D D D D D D D D D D D D D D D D D D D D D D D D D A D D D B e e e t 9 e e 6.w.w.w.w.0.p.P A D D D D D D D D D D D D D D D D D D D D D D D D D D D A D D D D A D D D D D D D D D D D D D D D D D D A D D D D ",
"e 9 9 e e e 5 &.y.w.w.y.6.p.' B A D D D D D D D D D D D A A D D D D D D D D D D D D D D D D D D A K l 9 e t 9 e 9 b f.6.y.0.w.w.0.B K A D D A D D D D D D D A D D D D D A A A D D D D D D D D D D D D D D D D D A A D D D A D D A D D D D A D D A D B 5 e 9 t 9 9 h y.0.y.0.y.0.w.K A D A D A D D D D D D D D D D D D D D D D D D D D D A A A D D D D D D D D D D D D D A A A D D D D D D D D D D D D D D D D D D D D D D D D D A D D D A A D D h 5 t 9 e e 5 A p.w.w.0.y.0.0.D D D D D D D D D D D D D D D A A D D A D D D D A D D D D A A A D D D D D D D D D D D D D A A A D D D D D D D D D D D D D D D D D D D B D D D A e e 9 t 9 t 1 &.y.w.w.w.w.w...B D D D D A D D D D D D D D D D D D D D D D D D D D D D D D D D D D D D D D A A A D D D D D D D D D D D D D A A A D D D D D D D D D D D D D A D D D D D D A A 9 t 9 e e e e 6.w.y.0.w.0.p.W A D A D D D D D D D D D D D D D D D D D D D D D D D A A D D A D D D D A D D D D A A A D D D D D D D D D D D D D A A A D D D D D D D D D D A K h 9 e e e t 5 D p.w.w.w.w.w.0.B D K D D D D D D D D D D D D D D A D D D D D D D D D D D D D D D D D D D D D D D D D D D D D D D D A A A D D D D D D D D D D D D D A A A D D D D D D D D D K t 9 t 9 e e 1 ^ p.w.0.y.0.w.&.B D D D A D D D D D D D A A D D D D D D D D D D D D D D D D D D D D D D D D A A D D A D D D D A D D D D A A A D D D D D D D D D D D D A D D D B e e e t 9 e e 6.w.w.w.w.0.p.P A D D D D D D D D D D D D D D D D D D D D D D D D D D D A D D D D D D D D D D D D D D D D D D D D D D D D D D D D ",
"e 9 9 e e e 5 &.y.w.w.y.6.p.' B D D D D D D D D A D D D D D D D D D D D D D D D D D D A D D D D A K l 9 e t 9 e 9 b f.6.y.0.w.w.0.B K A D D A D D D D D A D D D D D D D D D D D D D D D D D D D D D A A D D A D D D D D D D D D A D D D D D D D A D B 5 e 9 t 9 9 h y.0.y.0.y.0.w.K A D A D A D D D A A D D A D D D D D D D D D D D D D D D D D D D D D D D D D D D D D D D D D D D D D D D D D D D D D D D D D D D D A D D D D A D D D A A D D h 5 t 9 e t 5 A p.w.w.0.y.0.0.D D D D A D D D D D D D D D D D A D A D D D D D A D D D D D D D D D D D D D D D D D D D D D D D D D D D D D D D D D D A A D D A D D D B D D D A e e 9 t 9 t 1 &.y.w.w.w.w.w...B D D D D D D D D D D D D D D D D D D D A A D D A D D D D D D D D D D D D D D D D D D D D D D D D D D D D D D D D D D D D D D D D D A D D D D D D D D D D A A 9 t 9 e 9 e e 6.w.y.0.w.0.p.W A D A D D D D D D D D D D D D A D D D D D D D D D D D A D A D D D D D A D D D D D D D D D D D D D D D D D D D D D D D D D D D D D D D D D B K l 9 e e 9 t 5 D p.w.w.w.w.w.0.B D K D D D D D D A D D D D D D D D D D D D D D D D D D D D D D A A D D A D D D D D D D D D D D D D D D D D D D D D D D D D D D D D D D D D D D D D D D D D K t 9 t 9 e e 1 ^ p.w.0.y.0.w.:.B D D D A D D D A D D D D D D D D D D D D D D D D D D A D D D D D D D D D D D A D A D D D D D A D D D D D D D D D D D D D D D D D D D A D D D B e e e t 9 e e 6.w.w.w.w.0.p.P A D D D A D D D D D D D D D D D D D D D A D D D D D D D D D D D D D D D D D D D D D D A A D D A D D D D D D D D D ",
"e 9 9 e e e 5 &.y.w.w.y.6.p.' B D D D D D D D D A D D D D D A D D D D D D D D D D D D A D A D D A K l 9 e t 9 e 9 b f.6.y.0.w.w.0.B K A D D A D D D D D D D D D D D D D D A D D D D D D D D D D D D A D D D D D D D D D D D D D D D D D D D D D A D B 5 e 9 t 9 9 h y.0.y.0.y.0.w.K A D A D A D D D A D D D D D D D D D D D D D D D D D D A D D D D D D D D D D D D D D D A D D D D D D D D D D D D D D D D D D D D D A D A D D A D D D A A D D h 5 t 9 e t 5 A p.w.w.0.y.0.0.D D D D A D A D D D D D D D D D A D A D D D D D D D D D D D A D D D D D D D D D D D D D D D A D D D D D D D D D D D D A D D D D D D D B D D D A e e 9 t 9 t 1 &.y.w.w.w.w.w...B D D D D D D D D D D D D D D A D D D D A D D D D D D D D D D D D D D D D D D A D D D D D D D D D D D D D D D A D D D D D D D D D D A A D D D D D D D D D A A 9 t 9 e 9 e e 6.w.y.0.w.0.p.W A D A D D D D D D D D D D D D A D A D D D D D D D D D A D A D D D D D D D D D D D A D D D D D D D D D D D D D D D A D D D D D D D D D D D A K l 9 e e e t 5 D p.w.w.w.w.w.0.B D K D D D D D D A D A D D D D D D D D D D D D D D D A D D D D A D D D D D D D D D D D D D D D D D D A D D D D D D D D D D D D D D D A D D D D D D D D D D K t 9 t 9 e e 1 ^ p.w.0.y.0.w.:.B D D D A D D D A D D D D D A D D D D D D D D D D D D A D A D D D D D D D D D A D A D D D D D D D D D D D A D D D D D D D D D D D D D A D D D B e e e e 9 e e 6.y.w.w.w.w.f.P A D D D A D D D D D D D D D D D D D D D A D A D D D D D D D D D D D D D D D A D D D D A D D D D D D D D D D D D D ",
"e 9 9 e e e 5 &.y.w.w.y.6.p.' B D D D D D D A A D D D D D D D D D D D D A D D D D D D A D D D D A K l 9 e t 9 e 9 b f.6.y.0.w.w.0.B K A D D A D D D D D D D D D D D D D D D D D D A A D D D D D D D D D D D D D D D D D D D A D D D D D D D D D A D B 5 e 9 t 9 9 h y.0.y.0.y.0.w.K A D A D A D D D D D D D D D D D D D D D D D D D D D D D D D D A A D D D D D D D D D D D D D D A A D D D D D D D D D A D D D D D D A D D D D A D D D A A D D h 5 t 9 e t 5 A p.w.w.0.y.0.0.D D D D A D D D D A A D D D D D D D D D D D D D D D D D D D D D D D A A D D D D D D D D D D D D D D A A D D D D D D D D D D D D D D D B D D D A e e 9 t 9 t 1 &.y.w.w.w.w.w.$.B D D D D D D D D D A A D D D D D D D D D D D D D D D D D D D D D D D D D D D D D D D A A D D D D D D D D D D D D D D A A D D D D D D D D D D D D D D D D A A 9 t 9 e 9 e e 6.w.y.0.w.0.p.W A D A D D D D D A D D D D D D A D D D D A A D D D D D D D D D D D D D D D D D D D D D D D A A D D D D D D D D D D D D D D A A D D D D D D A K l 9 e e e t 5 D p.w.w.w.w.w.0.B D K D D D D D D A D D D D D D D D D D D D A A D D D D D D D D D D D D D D D D D D D D D D D D D D D D D D D A A D D D D D D D D D D D D D D A A D D D D D K t 9 t 9 e e 1 W p.w.0.y.0.w.:.B D D D A D D D D D D D D D D D D D D D A D D D D D D A D D D D A A D D D D D D D D D D D D D D D D D D D D D D D A A D D D D D D D D A D D D B e e e t 9 e e 6.y.w.w.w.0.p.P A D D D D D A D D D D D D A D D D D D D A D D D D D D D D D D D D A A D D D D D D D D D D D D D D D D D D D D D D ",
"e 9 9 e e e 5 &.y.w.w.y.6.p.' B D A D D D D D D D D D D D D D D D A A D D D D D D D D D D D D D A K l 9 e t 9 e 9 b f.6.y.0.w.w.0.B K B D D A D D D D D D D D D D D D D D D D D D D D D D D A A D D D D D D D D D D A D D D A D D D D D D D D D A D B 5 e 9 t 9 9 h y.0.y.0.y.0.w.K A D A D A D D D D D D D D D D D D A A D D D D D D D D D D D D D D D D D A A D D D D D D D D D D D D D D A A D A A D D D D D D D D D D D D D A D D D A A D D h 5 t 9 e t 5 A p.w.w.0.y.0.0.D D D D D D D D D D D D D D D D D D D D D D D D D D D D D D D D D D D D D D D A A D D D D D D D D D D D D D D A A D D D D D D D D D D B D D D A e e 9 t 9 t 1 &.y.w.w.w.w.w.$.B D D D D D A D D D D D D D D D D D D D D D D D D D D D D A A D D D D D D D D D D D D D D D D D A A D D D D D D D D D D D D D D A A D D D D D D D D D D D A A 9 t 9 e e e e 6.w.y.0.w.0.p.W A D A D D A A D D D D D D D D D D D D D D D D D D D D D D D D D D D D D D D D D D D D D D D D D D D A A D D D D D D D D D D D D D D A A A B K l 9 e e e t 5 D p.w.w.w.w.w.0.B D K D D D D D D D D D D D D D D D A D D D D D D D D D D D D D D D D D D D D D D A A D D D D D D D D D D D D D D D D D A A D D D D D D D D D D D D D D A A K t 9 t 9 e e 1 W p.w.0.y.0.w.:.B D D D A D D D D D D D D D D D D A A D D D D D D D D D D D D D D D D D D D D D D D D D D D D D D D D D D D D D D D D D D D A A D D D A D D D B e e e t 9 e e 6.w.w.w.w.0.p.P A D D D D D D D D D A A D D D D D D D D D D D D D D D D D A D D D D D D D D D D D D D D D D D D D D D D A A D D D ",
"e 9 9 e e e 5 &.y.w.w.y.6.p.' B D D D D D D D D D D D D D D D D D D D A A D D D D D D D D D D D A K l 5 e t 9 e 9 b f.6.y.0.w.w.0.B K A D D A D D D D D D D D D D D D A D D D D D D D D D D D D D D D D D D D D D A A D D D A D D D D D D D D D A D B 5 e 9 t 9 9 h y.0.y.0.y.0.w.K A D A D A D D D D D D D D D D A A D D D A D D D D A D D D D D D D D D D D D D D D A D D D D D D D D D D D D D D D D D D D D D A A D D D A D A D D D A A D D h 5 t 9 e t 5 A p.w.w.0.y.0.0.D D D D D D D A D D D A D D D D D D A A D D D A D D D D A D D D D D D D D D D D D D D D A D D D D D D D D D D D D D D D D D D D D B B A A A K A e e e e e h 9 ..y.y.0.w.:.v...h P A B A A D K A A D D D D D D D D A A D D D A D D D A A D D D A D D D D A D D D D D D D D D D D D D D D A D D D D D D D D D D D D A K D A D D A D K D A D B e 9 9 5 e t = p.0.y.y.w.w.f.^ B P b D D D D A A D D D D D D D D D D D D D D D D D D D D A A D D D A D D D D A D D D D D D D D D D D D D D D A D D D D D D D D D D D D D A K l 9 e e e t 5 D p.w.w.w.w.w.0.B D K D D D D D D D D D D D D D D A A D D D D D D D D D D D D D D D D D D D D A A D D D A D D D D A D D D D D D D D D D D D D D D A D D D D D D D D D D D D K t 9 t 9 e e 1 ^ p.w.0.y.0.w.:.B D D D A D D D D D D D D D D D D D D A A D D D D D D D D D D D D D D D D D D D D A A D D D A D D D D A D D D D D D D D D D D D D D D D D A A A 5 h 5 5 h t > 0.0.y.p.w.w.w.' B B A A D D A A A D D D D D D D D D A D D D A D D D D D A A D D D D D D D D D D D D D D D D D D D D A A D D D A D ",
"e 9 9 e e e 5 &.y.w.w.y.6.p.' B D D D D D D D D D D D D D D D D D D D D D D D D A A D D D D D D A K l 5 e t 9 e 9 b f.6.y.0.w.w.0.B K A D D A D D D D D D D D D D D D D D D D A D D D D D D D D D D D D D D D D D D D D D D A D D D D D D D D D A D B 5 e 9 t 9 9 h y.0.y.0.y.0.w.K A D A D A D D D D D D D D D D D D D D D A D D D D D D D D A D D D D D D D D D D D D D D D A D D D D D D D D D D A D D D D D D D D D D D A D A D D D A A D D h 5 t 9 e t 5 A p.w.w.0.y.0.0.D D D D D D D D D D D A D D D D D D D D D D D A D D D D D D D D A D D D D D D D D D D D D D D D A D D D D D D D D D D D D D D D D D A D A A D B e e t t 5 5 > ..v.0.6.0.:.p. .b P D A D D A A B A D D D D D D D D D D D D D A D D D D D D D D A D D D D D D D D A D D D D D D D D D D D D D D D A D D D D D D D D A K D A K D D K A B A P D d e t d t e 1 0.0.6.&.0.6.w.W B P B K D D D D D D D D A A D D D D D D D D D D D D D D D D D D D D A D D D D D D D D A D D D D D D D D D D D D D D D A D D D D D D D D A A K l 9 e e e t 5 D p.w.w.w.w.w.0.B D K D D D D D D D D D D D D D D D D D D D A A D D D D D D D D D D D D D D D D D D D D A D D D D D D D D A D D D D D D D D D D D D D D D A D D D D D D D D K t 9 t 9 e e 1 ^ p.w.0.y.0.w.&.B D D D A D D D D D D D D D D D D D D D D D D D A A D D D D D D D D D D D D D D D D D D D D A D D D D D D D D A D D D D D D D D D D D D D A A A > e 5 9 e 5 5 p.w.6.<.<.w.0.( l P P D D D A A K D D D D D D D D D D D D D A D D D D D D D D D D A A D D D D D D D D D D D D D D D D D D D D A D ",
"e 9 9 e e e 5 &.y.w.w.y.6.p.' B D D D D A D D D D A D D D D A A D D D D D D D D D D D D A A D D A K l 5 e t 9 e 9 b f.6.y.0.w.w.0.B K A D D A D D D D D D D D D D D D D D D D A D D D D D D D D D D A D D D D A D D D D D D D D D D D D D D A D A D B 5 e 9 e 9 9 h y.0.y.0.y.0.w.K A D A D A D D D D D A D D D D D D D D D D D D D D D D D D A D D D D D D D D D D D D D D D A D D D D D D D D D D D D A D D D D D D D D D D D A D D D A A D D h 5 t 9 e t 5 A p.w.w.0.y.0.0.D D D D D D D D D D D D D D D D D D D D D D D D D D D D D D D D A D D D D D D D D D D D D D D D A D D D D D D D D D D A D D D D A K D D D A D B t 9 e e 9 e e  .f.p.y.m.p.y...A l B B D K D B A K A A D D D D D D D D D D D D D D D D D D D D D D D D D D D D D A D D D D D D D D D D D D D D D A D D D D D D D D A D A A D D B D P D A D l e > 1 > 1 5 h :.p.k.f.p.w.w.^ A P B A D D D D D D D D D D D D A A D D D D A D D D D D D D D D D D D D D D D D D D D A D D D D D D D D D D D D D D D A D D D D D D D D A B K l 9 e e e t 5 D p.w.w.w.w.w.0.B D K D D D A D D D D D D D D D D D D D D D D D D D A A D D D D A D D D D D D D D D D D D D D D D D D D D A D D D D D D D D D D D D D D D A D D D D D D D D K t 9 t 9 e e 1 ^ p.w.0.y.0.w.:.B D D D A D D D D D D D D D D D D D D D D D D D D D D D A A D D D D A D D D D D D D D D D D D D D D D D D D D A D D D D D D D D D D D D D A A A e e 9 d t 9 t <.y.y.p.k.v.0. .A B B b B D A B D A A D D D D D D D D D D D D D D D D D D D D D D D D D D A A D D D D A D D D D D D D D D D D D D ",
"e 9 9 e e e 5 &.y.w.w.y.6.p.' B D D D A A A D D D D D D D D D D D D D D D D D D D D D D D D D D A K l 5 e t 9 e 9 b f.6.y.0.w.w.0.B K A D D A D A D D D D D D D D D D D D D D D A D D D D D D D D D D D D D D A D D D D D D D D A D D D D D A D A D B 5 e 9 t 9 9 h y.0.y.0.y.0.w.K A D A D A D D D D D A D D D D D D D D D D D D D D D D D D D A D D D D D D D D D D D D D D D A D D D D D D D D D D D A D D D D D D D D D D D A D D D A A D D h 5 t 9 e t 5 A p.w.w.0.y.0.0.D D D D D D D D D D D D D A D D D D D D D D D D D D D D D D D D D A D D D D D D D D D D D D D D D A D D D D D D D D D D D D D D A D A A A A D D l A B b B A b B B d t l d h ^ 6.<.:.<.:.:. .D A D D A A D D D D D D D D D D D D D D D D D D D D D D D D D D D D D A D D D D D D D D D D D D D D D A D D D D D D D A D A A D b d h e e e d B $.&.6.<.<.<.&.P K D D ^ W ( A B P D D D D D D D D D D D D D D D D D D D D A D D D A A D D D D D D D D D D D D D D D D A D D D D D D D D D D D D D D D A D D D D D D D A B K l 9 e e e t 5 D p.w.w.w.w.w.0.B D K D A D A A A D D D D D D D D D D D D D D D D D D D D D D D A D D D A A D D D D D D D D D D D D D D D D A D D D D D D D D D D D D D D D A D D D D D D D K t 9 t 9 e e 1 ^ p.w.6.w.0.w.:.B D D D A D D D D D D D D D D D D D D D D D D D D D D D D D D D D D A D D D A A D D D D D D D D D D D D D D D D A D D D D D D D D D D D D D A A A l l B B B b A b l l h l d ( :.6.0.6.6.6.' D K A A D D D D D A D D D D D D D D D D D D D D D D D D D D D D D D D D A D D D A A D D D D D D D D ",
"e 9 9 e e e 5 &.y.w.w.y.6.p.' B D D D D D D D D D D D D D D D D D D D D D D D D D D D D D D D D A K l 9 e t 9 e 9 b f.6.y.0.w.w.0.B K A D D A D A D D D D A A A D D D D D D D D A D D D D A A A D D D D D D D D D D D D A A D D A D D D D A D D A D B 5 e 9 t 9 9 h y.0.y.0.y.0.w.K A D A D A D D D D D D D D D D D D D A A D D D D D D D D D D A D D D D A A A D D D D D D D D A D D D D A A A D D D D D D D D D D D D A A D D A D D D A A D D h 5 t 9 e t 1 A p.w.w.0.y.0.0.D D D D D D D D D D D D D A D D D D D D D A A D D D D D D D D D D A D D D D A A A D D D D D D D D A D D D D A A A D D D D D D D D A B A D A D K A P D D P P D t > d e e 5 = P f.y.p.f.y.f.:.D A D D D D D D D A A D D A A D D A D D D D D A A D D D D D D D D D D A D D D D A A A D D D D D D D D A D D D D A A A A D A D D l 9 9 d h t 9 l y.y.w.w.y.p.p.A A A K b b A B B K D D D D D D D D D D D D D D D D D D D D D D D D D D D D D D A A D D D D D D D D D D A D D D D A A A D D D D D D D D A D D D D A A A D B K l 9 e e 9 t 5 D p.w.w.w.w.w.0.B D K D D D D D D D D D D D D D D D D D D D D D D D D D D D D D D D D D D D D D D D A A D D D D D D D D D D A D D D D A A A D D D D D D D D A D D D D A A A K t 9 t 9 e e 1 ^ p.w.6.y.0.w.:.B D D D A D D D A D D D D D D D D D D D D D D D D D D D D D D D D D D D D D D D D D D D A A D D D D D D D D D D A D D D D A A A D D D D D A A A P D D D D P D 5 5 9 9 1 5 1 $.C.w.p.w.y.y.' l b D D D D D D A A D D A D D D A A D D D D D D D D D D D D D D D D D D D D D D D D D D D D A A D D ",
"e 9 9 e e e 5 &.y.w.w.y.6.p.' B D D D D A D D D D D D D D D D D D D D D A D D D A D D D D D D D A K l 9 e t 9 e 9 b f.6.y.0.w.w.0.B K A D D A D D D D D D D A A D D A A D D D D D D D D D D A A D D D D D D D D D D D D A A A D D D D D D D D D A D B 5 e 9 t 9 9 h y.0.y.0.y.0.w.K A D A D A D D D D D D D D D D D D D A A D D D D A A D D D D D D D D D D A A D D A A D D D D D D D D D D A A D D D D D D D D D D D D A A D D A D D D A A D D h 5 t 9 e t 5 A p.w.w.0.y.0.0.D D D D D D D D D D D D D D D D D D D D D A A D D D D A A D D D D D D D D D D A A D D A A D D D D D D D D D D A A D D D D D D D D K A D D A A K A A B A D A K h d > 5 e h 5 ^ p.<.:.6.:.y.&.B D D D D D D D D D D D D D D D D D D D D D D A A A D D D A A D D D D D D D D D D A A D D A A D D D D D D D D D D A A A D A D K l 9 9 1 e 5 > d f.w.6.0.0.0.y.D K K K P K K K D D A B D D D D A D D D A D D D D D D D D D D D D D D D D D D D A A A D D D A A D D D D D D D D D D A A D D A A D D D D D D D D D D A A D B K l 9 e e 9 t 5 D p.w.w.w.w.w.0.B D K D D D A D D D D D A D D D D D A D D D A D D D D D D D D D D D D D D D D D D D A A A D D D A A D D D D D D D D D D A A D D A A D D D D D D D D D D A A K t 9 t 9 e e 1 ^ p.w.6.y.0.w.:.B D D D A D D D A D D D D D D A D D D D A D D D A D D D D D D D D D D D D D D D D D D D A A A D D D A A D D D D D D D D D D A A A D D D D D A A D D K A B D P 5 5 e d t l 5  .0.0.w.6.w.f...A W D D D D D D D D D D A D D D D D D D D D A D D D A D D D D D D D D D D D D D D D D D D D A A A D ",
"e 9 9 e e e 5 &.y.w.w.y.6.p.' B D D D D D D D D A A D D D D D D D D D D A A D D A D D D D D D D A K l 9 e t 9 e 9 b f.6.y.0.w.w.0.B K A D D A D D D D D D D D D D D D D D D A A D D D D D D D D D A D D D D D D D D D D D D D D D D D D D D D D A D B 5 e 9 t 9 9 h y.0.y.0.y.0.w.K A D A D A D D D D D D D D D D D D D D D D D D D D D D D A A D D D D D D D D D D D D D D A A D D D D D D D D D D D D D D D D D D D D D D D D A D D D A A D D h 5 t 9 e t 5 A p.w.w.0.y.0.0.D D D A D D D D A D D A D D D D D D D D D D D D D D D D D D D A A D D D D D D D D D D D D D D A A D D D D D D D D D A D D D D D D K A D K B A D A K D K D l D e e d l e t > W f.w.y.f.6.f.:.b A A D D D D D D D D D D D D D D D D D D D D D D D D D D D D D D A A D D D D D D D D D D D D D D A A D D D D D D D D K D A D K b e e t d t e h f.0.w.y.0.6.w.K D A B B B b A A A D D D D D D A A D D A D D D D D D D D A D D D D D D D D D D D D D D D D D D D D A A D D D D D D D D D D D D D D A A D D D D D D D D D A K l 9 e e e t 5 D p.w.w.w.w.w.0.B D K D D D A D D D D D D D D D D D A A D D A D D D D D D D D A D D D D D D D D D D D D D D D D D D D D A A D D D D D D D D D D D D D D A A D D D D D D D D K t 9 t 9 e e 1 ^ p.w.0.y.0.w.:.B D D D A D D D D D D D D D D A D D D D A A D D A D D D D D D D D A D D D D D D D D D D D D D D D D D D D D A A D D D D D D D D A D D D D D D A A A D A A b K e 9 e 5 > t 1 :.f.y.p.6.0.p.( h A D D D D D D D D D D D D D D D D D D D D A A D D A D D D D D D D D A D D D D D D D D D D D D D D ",
"e 9 9 e e e 5 &.y.w.w.y.6.p.' B D D D D D D D D D D D D D D A A D D D D A A D D D D D D A D D D A K l 9 e t 9 e 9 b f.6.y.0.w.w.0.B K A D D A D D D D D D D D D D D D D D D D D D D D D D D D D D A D D D A A D D D D D D D D D D D D D D D D D A D B 5 e 9 t 9 9 h y.0.y.0.y.0.w.K A D A D A D D D A A D D D D D D D D D D D D D D D D D D D D D D D D D D D D D D D D D D D D D D D D D D D D D D A A D D D D D D D D D D D D A D D D A A D D h 5 t 9 e t 5 A p.w.w.0.y.0.0.D D D D D D D A A D D A D D D D D D D D D D D D D D D D D D D D D D D D D D D D D D D D D D D D D D D D D D D D D D A D D D A A D D A D K A B D A B B D K B W t e 9 d 5 t > W p.0.w.y.:.y.:.b K K D D D D D D D D D D D D D D D D D D D D D D D D D D D D D D D D D D D D D D D D D D D D D D D D D D D D D D D D P K A D D l e e e 9 9 e t w.<.f.w.0.0.w.K D A D P K A D D B D K D D D D A A D D D D D D A D D D D A D D D A D D D D D D D D D D D D D D D D D D D D D D D D D D D D D D D D D D D D D D D D D D D B K l 9 e e e t 5 D p.w.w.w.w.w.0.B D K D D D D D D D D D D A D D D D A A D D D D D D A D D D D A D D D A D D D D D D D D D D D D D D D D D D D D D D D D D D D D D D D D D D D D D D D D D D K t 9 t 9 e e 1 ^ p.w.0.y.0.w.:.B D D D A D D D D D D D D D D D D D D D A A D D D D D D A D D D D A D D D A D D D D D D D D D D D D D D D D D D D D D D D D D D A A D D D D D D K A B D W b D 9 5 d d 9 d = $.w.6.w.6.y.v...l K D D D D D D D D D D D D D D D D D D D D A A D D D D D D A D D D D A D D D A D D D D D D D D D D ",
"e 9 9 e e e 5 &.w.y.w.0.p.p.$.B K K K D K K K K K K K K K K K K K K K K K K K K K K K D K K K K D B l t h 1 t e 9 b p.6.y.0.w.w.0.A b P D B K K K K K K K K K K K K K K K K K K K K K K K K K K K K K K K K K K K K K K K K K K K K K D K K K K K B B t d 9 t e 9 d y.0.y.0.y.0.y.K b P D B D A K D K K K K K K K K K K K K K K K K K K K K K K K K K K K K K K K K K K K K K K K K K K K K K K K D K K K K K K K K K K K K K K D K D D K A A P h 1 t t 9 e 5 D p.0.y.w.6.f.0.A K K K D K K K K K D K K K K K K K K K K K K K K K K K K K K K K K K K K K K K K K K K K K K K K K K K K K K K K K K K K K K K K K K K K K K K K K D K A b P e t e t 5 t 5 ^ y.0.w.y.<.f.:.l A K K K K K K K K K K K K K K K K K K K K K K K K K K K K K K K K K K K K K K K K K K K K K K K K K K K K K K K K K K B K B B B 9 d e e 9 e d y.w.w.w.w.y.w.D A D A K K K K K K K K K K K K K K K K K K K K K K K K K K K K K K K K K K K K K K K K K K K K K K K K K K K K K K K K K K K K K K K K K K K K K K K K P l K b 9 e 5 e t 5 A p.w.w.0.w.y.6.D A D B W B K K K K K K K K K K K K K K K K K K K K K K K K K K K K K K K K K K K K K K K K K K K K K K K K K K K K K K K K K K K K K K K K K K K K K K K K A t e e 9 e t > ^ f.0.w.0.w.0.$.D D D D D D D D K K K K K K K K K K K K K K K K K K K K K K K K K K K K K K K K K K K K K K K K K K K K K K K K K K K K K K K K K K K K K K K K D K B A W b D e 9 9 t 9 t > &.y.w.w.6.y.k. .l D K K K D K K K K K K K K K K K K K K K K K K K K K K K D K K K K K K K K K K K K K K K K K K K K ",
"e 9 9 e e e 5 &.w.y.w.w.y.0. .B B B B B B B B B B B B B B B B B B B B B B B B B B B B B B B B B D A h 5 e 1 d e 9 b p.6.y.0.w.w.<.D B P B l B b B B B B B B B B B B B B B B B B B B B B B B B B B B B B B B B B B B B B B B B B B B B B B B B B D B b 5 e 5 t e 9 d y.6.y.0.y.0.0.K B K B b B b B B B B B B B B B B B B B B B B B B B B B B B B B B B B B B B B B B B B B B B B B B B B B B B B B B B B B B B B B B B B B B B B B A B b B b b A l 1 t e e e 9 A f.w.y.w.<.w.<.D B B B B B B B B B B B B B B B B B B B B B B B B B B B B B B B B B B B B B B B B B B B B B B B B B B B B B B B B B B B B B B B B B B B B B B B B b b B B B P 5 5 e t 5 t 5 ^ y.0.w.y.<.y.&.l A A B B B B B B B B B B B B B B B B B B B B B B B B B B B B B B B B B B B B B B B B B B B B B B B B B B B B B B B B B l A B A B > 9 e e 9 e d y.w.w.y.0.w.0.D D D B B B B B B B B B B B B B B B B B B B B B B B B B B B B B B B B B B B B B B B B B B B B B B B B B B B B B B B B B B B B B B B B B B B B B B B B B A d D l 1 t e d t 5 A p.w.w.0.w.0.:.A B B h K b B B B B B B B B B B B B B B B B B B B B B B B B B B B B B B B B B B B B B B B B B B B B B B B B B B B B B B B B B B B B B B B B B B B B B B B B D e 1 9 9 e t 5 ^ f.0.w.0.w.w.&.B B B B B B B B B B B B B B B B B B B B B B B B B B B B B B B B B B B B B B B B B B B B B B B B B B B B B B B B B B B B B B B B B B B B B B B B l A b B P B K 9 9 9 t 9 t > &.y.y.y.6.0.w.' b D B B B B B B B B B B B B B B B B B B B B B B B B B B B B B B B B B B B B B B B B B B B B B B B B ",
"e 9 9 e e e 5 &.w.w.w.w.y.w.:. .$.$.$.$.$.$.$.$.$.$.$.$.$.$.$.$.$.$.$.$.$.$.$.$.$.$.$.$.$.$.$.$.$.$.K 9 e 5 d e 9 b f.6.y.0.w.w.y.$...:.$...&.$.$.$.$.$.$.$.$.$.$.$.$.$.$.$.$.$.$.$.$.$.$.$.$.$.$.$.$.$.$.$.$.$.$.$.$.$.$.$.$.$.$.$.$.$.$.$.$.$.....W 9 e 9 t 9 9 d y.0.y.0.y.0.p.$.$.:.....&.$.$.$.$.$.$.$.$.$.$.$.$.$.$.$.$.$.$.$.$.$.$.$.$.$.$.$.$.$.$.$.$.$.$.$.$.$.$.$.$.$.$.$.$.$.$.$.$.$.$.$.$.$.$.$.$.$.$.$.$.$.$.$.$.$.$.&.$...$.....:.A 5 t e e t 9 A p.0.y.y.0.y.w...$.$.$.$.$.$.$.$.$.$.$.$.$.$.$.$.$.$.$.$.$.$.$.$.$.$.$.$.$.$.$.$.$.$.$.$.$.$.$.$.$.$.$.$.$.$.$.$.$.$.$.$.$.$.$.$.$.$.$.$.$.$.$.$.$.$.$.$.$.$.$.$.$.$.$.$.$.<.l 9 e t 5 t 5 ^ y.0.w.y.6.y.6.' .. .$.$.$.$.$.$.$.$.$.$.$.$.$.$.$.$.$.$.$.$.$.$.$.$.$.$.$.$.$.$.$.$.$.$.$.$.$.$.$.$.$.$.$.$.$.$.$.$.$.$.$.$.$.$.$.$.&...:.$.:.' e t e e 9 e d y.w.w.w.0.w.y...$.$...$.$.$.$.$.$.$.$.$.$.$.$.$.$.$.$.$.$.$.$.$.$.$.$.$.$.$.$.$.$.$.$.$.$.$.$.$.$.$.$.$.$.$.$.$.$.$.$.$.$.$.$.$.$.$.$.$.$.$.$.$.$.$.$.$.$.$.$.$.$.$.$.$.' &.D 5 t e e t 5 A p.w.w.0.w.y.y...$.$. .<.$.$.$.$.$.$.$.$.$.$.$.$.$.$.$.$.$.$.$.$.$.$.$.$.$.$.$.$.$.$.$.$.$.$.$.$.$.$.$.$.$.$.$.$.$.$.$.$.$.$.$.$.$.$.$.$.$.$.$.$.$.$.$.$.$.$.$.$.$.$.$.$.$.&.l 5 e e e e 1 ^ f.6.w.0.w.w.<.$.$.$.$.$.$.$.$.$.$.$.$.$.$.$.$.$.$.$.$.$.$.$.$.$.$.$.$.$.$.$.$.$.$.$.$.$.$.$.$.$.$.$.$.$.$.$.$.$.$.$.$.$.$.$.$.$.$.$.$.$.$.$.$.$.$.$.$.$.$.$.$...:.$...:...$.h 9 9 t 9 t > &.y.w.y.0.6.y.<. .$.$.$.$.$.$.$.$.$.$.$.$.$.$.$.$.$.$.$.$.$.$.$.$.$.$.$.$.$.$.$.$.$.$.$.$.$.$.$.$.$.$.$.$.$.$.$.$.$.",
"e 9 9 e e e 5 &.y.w.0.w.w.y.y.p.y.y.y.y.y.y.y.y.y.y.y.y.y.y.y.y.y.y.y.y.y.y.y.y.y.y.y.y.y.y.y.y.p.p.' e e 9 d 9 9 b f.6.y.0.w.w.y.6.w.y.w.y.f.p.y.y.y.y.y.y.y.y.y.y.y.y.y.y.y.y.y.y.y.y.y.y.y.y.y.y.y.y.y.y.y.y.y.y.y.y.y.y.y.y.y.y.y.y.y.y.y.y.y.p.$.t t t d 9 9 d y.0.y.0.y.0.y.0.w.y.w.y.f.p.y.y.y.y.y.y.y.y.y.y.y.y.y.y.y.y.y.y.y.y.y.y.y.y.y.y.y.y.y.y.y.y.y.y.y.y.y.y.y.y.y.y.y.y.y.y.y.y.y.y.y.y.y.y.y.y.y.y.y.y.y.y.y.y.y.p.y.w.p.w.w.f.K 9 e e e t 9 A y.6.w.p.w.y.p.y.y.y.y.y.y.y.y.y.y.y.y.y.y.y.y.y.y.y.y.y.y.y.y.y.y.y.y.y.y.y.y.y.y.y.y.y.y.y.y.y.y.y.y.y.y.y.y.y.y.y.y.y.y.y.y.y.y.y.y.y.y.y.y.y.y.y.y.y.y.y.y.y.p.y.y.w.y.p.B 5 e t 5 t 5 ^ y.0.0.y.0.p.p.w.f.y.y.y.y.y.y.y.y.y.y.y.y.y.y.y.y.y.y.y.y.y.y.y.y.y.y.y.y.y.y.y.y.y.y.y.y.y.y.y.y.y.y.y.y.y.y.y.y.y.y.y.y.y.y.y.y.y.p.w.p.w.y...9 9 e e 9 e d y.w.w.w.0.w.p.w.p.f.p.y.y.y.y.y.y.y.y.y.y.y.y.y.y.y.y.y.y.y.y.y.y.y.y.y.y.y.y.y.y.y.y.y.y.y.y.y.y.y.y.y.y.y.y.y.y.y.y.y.y.y.y.y.y.y.y.y.y.y.y.y.y.y.y.y.y.y.y.y.y.y.y.f.p.k.^ 9 t 9 5 t 5 A p.w.w.0.w.0.y.0.p.p.y.f.y.y.y.y.y.y.y.y.y.y.y.y.y.y.y.y.y.y.y.y.y.y.y.y.y.y.y.y.y.y.y.y.y.y.y.y.y.y.y.y.y.y.y.y.y.y.y.y.y.y.y.y.y.y.y.y.y.y.y.y.y.y.y.y.y.y.y.y.y.y.y.y.y.f.D 9 t t e 9 1 ^ f.6.w.0.w.y.0.y.y.y.y.y.y.y.y.y.y.y.y.y.y.y.y.y.y.y.y.y.y.y.y.y.y.y.y.y.y.y.y.y.y.y.y.y.y.y.y.y.y.y.y.y.y.y.y.y.y.y.y.y.y.y.y.y.y.y.y.y.y.y.y.y.y.y.y.y.y.y.y.y.k.p.0.y.0.0.d 9 9 t 9 t > &.y.0.y.w.0.p.p.y.p.y.y.y.y.y.y.y.y.y.y.y.y.y.y.y.y.y.y.y.y.y.y.y.y.y.y.y.y.y.y.y.y.y.y.y.y.y.y.y.y.y.y.y.y.y.y.y.y.",
"e 9 9 e e e 5 &.p.w.w.w.0.0.0.y.w.w.w.w.w.w.w.w.w.w.w.w.0.0.w.w.w.w.w.w.w.w.w.w.w.w.w.w.w.w.w.w.0.y.^ 1 9 9 d 5 9 b f.6.y.0.w.w.w.w.y.w.0.0.w.0.w.w.w.w.w.w.w.w.w.w.w.w.0.0.w.w.w.w.w.w.w.w.w.w.0.0.w.w.w.w.w.w.0.w.w.w.w.w.w.w.w.w.w.w.w.w.w.w.0.p...5 9 e t e 9 d y.0.y.0.y.0.w.w.y.w.0.0.w.0.w.w.w.w.w.w.w.w.0.0.w.w.w.w.w.w.w.w.w.w.0.0.w.w.w.w.w.w.w.w.w.w.w.w.w.w.0.0.w.w.w.w.w.w.w.w.w.w.w.w.w.w.w.w.w.w.0.0.w.w.w.w.w.w.0.w.0.0.w.0.0.p.W 9 e e t t 5 A p.w.w.y.0.6.0.w.w.w.w.w.w.w.w.w.w.w.w.w.w.w.w.w.0.0.w.w.w.w.w.w.w.w.w.w.0.0.w.w.w.w.w.w.w.w.w.w.w.w.w.w.0.0.w.w.w.w.w.w.w.w.w.w.0.0.w.w.w.w.w.w.0.w.w.w.w.w.w.w.w.6.0.6.w.p.B 5 e t 5 t 5 ^ y.0.0.y.0.w.w.w.p.w.w.0.0.0.w.w.w.w.0.0.w.w.w.w.w.w.0.w.w.w.w.w.w.w.w.w.w.w.0.0.w.w.w.w.w.w.w.w.w.w.w.w.w.w.0.0.w.w.w.w.w.w.w.w.w.w.w.6.0.6.y...1 9 e e 9 e d y.w.w.w.0.w.w.w.w.y.0.w.w.w.w.0.w.w.w.w.w.w.w.w.w.w.w.w.0.0.0.w.w.w.w.0.0.w.w.w.w.w.w.0.w.w.w.w.w.w.w.w.w.w.w.0.0.w.w.w.w.w.w.w.w.w.w.w.w.w.w.0.0.w.w.w.w.w.w.w.w.w.w.0.0.p.P 1 t t e t 5 A p.w.w.0.w.6.w.0.y.y.0.w.0.w.w.w.w.0.0.w.w.w.w.w.w.w.w.w.w.w.0.0.0.w.w.w.w.0.0.w.w.w.w.w.w.0.w.w.w.w.w.w.w.w.w.w.w.0.0.w.w.w.w.w.w.w.w.w.w.w.w.w.w.0.0.w.w.w.w.w.w.w.w.w.w.f.B > e t 9 9 9 ^ f.6.w.0.w.y.w.w.w.w.w.w.w.w.w.w.w.w.w.0.0.w.w.w.w.w.w.w.w.w.w.w.0.0.0.w.w.w.w.0.0.w.w.w.w.w.w.0.w.w.w.w.w.w.w.w.w.w.w.0.0.w.w.w.w.w.w.w.w.w.w.w.w.w.w.0.w.w.w.0.y.w.6.w.w.w.t 9 9 t 9 t > &.y.0.y.w.6.0.y.w.0.w.w.w.w.w.w.w.w.w.w.w.w.0.0.w.w.w.w.w.w.w.w.w.w.w.w.w.w.w.w.w.w.0.0.w.w.w.w.w.w.0.w.w.w.w.w.w.w.",
"e 9 9 e e e 5 &.w.w.w.y.y.0.6.6.w.w.w.w.w.w.w.w.w.w.w.w.w.w.w.w.w.w.w.w.w.w.w.w.w.w.w.w.w.w.w.w.6.y.^ 1 e 9 t 9 9 b f.6.y.0.w.w.y.y.y.w.w.w.w.0.w.w.w.w.w.w.w.w.w.w.w.w.w.w.w.w.w.w.w.w.w.w.w.w.w.w.w.w.w.w.w.w.w.w.w.w.w.w.w.w.w.w.w.w.w.w.w.w.6.p. .1 9 e e e 9 d y.0.y.0.y.0.w.y.y.w.w.w.0.0.w.w.w.w.w.w.w.w.w.w.w.w.w.w.w.w.w.w.w.w.w.w.w.w.w.w.w.w.w.w.w.w.w.w.w.w.w.w.w.w.w.w.w.w.w.w.w.w.w.w.w.w.w.w.w.w.w.w.w.w.w.w.w.w.w.w.w.0.y.w.0.p.W 9 9 e t t 5 A p.y.w.w.w.0.0.w.w.w.w.w.w.w.w.w.w.w.w.w.w.w.w.w.w.w.w.w.w.w.w.w.w.w.w.w.w.w.w.w.w.w.w.w.w.w.w.w.w.w.w.w.w.w.w.w.w.w.w.w.w.w.w.w.w.w.w.w.w.w.w.w.w.w.w.w.w.w.w.w.0.0.w.0.w.f.A 9 e t 5 t 5 ^ y.0.w.w.w.0.0.0.0.6.w.w.w.w.w.w.w.w.w.w.w.w.w.w.w.w.w.w.w.w.w.w.w.w.w.w.w.w.w.w.w.w.w.w.w.w.w.w.w.w.w.w.w.w.w.w.w.w.w.w.w.w.w.w.w.w.w.w.w.6.f.$.5 t e e 9 e d y.w.w.y.w.y.0.w.6.0.<.w.w.w.w.w.w.w.w.w.w.w.w.w.w.w.w.w.w.w.w.w.w.w.w.w.w.w.w.w.w.w.w.w.w.w.w.w.w.w.w.w.w.w.w.w.w.w.w.w.w.w.w.w.w.w.w.w.w.w.w.w.w.w.w.w.w.w.w.w.w.w.w.6.6.y.K > t t e t 5 A p.w.w.0.w.y.y.w.0.0.0.w.y.w.w.w.w.w.w.w.w.w.w.w.w.w.w.w.w.w.w.w.w.w.w.w.w.w.w.w.w.w.w.w.w.w.w.w.w.w.w.w.w.w.w.w.w.w.w.w.w.w.w.w.w.w.w.w.w.w.w.w.w.w.w.w.w.w.w.w.w.w.w.w.w.y.b > 9 e 9 9 9 ^ p.6.w.0.w.y.w.w.w.w.w.w.w.w.w.w.w.w.w.w.w.w.w.w.w.w.w.w.w.w.w.w.w.w.w.w.w.w.w.w.w.w.w.w.w.w.w.w.w.w.w.w.w.w.w.w.w.w.w.w.w.w.w.w.w.w.w.w.w.w.w.w.w.w.w.w.w.w.w.0.y.y.0.w.y.y.t 9 9 t 9 t > &.y.0.w.w.0.0.w.w.6.w.w.w.w.w.w.w.w.w.w.w.w.w.w.w.w.w.w.w.w.w.w.w.w.w.w.w.w.w.w.w.w.w.w.w.w.w.w.w.w.w.w.w.w.w.w.w.w.",
"e 9 9 e e e 5 &.w.w.w.w.y.p.w.0.w.w.w.w.w.w.w.w.w.w.w.w.w.w.w.w.w.w.w.w.w.w.w.w.w.w.w.w.w.w.w.w.w.f.( 5 d e t 9 9 b f.6.y.0.w.w.0.w.0.0.w.w.0.y.w.w.w.w.w.w.w.w.w.w.w.w.w.w.w.w.w.w.w.w.w.w.w.w.w.w.w.w.w.w.w.w.w.w.w.w.w.w.w.w.w.w.w.w.w.w.w.w.w.k...5 t e e e 9 d y.0.y.0.y.0.0.0.6.6.w.w.0.w.w.w.w.w.w.w.w.w.w.w.w.w.w.w.w.w.w.w.w.w.w.w.w.w.w.w.w.w.w.w.w.w.w.w.w.w.w.w.w.w.w.w.w.w.w.w.w.w.w.w.w.w.w.w.w.w.w.w.w.w.w.w.w.w.0.w.0.0.y.w.0.p.W 9 9 e t e 5 A y.w.0.0.y.y.w.y.w.w.w.w.w.w.w.w.w.w.w.w.w.w.w.w.w.w.w.w.w.w.w.w.w.w.w.w.w.w.w.w.w.w.w.w.w.w.w.w.w.w.w.w.w.w.w.w.w.w.w.w.w.w.w.w.w.w.w.w.w.w.w.w.w.w.w.w.w.w.w.w.0.w.y.0.0.y.b 1 e t 5 t 1 ^ y.0.y.w.w.w.w.w.w.y.w.w.w.w.w.w.w.w.w.w.w.w.w.w.w.w.w.w.w.w.w.w.w.w.w.w.w.w.w.w.w.w.w.w.w.w.w.w.w.w.w.w.w.w.w.w.w.w.w.w.w.w.w.w.w.w.w.w.w.6.f. .> e e e 9 e d y.w.w.0.w.p.0.p.6.w.w.w.w.w.w.w.w.w.w.w.w.w.w.w.w.w.w.w.w.w.w.w.w.w.w.w.w.w.w.w.w.w.w.w.w.w.w.w.w.w.w.w.w.w.w.w.w.w.w.w.w.w.w.w.w.w.w.w.w.w.w.w.w.w.w.w.w.w.w.w.w.w.w.p.w.f.W 5 e e 9 t 5 A p.w.w.0.w.w.0.0.6.0.w.w.y.w.w.w.w.w.w.w.w.w.w.w.w.w.w.w.w.w.w.w.w.w.w.w.w.w.w.w.w.w.w.w.w.w.w.w.w.w.w.w.w.w.w.w.w.w.w.w.w.w.w.w.w.w.w.w.w.w.w.w.w.w.w.w.w.w.w.w.w.w.w.w.w.y.A 5 t e 9 9 5 ^ p.6.y.0.0.w.w.w.w.w.w.w.w.w.w.w.w.w.w.w.w.w.w.w.w.w.w.w.w.w.w.w.w.w.w.w.w.w.w.w.w.w.w.w.w.w.w.w.w.w.w.w.w.w.w.w.w.w.w.w.w.w.w.w.w.w.w.w.w.w.w.w.w.w.w.w.w.w.w.w.w.w.0.0.6.w.e 9 9 t 9 t > &.y.0.0.y.y.w.y.p.y.w.w.w.w.w.w.w.w.w.w.w.w.w.w.w.w.w.w.w.w.w.w.w.w.w.w.w.w.w.w.w.w.w.w.w.w.w.w.w.w.w.w.w.w.w.w.w.w.",
"e 9 9 e e e 5 &.p.y.6.<.0.y.w.6.w.w.w.w.w.w.w.w.w.w.w.w.w.w.w.w.w.w.w.w.w.w.w.w.w.w.w.w.w.w.w.w.6.y.P > d 9 e e 9 b f.6.y.0.w.w.w.w.0.0.w.w.0.p.w.w.w.w.w.w.w.w.w.w.w.w.w.w.w.w.w.w.w.w.w.w.w.w.w.w.w.w.w.w.w.w.w.w.w.w.w.w.w.w.w.w.w.w.w.w.w.w.6.p. .5 d e 9 e 9 d y.0.y.0.y.0.y.w.6.6.y.w.0.w.w.w.w.w.w.w.w.w.w.w.w.w.w.w.w.w.w.w.w.w.w.w.w.w.w.w.w.w.w.w.w.w.w.w.w.w.w.w.w.w.w.w.w.w.w.w.w.w.w.w.w.w.w.w.w.w.w.w.w.w.w.w.w.w.0.w.0.0.y.w.0.p.P 9 e e t e 5 A w.w.<.<.w.y.6.6.w.w.w.w.w.w.w.w.w.w.w.w.w.w.w.w.w.w.w.w.w.w.w.w.w.w.w.w.w.w.w.w.w.w.w.w.w.w.w.w.w.w.w.w.w.w.w.w.w.w.w.w.w.w.w.w.w.w.w.w.w.w.w.w.w.w.w.w.w.w.w.w.6.w.p.w.0.p.B 9 e t 5 t 1 ^ y.0.w.6.w.0.0.0.6.w.w.w.w.w.w.w.w.w.w.w.w.w.w.w.w.w.w.w.w.w.w.w.w.w.w.w.w.w.w.w.w.w.w.w.w.w.w.w.w.w.w.w.w.w.w.w.w.w.w.w.w.w.w.w.w.w.0.w.w.6.f...> d e e 9 e d y.w.w.6.0.p.6.y.<.0.y.w.w.w.w.w.w.w.w.w.w.w.w.w.w.w.w.w.w.w.w.w.w.w.w.w.w.w.w.w.w.w.w.w.w.w.w.w.w.w.w.w.w.w.w.w.w.w.w.w.w.w.w.w.w.w.w.w.w.w.w.w.w.w.w.w.w.w.w.w.w.w.w.w.6.y.P 5 t e t t 5 A p.w.w.0.w.w.0.y.y.y.y.0.0.w.w.w.w.w.w.w.w.w.w.w.w.w.w.w.w.w.w.w.w.w.w.w.w.w.w.w.w.w.w.w.w.w.w.w.w.w.w.w.w.w.w.w.w.w.w.w.w.w.w.w.w.w.w.w.w.w.w.w.w.w.w.w.w.w.w.w.w.w.w.w.w.0.B 9 t e 9 9 5 ^ p.6.y.0.0.w.0.w.w.w.w.w.w.w.w.w.w.w.w.w.w.w.w.w.w.w.w.w.w.w.w.w.w.w.w.w.w.w.w.w.w.w.w.w.w.w.w.w.w.w.w.w.w.w.w.w.w.w.w.w.w.w.w.w.w.w.w.w.w.w.w.w.w.w.w.w.w.w.w.w.0.w.w.0.0.y.d 9 9 t 9 t > &.y.w.6.w.w.6.0.w.0.w.w.w.w.w.w.w.w.w.w.w.w.w.w.w.w.w.w.w.w.w.w.w.w.w.w.w.w.w.w.w.w.w.w.w.w.w.w.w.w.w.w.w.w.w.w.w.w.",
"e e 9 9 l 5 5 6.p.p.p.y.y.y.y.y.y.y.y.y.y.y.y.y.y.y.y.y.y.y.y.y.y.y.y.y.y.y.y.y.y.y.y.y.y.y.y.y.p.m.( > 9 t 5 t > K p.p.y.k.y.p.y.y.y.y.y.y.y.y.y.y.y.y.y.y.y.y.y.y.y.y.y.y.y.y.y.y.y.y.y.y.y.y.y.y.y.y.y.y.y.y.y.y.y.y.y.y.y.y.y.y.y.y.y.y.y.y.w.C...> 5 d 9 t 5 l w.f.f.k.6.f.y.y.y.y.y.y.y.y.y.y.y.y.y.y.y.y.y.y.y.y.y.y.y.y.y.y.y.y.y.y.y.y.y.y.y.y.y.y.y.y.y.y.y.y.y.y.y.y.y.y.y.y.y.y.y.y.y.y.y.y.y.y.y.y.y.y.y.y.y.y.y.y.y.y.y.w.y.y.p.p.^ 5 9 t d e > D p.p.y.y.y.y.y.y.y.y.y.y.y.y.y.y.y.y.y.y.y.y.y.y.y.y.y.y.y.y.y.y.y.y.y.y.y.y.y.y.y.y.y.y.y.y.y.y.y.y.y.y.y.y.y.y.y.y.y.y.y.y.y.y.y.y.y.y.y.y.y.y.y.y.y.y.y.y.y.y.p.y.k.y.p.p.K > t 5 t 9 > ( m.p.y.y.y.y.y.y.y.y.y.y.y.y.y.y.y.y.y.y.y.y.y.y.y.y.y.y.y.y.y.y.y.y.y.y.y.y.y.y.y.y.y.y.y.y.y.y.y.y.y.y.y.y.y.y.y.y.y.y.y.y.y.y.y.y.p.k.0.y.v.' 1 5 9 e t 1 h f.y.y.y.y.y.y.y.y.y.y.y.y.y.y.y.y.y.y.y.y.y.y.y.y.y.y.y.y.y.y.y.y.y.y.y.y.y.y.y.y.y.y.y.y.y.y.y.y.y.y.y.y.y.y.y.y.y.y.y.y.y.y.y.y.y.y.y.y.y.y.y.y.y.y.y.y.y.y.y.y.y.y.0.p.k.D 1 d 9 e t # D v.f.0.p.w.y.y.y.y.y.y.y.y.y.y.y.y.y.y.y.y.y.y.y.y.y.y.y.y.y.y.y.y.y.y.y.y.y.y.y.y.y.y.y.y.y.y.y.y.y.y.y.y.y.y.y.y.y.y.y.y.y.y.y.y.y.y.y.y.y.y.y.y.y.y.y.y.y.y.y.y.y.y.y.y.m.B 5 d 5 9 d 5 ^ p.k.w.p.y.0.p.y.y.y.y.y.y.y.y.y.y.y.y.y.y.y.y.y.y.y.y.y.y.y.y.y.y.y.y.y.y.y.y.y.y.y.y.y.y.y.y.y.y.y.y.y.y.y.y.y.y.y.y.y.y.y.y.y.y.y.y.y.y.y.y.y.y.y.y.y.y.y.y.w.y.f.k.0.f.p.e 9 e 1 t 9 e $.m.y.y.y.y.y.y.y.y.y.y.y.y.y.y.y.y.y.y.y.y.y.y.y.y.y.y.y.y.y.y.y.y.y.y.y.y.y.y.y.y.y.y.y.y.y.y.y.y.y.y.y.y.y.y.y.y.",
"e e e 5 d 9 1 W ...... . . . . . . . . . . . . . . . . . . . . . . . . . . . . . . . . . . . . .W ..A 5 d h e t t B  .( W ' ^ '  . . . . . . . . . . . . . . . . . . . . . . . . . . . . . . . . . . . . . . . . . . . . . . . . . . . . . . . .( &.P 9 t d 5 e d h ' ' ( ..W  . . . . . . . . . . . . . . . . . . . . . . . . . . . . . . . . . . . . . . . . . . . . . . . . . . . . . . . . . . . . . . . . . . . . . . . . . . . . . . .....A 5 e e e t 1 l .... . . . . . . . . . . . . . . . . . . . . . . . . . . . . . . . . . . . . . . . . . . . . . . . . . . . . . . . . . . . . . . . . . . . . . . . . . . . . . .' ^ ' W (  .B t t e h d 5 A ..W  . . . . . . . . . . . . . . . . . . . . . . . . . . . . . . . . . . . . . . . . . . . . . . . . . . . . . . . . . . . . . . . .' ..^ ^ ..D e h 9 9 t 9 d $.(  . . . . . . . . . . . . . . . . . . . . . . . . . . . . . . . . . . . . . . . . . . . . . . . . . . . . . . . . . . . . . . . . . . . . . . . . . . . . . . . . . .' $.b 9 d 1 e d 1 b  .' ( $. . . . . . . . . . . . . . . . . . . . . . . . . . . . . . . . . . . . . . . . . . . . . . . . . . . . . . . . . . . . . . . . . . . . . . . . . . . . . . . . . .( t e d 5 e d 1 D $...( ....( .. . . . . . . . . . . . . . . . . . . . . . . . . . . . . . . . . . . . . . . . . . . . . . . . . . . . . . . . . . . . . . . . . . . . . . . . . . .' ..^  .$.h 9 t 9 d t 5 A (  . . . . . . . . . . . . . . . . . . . . . . . . . . . . . . . . . . . . . . . . . . . . . . . . . . . . . . . .",
"e e t 5 e t 1 e 1 1 1 1 1 1 1 1 1 1 1 1 1 1 1 1 1 1 1 1 1 1 1 1 1 1 1 1 1 1 1 1 1 1 1 1 1 1 1 1 5 e 9 1 e t 9 5 5 1 9 1 > 5 > 5 1 1 1 1 1 1 1 1 1 1 1 1 1 1 1 1 1 1 1 1 1 1 1 1 1 1 1 1 1 1 1 1 1 1 1 1 1 1 1 1 1 1 1 1 1 1 1 1 1 1 1 1 1 1 1 1 1 9 5 5 t e 9 t 9 > e 1 1 e = 5 1 1 1 1 1 1 1 1 1 1 1 1 1 1 1 1 1 1 1 1 1 1 1 1 1 1 1 1 1 1 1 1 1 1 1 1 1 1 1 1 1 1 1 1 1 1 1 1 1 1 1 1 1 1 1 1 1 1 1 1 1 1 1 1 1 1 1 1 1 1 1 1 1 1 1 1 1 1 5 5 d 5 t 5 9 d 5 e 5 5 1 1 1 1 1 1 1 1 1 1 1 1 1 1 1 1 1 1 1 1 1 1 1 1 1 1 1 1 1 1 1 1 1 1 1 1 1 1 1 1 1 1 1 1 1 1 1 1 1 1 1 1 1 1 1 1 1 1 1 1 1 1 1 1 1 1 1 1 1 1 1 1 1 1 1 1 1 1 5 > 5 > 1 9 1 5 5 9 t e 1 9 e 5 1 1 1 1 1 1 1 1 1 1 1 1 1 1 1 1 1 1 1 1 1 1 1 1 1 1 1 1 1 1 1 1 1 1 1 1 1 1 1 1 1 1 1 1 1 1 1 1 1 1 1 1 1 1 1 1 1 1 1 1 1 1 1 1 1 5 1 1 9 1 1 e t 9 t e 1 t = 9 1 1 1 1 1 1 1 1 1 1 1 1 1 1 1 1 1 1 1 1 1 1 1 1 1 1 1 1 1 1 1 1 1 1 1 1 1 1 1 1 1 1 1 1 1 1 1 1 1 1 1 1 1 1 1 1 1 1 1 1 1 1 1 1 1 1 1 1 1 1 1 1 1 1 1 1 1 1 1 1 e > e 5 9 t 5 d e 5 9 9 > 1 5 > 1 1 1 1 1 1 1 1 1 1 1 1 1 1 1 1 1 1 1 1 1 1 1 1 1 1 1 1 1 1 1 1 1 1 1 1 1 1 1 1 1 1 1 1 1 1 1 1 1 1 1 1 1 1 1 1 1 1 1 1 1 1 1 1 1 1 1 1 1 1 1 1 1 1 1 1 1 1 1 1 9 9 t t 5 e d 5 > 9 1 = 5 5 > 5 1 1 1 1 1 1 1 1 1 1 1 1 1 1 1 1 1 1 1 1 1 1 1 1 1 1 1 1 1 1 1 1 1 1 1 1 1 1 1 1 1 1 1 1 1 1 1 1 1 1 1 1 1 1 1 1 1 1 1 1 1 1 1 1 1 1 1 1 1 1 1 1 1 > = 1 = = 9 > 9 t e d t 5 e 9 1 1 1 1 1 1 1 1 1 1 1 1 1 1 1 1 1 1 1 1 1 1 1 1 1 1 1 1 1 1 1 1 1 1 1 1 1 1 1 1 1 1 1 1 1 1 1 1 1 1 1 1 1 1 1 1 ",
"e 9 e e e d e 5 t t t t t t t t t t t t t t t t t t t t t t t t t t t t t e t t t t t t t t t t e 5 9 t t t t e d e e e t t e t t t t t t t t t t t t t t t t t t t t t t t t t t t t t t t t t t t t t t t t t t t t t t t t t t t t t t t t t t 9 9 t e 9 e e h e d e t h 9 e t t t t t t t t t t t t t t t t t t t t t t t t t t t t t t t t t t t t t t t t t t t t t e t t t t t t t t t t t t t t t t t t t t t t t t t t t t t e t t t t 9 5 t 5 9 d 5 9 t t t t t t t t t t t t t t t t t t t t t t t t t t t t t t t t t t t t t t t t t t t t t t t t t t t t t e t t t t t t t t t t t t t t t t t t t t t t t t t t t e t t e e e d e t t t t 9 5 e t t t t t t t t t t t t t t t t t t t t t t t t t t t t t t t t t t t t t t t t t t t t t t t t t t t t t t t t t t t t t t t t 9 e d t e t d d 9 5 t t e t 1 t t t t t t t t t t t t t t t t t t t t t t t t t t t t t t t t t t t t t t t t t t t t t t t t t t t t t t t t t t t t t t t t t t t t t t t t t t t t t t t t t d 1 e e t t 1 e e d t e t d t t t t t t t t t t t t t t t t t t t t t t t t t t t t t t t t t t t t t t t t t t t t t t t t t t t t t t t t t t t t t t t t t t t t t t t t t t t t t t t t t t 1 t t 9 9 e t t d d 9 9 d t e d t t t t t t t t t t t t t t t t t t t t t t t t t t t t t t t t t t t t t t t t t t t t t t t t t t t t t t t t t t t t t t t t t t t t t t t t 9 t t t t 9 e d e e e e e e e 5 t t t t t t t t t t t t t t t t t t t t t t t t t t t t t t t t t t t t t t t t t t t t t t t t t t t t t t t t ",
"t 9 9 t e e d e e e e e e e e e e e e e e e e e e e e e e e e e e e e e e e e e e e e e e e e e h 9 e d e e t e 9 5 5 e e 9 e t e e e e e e e e e e e e e e e e e e e e e e e e e e e e e e e e e e e e e e e e e e e e e e e e e e e e e e e e d t t t 5 9 t 9 9 5 9 9 9 t 9 9 e e e e e e e e e e e e e e e e e e e e e e e e e e e e e e e e e e e e e e e e e e e e e e e e e e e e e e e e e e e e e e e e e e e e e e e e e e e e e e e e e 5 e e e t 9 e e e e e e e e e e e e e e e e e e e e e e e e e e e e e e e e e e e e e e e e e e e e e e e e e e e e e e e e e e e e e e e e e e e e e e e e e e e e e e e e e t e 9 e e 5 5 9 e t e e d e 9 h e e e e e e e e e e e e e e e e e e e e e e e e e e e e e e e e e e e e e e e e e e e e e e e e e e e e e e e e e e e e e e e e 9 9 e e 5 e e 1 9 9 t 9 e d t t e e e e e e e e e e e e e e e e e e e e e e e e e e e e e e e e e e e e e e e e e e e e e e e e e e e e e e e e e e e e e e e e e e e e e e e e e e e e e e e e d t d t t t 9 e 1 9 5 9 t e 9 t e e e e e e e e e e e e e e e e e e e e e e e e e e e e e e e e e e e e e e e e e e e e e e e e e e e e e e e e e e e e e e e e e e e e e e e e e e e e e e e e t d 9 9 t e 9 t e 9 5 9 e 9 9 t e e e e e e e e e e e e e e e e e e e e e e e e e e e e e e e e e e e e e e e e e e e e e e e e e e e e e e e e e e e e e e e e e e e e e e e e 5 t t 9 t e 5 9 e e e 5 9 t t t e e e e e e e e e e e e e e e e e e e e e e e e e e e e e e e e e e e e e e e e e e e e e e e e e e e e e e e e ",
"d e 5 t 9 1 t t 9 9 e e e e e e e e e e e e e e e e e e e e e e e e e e e e e e e e e e e e e e e 1 9 t 9 5 9 5 e t 9 t e 9 t t e e e e e e e e e e e e e e e e e e e e e e e e e e e e e e e e e 9 9 e e e e e e e e e e e e e e e e e e e e e > 1 9 5 5 e t 5 e e e e 9 9 e t e e e e e e e e e e e e e e e e e e e e e e e e e e e e e e e e e e e e e e e e e e e e e e e e e e e e e e e e e e e e e e e e e e e e e e e e e e e e e e e e t 9 9 t t 9 9 t e e e e e e e e e e e e e e e e e e e e e e e e e e e e e e e e e e e e e e e e 9 9 9 9 9 9 9 9 e e e e e e e e e e e e e e e e e e e e e e e e e e e e e e e e t t 9 e t 9 t e 5 9 5 9 t 9 1 e e e e e e e e e e e e e e e e e e e e e e e e e e e e e e e e e 9 9 9 9 9 9 9 9 e e e e e e e e e e e e e e e e e e e e e e e e d e e e 9 t d 9 t t t 1 5 5 9 1 e e e e e e e e e e e e e e e e e e e e e e e e e e e e e e e e e e e e e e e e e e e e e e e e e e e e e e e e e e e e e e e e e e e e e e e e e e e e e e e e 1 5 9 5 9 t t t d t e e t 5 1 e e e e e e e e e e e e e e e e e e e e e e e e e e e e e e e e e e e e e e e e e e e e 9 e e e e e e e e e e e e e e e e e e e e e e e e e e e e e e e e e e e e d e 5 e d t 5 e 9 5 9 e e 9 9 e e e e e e e e e e e e e e e e e e e e e e e e e e e e e e e e e 9 9 9 9 9 9 9 9 e e e e e e e e e e e e e e e e e e e e e e e e e e e e e e e e 9 e t 1 9 d 9 9 e e t 9 9 t 9 e e e e e e e e e e e e e e e e e e e e e e e e e e e e e e e e e 9 9 9 9 9 9 9 9 e e e 9 e e e e e e e e e e e e ",
"e t 5 t e 1 t e e e e t t t t t t t t t t t t t t t t t t t t t e e t t t t t t t t t t t t t t e e e t t e e t 9 d 5 9 9 1 t 9 t t t t t t t t t t t t t t t t t t t t t t t t t t t t t t t t t t t t t t t t t t t t t t t t t t t t t t t t t d d t e e 9 5 e e 9 9 5 5 9 9 t t t t t t t t t t t t t t t t t t t t t t t t t t t t t t t t t t t t t t t t e e t t t t t t t t t t t t t t t t t t t t t t t t t t t t t t t t t t t t t t e e 9 e e 9 e e t t t t t t t t t t t t t t t t t t t t t t t t t t t t t t t t t t t t t t t t t t t t t t t t t t t t t t t t t t t t t t t t t t t t t t t t t t t t t t t t 9 t 1 9 9 5 d 9 t e e t t e e e t t t t t t t t t t t t t t t t t t t t t t t t t t t t t t t t t t t t t t t t e e e e e e e e t t t t t t t t t t t t t t t t e 9 9 9 e e e t 9 9 t 9 d e l d t t t t t t t t t t t t t t t t t t t t t t t t t t t t t t t t t t t t t t t t t t t t t t t t t t t t t t t t e e e e e e e e t t t t t t t t t t t t t t t t d d t t e 9 e e 9 5 5 9 9 e t d t t t t t t t t t t t t t t t t t t t t t t t t t t t t t t t t t t t t t t t t e e e e e e e e t t t t t t t t t t t t t t t t t t t t t t t t t t t t t t t t t 9 9 e t e 9 9 e e e t e t t e t t t t t t t t t t t t t t t t t t t t t t t t t t t t t t t t t t t t t t t t t t t t t t t t t t t t t t t t t t t t t t t t t t t t t t t t t 9 d 9 e h e t t 9 d e e t 1 e t t t t t t t t t t t t t t t t t t t t t t t t t t t t t t t t t t t t t t t t e e e e e e e e t t t t t t t t ",
"5 h 9 e t 9 t 9 9 9 9 9 9 9 9 9 9 9 9 9 9 9 9 9 9 9 9 9 9 9 9 9 9 9 9 9 9 9 9 9 9 9 9 9 9 9 9 9 e t 9 5 9 9 9 e 5 d 9 e t 9 d 5 9 9 9 9 9 9 9 9 9 9 9 9 9 9 9 9 9 9 9 9 9 9 9 9 9 9 9 9 9 9 9 9 9 9 9 9 9 9 9 9 9 9 9 9 9 9 9 9 9 9 9 9 9 9 9 9 9 9 5 9 e 9 9 t 9 e e t t e e 9 9 9 9 9 9 9 9 9 9 9 9 9 9 9 9 9 9 9 9 9 9 9 9 9 9 9 9 9 9 9 9 9 9 9 9 9 9 9 9 9 9 9 9 9 9 9 9 9 9 9 9 9 9 9 9 9 9 9 9 9 9 9 9 9 9 9 9 9 9 9 9 9 9 9 e e e 9 9 9 5 t e e 9 9 e 5 9 9 9 9 9 9 e e 9 9 9 9 9 9 9 9 9 9 9 9 9 9 9 9 9 9 9 9 9 9 9 9 9 9 9 9 9 9 9 9 e e e e e e e e 9 9 9 9 9 9 9 9 9 9 9 9 9 9 9 9 9 9 9 9 9 9 9 9 9 9 9 9 9 9 9 9 5 d 9 t e 9 d 5 e 9 9 9 5 9 t e 9 9 9 9 9 9 9 9 9 9 9 9 9 9 9 9 9 9 9 9 9 9 9 9 9 9 9 9 9 9 9 9 e e e e e e e e 9 9 9 9 9 9 9 9 9 9 9 9 9 9 9 9 9 9 9 9 9 9 9 9 e e e e t 9 5 t 9 9 t e d > e 9 9 9 9 9 9 9 9 9 9 9 9 9 9 9 9 9 9 9 9 9 9 9 9 9 9 9 9 9 9 9 9 9 9 9 9 9 9 9 9 9 9 9 9 9 9 9 9 9 9 9 9 9 9 9 9 9 9 9 9 9 9 9 9 9 9 9 9 9 9 9 9 9 9 9 9 9 9 9 9 9 9 5 1 e t 5 9 e e e t e 9 e t 5 9 9 9 9 9 9 9 9 9 9 9 9 9 9 9 9 9 9 9 9 9 9 9 9 9 9 9 9 9 9 9 9 9 9 9 9 9 9 9 9 9 9 9 9 9 9 9 9 9 9 9 9 9 9 9 9 9 9 9 9 9 9 9 9 9 9 9 9 9 9 9 9 9 9 9 9 9 9 9 9 e e t e 1 5 e e e 9 9 9 5 e t 1 9 9 9 9 9 9 9 9 9 9 9 9 9 9 9 9 9 9 9 9 9 9 9 9 9 9 9 9 9 9 9 9 e e e e e e e e 9 9 9 9 9 9 9 9 9 9 9 9 9 9 9 9 9 9 9 9 9 9 9 9 9 9 9 9 9 9 9 9 t > t e 9 e 1 9 t 1 t e e t 5 t 9 9 9 9 9 9 9 9 9 9 9 9 9 9 9 9 9 9 9 9 9 9 9 9 9 9 9 9 9 9 9 9 e e e e e e e e 9 9 9 9 9 9 9 9 9 9 9 9 9 9 9 9 ",
"9 t e 9 9 t # b h l l h t D d t t 9 e e d d 1 e t 5 9 d > A t l l d d B 9 t t e t t d d t t t t t t t t t t t t t t t t t t t d t t d d t t t t t t t t t t t t e t d d e d d 5 e e t t e 5 K e h l h h b 5 d h t t t t t t t d t t d d t t t t t t t t t t t t t t t t t t t d t t d d t t t t t t t t t t t t t t t t t t t d t t t e d h 5 e t 9 9 l 1 B d d l h t A t e d e t t d d t t t t t t t t t t t t t t t t t t t d t t d d t t t t t t t t t t t t t t t t t t t d t t d d t t t t t t t t t t t t t t t t t t t d t t t d t t t t 9 e l 1 t e e t h = B l h h l h b t e d t t t e t t t t t t t t t t t t t t t d t t d d t t t t t t t t t t t t t t t t t t t d t t d d t t t t t t t t t t t t t t t t t t t d d d 5 e e 5 e 9 1 K d l l h d l t t t t t t t t t t d d t t t t t t t t t t t t t t t t t t t d t t d d t t t t t t t t t t t t t t t t t t t d t t d d t t t t t t t t t t t t t d e t e t l 9 9 t 5 5 d t e l l l l h h B 1 l t t t t t t t d t t d d t t t t t t t t t t t t t t t t t t t d t t d d t t t t t t t t t t t t t t t t t t t d e t d t e d h 5 e e e t e 1 A d h b l h A 9 t h t t d d t t t t t t t t t t t t t t t t t t t d t t d d t t t t t t t t t t t t t t t t t t t d t t d d t t t t t t t t t t t t t t t t t t t d t t d d t t t t t e t e 5 9 t e e d 1 D e h B d d K 9 t d d d t t t t t t t t t t t t t t t t d t t d d t t t t t t t t t t t t t t t t t t t d t t d d t t t t t t t t t t t t t t t t t t t d e d 5 5 e 9 e 9 e d B e b b l l b 1 d t t e d d ",
"9 e e 9 9 d e ..f.f.p.p.w.f. .P P D K D D b 9 t 9 9 e h l p.y.f.k.p.y.y.^ P K D D D D D D D D D D D D D D D D D D D D D D D D D D D D D D D D D D D D D D D D D D D K K A A B t e 9 9 9 e B f.p.f.k.f.y.w.P K D D D D D D D D D D D D D D D D D D D D D D D D D D D D D D D D D D D D D D D D D D D D D D D D D D D D D D D D D P K P A D A t t e 9 5 t 9 <.y.f.k.f.w.f.' K P D D D D D D D D D D D D D D D D D D D D D D D D D D D D D D D D D D D D D D D D D D D D D D D D D D D D D D D D D D D D D D D D D D D D D D D D D D D D D D D D D A A D e t e 9 e e 9 :.p.f.f.f.p.w. .K D A D D A D D D D D D D D D D D D D D D D D D D D D D D D D D D D D D D D D D D D D D D D D D D D D D D D D D D D D D D D D D D D D D D D B l e e e 9 e 9 D y.0.p.p.y.y.p.D D D D D D D D D D D D D D D D D D D D D D D D D D D D D D D D D D D D D D D D D D D D D D D D D D D D D D D D D D D D D D D D D D D D D D D D D K D D A D P b e d e 5 9 e K y.y.y.p.y.w.0.D W D D D D D D D D D D D D D D D D D D D D D D D D D D D D D D D D D D D D D D D D D D D D D D D D D D D D D D D D A K K D A D A t t e 5 9 t b y.f.p.v.f.y.y.W K D D D D D D D D D D D D D D D D D D D D D D D D D D D D D D D D D D D D D D D D D D D D D D D D D D D D D D D D D D D D D D D D D D D D D D D D D D D D D D D D D D A A b e e e 9 9 d h y.0.y.k.k.6.p.W P D D K D D D D D D D D D D D D D D D D D D D D D D D D D D D D D D D D D D D D D D D D D D D D D D D D D D D D D D D D D D D D D D D D D A K d e t 9 e 5 9 P p.y.k.p.y.k.&.D P D K D P D ",
"9 e e 9 5 e e <.w.w.0.w.0.y.W h D B D A D l 1 5 t t e 5 e p.y.6.<.6.6.6.D B B D A A A A A A A A A A A A D D A A A A A A A D D D A A A A A A A A A A A A D D A A A A D D A A l 5 t t e 9 1 d w.0.:.6.0.6.6.D B b A A A A A D D D A A A A A A A A A A A A D D A A A A A A A D D D A A A A A A A A A A A A D D A A A A A A A D D D A A D A D B 9 9 9 d e 5 > <.y.0.<.6.<.w.P B A A A A A A A A A A A A A A D D A A A A A A A D D D A A A A A A A A A A A A D D A A A A A A A D D D A A A A A A A A A A A A D D A A A A A A A D D D A A A A A A A A K D K 9 t e 9 t 5 5 :.w.0.<.<.<.f. .A B B D D B A A A A D D A A A A A A A D D D A A A A A A A A A A A A D D A A A A A A A D D D A A A A A A A A A A A A D D A A A A A A A D D D K B e e e 9 t 9 d w.0.y.w.0.0.0.A A A A A A D D A A A A A A A A A A A A D D A A A A A A A D D D A A A A A A A A A A A A D D A A A A A A A D D D A A A A A A A A A A A A D D A A A D A D A A K h 9 d t e 9 9 P m.6.0.w.w.0.<.l b A A A A A D D D A A A A A A A A A A A A D D A A A A A A A D D D A A A A A A A A A A A A D D A A A A A A A D D D A A K D A A b 5 t t e 5 5 e <.w.:.0.0.6.w.P B B A A A A A A A A A A A A D D A A A A A A A D D D A A A A A A A A A A A A D D A A A A A A A D D D A A A A A A A A A A A A D D A A A A A A A D D D A A A A A A A A K K K B t 9 t e 5 1 9 y.w.<.<.6.y.f.P D A D K D A A A A D D A A A A A A A D D D A A A A A A A A A A A A D D A A A A A A A D D D A A A A A A A A A A A A D D A A A A A A A D D D K P h e e 9 t e > P f.w.0.:.:.w.<.A D B D D D B ",
"e 9 e t 9 5 1 &.y.w.0.w.w.k. .D B b A A D b 5 e 9 e 9 5 e p.0.:.y.y.p.y.P D D K A A A A A A A A A A A A A A A A A A A A A A A A A A A A A A A A A A A A A A A A A B A D D D b 5 5 e t t 9 h 0.6.y.y.y.w.0.K D D A A A A A A A A A A A A A A A A A A A A A A A A A A A A A A A A A A A A A A A A A A A A A A A A A A A A A A A A B B D A D A e e 1 t t e 5 6.w.:.w.y.y.f.( D K D A A A A A A A A A A A A A A A A A A A A A A A A A A A A A A A A A A A A A A A A A A A A A A A A A A A A A A A A A A A A A A A A A A A A A A A A A A A A A A A A A B A 5 e e e t d t 6.y.0.0.y.p.w.^ b B A D D B A A A A A A A A A A A A A A A A A A A A A A A A A A A A A A A A A A A A A A A A A A A A A A A A A A A A A A A A A A A A A A A A K b 5 9 e 9 t 9 B k.p.y.0.w.y.w.A A A A A A D D A A A A A A A A A A A A A A A A A A A A A A A A A A A A A A A A A A A A A A A A A A A A A A A A A A A A A A A A A A A A A A A A A D A D A A D d 9 e e d d 9 B w.w.w.w.w.w.w.D P A A A A A A A A A A A A A A A A A A A A A A A A A A A A A A A A A A A A A A A A A A A A A A A A A A A A A A A A A A D D D K B 5 9 e t t e t <.0.w.p.y.w.y.W D D A A A A A A A A A A A A A A A A A A A A A A A A A A A A A A A A A A A A A A A A A A A A A A A A A A A A A A A A A A A A A A A A A A A A A A A A A A A A A A A A B A D b e 9 t e l t t k.f.w.w.p.6.w.A A A D K A A A A A A A A A A A A A A A A A A A A A A A A A A A A A A A A A A A A A A A A A A A A A A A A A A A A A A A A A A A A A A A A A A D t 9 e 9 t t e ^ f.0.w.w.y.k.:.b B b A A D B ",
"e 9 e d t e 5 :.y.w.0.0.6.p.( A K A K D K B 9 t 5 9 e t h f.y.y.w.w.w.0.K B B A D D D D D D D D D D D D D D D D D D D D D D D D D D D D D D D D D D D D D D D D K D D K K P A e 9 9 9 9 e b k.f.y.w.0.0.6.A B B D D D D D D D D D D D D D D D D D D D D D D D D D D D D D D D D D D D D D D D D D D D D D D D D D D D D D D D D K D K D K A t e 9 e 9 e 9 6.f.p.w.w.0.p.^ A A b D D D D D D D D D D D D D D D D D D D D D D D D D D D D D D D D D D D D D D D D D D D D D D D D D D D D D D D D D D D D D D D D D D D D D D D D D D D D D D D D D A D 9 t e 9 e 1 > &.w.y.y.y.y.y.' D D K D D A D D D D D D D D D D D D D D D D D D D D D D D D D D D D D D D D D D D D D D D D D D D D D D D D D D D D D D D D D D D D D D D D D l 5 9 t e t 5 l p.0.6.<.w.y.0.D D D D D D D D D D D D D D D D D D D D D D D D D D D D D D D D D D D D D D D D D D D D D D D D D D D D D D D D D D D D D D D D D D D D D D D D D K D K D A K d e 9 5 e t 9 D f.y.w.0.6.6.6.B D D D D D D D D D D D D D D D D D D D D D D D D D D D D D D D D D D D D D D D D D D D D D D D D D D D D D D D D D D D D D K P D e e e 9 9 e h y.k.w.y.w.0.w.K B B D D D D D D D D D D D D D D D D D D D D D D D D D D D D D D D D D D D D D D D D D D D D D D D D D D D D D D D D D D D D D D D D D D D D D D D D D D D D D D D D A D P B e 5 e e e 5 5 0.0.w.p.y.w.p.K D D K K B D D D D D D D D D D D D D D D D D D D D D D D D D D D D D D D D D D D D D D D D D D D D D D D D D D D D D D D D D D D D D D D D D K d e t e t e > D y.6.y.w.0.w.<.A D A K D K D ",
"d e 9 e e e 5 :.y.y.y.p.w.p.( A D B A B A l 5 e t e 9 e t 0.6.w.0.6.6.0.P K K K A A A A A A A A A A A A A A A A A A A A A A A A A A A A A A A A A A A A A A A A D A A A A A b 5 t e 9 9 5 h w.6.6.0.0.w.w.P D K A A A A A A A A A A A A A A A A A A A A A A A A A A A A A A A A A A A A A A A A A A A A A A A A A A A A A A A A D A D B A B 9 9 e e 9 e 5 &.6.0.6.0.6.y.( K K D A A A A A A A A A A A A A A A A A A A A A A A A A A A A A A A A A A A A A A A A A A A A A A A A A A A A A A A A A A A A A A A A A A A A A A A A A A A A A A A A A A D 9 t e 9 e t 9 :.y.w.w.0.6.y.( B A B B A D A A A A A A A A A A A A A A A A A A A A A A A A A A A A A A A A A A A A A A A A A A A A A A A A A A A A A A A A A A A A A A A A D b 9 e t e e 5 l p.w.w.w.y.w.6.A A A A A A A A A A A A A A A A A A A A A A A A A A A A A A A A A A A A A A A A A A A A A A A A A A A A A A A A A A A A A A A A A A A A A A A A B D A D B B D d 5 e e t e 5 K v.y.w.w.w.w.6.B A A A A A A A A A A A A A A A A A A A A A A A A A A A A A A A A A A A A A A A A A A A A A A A A A A A A A A A A A D A A B B D B 9 t e 5 5 9 t <.6.6.w.w.w.p.W D K A A A A A A A A A A A A A A A A A A A A A A A A A A A A A A A A A A A A A A A A A A A A A A A A A A A A A A A A A A A A A A A A A A A A A A A A A A A A A A A A A D P B e 9 t t e t t w.0.w.w.6.w.p.D B B A D B A A A A A A A A A A A A A A A A A A A A A A A A A A A A A A A A A A A A A A A A A A A A A A A A A A A A A A A A A A A A A A A A A D d e t e t e 1 ^ v.w.w.6.6.w.:.B D A K B A A ",
"d e 9 9 5 9 1 $.w.w.w.y.w.f.' A D B D A D B 9 t e e 9 e d y.w.y.p.y.y.w.P A B A D D D D D D D D D D D D D D D D D D D D D D D D D D D D D D D D D D D D D D D D K D K D A D b 9 9 e t t t b y.0.y.y.y.y.w.D B B D D D D D D D D D D D D D D D D D D D D D D D D D D D D D D D D D D D D D D D D D D D D D D D D D D D D D D D D D A D A D D t t 5 e e d e <.y.w.p.p.w.p.^ A A B D D D D D D D D D D D D D D D D D D D D D D D D D D D D D D D D D D D D D D D D D D D D D D D D D D D D D D D D D D D D D D D D D D D D D D D D D D D D D D D D B B A 9 t e 9 t t 9 &.0.0.0.y.y.y.( B A D D K K D D D D D D D D D D D D D D D D D D D D D D D D D D D D D D D D D D D D D D D D D D D D D D D D D D D D D D D D D D D D D D D D K B 9 e t 9 e 5 b y.w.y.w.w.0.6.D D D D D D D D D D D D D D D D D D D D D D D D D D D D D D D D D D D D D D D D D D D D D D D D D D D D D D D D D D D D D D D D D D D D D D D D D K D K D D K h 5 t t t e 5 A y.0.0.y.y.y.0.B D D D D D D D D D D D D D D D D D D D D D D D D D D D D D D D D D D D D D D D D D D D D D D D D D D D D D D D D D D D K D A K B 9 9 9 e t d h 0.w.y.p.y.y.p.P B A D D D D D D D D D D D D D D D D D D D D D D D D D D D D D D D D D D D D D D D D D D D D D D D D D D D D D D D D D D D D D D D D D D D D D D D D D D D D D D D D B A D b e 9 t e 9 e t p.y.y.y.w.w.p.K A A D K D D D D D D D D D D D D D D D D D D D D D D D D D D D D D D D D D D D D D D D D D D D D D D D D D D D D D D D D D D D D D D D D D B A t 9 e 9 t e > P f.0.0.0.y.f.6.A D D K A A A ",
"5 9 e e 9 t 9 &.p.y.0.0.0.p.' A K A K D D b 1 9 9 e e e d f.w.6.w.w.w.w.P D D K D D D D D D D D D D D D D D D D D D D D D D D D D D D D D D D D D D D D D D D D A A D D A D b 9 e e t e 9 l y.y.w.0.0.0.0.D A K D D D D D D D D D D D D D D D D D D D D D D D D D D D D D D D D D D D D D D D D D D D D D D D D D D D D D D D D D D K A D A 9 9 9 t e 9 > :.y.w.0.w.0.p.^ A K D D D D D D D D D D D D D D D D D D D D D D D D D D D D D D D D D D D D D D D D D D D D D D D D D D D D D D D D D D D D D D D D D D D D D D D D D D D D D D D D D K D D 9 e 9 9 e 9 9 :.y.w.0.w.w.p.( A D K D A B D D D D D D D D D D D D D D D D D D D D D D D D D D D D D D D D D D D D D D D D D D D D D D D D D D D D D D D D D D D D D D D D D b 9 9 e 9 e 9 l w.0.y.w.0.w.y.A A A A A A A A D D D D D D D D D D D D D D D D D D D D D D D D D D D D D D D D D D D D D D D D D D D D D D D D D D D D D D D D D D D D D D D D A D A D A A K h t d 9 5 9 e K y.0.0.y.y.w.6.B D D D D D D D D D D D D D D D D D D D D D D D D D D D D D D D D D D D D D D D D D D D D D D D D D D D D D D D D D A A K D A D B 9 e e 9 9 9 d 0.p.0.w.6.0.y.P D P D D D D D D D D D D D D D D D D D D D D D D D D D D D D D D D D D D D D D D D D D D D D D D D D D D D D D D D D D D D D D D D D D D D D D D D D D D D D D D D D D D K b e 5 9 5 e e e p.w.0.w.w.0.p.K D A A D A D D D D D D D D D D D D D D D D D D D D D D D D D D D D D D D D D D D D D D D D D D D D D D D D D D D D D D D D D D D D D D D D K P d e e 9 e 9 5 W f.0.p.w.6.<.6.B A A K A D D ",
"e 9 9 e e e 5 &.y.0.w.y.6.p.' A K D B D P b 9 9 d 9 e 9 l y.y.w.0.0.0.0.K A D K D D D A D D D D A D D D D D D D D D D D D D D D D A A D D D A D D D D D D D D D A A D D A D b 5 e e e e e l y.w.w.w.w.w.0.D A D D D D D D D D D D A A D D D A D D D D D D D D D D D D D D D D D D D D A D D D D A D D D D D D D D D D D D D D D A D A D A D 9 e 9 t e e 5 :.w.w.w.w.0.f.( A D D D D D A D D D D A D D D D D D D D D D D D D D D D A A D D D A D D D D D D D D D D D D D D D D D D D D A D D D D A D D D D D D D D D D D D D D D D A A D D D A D A D D 9 e e 9 e e 9 :.y.w.0.w.w.p.' A A D A D D D D D D D D D D D D D D D D A A D A A D D D A D D D D D D D D D D D D D D D D D D D D A D D D D A D D D D D D D D D D D D D D D D b 9 e t 9 t 9 b p.0.w.0.w.w.0.D A A A A A A D D D D A D D D D A D D D D D D D D D D D D D D D D A A D D D A D D D D D D D D D D D D D D D D D D D D A D D D D A D D D D D D D A D A D A A D d 9 e t 9 t 5 K p.w.0.w.w.0.6.B D A A D D D D D D D D D A D D D D A D D D D D D D D D D D D D D D D A A D D D A D D D D D D D D D D D D A A A D D D A D D A K B 9 9 e t 5 t t 0.w.w.y.0.w.p.P A D D D D D D D D D D D D A D D D D A D D D D D D D D D D D D D D D D A A D D D A D D D D D D D D D D D D D D D D D D D D A D D D D A D D D D D D D D D D D D D D D A D A B 5 e e e e e e y.w.w.w.w.w.y.W A A K A D D D D A D D D D A D D D D D D D D D D D D D D D D A A D D D A D D D D D D D D D D D D D D D D D D D D A D D D D A D D D D D D D A P d 9 t e e e 5 K f.0.w.w.6.y.<.B K A D D A D ",
"e 9 9 e e e 5 &.w.0.w.y.0.f. .A K K B B D h 9 t 5 9 d 9 h y.w.<.f.p.y.w.P A B B D D A A D D D D D D D D D D D D D D D D D D D D D D A D D D D D D D D D D D D D A A D D A D b 5 e e e e e l y.w.w.w.w.w.0.D A D D D D D D D D D D D A D D D D D D D D D D D D D D D D D D D A A D D A A D D D D D D D D D D D D D D D D D D D D A D A D A D 9 e 9 t e e 5 :.w.w.w.w.0.f.( A D D D D A A D D D D D D D D D D D D D D D D D D D D D D A D D D D D D D D D D D D D D D D D D D A A D D A A D D D D D D D D D D D D D D D D D D D D D D A D D D D D A D D 9 e e 9 e e 9 :.y.w.0.w.w.p.' A A D A D D D D D D D D D D A D D D D D D D D D A D D D D D D D D D D D D D D D D D D D A A D D A A D D D D D D D D D D D D D D D D D D D D D b 9 e t 9 t 9 b p.0.w.0.w.w.0.D A A A A A A D D D A A D D D D D D D D D D D D D D D D D D D D D D A D D D D D D D D D D D D D D D D D D D A A D D A A D D D D D D D D D D D D A D A D A A D d 9 e t 5 t 5 K p.w.0.w.w.0.6.B D D D D D D D D D D D A A D D D D D D D D D D D D D D D D D D D D D D A D D D D D D D D D D D D D D D D D D D D D D A D D A K B 9 9 e t 5 t t 0.w.w.y.0.w.p.P A D D D D D D D D D D D A A D D D D D D D D D D D D D D D D D D D D D D A D D D D D D D D D D D D D D D D D D D A A D D A A D D D D D D D D D D D D D D D D D D D D A D A B 5 e e e e e e y.w.w.w.w.w.y.W A A K A D D D A A D D D D D D D D D D D D D D D D D D D D D D A D D D D D D D D D D D D D D D D D D D A A D D A A D D D D D D D D D D D D A P d 9 t e e e 5 K f.0.w.w.6.y.<.B K A D D A D ",
"e 9 9 e e e 5 &.w.0.w.y.0.f.' B b D B B P b 9 d 9 9 t 9 h p.f.f.0.6.6.6.K D A D D D D D D D D D D D D D A D D D D A D D D D A A D D D D D D D D D D D D D D D D A A D D A D b 5 e e e e e l y.w.w.w.w.w.0.D A D D D D D D D D D D D D D D D D D D D D D D D D D D D D D D D D D D D D D D D D D D D D D A D D D D A D D D D A A A D A D A D 9 e 9 t e e 5 :.w.w.w.w.0.f.( A D D D D D D D D D D D D D D A D D D D A D D D D A A D D D D D D D D D D D D D D D D D D D D D D D D D D D D D D D D D D D D A D D D D A D D D D A A D D D D D D D D A D D 9 e e 9 e e 9 :.y.w.0.w.w.p.' A A D A D D D D D D D D A A D D D D D D D D D D D D D D D D D D D D D D D D D D D D D D D D D D D D D D D D D D D D A D D D D A D D D D A A D b 9 e t 9 t 9 b p.0.w.0.w.w.0.D A A A A A A D D D D D D D D D D D D D A D D D D A D D D D A A D D D D D D D D D D D D D D D D D D D D D D D D D D D D D D D D D D D D A D D D A D A D A A D d 9 e t 9 t 5 K p.w.0.w.w.0.6.B K D D D D D D D D D D D D D D D D D D D D A D D D D A D D D D A A D D D D D D D D D D D D D D D D D D D D D D D D D A D D A K B 9 9 e t 5 t t 0.w.w.y.0.w.p.P A D D D D D D D D D D D D D D D D D D D D D A D D D D A D D D D A A D D D D D D D D D D D D D D D D D D D D D D D D D D D D D D D D D D D D A D D D D A D D D D A A A D A B 5 e e e e e e y.w.w.w.w.w.y.W A B K A A D D D D D D D D D D D D A D D D D A D D D D A A D D D D D D D D D D D D D D D D D D D D D D D D D D D D D D D D D D D D A D D D A P d 9 t e e e 5 K f.0.w.w.6.y.<.B K A D D A D ",
"e 9 9 e e e 5 &.y.0.w.y.6.p.' b A W D A W b 1 9 h e e 9 h <.6.0.y.w.w.w.P D A D D D D D D D D D D D D D A D D D D D D D D D D D D D D D D D D D A D D D D A A D A A D D A D b 5 e e e e e l y.w.w.w.w.w.0.D A D D D D D D D D D D D D D D D D D A D D D D A A D A D D D D D D D D D D D D D D D D D D D A D D D D D D D D D D D A D A D A D 9 e 9 t e e 5 :.w.w.w.w.0.f.( A D D D D D D D D D D D D D D A D D D D D D D D D D D D D D D D D D D A D D D D A A D A D D D D D D D D D D D D D D D D D D D A D D D D D D D D D D D D D D D D D D D A D D 9 e e 9 e e 9 :.y.w.0.w.w.p.' A A D A D D D D D D D D D A D D D D D D D D D D D D D D D D A D D D D A A D A D D D D D D D D D D D D D D D D D D D A D D D D D D D D D D D D b 9 e t 9 t 9 b p.0.w.0.w.w.0.D A A A A A A D D D D D D D D D D D D D A D D D D D D D D D D D D D D D D D D D A D D D D A A D A D D D D D D D D D D D D D D D D D D D A D D D A D A D A A D d 9 e t 9 t 5 K p.w.0.w.w.0.6.B K D D D D D D D D D D D D D D D D D D D D A D D D D D D D D D D D D D D D D D D D A D D D D A A D D D D D D D D D D A D D A K B 9 9 e t 5 t t 0.w.w.y.0.w.p.P A D D D D D D D D D D D D D D D D D D D D D A D D D D D D D D D D D D D D D D D D D A D D D D A A D A D D D D D D D D D D D D D D D D D D D A D D D D D D D D D D D A D A B 5 e e e e e e y.w.w.w.w.w.y.W A B K A D D D D D D D D D D D D D A D D D D D D D D D D D D D D D D D D D A D D D D A A D A D D D D D D D D D D D D D D D D D D D A D D D A P d 9 t e e e 5 K f.0.w.w.6.y.<.B K A D D A D ",
"e 9 9 e e e 5 &.p.w.0.w.6.p.' B D K b l K B e t 5 1 e e b p.p.y.0.0.w.0.K B A D D D A D D D D D D A D D D D D D D D D D D D D D A D D D D A D A A D D D D A D D A A D D A D b 5 e e e e e l y.w.w.w.w.w.0.D A D D D D D D D D D A D D D D A D A A D D D D A D D A D D D D D D D D D A D D D D D D A D D D D D D D D D D D D D D A D A D A D 9 e 9 t e e 5 :.w.w.w.w.0.f.( A D D D D A D D D D D D A D D D D D D D D D D D D D D A D D D D A D A A D D D D A D D A D D D D D D D D D A D D D D D D A D D D D D D D D D D D D D D A D D D D A D A A D D 9 e e 9 e e 9 :.y.w.0.w.w.p.' A A D A D D D D D A D D D D D A D D D D D D A D D D D A D A A D D D D A D D A D D D D D D D D D A D D D D D D A D D D D D D D D D D D D D D D b 9 e t 9 t 9 b p.0.w.0.w.w.0.D A A A A A A D D D A D D D D D D A D D D D D D D D D D D D D D A D D D D A D A A D D D D A D D A D D D D D D D D D A D D D D D D A D D D D D D A D A D A A D d 9 e t 9 d 5 K p.w.0.w.w.w.6.B K D D D A D D D D D D A D D D D D D A D D D D D D D D D D D D D D A D D D D A D A A D D D D A D D D D D D D D D D D A D A A D B 9 9 e t 5 t t 0.w.w.y.0.w.p.P A D D A D D D D A D D D A D D D D D D A D D D D D D D D D D D D D D A D D D D A D A A D D D D A D D A D D D D D D D D D A D D D D D D A D D D D D D D D D D D D D D A D A B 5 e e e e e e y.w.w.w.w.0.y.W A B K A D D D A D D D D D D A D D D D D D D D D D D D D D A D D D D A D A A D D D D A D D A D D D D D D D D D A D D D D D D A D D D D D D A P d 9 t e e e 5 K f.0.w.w.6.y.<.B K A D D A D ",
"e 9 9 e e e 5 &.p.0.0.y.0.f. .A A A A A D b e 1 t d h 1 t w.y.6.0.0.w.0.K A A D D D D D D D D D D A D D A D D D D D D D D D D D D D D D D D D D D D D D D A D D A A D D A D b 5 e e e e e l y.w.w.w.w.w.0.D A D D D D A A D D D D D D D D D D D D D D D D A D D A D D D D D D D D D D D D D D D D A D D A D D D D D D D D D D D A D A D A D 9 e 9 t e e 5 :.w.w.w.w.0.f.( A D D D D D D D D D D D A D D A D D D D D D D D D D D D D D D D D D D D D D D D A D D A D D D D D D D D D D D D D D D D A D D A D D D D D D D D D D D D D D D D D D D A D D 9 e e 9 e e 9 :.y.w.0.w.w.p.' A A D A D D D D D D D D D D D A D D D D A A D D D D D D D D D D D D D A D D A D D D D D D D D D D D D D D D D A D D A D D D D D D D D D D D D b 9 e t 9 t 9 b p.0.w.0.w.w.0.D A A A A A A D D D D D D D D D D A D D A D D D D D D D D D D D D D D D D D D D D D D D D A D D A D D D D D D D D D D D D D D D D A D D A D D D A D A D A A D d 9 e t 9 t 5 K p.w.0.w.w.w.6.B K D D D A D A D D D D D D D D D D D A D D A D D D D D D D D D D D D D D D D D D D D D D D D A D D D D D D D D D D D A D A A D B 9 9 e t 5 t t 0.w.w.y.0.w.p.P A D D A D D D D A D D D D D D D D D D A D D A D D D D D D D D D D D D D D D D D D D D D D D D A D D A D D D D D D D D D D D D D D D D A D D A D D D D D D D D D D D A D A B 5 e e e e e e y.w.w.w.w.0.y.W A B K A D D D D D D D D D D A D D A D D D D D D D D D D D D D D D D D D D D D D D D A D D A D D D D D D D D D D D D D D D D A D D A D D D A P d 9 t e e e 5 K f.0.w.w.6.y.<.B K A D D A D ",
"e 9 9 e e e 5 &.y.0.0.y.0.f.' l K D P P B h t 1 1 1 e 9 d 6.y.f.f.p.y.w.W D A B D D D D D D D D D D D D A D D D A A D D D D D D D D D D D D D D D D D D D D D D A A D D A D b 5 e e e e e l y.w.w.w.w.w.0.D A D D D A A D D D D D D D D D D D D D D D D D D D D D D D D D D A A D D D D D D D D D D D D A D D D A A D D D D D D A D A D A D 9 e 9 t e e 5 :.w.w.w.w.0.f.( A D A D D D D D D D D D D D D A D D D A A D D D D D D D D D D D D D D D D D D D D D D D D D D D D A A D D D D D D D D D D D D A D D D A A D D D D D D D D D D D D D D A D D 9 e e 9 e e 9 :.y.w.0.w.w.p.' A A D A D D D D D D D D D D D D D D D D D D D D D D D D D D D D D D D D D D D D D D D D A A D D D D D D D D D D D D A D D D A A D D D D D D D b 9 e t 9 t 9 b p.0.w.0.w.w.0.D A A A A A A D D D D D D D D D D D D D A D D D A A D D D D D D D D D D D D D D D D D D D D D D D D D D D D A A D D D D D D D D D D D D A D D D A D A D A A D d 9 e t 9 t 5 K p.w.0.w.w.w.6.B K D D D A D D D D D D D D D D D D D D D D A D D D A A D D D D D D D D D D D D D D D D D D D D D D D A D D D D A D D A D D A K B 9 9 e t 5 t t 0.w.w.y.0.w.p.P A D D D D D D D D D D D D D D D D D D D D D A D D D A A D D D D D D D D D D D D D D D D D D D D D D D D D D D D A A D D D D D D D D D D D D A D D D A A D D D D D D A D A B 5 e e e e e e y.w.w.w.w.0.y.P A A K A D D D D D D D D D D D D D A D D D A A D D D D D D D D D D D D D D D D D D D D D D D D D D D D A A D D D D D D D D D D D D A D D D A P d 9 t e e e 5 K f.0.w.w.6.y.<.B K A D D A D ",
"e 9 9 e e e 5 &.y.0.w.y.0.y.W e d 9 d l t D $.&.:.( &.<.' ' D ( W K P ( B D K D D D D D D D D D D D D D D D D D D D D D D D A A D D D D D D D D D D D D D D D D A A D D A D b 5 e e e e e l y.w.w.w.w.w.0.D A D D D D D D D D D D D D D D D D D D D D D D D D D D D D D D D D D D D D D D D D D D D D D D D D D D D D D D D A A A D A D A D 9 e 9 t e e 5 :.w.w.w.w.0.p.^ A A A D D D D D D D D D D D D D D D D D D D D D D A A D D D D D D D D D D D D D D D D D D D D D D D D D D D D D D D D D D D D D D D D D D D D D D A A D D D D D D D D A D D 9 e e 9 e e 9 :.y.w.0.w.w.p.' A A D A D D D D D D D D D D D D D D D D D D D D D D D D D D D D D D D D D D D D D D D D D D D D D D D D D D D D D D D D D D D D D D D D A A D b 9 e t 9 t 9 b p.0.w.0.w.w.0.D A A A A A A D D D D D D D D D D D D D D D D D D D D D D D A A D D D D D D D D D D D D D D D D D D D D D D D D D D D D D D D D D D D D D D D D A D A D A A D d 9 e t 9 t 5 K p.w.0.w.w.w.6.B K D D D D D D D D D D D D D D D D D D D D D D D D D D D D D D A A D D D D D D D D D D D D D D D D D A D D D D A D D A D D A D B 9 9 e t 5 t t 0.w.w.y.0.w.p.P A D D D D D D D D D D D D D D D D D D D D D D D D D D D D D D D A A D D D D D D D D D D D D D D D D D D D D D D D D D D D D D D D D D D D D D D D D D D D D D D A A A D A B 5 e e e e e e y.w.w.w.w.w.y.W A A K A D D D D D D D D D D D D D D D D D D D D D D D A A D D D D D D D D D D D D D D D D D D D D D D D D D D D D D D D D D D D D D D D D A P d 9 t e e e 5 K f.0.w.w.6.y.<.B K A D D A D ",
"e 9 9 e e e 5 &.p.6.w.w.6.f.K 5 e 9 5 t 5 A f.w.p.w.y.f.0.b B D A A A A A A A A D D D D D D D D D D D D D D D D D D A D D D D A D D D D D D D D D D D D D D D D A A K D D D b 1 e e e e 9 l y.w.w.w.w.y.w.K D D D D D D D A A A D D D D D D D D D D D D D D D D D D D D D D D D D D D D D D D D D D D D D D D D D D A D D D D A B D A D A A 5 e 9 t e e 5 :.w.w.w.0.0.f.' A D K D D D D D D D D D D D D D D D D D D A D D D D A D D D D D D D D D D D D D D D D D D D D D D D D D D D D D D D D D D D D D D D D D D A D D D D A D D D D D D D D D D K e t e e t e 9 :.y.w.0.w.w.w.( A A A D D B D D D D D D D D D D D D D D D A D D D D D D D D D D D D D D D D D D D D D D D D D D D D D D D D D D D D D D D D D D A D D D D A P l 5 t e 9 t 9 b p.0.w.0.w.w.0.D D D D D D D D D D D D D D D D D D D D D D D D D D A D D D D A D D D D D D D D D D D D D D D D D D D D D D D D D D D D D D D D D D D D D D D D D A K A A B W d 9 e e e e 9 D p.0.p.6.0.y.6.B K D D D D D D D D D D D D D D D D D D D D D D D D D D A D D D D A D D D D D D D D D D D D D D D D D D D D D D D D D D K A A K B 5 9 e t 5 t t 0.w.6.w.0.w.y.P A D D D D D D D D D D D D D D D D D D D D D D D D D D D A D D D D A D D D D D D D D D D D D D D D D D D D D D D D D D D D D D D D D D D D D D D D D D D A D D D D A K A K A 1 e 9 e e e e y.w.w.w.w.w.w.P A A D B A D D D A D D D D D D D D D D D D D D A D D D D A D D D D D D D D D D D D D D D D D D D D D D D D D D D D D D D D D D D D D D D D P K d t e 9 t 9 9 D f.0.w.w.0.w.6.B D A B D W B ",
"e 9 9 e e e 5 &.p.6.w.w.6.f.K 5 e 9 9 t 5 A f.w.y.w.w.w.<.A A A D D D D D D D D D D D D D D D D D D D D D D D D D D D D D D D D D D D D D D D D D D D D D D D D K A D D D K B 9 e e e e 9 l y.w.y.w.w.w.0.D A D D D D D D D D A D D D D D D D D D D D D D D D D D D D D D D D D D D D D D D D D D D D D D D D D D D D D D D D D D P A D D K 9 d 9 t e e 5 :.w.w.y.w.6.f.( B A D D D D D D D D D D D D D D D D D D D D D D D D D D D D D D D D D D D D D D D D D D D D D D D D D D D D D D D D D D D D D D D D D D D D D D D D D D D D D D D D D D B A 9 t e 9 t e 9 :.y.w.0.w.w.p.' D D A D D D D D D D D D D D D D D A D D D D D D D D D D D D D D D D D D D D D D D D D D D D D D D D D D D D D D D D D D D D D D D D D D D D D h 5 t t e t 5 b p.0.w.0.w.w.0.D D D D D D D D D D D D D D D D D D D D D D D D D D D D D D D D D D D D D D D D D D D D D D D D D D D D D D D D D D D D D D D D D D D D D D D D K A D D K A P d 9 e e e e 9 D p.6.p.0.0.y.<.l A D D D A D D D D D D D D D D D D D D D D D D D D D D D D D D D D D D D D D D D D D D D D D D D D D D D D D D D D K D D D D K A e 9 e t 5 t t 0.w.w.w.0.0.w.D B D D D D D D D D D D D D D D D D D D D D D D D D D D D D D D D D D D D D D D D D D D D D D D D D D D D D D D D D D D D D D D D D D D D D D D D D D D D D D D D D D A B D A 1 e 9 e e e e y.w.w.w.w.p.p.^ D A D A K D D D A D D D D D D D D D D D D D D D D D D D D D D D D D D D D D D D D D D D D D D D D D D D D D D D D D D D D D D D D D D D D A A d t e 9 t 9 9 D f.0.w.w.0.w.6.B K D A A P B ",
"e 9 9 e e e 5 &.p.6.w.w.6.f.K 5 e e 9 t 5 A f.0.w.w.w.w.<.D D A D D D D D D D D D D D D D D D D D D D D D D D D D D D D D D D D D D D D D D D D D D D D D D D D D b B A A A h 5 e e e e 9 l y.w.w.0.w.y.w.A A K D D D D D D D D D D D D D D D D D D D D D D D D D D D D D D D D D D D D D D D D D D D D D D D D D D D D D D D D A D B B A D 1 9 9 t e e 5 :.w.w.y.w.6.p.( A D D D D D D D D D D D D D D D D D D D D D D D D D D D D D D D D D D D D D D D D D D D D D D D D D D D D D D D D D D D D D D D D D D D D D D D D D D D D D D D D D D K A A 9 t e 9 t e 9 :.y.w.0.w.w.y.^ B A A B B A D D D D D D D D D D D D D D D D D D D D D D D D D D D D D D D D D D D D D D D D D D D D D D D D D D D D D D D D D D D D D D D D D l 9 e e e d 1 b p.0.w.0.w.w.0.D D D D D D D D D D D D D D D D D D D D D D D D D D D D D D D D D D D D D D D D D D D D D D D D D D D D D D D D D D D D D D D D D D D D D D D D P A D D K B P d 9 e e e e 9 D p.6.p.0.w.w.<.b D D D D D D D D D D D D D D D D D D D D D D D D D D D D D D D D D D D D D D D D D D D D D D D D D D D D D D D D D A b B A A A l 5 9 e t 5 t t 0.w.y.w.6.0.w.D B K D D D D D D D D D D D D D D D D D D D D D D D D D D D D D D D D D D D D D D D D D D D D D D D D D D D D D D D D D D D D D D D D D D D D D D D D D D D D D D D D D A K A 1 t 9 e e e e y.w.w.w.w.0.w.P A B A b A D D D D D D D D D D D D D D D D D D D D D D D D D D D D D D D D D D D D D D D D D D D D D D D D D D D D D D D D D D D D D D D D B D d e e 9 t e 9 D f.0.w.w.0.w.<.B K K D B D B ",
"e 9 9 e e e 5 &.p.6.w.w.6.f.K 5 t e 9 t 5 A p.0.w.0.y.y.6.A D D A A A A A A A A A A A A A A A A A A A A A A A A A A A A A A A A A A A A A A A A A A A A A A A A K A K W P D l e e e e e 9 l y.w.0.0.w.y.w.D D P A A A A A A A A A A A A A A A A A A A A A A A A A A A A A A A A A A A A A A A A A A A A A A A A A A A A A A A A D P D K K P 9 e 9 t e e 5 :.w.w.0.w.0.f.( A D K A A A A A A A A A A A A A A A A A A A A A A A A A A A A A A A A A A A A A A A A A A A A A A A A A A A A A A A A A A A A A A A A A A A A A A A A A A A A A A A A P A A e d e 5 e e 9 :.y.w.0.w.w.f.' A P W K D D A A A A A A A A A A A A A A A A A A A A A A A A A A A A A A A A A A A A A A A A A A A A A A A A A A A A A A A A A A A A A A A A K b e 9 9 9 d 5 b p.0.w.0.w.w.0.A A A A A A A A A A A A A A A A A A A A A A A A A A A A A A A A A A A A A A A A A A A A A A A A A A A A A A A A A A A A A A A A A A A A A A A A K b B A D l D d 9 e e e e 9 D p.0.y.0.w.w.6.D P A A A A A A A A A A A A A A A A A A A A A A A A A A A A A A A A A A A A A A A A A A A A A A A A A A A A A A A A D A K W P K b e 9 e t 5 t t 0.w.y.w.6.w.p.P A P A A A A A A A A A A A A A A A A A A A A A A A A A A A A A A A A A A A A A A A A A A A A A A A A A A A A A A A A A A A A A A A A A A A A A A A A A A A A A A A A K A K A 5 d 9 9 e e e y.w.w.w.w.0.w.W K K P D K A A A A A A A A A A A A A A A A A A A A A A A A A A A A A A A A A A A A A A A A A A A A A A A A A A A A A A A A A A A A A A A A D W h 9 e 9 t t 9 D f.0.w.w.0.w.&.l B A D b A B ",
"e 9 9 e e e 5 &.p.6.w.w.6.f.K 5 t e 9 t 5 A p.0.y.0.y.p.6.b b D K K K K K K K K K K K K K K K K K K K K K K K P K P K K K K K K K K K P K P K K K K K K K K K K A B A K A B l e e e e e 9 l y.w.0.0.w.y.0.D B A K P K K K K K K K K K P K P K K K K K K K K K K K K K K K K K K K K K K K K K K K K K K K K K P K P K K K K K K B D A A A D 9 t 9 t e e 5 :.w.w.6.w.w.f.^ b A A K K K K K K K K K K K K K K K P K P K K K K K K K K K P K P K K K K K K K K K K K K K K K K K K K K K K K K K K K K K K K K K P K P K K K K K K P P P P K K K K A B A 9 t e 9 e e 9 :.y.w.0.w.w.f.( B A D D A A K K K K K K K P K P K K K K K K K K K P K P K K K K K K K K K K K K K K K K K K K K K K K K K K K K K K K K K P K P K K K K K K A l e e 9 9 d 5 b p.0.w.0.w.w.0.K K K K K K K K K K K K K K K K K K K K K K K P K P K K K K K K K K K P K P K K K K K K K K K K K K K K K K K K K K K K K K K K K K K K K K P P W D K K K B W B 9 e e e e 9 D p.w.w.6.w.w.6.D A K K K K K K K K K K K K K K K K K K K K K K K P K P K K K K K K K K K P K P K K K K K K K K K K K K K K K K K K B B D K A A b t 9 e t 5 t t 0.w.w.w.0.w.p.P B A K K K K K K K K K K K K K K K K K K K K K K K P K P K K K K K K K K K P K P K K K K K K K K K K K K K K K K K K K K K K K K K K K K K K K K K P K P K K K K K K A B A B 1 d e 9 e e e y.w.w.w.w.w.w.K A A K B A K K K K K K K K K K K K K K K P K P K K K K K K K K K P K P K K K K K K K K K K K K K K K K K K K K K K K K K K K K K K K K K P b P h 9 t e e t 9 D f.0.w.w.0.w.6.D K D W K K K ",
"e 9 9 e e e 5 &.p.6.w.w.6.f.K 5 t e 9 t 5 A p.0.w.0.w.y.<.B A K b b b b b b b b b b b b b b b b b b b b b b b b b b b b b b b b b b b b b b b b b b b b b b b b A B B b b B l 5 e e e e 9 l y.w.w.y.w.0.6.K A B b b b b b b b b b b b b b b b b b b b b b b b b b b b b b b b b b b b b b b b b b b b b b b b b b b b b b b b b A D B B B A 5 e 9 t e e 5 :.w.w.0.w.w.p.^ A A B b b b b b b b b b b b b b b b b b b b b b b b b b b b b b b b b b b b b b b b b b b b b b b b b b b b b b b b b b b b b b b b b b b b b b b b b b b b b b b b b B A D 5 9 e e e e 5 :.y.w.0.w.w.p.( B b b B A A b b b b b b b b b b b b b b b b b b b b b b b b b b b b b b b b b b b b b b b b b b b b b b b b b b b b b b b b b b b b b b b b D h 9 t t 9 t 1 b p.0.w.0.w.w.0.b b b b b b b b b b b b b b b b b b b b b b b b b b b b b b b b b b b b b b b b b b b b b b b b b b b b b b b b b b b b b b b b b b b b b b b b B b B b b h D e 9 e e e e 9 D p.0.0.0.p.w.<.A b b b b b b b b b b b b b b b b b b b b b b b b b b b b b b b b b b b b b b b b b b b b b b b b b b b b b b b b b B B B b b A b 9 9 e t 5 t t 0.w.0.y.0.0.y.W A B b b b b b b b b b b b b b b b b b b b b b b b b b b b b b b b b b b b b b b b b b b b b b b b b b b b b b b b b b b b b b b b b b b b b b b b b b b b b b b b b A A K B 1 d t e e e e y.w.w.w.w.w.w.D b b A B A b b b b b b b b b b b b b b b b b b b b b b b b b b b b b b b b b b b b b b b b b b b b b b b b b b b b b b b b b b b b b b b b l P d 5 d t e e 9 D f.0.w.w.0.w...B B l A b b l ",
"e 9 9 e e e 5 &.p.6.w.w.6.f.K 5 t e 9 t 5 A p.0.0.w.w.0.0.' $. .$.$.$.$.....$.$.................................$.$.....................$.$.....................$..... ...$.W 9 e e e e 9 l y.w.0.y.w.6.w. ...' $.$.....................$.$.....................................................................$.$.............$.&. ..... .d e 9 t e e 5 :.w.w.y.w.6.f.$. ...' ................................$.$.....................$.$.....................................................................$.$.............................' .. .9 9 e e e e 9 :.y.w.0.w.w.p.<... .' ..$.$.................$.$.....................$.$.....................................................................$.$.............&.A 5 t t 9 e 5 b p.0.w.0.w.w.0.................................................$.$.....................$.$.........................................................................&...$...&.B 9 e e e e 9 D p.0.0.0.p.0.0.' ' ................................................$.$.....................$.$.....................................$.....' ..&.^ t 9 e t 5 t t 0.w.0.p.w.<.y... .' ................................................$.$.....................$.$.....................................................................$.$.............'  .$.W 1 t e t e e e y.w.w.w.w.y.k..... ... .$.................................$.$.....................$.$.....................................................................( $.b 1 d t 9 e 9 D f.0.w.w.0.w.0...:. .&.......",
"e 9 9 e e e 5 &.p.6.w.w.6.f.K 5 e e 9 t 5 A f.0.0.p.y.6.y.w.v.0.y.y.y.y.y.y.y.y.y.y.y.y.y.y.y.y.y.y.y.y.y.y.y.y.y.y.y.y.y.y.y.y.y.y.y.y.y.y.y.y.y.y.y.y.y.y.y.y.y.y.y.y.f.f.' > e e e e 9 l y.w.6.y.w.6.f.w.f.y.y.y.y.y.y.y.y.y.y.y.y.y.y.y.y.y.y.y.y.y.y.y.y.y.y.y.y.y.y.y.y.y.y.y.y.y.y.y.y.y.y.y.y.y.y.y.y.y.y.y.y.y.y.y.y.y.y.p.w.p.f.6.d > 9 t e e 5 :.w.w.y.0.:.f.0.y.f.y.y.y.y.y.y.y.y.y.y.y.y.y.y.y.y.y.y.y.y.y.y.y.y.y.y.y.y.y.y.y.y.y.y.y.y.y.y.y.y.y.y.y.y.y.y.y.y.y.y.y.y.y.y.y.y.y.y.y.y.y.y.y.y.y.y.y.y.y.y.y.y.y.y.y.y.y.y.y.y.y.y.f.0.h 9 e e 5 e 9 :.y.w.0.w.w.0.w.p.p.y.y.p.y.y.y.y.y.y.y.y.y.y.y.y.y.y.y.y.y.y.y.y.y.y.y.y.y.y.y.y.y.y.y.y.y.y.y.y.y.y.y.y.y.y.y.y.y.y.y.y.y.y.y.y.y.y.y.y.y.y.y.y.y.y.y.y.y.m.^ 5 9 e 9 t 9 b p.0.w.0.w.w.0.y.y.y.y.y.y.y.y.y.y.y.y.y.y.y.y.y.y.y.y.y.y.y.y.y.y.y.y.y.y.y.y.y.y.y.y.y.y.y.y.y.y.y.y.y.y.y.y.y.y.y.y.y.y.y.y.y.y.y.y.y.y.y.y.y.y.y.y.y.y.y.y.w.w.y.w.p.p.y.K 9 e e e e 9 D p.w.0.0.y.6.p.w.v.y.y.y.y.y.y.y.y.y.y.y.y.y.y.y.y.y.y.y.y.y.y.y.y.y.y.y.y.y.y.y.y.y.y.y.y.y.y.y.y.y.y.y.y.y.y.y.y.y.y.y.y.y.y.y.y.y.y.y.w.f.k...5 9 e t 5 t t 0.w.0.f.w.<.f.w.p.y.y.y.y.y.y.y.y.y.y.y.y.y.y.y.y.y.y.y.y.y.y.y.y.y.y.y.y.y.y.y.y.y.y.y.y.y.y.y.y.y.y.y.y.y.y.y.y.y.y.y.y.y.y.y.y.y.y.y.y.y.y.y.y.y.y.y.y.y.y.y.y.y.y.y.y.y.y.y.y.y.w.f.k.$.9 9 9 e e e e y.w.w.w.w.:.f.0.y.y.p.w.p.y.y.y.y.y.y.y.y.y.y.y.y.y.y.y.y.y.y.y.y.y.y.y.y.y.y.y.y.y.y.y.y.y.y.y.y.y.y.y.y.y.y.y.y.y.y.y.y.y.y.y.y.y.y.y.y.y.y.y.y.y.y.y.y.p.f.K 1 e e 9 t 9 D f.0.w.w.0.w.w.0.f.0.y.y.y.y.",
"t 1 t 9 5 d 5 &.p.y.w.w.0.p.K 9 9 h 5 e 9 A p.y.w.w.w.w.w.w.w.w.0.0.0.0.0.0.0.0.0.0.0.0.0.0.0.0.0.0.0.0.0.0.0.0.0.0.0.0.0.0.0.0.0.0.0.0.0.0.0.0.0.0.0.0.0.0.0.0.w.0.0.0.y.y.( 1 9 h 5 9 e l f.0.w.w.w.w.w.w.w.w.0.0.0.0.0.0.0.0.0.0.0.0.0.0.0.0.0.0.0.0.0.0.0.0.0.0.0.0.0.0.0.0.0.0.0.0.0.0.0.0.0.0.0.0.0.0.0.0.0.0.0.0.0.0.0.0.w.w.p.p.<.w.9 t t 9 9 h 5 <.p.w.w.w.w.w.w.w.w.w.0.0.0.0.0.0.0.0.0.0.0.0.0.0.0.0.0.0.0.0.0.0.0.0.0.0.0.0.0.0.0.0.0.0.0.0.0.0.0.0.0.0.0.0.0.0.0.0.0.0.0.0.0.0.0.0.0.0.0.0.0.0.0.0.0.0.0.0.0.0.0.0.0.0.0.0.0.0.0.0.w.6.0.h 9 t 5 e e 1 :.0.y.p.<.y.0.0.0.0.0.0.0.0.0.0.0.0.0.0.0.0.0.0.0.0.0.0.0.0.0.0.0.0.0.0.0.0.0.0.0.0.0.0.0.0.0.0.0.0.0.0.0.0.0.0.0.0.0.0.0.0.0.0.0.0.0.0.0.0.w.w.w.w.w.w.w.w.y.' 5 e e e 9 9 b p.6.p.y.0.f.0.0.0.0.0.0.0.0.0.0.0.0.0.0.0.0.0.0.0.0.0.0.0.0.0.0.0.0.0.0.0.0.0.0.0.0.0.0.0.0.0.0.0.0.0.0.0.0.0.0.0.0.0.0.0.0.0.0.0.0.0.0.0.0.0.0.0.0.0.0.0.0.0.0.f.0.y.y.:.k.P 1 d 9 5 t 9 A f.w.w.w.w.w.w.w.w.0.0.0.0.0.0.0.0.0.0.0.0.0.0.0.0.0.0.0.0.0.0.0.0.0.0.0.0.0.0.0.0.0.0.0.0.0.0.0.0.0.0.0.0.0.0.0.0.0.0.0.0.0.0.0.0.y.6.0.y.0.y.:.5 e e 9 5 h e p.0.w.w.w.w.w.w.w.w.0.0.0.0.0.0.0.0.0.0.0.0.0.0.0.0.0.0.0.0.0.0.0.0.0.0.0.0.0.0.0.0.0.0.0.0.0.0.0.0.0.0.0.0.0.0.0.0.0.0.0.0.0.0.0.0.0.0.0.0.0.0.0.0.0.0.0.0.0.0.0.0.0.0.0.0.0.0.0.0.0.p.y.&.1 t 9 t e d t <.w.0.p.w.w.w.w.w.w.w.w.w.0.0.0.0.0.0.0.0.0.0.0.0.0.0.0.0.0.0.0.0.0.0.0.0.0.0.0.0.0.0.0.0.0.0.0.0.0.0.0.0.0.0.0.0.0.0.0.0.0.0.0.0.0.0.0.0.0.0.0.0.0.0.0.0.y.p.A 9 e 5 h 9 9 K p.w.y.w.w.w.0.0.0.0.0.0.0.0.",
"e 5 t e 9 d 1 :.w.w.w.w.0.y.D > e d 9 9 > b p.0.0.0.0.0.0.0.0.0.0.0.0.0.0.0.0.0.0.0.0.0.0.0.0.0.0.0.0.0.0.0.0.0.0.0.0.0.0.0.0.0.0.0.0.0.0.0.0.0.0.0.0.0.0.0.0.0.0.0.w.0.w.w.^ = e d 5 5 5 t p.6.0.0.0.0.0.0.0.0.0.0.0.0.0.0.0.0.0.0.0.0.0.0.0.0.0.0.0.0.0.0.0.0.0.0.0.0.0.0.0.0.0.0.0.0.0.0.0.0.0.0.0.0.0.0.0.0.0.0.0.0.0.0.0.0.<.6.0.w.6.w.1 9 d 9 9 t > &.w.6.0.0.0.0.0.0.0.0.0.0.0.0.0.0.0.0.0.0.0.0.0.0.0.0.0.0.0.0.0.0.0.0.0.0.0.0.0.0.0.0.0.0.0.0.0.0.0.0.0.0.0.0.0.0.0.0.0.0.0.0.0.0.0.0.0.0.0.0.0.0.0.0.0.0.0.0.0.0.0.0.0.0.0.0.0.0.0.0.y.6.6.9 1 e e h t 1 <.y.y.y.<.0.0.0.0.0.0.0.0.0.0.0.0.0.0.0.0.0.0.0.0.0.0.0.0.0.0.0.0.0.0.0.0.0.0.0.0.0.0.0.0.0.0.0.0.0.0.0.0.0.0.0.0.0.0.0.0.0.0.0.0.0.0.0.0.0.0.0.0.0.0.0.0.0.f.' 5 e 9 e 9 e h y.<.w.0.6.y.0.0.0.0.0.0.0.0.0.0.0.0.0.0.0.0.0.0.0.0.0.0.0.0.0.0.0.0.0.0.0.0.0.0.0.0.0.0.0.0.0.0.0.0.0.0.0.0.0.0.0.0.0.0.0.0.0.0.0.0.0.0.0.0.0.0.0.0.0.0.0.0.0.0.p.0.w.w.:.f.A 5 d 9 5 e 9 D v.0.0.0.0.0.0.0.0.0.0.0.0.0.0.0.0.0.0.0.0.0.0.0.0.0.0.0.0.0.0.0.0.0.0.0.0.0.0.0.0.0.0.0.0.0.0.0.0.0.0.0.0.0.0.0.0.0.0.0.0.0.0.0.0.0.0.w.y.6.w.$.> d t 9 5 e 5 y.0.0.0.0.0.0.0.0.0.0.0.0.0.0.0.0.0.0.0.0.0.0.0.0.0.0.0.0.0.0.0.0.0.0.0.0.0.0.0.0.0.0.0.0.0.0.0.0.0.0.0.0.0.0.0.0.0.0.0.0.0.0.0.0.0.0.0.0.0.0.0.0.0.0.0.0.0.0.0.0.0.0.0.0.0.0.0.0.0.0.w.w.&.1 d e t 5 t t w.p.0.0.<.0.0.0.0.0.0.0.0.0.0.0.0.0.0.0.0.0.0.0.0.0.0.0.0.0.0.0.0.0.0.0.0.0.0.0.0.0.0.0.0.0.0.0.0.0.0.0.0.0.0.0.0.0.0.0.0.0.0.0.0.0.0.0.0.0.0.0.0.0.0.0.0.0.p.b > 9 9 d e > D y.0.y.w.w.6.0.0.0.0.0.0.0.0.",
"e 9 t e e e = &.y.p.w.0.0.k.^ e 5 e t d 5 K k.0.y.y.y.y.y.y.y.y.w.w.w.w.w.w.w.w.w.w.w.w.w.w.w.w.w.w.w.w.w.w.w.w.w.w.w.w.w.w.w.w.w.w.w.w.w.w.w.w.w.w.w.w.w.w.w.w.w.y.y.0.w.p...e 9 e e d e l f.0.y.y.y.y.y.y.y.y.w.w.w.w.w.w.w.w.w.w.w.w.w.w.w.w.w.w.w.w.w.w.w.w.w.w.w.w.w.w.w.w.w.w.w.w.w.w.w.w.w.w.w.w.w.w.w.w.w.w.w.w.w.w.w.w.p.f.y.0.w.y.9 d 9 9 e d 9 <.p.0.w.w.w.w.w.w.w.w.w.w.w.w.w.w.w.w.w.w.y.w.w.w.w.w.w.w.w.w.w.w.w.w.w.w.w.w.w.w.w.w.w.w.w.w.w.w.w.w.w.w.w.w.w.w.w.w.w.w.w.w.w.w.w.w.w.w.w.w.w.w.w.w.w.w.w.w.w.w.w.w.w.w.w.w.w.w.w.w.w.w.y.e e 9 e 9 d 1 :.w.6.w.y.p.w.w.w.w.w.w.w.w.w.w.y.w.w.w.w.w.w.w.w.w.w.w.w.w.w.w.w.w.w.w.w.w.w.w.w.w.w.w.w.w.w.w.w.w.w.w.w.w.w.w.w.w.w.w.w.w.w.w.w.w.w.w.w.w.y.y.y.w.w.w.w.w.w.W 1 t t t 9 9 b v.w.w.w.0.y.w.w.w.w.w.w.w.w.w.w.w.w.w.w.w.w.w.w.w.y.w.w.w.w.w.w.w.w.w.w.w.w.w.w.w.w.w.w.w.w.w.w.w.w.w.w.w.w.w.w.w.w.w.w.w.w.w.w.w.w.w.w.w.w.w.w.w.w.w.w.w.w.w.0.w.0.y.y.w.m.D 5 t e e t 5 b y.w.w.w.y.y.w.w.w.w.w.w.w.w.w.w.w.w.w.w.w.w.w.w.w.w.w.y.w.w.w.w.w.w.w.w.w.w.w.w.w.w.w.w.w.w.w.w.w.w.w.w.w.w.w.w.w.w.w.y.w.w.w.w.w.y.y.y.y.0.y.6.t e 9 t d t e p.w.y.y.y.y.y.y.y.y.w.w.w.w.w.w.w.w.w.w.w.w.w.w.w.w.w.w.w.w.w.w.w.w.w.w.w.w.w.w.w.w.w.w.w.w.w.w.w.w.w.w.w.w.w.w.w.w.w.w.w.w.w.w.w.w.w.w.w.w.w.w.w.w.w.w.y.w.w.w.w.w.w.w.w.w.w.w.w.w.p.y.p.:.1 t e 9 e e 9 w.y.y.w.y.w.w.w.w.w.w.w.w.w.w.w.w.w.w.w.w.w.w.w.w.w.w.w.w.w.w.w.w.w.w.w.w.w.w.w.w.w.w.w.w.w.w.w.w.w.w.w.w.w.w.w.w.w.w.w.w.w.w.w.w.w.w.w.w.w.w.y.w.w.w.w.w.0.k.K 5 d t e 5 e ^ k.w.w.w.y.w.w.w.w.w.w.w.w.w.",
"e e t t t e > :.w.w.6.6.0.f.K > 9 e t t > A p.<.0.0.0.0.0.0.0.0.0.0.0.0.0.0.0.0.0.0.0.0.0.0.0.0.0.0.0.0.0.0.0.0.0.0.0.0.0.0.0.0.0.0.0.0.0.0.0.0.0.0.0.0.0.0.0.0.0.w.0.6.0.y.( 1 t e t t 5 h y.<.0.0.0.0.0.0.0.0.0.0.0.0.0.0.0.0.0.0.0.0.0.0.0.0.0.0.0.0.0.0.0.0.0.0.0.0.0.0.0.0.0.0.0.0.0.0.0.0.0.0.0.0.0.0.0.0.0.0.0.0.0.0.0.0.6.w.6.<.y.w.9 e e t t e 9 &.w.6.0.0.0.0.0.0.0.0.0.0.0.0.0.0.0.0.0.0.0.0.0.0.0.0.0.0.0.0.0.0.0.0.0.0.0.0.0.0.0.0.0.0.0.0.0.0.0.0.0.0.0.0.0.0.0.0.0.0.0.0.0.0.0.0.0.0.0.0.0.0.0.0.0.0.0.0.0.0.0.0.0.0.0.0.0.0.0.0.<.6.0.e e 5 t 9 d 5 <.y.6.0.w.0.0.0.0.0.0.0.0.0.0.0.0.0.0.0.0.0.0.0.0.0.0.0.0.0.0.0.0.0.0.0.0.0.0.0.0.0.0.0.0.0.0.0.0.0.0.0.0.0.0.0.0.0.0.0.0.0.0.0.0.0.0.0.0.0.0.0.0.0.0.0.0.0.p.^ > t t t 9 9 h f.0.0.0.6.0.w.0.0.0.0.0.0.0.0.0.0.0.0.0.0.0.0.0.0.0.0.0.0.0.0.0.0.0.0.0.0.0.0.0.0.0.0.0.0.0.0.0.0.0.0.0.0.0.0.0.0.0.0.0.0.0.0.0.0.0.0.0.0.0.0.0.0.0.0.0.0.0.0.0.6.6.0.6.0.k.b 5 e e t t 5 A f.0.0.0.0.0.0.0.0.0.0.0.0.0.0.0.0.0.0.0.0.0.0.0.0.0.0.0.0.0.0.0.0.0.0.0.0.0.0.0.0.0.0.0.0.0.0.0.0.0.0.0.0.0.0.0.0.0.0.0.0.0.0.0.0.0.w.0.0.6.w.$.5 e 5 t t 1 9 0.6.0.0.0.0.0.0.0.0.0.0.0.0.0.0.0.0.0.0.0.0.0.0.0.0.0.0.0.0.0.0.0.0.0.0.0.0.0.0.0.0.0.0.0.0.0.0.0.0.0.0.0.0.0.0.0.0.0.0.0.0.0.0.0.0.0.0.0.0.0.0.0.0.0.0.0.0.0.0.0.0.0.0.0.0.0.0.0.0.w.<.w.&.1 e t e d t e 0.0.y.6.w.0.0.0.0.0.0.0.0.0.0.0.0.0.0.0.0.0.0.0.0.0.0.0.0.0.0.0.0.0.0.0.0.0.0.0.0.0.0.0.0.0.0.0.0.0.0.0.0.0.0.0.0.0.0.0.0.0.0.0.0.0.0.0.0.0.0.0.0.0.0.0.0.<.p.A > t t e 9 1 K f.0.6.0.w.0.0.0.0.0.0.0.0.0.",
"9 e e t t d e <.p.p.p.f.f.v.K > e 9 e 9 1 P k.f.p.p.p.p.p.p.p.p.p.p.p.p.p.p.p.p.p.p.p.p.p.p.p.p.p.p.p.p.p.p.p.p.p.p.p.p.p.p.p.p.p.p.p.p.p.p.p.p.p.p.p.p.p.p.p.p.y.p.f.f.k.f.( > d 9 9 9 9 B k.f.p.p.p.p.p.p.p.p.p.p.p.p.p.p.p.p.p.p.p.p.p.p.p.p.p.p.p.p.p.p.p.p.p.p.p.p.p.p.p.p.p.p.p.p.p.p.p.p.p.p.p.p.p.p.p.p.p.p.p.p.p.p.p.p.w.f.p.p.k.6.9 1 t t e 5 9 &.f.k.p.p.p.p.p.p.p.p.p.p.p.p.p.p.p.p.p.p.p.p.p.p.p.p.p.p.p.p.p.p.p.p.p.p.p.p.p.p.p.p.p.p.p.p.p.p.p.p.p.p.p.p.p.p.p.p.p.p.p.p.p.p.p.p.p.p.p.p.p.p.p.p.p.p.p.p.p.p.p.p.p.p.p.p.p.p.p.p.k.f.0.t e 5 d t 9 5 :.f.f.f.f.y.p.p.p.p.p.p.p.p.p.p.p.p.p.p.p.p.p.p.p.p.p.p.p.p.p.p.p.p.p.p.p.p.p.p.p.p.p.p.p.p.p.p.p.p.p.p.p.p.p.p.p.p.p.p.p.p.p.p.p.p.p.p.p.p.p.p.p.p.p.p.y.y.v. .1 9 9 e e e b p.y.y.y.p.p.f.p.p.p.p.p.p.p.p.p.p.p.p.p.p.p.p.p.p.p.p.p.p.p.p.p.p.p.p.p.p.p.p.p.p.p.p.p.p.p.p.p.p.p.p.p.p.p.p.p.p.p.p.p.p.p.p.p.p.p.p.p.p.p.p.p.p.p.p.p.p.p.p.k.p.f.p.y.y.k.K 9 e 9 9 5 9 W m.p.p.p.p.p.p.p.p.p.p.p.p.p.p.p.p.p.p.p.p.p.p.p.p.p.p.p.p.p.p.p.p.p.p.p.p.p.p.p.p.p.p.p.p.p.p.p.p.p.p.p.p.p.p.p.p.p.p.p.p.p.p.p.p.w.f.p.f.f.p.$.1 t 5 9 9 1 d p.k.p.p.p.p.p.p.p.p.p.p.p.p.p.p.p.p.p.p.p.p.p.p.p.p.p.p.p.p.p.p.p.p.p.p.p.p.p.p.p.p.p.p.p.p.p.p.p.p.p.p.p.p.p.p.p.p.p.p.p.p.p.p.p.p.p.p.p.p.p.p.p.p.p.p.p.p.p.p.p.p.p.p.p.p.p.p.p.p.f.y.f.:.e 9 e e 5 9 h y.p.k.w.y.p.p.p.p.p.p.p.p.p.p.p.p.p.p.p.p.p.p.p.p.p.p.p.p.p.p.p.p.p.p.p.p.p.p.p.p.p.p.p.p.p.p.p.p.p.p.p.p.p.p.p.p.p.p.p.p.p.p.p.p.p.p.p.p.p.p.p.p.p.p.p.p.f.k.P 1 9 e 9 e > K v.f.k.p.p.y.p.p.p.p.p.p.p.p.",
"t e 9 t 9 e 9 ^ &...' ....:.A e 9 9 e t e D .... . . . . . . . .................................................................................................$. . . ...$.P e 9 9 t e d l $... . . . . . . . .................................................................................................................&.$.$. ...( t 9 9 9 t e d ( ..$.................................................................................................................................................................................$.&.' t e 9 t e 9 5 W (  . ............................................................................................................................................... . . . .K 1 e e t e 5 l .. .$. ... . ....................................................................................................................................................... ... .$.B 5 9 e t e 9 b .. ............. ...................................................................................................................$.'  .....( e 9 9 e t e h  .$. . . . . . . . ................................................................................................................................................................... .&.^ e 9 9 e 5 5 d ' ..$. .......................................................................................................................................................D e t e 9 9 t A :. ... ...$.................",
"d e 9 t > 9 1 t t 5 > 1 = e > 9 e e t e 9 1 # = 1 1 1 1 1 1 1 1 5 5 5 5 5 5 5 5 5 5 5 5 5 5 5 5 5 5 5 5 5 5 5 5 5 5 5 5 5 5 5 5 5 5 5 5 5 5 5 5 5 5 5 5 5 5 5 5 e 1 > > > 5 9 1 e t d 9 e = 1 # 1 1 1 1 1 1 1 1 5 5 5 5 5 5 5 5 5 5 5 5 5 5 5 5 5 5 5 5 5 5 5 5 5 5 5 5 5 5 5 5 5 5 5 5 5 5 5 5 5 5 5 5 5 5 5 5 5 5 5 5 5 5 5 5 5 = > > 1 e t t e 9 d 9 9 e > # 5 5 5 5 5 5 5 5 5 5 5 5 5 5 5 5 5 5 5 5 5 5 5 5 5 5 5 5 5 5 5 5 5 5 5 5 5 5 5 5 5 5 5 5 5 5 5 5 5 5 5 5 5 5 5 5 5 5 5 5 5 5 5 5 5 5 5 5 5 5 5 5 5 5 5 5 5 5 5 5 5 5 5 5 5 5 5 5 # 5 1 5 9 t e e h e d > 5 = > 5 5 5 5 5 5 5 5 5 5 5 5 5 5 5 5 5 5 5 5 5 5 5 5 5 5 5 5 5 5 5 5 5 5 5 5 5 5 5 5 5 5 5 5 5 5 5 5 5 5 5 5 5 5 5 5 5 5 5 5 5 5 5 5 5 5 5 5 5 5 5 1 1 9 t 1 d t d e 5 > e 5 t > 5 1 = 5 5 5 5 5 5 5 5 5 5 5 5 5 5 5 5 5 5 5 5 5 5 5 5 5 5 5 5 5 5 5 5 5 5 5 5 5 5 5 5 5 5 5 5 5 5 5 5 5 5 5 5 5 5 5 5 5 5 5 5 5 5 5 5 5 5 5 5 5 5 5 5 > 1 1 > e 1 9 > 5 9 t d t e 9 9 5 5 5 5 5 5 5 5 5 5 5 5 5 5 5 5 5 5 5 5 5 5 5 5 5 5 5 5 5 5 5 5 5 5 5 5 5 5 5 5 5 5 5 5 5 5 5 5 5 5 5 5 5 5 5 5 5 5 5 5 5 5 5 5 9 9 > > 1 5 e 1 9 d t t 9 > = = 1 1 1 1 1 1 1 1 5 5 5 5 5 5 5 5 5 5 5 5 5 5 5 5 5 5 5 5 5 5 5 5 5 5 5 5 5 5 5 5 5 5 5 5 5 5 5 5 5 5 5 5 5 5 5 5 5 5 5 5 5 5 5 5 5 5 5 5 5 5 5 5 5 5 5 5 5 5 5 5 5 5 5 5 5 5 5 5 = > e 1 5 e e h h 9 t 9 5 > 1 1 5 5 5 5 5 5 5 5 5 5 5 5 5 5 5 5 5 5 5 5 5 5 5 5 5 5 5 5 5 5 5 5 5 5 5 5 5 5 5 5 5 5 5 5 5 5 5 5 5 5 5 5 5 5 5 5 5 5 5 5 5 5 5 5 5 5 5 5 5 5 5 5 = # 1 9 e t e e 9 > e = 1 > 5 e 5 5 5 5 5 5 5 5 ",
"e 5 9 d 1 d e 9 e e t l 9 t 5 h t e 9 5 d t 5 h t t t t t t t t t t t t t t t t t t t t t t t t t t t t t t t t t t t t t t t t t t t t t t t t t t t t t t t t 9 5 t d e e t t 9 t e 1 h e t d t t t t t t t t t t t t t t t t t t t t t t t t t t t t t t t t t t t t t t t t t t t t t t t t t t t t t t t t t t t t t t t t h e h h e e t 9 9 1 e 5 9 t e d t t t t t t t t t t t t t t t t t t t t t t t t t t t t t t t t t t t t t t t t t t t t t t t t t t t t t t t t t t t t t t t t t t t t t t t t t t t t t t t t t t t t t t t t e h 5 d e t 5 e 5 9 t 5 l t 9 d t t t t t t t t t t t t t t t t t t t t t t t t t t t t t t t t t t t t t t t t t t t t t t t t t t t t t t t t t t t t t t t t t t t t t t t t 5 h e t 1 9 d d t e 5 h 5 t d e t t t t t t t t t t t t t t t t t t t t t t t t t t t t t t t t t t t t t t t t t t t t t t t t t t t t t t t t t t t t t t t t t t t t t t t t t h d 9 l 5 9 d d t 5 5 e d t 5 t t t t t t t t t t t t t t t t t t t t t t t t t t t t t t t t t t t t t t t t t t t t t t t t t t t t t t t t t t t t t t t t 9 d t d t 5 t e 5 t 5 5 t t 9 d t t t t t t t t t t t t t t t t t t t t t t t t t t t t t t t t t t t t t t t t t t t t t t t t t t t t t t t t t t t t t t t t t t t t t t t t t t t t t t t t t t t t t t t t t t t 1 d d 1 e 9 > d 5 e 9 d e t t t t t t t t t t t t t t t t t t t t t t t t t t t t t t t t t t t t t t t t t t t t t t t t t t t t t t t t t t t t t t t t t t t t t t t t h 5 t d 5 9 e t l 5 t 9 h t 9 e t t t t t t t t ",
"9 9 t e h 1 e 9 t e 5 9 e t e e e e e e e e e e e e e e e e e e e e e e e e e e e e e e e e e e 9 e 9 9 t e 9 t e e 5 e e e t t 9 e 5 e t 9 9 t e e e e e e e e e e e e e e e e e e e e e e e e e e e e e e e e e e e e e e e e e e e e e e e e e e e e e e e e e e e e 9 9 e t e e t 5 5 t e e e e e 9 9 e e e e e e e e e e e e e e e e e e e e e e e e e e e e e e e e e e e e e e e e e e e e e e e e e e e e e e e e e e e e e e e e e e e 9 e 9 9 9 9 t 9 t e 5 9 d t e t e e e e e e e e e e e e e e e e e e e e e e e e e e e e e e e e e e e e e e e e e e e e e e e e e e e e e e e e e e e e e e e e e e e e e e e e e e e e e e e e 9 t e 9 t e 9 e e t 9 9 e t t 1 e t t 9 t 9 9 e e e e e e e e e e e e e e e e e e e e e e e e e e e e e e e e e e e e e e e e e e e e e e e e e e e e e e e e e e e e e e e e e 9 e e e 9 e 9 e t t 9 t e 5 e e e e e e e e e e e e e e e e e e e e e e e e e e e e e e e e e e e e e e e e e e e e e e e e e e e e e e e e e e e e e e e e e e e e e e e e e e 9 e 9 9 t e 9 t e t 5 9 t t t t e e 9 9 t e 9 e e e e e e e e e e e e e e e e e e e e e e e e e e e e e e e e e e e e e e e e e e e e e e e e e e e e e e e e e e e e e e e e e e 9 e e 9 e t 9 e t t 5 e d e e e e e e e e 9 9 e e e e e e e e e e e e e e e e e e e e e e e e e e e e e e e e e e e e e e e e e e e e e e e e e e e e e e e e e e e e e e e e e e e e e e e e e e e t t t e e e e e 9 e t t 9 e e d e e t 9 9 e e e e e e e e e e e e e e e e e e e e e e e e e e e e e e e e e e e e e e e e ",
"e e e 5 d 5 t e e e e t e 9 9 9 e e e e e e e e e e e e e e e e e e e e e e e e e e e e e e e e e t e 9 t e 9 e e t t t 9 5 5 5 e t 9 9 e 9 e t e e e e e e e e e e e e e e e e e e e e e e e e e e e e e e e e e e e e e e e e e e e e e e e e e e e e e e e e e t t e e 9 e e 1 e d e 9 e e t e e e e e e t t e e e e e e e e e e e e e e e e e e e e e e e e e e e e e e e e e e e e e e e e e e e e e e e e e e e e e e e e e e e e e e e e e e 9 e e e t 9 9 e e e t e 9 9 e e e e e e e e e e e e e e e e e e e e e e e e e e e e e e e e e e e e e e e e e e e e e e e e e e e e e e e e e e e e e e e e e e e e e e e e e e e e e e e e 9 e 9 5 e 9 5 9 e t 9 9 9 e t e 1 5 5 5 e e e t e e e e e e e e e e e e e e e e e e e e e e e e e e e e e e e e e e e e e e e e e e e e e e e e e e e e e e e e e 9 9 9 9 9 9 9 e e 9 9 t t e e 5 5 5 9 e 9 t t e e e e e e e e e e e e e e e e e e e e e e e e e e e e e e e e e e e e e e e e e e e e e e e e e e e e e e e e e e e e e e e e e e e e e e e e e t e 9 t e 9 e 9 t e e e 5 5 9 e e 9 9 e e 9 e e e e e e e e e e e e e e e e e e e e e e e e e e e e e e e e e e e e e e e e e e e e e e e e e e e e e e e e e e e e e e e e e t e t t 9 e t 9 5 e e 9 t t 9 9 e e e e e e e e e e e e e e e e e e e e e e e e e e e e e e e e e e e e e e e e e e e e e e e e e e e e e e e e e e e e e e e e e e e e e e e e e e e e e e e e e 9 9 9 9 9 9 9 t e 9 9 5 9 9 5 5 5 9 9 9 t e e e e e e e e e e e e e e e e e e e e e e e e e e e e e e e e e e e e e e e e e e ",
"e e e 1 t e e 9 e t d t e e e t 9 9 9 9 9 9 9 9 9 9 9 9 9 9 9 9 9 9 9 9 9 9 9 9 9 9 9 9 9 9 9 9 9 e 9 9 e e 9 e 9 9 e 9 t t d d 9 e e 9 9 e e e 9 9 9 9 9 9 9 9 9 9 9 9 9 9 9 9 9 9 9 9 9 9 9 9 9 9 9 9 9 9 9 9 9 9 9 9 9 9 9 9 9 9 9 9 9 9 9 9 9 9 9 9 9 9 9 9 9 e e t e e e e e d t e t e e t 9 9 9 9 e e e e 9 9 9 9 9 9 9 9 9 9 9 9 9 9 9 9 9 9 9 9 9 9 9 9 9 9 9 9 9 9 9 9 9 9 9 9 9 9 9 9 9 9 9 9 9 9 9 9 9 9 9 9 9 9 9 9 9 9 9 9 9 9 9 9 e e e e e e e e 9 e t t e e e t 9 9 9 9 9 9 9 9 9 9 9 9 9 9 9 9 9 9 9 9 9 9 9 9 9 9 9 9 9 9 9 9 9 9 9 9 9 9 9 9 9 9 9 9 9 9 9 9 9 9 9 9 9 9 9 9 9 9 9 9 9 9 9 9 9 9 9 9 9 9 9 9 9 9 9 9 9 9 9 9 e t e e d t e d e t t e 9 9 9 9 d d t t e e 9 e 9 9 9 9 9 9 9 9 9 9 9 9 9 9 9 9 9 9 9 9 9 9 9 9 9 9 9 9 9 9 9 9 9 9 9 9 9 9 9 9 9 9 9 9 9 9 9 9 9 9 9 9 9 9 9 9 t t e e e e t t e t e 9 e 5 5 9 h d t e e e 9 9 9 9 9 9 9 9 9 9 9 9 9 9 9 9 9 9 9 9 9 9 9 9 9 9 9 9 9 9 9 9 9 9 9 9 9 9 9 9 9 9 9 9 9 9 9 9 9 9 9 9 9 9 9 9 9 9 9 9 9 9 9 9 9 9 9 9 9 9 9 9 9 9 9 e 9 9 e e 9 e 9 9 e e t t d d 9 9 9 9 9 e e 9 9 9 9 9 9 9 9 9 9 9 9 9 9 9 9 9 9 9 9 9 9 9 9 9 9 9 9 9 9 9 9 9 9 9 9 9 9 9 9 9 9 9 9 9 9 9 9 9 9 9 9 9 9 9 9 9 9 9 9 9 9 9 9 9 e 9 t t 9 e t e 9 t e e t t 9 e 9 9 9 9 9 9 9 9 9 9 9 9 9 9 9 9 9 9 9 9 9 9 9 9 9 9 9 9 9 9 9 9 9 9 9 9 9 9 9 9 9 9 9 9 9 9 9 9 9 9 9 9 9 9 9 9 9 9 9 9 9 9 9 9 9 9 9 9 9 9 9 9 9 9 9 9 9 9 9 9 t t t e e e t t 9 5 9 t e t h d h d t e e 9 9 9 9 9 9 9 9 9 9 9 9 9 9 9 9 9 9 9 9 9 9 9 9 9 9 9 9 9 9 9 9 9 9 9 9 9 9 9 9 9 9 9 ",
"5 e t 5 t e 1 9 5 9 9 5 5 9 e e e e e e e e e e e e e e e e e e e e e e e e e e e e e e e e e e 5 e 9 5 e e 9 e h 9 e > e e 9 > e 9 d t e d t e e e e e e e e e e e e e e e e e e e e e e e e e e e e e e e e e e e e e e e e e e e e e e e e e e e e e e e e e e 9 9 e e e e e t d 1 1 e 9 5 1 t e e t t t t t e e e e e e e e e e e e e e e e e e e e e e e e e e e e e e e e e e e e e e e e e e e e e e e e e e e e e e e e e e e e e e e e e 5 e e 9 9 5 e 9 9 9 5 1 9 e 9 e e e e e e e e e e e e e e e e e e e e e e e e e e e e e e e e e e e e e e e e e e e e e e e e e e e e e e e e e e e e e e e e e e e e e e e e e e e e e e e e 5 9 5 9 e 9 5 e 9 9 t t t d t t 5 5 5 t 5 t t d e e e e e e e e e e e e e e e e e e e e e e e e e e e e e e e e e e e e e e e e e e e e e e e e e e e e e e e e 9 5 9 9 9 9 9 e 1 t d 9 t 5 9 h 9 9 e 5 9 d t t e e e e e e e e e e e e e e e e e e e e e e e e e e e e e e e e e e e e e e e e e e e e e e e e e e e e e e e e e e e e e e e e e e e e e e e e 5 e 9 5 e e 9 e h 9 t 1 e e 9 1 9 9 t t t d t 9 e e e e e e e e e e e e e e e e e e e e e e e e e e e e e e e e e e e e e e e e e e e e e e e e e e e e e e e e e e e e e e e e e 5 e t 9 9 t e 5 t 5 5 9 1 9 e e e e e t e e e e e e e e e e e e e e e e e e e e e e e e e e e e e e e e e e e e e e e e e e e e e e e e e e e e e e e e e e e e e e e e e e e e e e e e e e e 9 9 9 9 5 9 e 9 t 5 e t 5 1 5 > 9 5 1 e t 9 t t e e e e e e e e e e e e e e e e e e e e e e e e e e e e e e e e e e e e e e e e ",
"5 t d 5 9 e 1 B h h d d l l t 5 e e e e e e e e e e e e e e e e e e e e e e e e e e e e e e e e t h t 9 e e 9 e 5 5 b e l l h t l 5 t e 5 t 9 9 e e e e e e e e e e e e e e e e e e e e e e e e e e e e e e e e e e e e e e e e e e e e e e e e e e e e e e e e h d e 9 9 e e e > l t d b d d d t e 9 e t e e e e e e e e e e e e e e e e e e e e e e e e e e e e e e e e e e e e e e e e e e e e e e e e e e e e e e e e e e e e e e e e e e e d 5 e e 9 9 1 d l h h d d l h 1 e e e e e e e e e e e e e e e e e e e e e e e e e e e e e e e e e e e e e e e e e e e e e e e e e e e e e e e e e e e e e e e e e e e e e e e e e e e e e e e e t d t d h e 5 e t 5 e 1 9 l e e h h d b 1 e e e e e e e e e e e e e e e e e e e e e e e e e e e e e e e e e e e e e e e e e e e e e e e e e e e e e e e e e e e d t d d t 9 9 e 9 t e > h 9 9 t h d l 9 5 t 9 9 e e e e e e e e e e e e e e e e e e e e e e e e e e e e e e e e e e e e e e e e e e e e e e e e e e e e e e e e e e e e e e e e e e e e e e e e t h t 9 e e 9 e 9 > b d h h l t h 9 9 e 9 e e 5 e e e e e e e e e e e e e e e e e e e e e e e e e e e e e e e e e e e e e e e e e e e e e e e e e e e e e e e e e e e e e e e e d 9 e t 9 9 e 9 9 b d h h t h d e e e e e e e e e e e e e e e e e e e e e e e e e e e e e e e e e e e e e e e e e e e e e e e e e e e e e e e e e e e e e e e e e e e e e e e e e e e e e e e e t d h d d d t 9 t 5 t t 5 t B l d h t b l 5 e 9 e e e e e e e e e e e e e e e e e e e e e e e e e e e e e e e e e e e e e e e e ",
"9 t t 5 5 t 9 ..y.y.w.y.p.w...D K K K K K K K K K K K K K K K K K K K K K K K K K K K K K K K K B A l e e e 9 e 9 A f.6.y.y.p.f.0.K W K B P D P K K K K K K K K K K K K K K K K K K K K K K K K K K K K K K K K K K K K K K K K K K K K K K K K K K K K K K K K D b d e 9 e e e t 6.w.y.p.6.w.p.^ K D K P K D K K K K K K K K K K K K K K K K K K K K K K K K K K K K K K K K K K K K K K K K K K K K K K K K K K K K K K K K K K K K K K K K K h 5 t e e e 5 b p.w.y.y.w.p.6.K K K K K K K K K K K K K K K K K K K K K K K K K K K K K K K K K K K K K K K K K K K K K K K K K K K K K K K K K K K K K K K K K K K K K K K K K K K K K K K K K D D A A A h e d e 1 e e P p.f.k.p.p.0.w.K P D D K K K K K K K K K K K K K K K K K K K K K K K K K K K K K K K K K K K K K K K K K K K K K K K K K K K K K K K K D A D D B d e t 9 9 9 t 0.y.p.p.p.y.p.' K ^ A A K K K K K K K K K K K K K K K K K K K K K K K K K K K K K K K K K K K K K K K K K K K K K K K K K K K K K K K K K K K K K K K K K K K K K K K K B A l e e e 9 e e l p.0.w.0.f.p.6.^ D K A D P D K K K K K K K K K K K K K K K K K K K K K K K K K K K K K K K K K K K K K K K K K K K K K K K K K K K K K K K K K K K K K K K K A d e t e 9 e 9 ' y.w.y.p.0.w.&.D K K K K K K K K K K K K K K K K K K K K K K K K K K K K K K K K K K K K K K K K K K K K K K K K K K K K K K K K K K K K K K K K K K K K K K K K K K K K K K K D K K D D A l e e 5 t t t ^ w.w.p.f.0.p.<.D K A K K K K K K K K K K K K K K K K K K K K K K K K K K K K K K K K K K K K K K K K ",
"e t t 9 9 t 9 <.y.y.w.w.p.w.' b A A A A A A A A A A A A A A A A A A A A A A A A A A A A A A A A D K b e e e e e 1 B m.6.w.6.6.0.w.B D D b D B D A A A A A A A A A A A A A A A A A A B A A A A A A A A A A A A A A A A A A A A A A A A A A A A A A A A A A A A A K B d e e e e e > 6.y.y.p.<.y.p.P A b B A B B A A A A A A A A A A A A A A A A A A A A A A A A A A A A A A A A A A A A A A A B A A A A A A A A A A A A A A A A A A A A A A A A A l 1 d e e t 5 A p.w.y.y.0.y.<.B A A A A A A A A A A A A A A A A A A A A A A A A A A A A A A A A A A A A A A A A A A A A A A A A A A B A A A A A A A A A A A A A A A A A A A A A A A A A A A A A D D A D A d 5 9 h e d 1 B 0.0.6.6.0.6.0.B D A D A A A A A A A A A A A A A A A A A A A A A A A A A A A A A A A A A A A A A A A A A A A A A A B A A A A A A A A A A A D D b e 5 9 l d e 9 0.0.6.<.6.6.w.W b P B D A A A A A A A A A A A A A A A A A A A A A A A A A A A A A A A A A A A A A A A A A A A A A A A A A A A A A A A A A A B A A A A A A A A A A A A A D K b e e e e e 5 d f.w.0.6.w.6.y.P B D B B D A A A A A A A A A A A A A A A A A A A A A A A A A A A A A A A A A A A A A A A A A A A A A A A A A A A A A A A A A A A A A A A A A K h e t e e e 9 W p.w.w.w.0.y.$.B B B A A A A A A A B A A A A A A A A A A A A A A A A A A A A A A A A A A A A A A A A A A A A A A A A A A A A A A A A A A A A A A A A A A A A A A A A A A A A A D D A A A A h 1 t 9 t 9 1 W p.0.6.w.:.y.&.B D D A A B A A A A A A A A A A A A A A A A A A A A A A A A A A A A A A A A A A A A A ",
"9 e t t e t > &.y.y.w.0.w.w...D D D D D D D D D D D D D D D D D D D D D D D D D D D D D D D D D A K l 9 9 e e t 5 b f.:.y.y.w.w.w.l D P D P B D D D D D D D D D D D D D D D D D D D D D D D D D D D D D D D D D D D D D D D D D D D D D D D D D D D D D D D D D A l e 9 e t e e e y.w.6.y.6.y.0.( K A D D A A D D D D D D D D D D D D D D D D D D D D D D D D D D D D D D D D D D D D D D D D D D D D D D D D D D D D D D D D D D D D D D D D D b 1 t e 9 e 5 D f.w.y.w.<.y.0.K D D D D D D D D D D D D D D D D D D D D D D D D D D D D D D D D D D D D D D D D D D D D D D D D D D D D D D D D D D D D D D D D D D D D D D D D D D D D D D D D A A A K K h 9 e 9 5 h 5 A f.y.w.y.y.w.p.B D A D D D D D D D D D D D D D D D D D D D D D D D D D D D D D D D D D D D D D D D D D D D D D D D D D D D D D D D D D A A D K B t 9 e 9 e e 9 0.0.w.p.w.w.f.^ b P B K D D D D D D D D D D D D D D D D D D D D D D D D D D D D D D D D D D D D D D D D D D D D D D D D D D D D D D D D D D D D D D D D D D D D D D D D A K l 9 9 e e t t t y.6.y.p.f.0.y.K b W K A K A D D D D D D D D D D D D D D D D D D D D D D D D D D D D D D D D D D D D D D D D D D D D D D D D D D D D D D D D D D D D D D D D K t 5 e e t t e W f.w.6.6.6.f.:.A A D D D K K K D D D D D D D D D D D D D D D D D D D D D D D D D D D D D D D D D D D D D D D D D D D D D D D D D D D D D D D D D D D D D D D D D D D D D D D D D D A B D K b 9 9 5 d e 5 ( f.0.w.p.6.p.:.b D D D D D D D D D D D D D D D D D D D D D D D D D D D D D D D D D D D D D D D D D D ",
"e 9 9 e e e 5 &.y.w.w.y.6.p.' B D D D D D D A D D D D D D D D D D D D D D D D D D D D D D D D D A K l 9 e t 9 e 9 b f.6.y.0.w.w.0.B K B D A A D D D D D D D D D D D D D D D D A A A D D D D D D D D D D D D D D D D A D D D D A D D D D D D D D D D D D D D D D D A 5 e 9 e 9 e 9 6.y.y.0.y.0.y.^ B D D A K A D D D D D D D D A A D D D D D D D D D D D D D D D A D D D D D D D D D D D D D D D D D D D D D D D D D A D D D D A A D D D A A D D h 5 t 9 e t 5 A p.w.w.0.y.0.0.D D D D D D D D D D D D D D A A D D D D D D D D D D D D D D D D D D D D D D D D D A A D D D A D D D D D D D D D D D D A D D D D A D D D D D D D D D D D D D D D D D D A D D l 9 e 9 e e 5 B p.0.w.0.w.y.6.D A D D A D D D D D D D D D D D D D D D D A D D D D D D D D D D D D D D A D D D D D D D D D D D D D D D D D D D D D D D D D D A A 9 t 9 e 9 e e 6.w.y.0.w.0.p.W A D A D D D D D D D D D D D D D D D D D D D D D D D A D D D A A D D D D D D D D D D D D D D D D D D D D A A D D D A D D D D D D D D D D D D D D D D D D A D B 5 e 9 t 9 9 h y.0.y.0.y.0.w.K A D A D A D D D D D D D D D D D D D A A D D D D D D D D A D D D D D D D D D D D D D D D D D D D D D D D D D D D D D D D A D D D A A D D D D K t 9 t 9 e e 1 ^ p.w.0.y.0.w.:.B D D D A D D D D D D A A D D D D D D D D D D D D D D D A A D D D D D D D D A D D D D D D D D D D D D D D D D D D D D D D D D A A D D D D D D D D D D D D D D D D A A D B K t e 9 t 9 t 1 W y.w.0.y.w.w.<.b K A D D D D D D D D D D D D D D D D D D D D A A D D D D D D D D A D D D D D D D D D ",
"e 9 9 e e e 5 &.y.w.w.y.6.p.' B D A A D D D D D D D D D D D D D D D D A D D D D D D D D D D D D A K l 9 e t 9 e 9 b f.6.y.0.w.w.0.B K B D D A D D D D D D D D D D D D D D D D A D D D D D D A A D D D D A D D D D D A D D D D A D D D A D D D D D D D D D D D D D A 5 e 9 e 9 e 9 6.y.y.0.y.0.y.^ B D D A K A D D D D D D D D D D D D D D D D D D D D D D D D D D D D D D D D A D D D D D D D D D D D D D D D D D D A D D D D D A D D D A A D D h 5 t 9 e t 5 A p.w.w.0.y.0.0.D D D D D D D D D D D D A D D D D D D A D D D D D D A D D D D D D D D D D D D D D D D D D D A D D D A D D D D D D D D A D D D D D D D D D D D D D D D D D D D D D D D A D D l 9 e 9 e e 5 B p.0.w.0.w.y.6.D A D D D D D D D D D A D D D D D D D D D A D D D A D D D D D D D D D D D D D D D D D A D D D D D D D D D D D D D D D D D D D A A 9 t 9 e 9 e e 6.w.y.0.w.0.p.W A D A D D D D A D D D D D D D D D D D D D D A D D D A D D D D D D D D D D A D D D D D D D D D D D D D D D D D D D A D D D A D D D D D D D A A D D D D D A D B 5 e 9 t 9 9 h y.0.y.0.y.0.w.K A D A D A D D D D D D D D D A D D D D D D D D A A D D D D D D D D D D D D D D D D A D D D D D D D D D D D D D D A D D D A D D D D D D D D D K t 9 t 9 e e 1 ^ p.w.0.y.0.w.:.B D D D A D D D D D D D D D D D D D D D D D D D A D D D D D D D D A A D D D D D D D D D D D D D D D D D D D D D D D D D D D D A D D D D D D D A D D D D D D D D D A A D B K t e 9 t 9 t 1 W y.w.0.y.w.w.<.b K A D D D D D D D D D D D D D D D D A D D D D D D D D A A D D D D D D D D D D D D D ",
"e 9 9 e e e 5 &.y.w.w.y.6.p.' B D D D D D D D D D D D D D D D D D D D D D D D D D D D D D D D D A K l 5 e t 9 e 9 b f.6.y.0.w.w.0.B K A D D A D D D D D D D A A A D D D D D D D D D D D D D D D D A D D A D D D D D D D D D D D D D D A D D A D D D D D A A D D D D 5 e 9 e 9 e 9 6.y.y.0.y.0.y.^ B D D A K A D D D D D D D D D D D D D D D D D D A D D D D A D D D D D D D D A A A D D D D D A D A D D A D D D D D D D D D D D A D D D A A D D h 5 t 9 e e 5 A p.w.w.0.y.0.0.D D D A D A D D D D D D D D D D D D D D D A D D D D A D D D D D D D D D D D D D D D D D D D D D D D A D D D D D D D D D D D D D D D D D D D D D D D D D D A A D D D D A D D l 9 e 9 e e 5 B p.0.w.0.w.y.6.D A D D D D D D D D D A A A D D D D D A D D D D D D D D D D D D D D D D D D D D D D D A A A D D D D D A D D D D D D D D D D D A A 9 t 9 e e e e 6.w.w.0.w.0.p.W A D A D D D D D D D D D D D D D D D D D D D A D D D D D D D D D D D D D D A D D D D D D D D D D D D D D D D D D D D D D D A D D D D D D D D D D D D D D A D B 5 e 9 t 9 9 h y.0.y.0.y.0.w.K A D A D A D D D D D D D D D D D D D D D D D D D D D D D D D D D D D D D D D D D D D D D D D D D D D D D D D D D A D D D D D D D D D D D D D K t 9 t 9 e e 1 ^ p.w.0.y.0.w.:.B D D D A D D D D D D D D D D D D D D D D D D D D D D D D D D D D D D D D D D D D D D D D D D D D D D D D D A A A D D D D D D D D D D D D D D A A A D D D D D A D A A D B K t e 9 t 9 t 1 W y.w.0.y.w.w.<.b K A D D D D D D A A D D D D D D D D D D D D D D D D D D D D D D D D D D D D D D D D ",
"e 9 9 e e e 5 &.y.w.w.y.6.p.' B D D D D D D D D D D A A D D D D D D D D D D D D D A A D A A D D A K l 5 e t 9 e 9 b f.6.y.0.w.w.0.B K B D D A D D D D D D D A D D D D D D D D D D D D D D D D D D A D D D D D D D D D D D D D D D D D D D D A D D A D D D D D D D D 5 e 9 e 9 e 9 6.y.y.0.y.0.y.^ B D D A K A D D D D D D D D D D D D D A A D D D A D D D D D D D D D D D D D D D D D D D D D D D A D D D D D D D D D D D D D D A D D D A D D D h 5 t 9 e e 5 A p.w.w.0.y.0.0.D D D A D A D D D D D D D D D D D D D D D A D D D D D D D D D A A D A A D D D D D D D D D D D D D D D D D D D A D D D D D D D D D D D D A A D D D A A D D D D D D D D A D D l 9 e 9 e e 5 B p.0.w.0.w.y.6.D A D D D D D D D D D D D D D D D D D D D D D D D D D D D D A A D A A D D D D D D D D D D D D D D D D D D D D D A A D D D D D A A 9 t 9 e e e e 6.w.y.0.w.0.p.W A D A D D D D D D D D D D A A D A A D D D D D D D D D D D D D D D D D D D D D D D D A A D A A D D D D D D D D D D D D D D D D D D D A D D D D D D D D D A D B 5 e 9 t 9 9 h y.0.y.0.y.0.w.K A D A D A D D D A A D D D D D D D D D D D D D D D D D D D D D D A A D D D D D D D D D D D D D A A D A A D D D D D D D D D D D D D D D D D D K t 9 t 9 e e 1 ^ p.w.0.y.0.w.:.B D D D A D D D D D D D D D D D D D A A D D D D D D D D D D D D D D D D D D D D D D A A D D D D D A D D D D A D D D D D D D D D D D D D D D D D D D D D D D D D D A A D B K t e 9 t 9 t 1 W y.w.0.y.w.w.<.b K A D D D D D D A D D D A A D D D D D D D D D D D D D D D D D D D D D D A A D D D D ",
"e 9 9 e e e 5 &.y.w.w.y.6.p.' B D D D D D D D D D A D D D D D A D D D D A D D D D D D D D D D D A K l 5 e t 9 e 9 b f.6.y.0.w.w.0.B K A D D A D D D D D A D D D A A D D D D D D D D D D D D D D D D D D A D D D D D D D D D D D D D D A D D D D D D D D A A D D D D 5 e 9 e 9 e 9 6.y.y.0.y.0.y.^ B D D A K A D D D D D D D A D D A D D D D D D D D D D D D D D D D D D D D A D D D D A A D D D D D D D A A D D D D D D D D D D A D D D A A D D h 5 t 9 e e 1 A p.w.w.0.y.0.0.D D D D D D D D D D D D D D D D D D D D D D D D D D D D D D D D A D D D D D D A A D D A A D D A D D D D D D D D D D D D D D D D D D D D D D D D D D D D D D A D D D D A D D l 9 e 9 e e 5 B p.0.w.0.w.y.6.D A D D D D D D D D A D D D D A A D D D D D D D D D D D D D D D D D D D D D D D D D A D D D D A A D D D A D D D D D D D D D D A A 9 t 9 e e e e 6.w.w.0.w.0.p.W A D A D D D D D A D D D D D D D D D D D D D D D D D D D D D D D A D D D D D D D D D D A D D D D D D A A D D A A D D A D D D D D D D D D D D D D D D D D A D B 5 e 9 t 9 9 h y.0.y.0.y.0.w.K A D A D A D D D D D D D D A D D D D D D D D D D D D D D D D D A D D D D D A D D D D A D D D D D D D D D D D D D D D D D D D D D D D A D D D K t 9 t 9 e e 1 ^ p.0.0.y.0.w.:.B D D D A D D D D D D D D D D D D D D D D D D A D D D D D D D D D D D D D D D D D A D D D D D A D D D D A D D D A A D D D D D D D D D D D D A D D D D A A D D D D A A D B K t e 9 t 9 t 1 W y.w.0.y.w.w.<.b K A D D D D A D D D D D D D D D D A D D D D D D D D D D D D D D D D D A D D D D D A ",
"e 9 9 e e e 5 &.y.w.w.y.6.p.' B D D D D D D D D D A D D D D D D D D D D D D D D D D D D D D D D A K l 5 e t 9 e 9 b f.6.y.0.w.w.0.B K A D D A D D D D D D D D D D D D D D D A D A D D D D A A D D D D D D D D D D D D D D D D D D D D D D D D D D D D D D D D D D D 5 e 9 e 9 e 9 6.y.y.0.y.0.y.^ B D D A K A D D D D A D D A D D D D D A A D D A D D D D D D D A A D D D D A D D D D D D D D D D D D D D D D D D D D D D D D D A D D D A A D D h 5 t 9 e e 1 A p.w.w.0.y.0.0.D D D D D D D D D D D D D D D D D D D D D D D D D D D D D D D D A D D A D D D D D D D D D D D D D D D D D D D D A D D D D D D D D A A D D D D D A D D D D D D D D D D A D D l 9 e 9 e e 5 B p.0.w.0.w.y.6.D A D D A A D D D D A D D D D D D D D D D D D D D D D D D D D D D D D D A A D D D D A D D D D D D D D D A D D D D D D D D D D A A 9 t 9 e e e e 6.w.y.0.w.0.p.W A D A D D D D D D D D D D D D D D D D D D D D D D D D D D D D D D D D D D D D D D D D A D D A D D D D D D D D D D D D D D D D D D D D A D D D D D D D D A D B 5 e 9 t 9 9 h y.0.y.0.y.0.w.K A D A D A D D A D D D D D A D D D D D A D D D D D D D D D D D A D D D D D D D D D D D D D D D D D D D D D D D D D D D D D D D D D D D D D D K t 9 t 9 e e 1 ^ p.w.0.y.0.w.:.B D D D A D D D D D D A D D D D D A D D D D D A D D D D D A D D D D D D D D D D D A D D D D D D D D D D D D D D D D D D D D A D A A D D D D A D D D D D D D D D D A A D B K t e 9 t 9 t 1 W y.w.0.y.w.w.<.b K A D D D D D D D D D A D D D D D A D D D D D A D D D D D D D D D D D A D D D D D D ",
"e 9 9 e e e 5 &.y.w.w.y.6.p.' B D D D A D D D D D D D D D D D D D D A A D D D D D D A D D D D D A K l 5 e t 9 e 9 b f.6.y.0.w.w.0.B K A D D A D D D D D D D D D D D D D D D A D D D D D D D D D D D D D D D D D D D A A D D D D D D D D D D D D D D D D D D D D D D 5 e 9 e 9 e 9 <.y.y.0.y.0.y.^ B D D A K A D D D D A D D D D D D D D D D D D A D D D D D D A D D D D D D D D D D D D D D D D D D D D D D D D D D A A D D D D A D D D A A D D h 5 t 9 e e 5 A p.w.w.0.y.0.0.D D D D A D D D D D A A D D D D D D D D D D D D D A D D D D D D D D D D D D D D D D D D D D D D D A D D D D D D A D D A A D D D D D D D D D D D D D D D D D A D D D D A D D l 9 e 9 e e 5 B p.0.w.0.w.y.6.D A D D D D D D D D D D D D D D D D D D A D D D D A D D D D D D A A D D D D D D D D D D D D D D D D D D D D D D D D D D D D D A A 9 t 9 e e e e 6.w.y.0.w.0.p.W A D A D D D A A D D D D D D A D D D D D D D D D D D D A D D A D D D D D A D D D D D D D D D D D D D D D D D D D D D D D A D D D D D D A D D D A A A D D A D B 5 e 9 t 9 9 h y.0.y.0.y.0.w.K A D A D A D D D D D D D D D D A D D D A D D D D D A D D D D D D D D D D D D D D A A D D D D D D A D D D D D D D D D D D D A D D A D D D D D K t 9 t 9 e e 1 W p.w.0.y.0.w.&.B D D D A D D D D D D D A A D D D D D D D D D D D A D D D A D D D D D A D D D D D D D D D D D D D D D D D D D D D D D D D D A D D D D D D D D D D D D D D D D D D A A D B K t e 9 t 9 t 1 W y.w.0.y.w.w.<.b K A D D D D D D D D D D D D D D D D D A D D D A D D D D D A D D D D D D D D D D D D ",
"e 9 9 e e e 5 &.y.w.w.y.6.p.' B D D D A A A D D D D D D D D D D D D A D D D D D D D D D D D A A A K l 9 e t 9 e 9 b f.6.y.0.w.w.0.B K A D D A D D D D D D D D D D D D D D D D D D D D D D D D D A D D D D D D D D D D D D D A D D D D D D D D A A D D D D D D D D D 5 e 9 e 9 e 9 <.y.y.0.w.0.y.^ B D D A K A D D D D D D D D D D D D D D D D D D D D D D D D A D D D D D D D D D D D D D D D D A D D D D D D D D D D D D A A D A D D D A A D D h 5 t 9 e t 5 A p.w.w.0.y.0.0.D D D D A D D D D D D D D D D A A D D A A D D D D D D D D D D D D D D D D D D D D D D D D D D D D A D D D D D D D D D D D D A A D D D D D D D D D D D D D D D D D D D A D D l 9 e 9 e e 5 B p.0.w.0.w.y.6.D A D D D D D D D D D D D D D D D D D D A D D D D A D D A D D D D D D D D D D D D D D D D D D D D D D D D D D D D D D D D D D A A 9 t 9 e e e e 6.w.y.0.w.0.p.W A D A D D D A D D D D D D D D D D D A A D D A D D D D A D D A D D D D D D D D D D D D D D D D D D D D D D D D D D D D D A D D D D D D D D D D A A A D D A D B 5 e 9 t 9 9 h y.0.y.0.y.0.w.K A D A D A D D D D D D D D D D A D D D D D D D D D A A A D D D D D D D D D D D D A D D D D D D D D D D D A A D D A D D D D A D D A D D D D D K t 9 t 9 e e 1 W p.w.0.y.0.w.&.B D D D A D D D D D D D D D D D D D D D D D D D D A D D D D D D D D D A A A D D D D D D D D D D D D D D D D D D D D D D D D D D D D D D D D D D D D D D D D D D D A A D B K t e 9 t 9 t 1 W y.w.0.y.w.w.<.b K A D D D D D D D D D D D D D D D D D A D D D D D D D D D A A A D D D D D D D D D D ",
"e 9 9 e e e 5 &.y.w.w.y.6.p.' B D D D D D D D D D A D D D D A D D D A D A D D D D D D D D D D D A K l 9 e t 9 e 9 b f.6.y.0.w.w.0.B K A D D A D D D D D D D D D D D D D D D D D A D D D D D D D A D D D D D D D D D D D D A D D D D D D D D D D D D D D D D D D D D 5 e 9 e 9 e 9 6.y.y.0.y.0.y.^ B D D A K A D D D D D D D D D D D A D D D D A D D A D D D D D D D D D D D D D D D D D D D D D A D D D D D D D D D D D D A D D A D D D A A D D h 5 t 9 e t 5 A p.w.w.0.y.0.0.D D D D D D D D A D D D D D D D D D D D D D D A D D D D D D D D D D D D D D D D D D D D D D D A D D D D D D D D D D D D D D D D D A A D D D D D D A D D D D D D D D D A D D h 9 e 9 e e 5 B p.0.w.0.w.y.6.D A D D D D D D D D D D D D D D D D D D A A D D D D D D D D D D A D D D D D D D D D D D D D D D D D D D D D D D D D A D D D D A A 9 t 9 e e e e 6.w.y.0.w.0.p.W A D A D D D A D A D D D D D D D D D D D D D D D D D D D D D D D D D D A D D D D D D D D D D D D D D D D D D D D D D A D D D D D D D D D D D D D D D D D A D B 5 e 9 t 9 9 h y.0.y.0.y.0.w.K A D A D A D D D D D D D D A D D D D D D D D D D D D D D D D D A D D D D A D D D A D A D D D D D D D D D D D D D D D D D D D D D D D D D D A K t 9 t 9 e e 1 ^ p.w.0.y.0.w.:.B D D D A D D D D D D D A A D D D D D D D D D A D D D D D D D D D D D D D D D D D A D D D D A D D D D D D D D D D D D D D D D D D D D D D D D D D D D D D D D D D A A D B K t e 9 t 9 t 1 W y.w.0.y.w.w.<.b K A D D D D D D D D D D D D D D D A D D D D D D D D D D D D D D D D D A D D D D A D ",
"e 9 9 e e e 5 &.y.w.w.y.6.p.' B D D D A D D D D D D D D D D A A D D D D A D D D D D D D D D D D A K l 9 e t 9 e 9 b f.6.y.0.w.w.0.B K B D D A D A D D D D D D D D D D D D D D D A D D D D D D D D D D D A D D D D D D D D A D D D D D D D D D D D D D D D D D D D D 5 e 9 e 9 e 9 6.y.y.0.y.0.y.^ B D D A K A D D D D D D D D D D D D D D D D A D D A D D D D D D D D D D D D D D D D D D D D D D D D D A A D D D D D D D A D D A D D D A A D D h 5 t 9 e t 5 A p.w.w.0.y.0.0.D D D D D D D D D D D D D A D D D A A D D D D D D D D D D A A D D A D D D D D D D D D A D D D A D D D D D D D D D D D D D D D D D D D D D D D A A D D D D A A D D D D A D D h 9 e 9 e e 5 B p.0.w.0.w.y.6.D A D D D D D D D D D D D D D D D D D D D D D D D A A D D D D D A D D D D D D D D D D D D D D D D D D D A A D D D D D D D D D A A 9 t 9 e e e e 6.w.y.0.w.0.p.W A D A D D D D D A D D D D D D D D D D D D D D D D D D D A D D D D D D A D D D D A A D D A D D D D D D D D D A D D D A D D D D D D D D D D D D A D D D D A D B 5 e 9 t 9 9 h y.0.y.0.y.0.w.K A D A D A D A D D D D D D A D D D D D D D D D D D A D D D D D D D D D D A A D D D D A D D D D D D D D D D D D D D D D D D D A D D D D D D A K t 9 t 9 e e 1 W p.w.0.y.0.w.:.B D D D A D D D D D D D D D D D A D D D D D D A D D D D D D D D D D D A D D D D D D D D D D A A D D D A D D D D D D D D D D D D D D D D D D D D D D D D D D D D D A A D B K t e 9 t 9 t 1 W y.w.0.y.w.w.<.b K A D D D D D D D D A D D D D D D A D D D D D D D D D D D A D D D D D D D D D D A A ",
"e 9 9 e e e 5 &.y.w.w.y.6.p.' B D D D A D A D D D D D D D D D D D D D D D D D D D D D D D D D D A K l 9 e t 9 e 9 b f.6.y.0.w.w.0.B K B D D A D D D D D D D D D D D D D D D D D D D D D A D D D D D D D D D D D D D D D D D D D D A D D D D A A D A D D D D A D D D 5 e 9 e 9 e 9 6.y.y.0.y.0.y.^ B D D A K A D A D D D D D D D D D D D D D D D D D D D D D D D D D D D A D D D A D D D D D D D D D D D D D D D D D D D D D D D A D D D A A D D h 5 t 9 e t 5 A p.w.w.0.y.0.0.D D A D D D D D D A A D D D D D D D D D D D D D D D D D A D D D D D D D D D D D D D D A D D D D D A D D D D D A D D D D A D D D D D D D D D D D D D D D D D D D D D D A D D l 9 e 9 e e 5 B p.0.w.0.w.y.6.D A D D D D D D A D D D A D D D D D D D D D D D D D D D D D D D D D D D D D D D A D D D A D D D D D D D D D D D D D D D D D D A A 9 t 9 e e e e 6.w.y.0.w.0.p.W A D A D D D D D D D D D D D D D D D D D D D D D A A D D A D D D D D D D D D D A D D D D D D D D D D D D D D A D D D D D A D D D D D A D D D D A D A D D A D B 5 e 9 t 9 9 h y.0.y.0.y.0.w.K A D A D A D A D D D D D D D D D D D D D D D D D D A D A D D D D D D D D D D D D D D D D D D D D D D D D D D D D D D A A D D A D D D D D D D K t 9 t 9 e e 1 W p.w.0.y.0.w.:.B D D D A D D D D D D D D D D D A D D D D D D D D D D D D D D D D D D A D A D D D D D D D D D D D D D A D D A D D D D A D A D D D D D D A D D D A D D D D D D D D A A D B K t e 9 t 9 t 1 W y.w.0.y.w.w.<.b K A A D D D D D D D A D D D D D D D D D D D D D D D D D D A D A D D D D D D D D D D ",
"e 9 9 e e e 5 &.y.w.w.y.6.p.' B D D D D D D D D D D D D D D D D D D D D D D D D D D A D D D D D A K l 9 e t 9 e 9 b f.6.y.0.w.w.0.B K B D D A D D D D D D D D D D D A D D D D D D D D D A D D D D D D D D D D D D D D A D D D D D A D D D D D D D D D D D D A D D D 5 e 9 e 9 e 9 6.y.y.0.y.0.y.^ B D D A K A D D A D D D D D D D D D D D D D D D D D D A D D D D D A D A D D D D A D D D D D D D D D D D D D D D D D A D D D D A D D D A A D D h 5 t 9 e t 5 A p.w.w.0.y.0.0.D D A D D D D D D D D D D D D D D D D D D D D D D D D D A D D D D D D D D D D D D D D D D D D D D A D D D D D D D D D D A D A D D D D D D D D D D D D D D D D D D D D A D D l 9 e 9 e e 5 B p.0.w.0.w.y.6.D A D D D D A D A D D D D A D D D D D D D D D D D D D D D D D D D D D D D D A D A D D D D A D D D D D D D D D D D D D D D D D A A 9 t 9 e e e e 6.w.y.0.w.0.p.W A D A D D D D D D D D D D D A D D D D D D A D D D D D D D D D D D D D D D D D A D D D D D D D D D D D D D D D D D D D D A D D D D D D D D D D D D D D D A D B 5 e 9 t 9 9 h y.0.y.0.y.0.w.K A D A D A D D D D D D D D D D A D D A A D D D D D D D D D D D D D D D D D D D D D D D D D D D D A D D D D D D A D D D D D D D D D D D D D D K t 9 t 9 e e 1 W p.w.0.y.0.w.:.B D D D A D D D D D D D D D D D D D D D D D D D D A D D A A D D D D D D D D D D D D D D D D D D D D D D D D D D D D D D D A D D D D A D A D D D D A D D D D D D D A A D B K t e 9 t 9 t 1 W y.w.0.y.w.w.<.b K A D A D D D D D D D D D D D D D D D A D D A A D D D D D D D D D D D D D D D D D D ",
"e 9 9 e e e 5 &.y.w.w.y.6.p.' B D D D D D D D D D D D D D D D D D D D D D D D D D D D D D D A A A K l 9 e t 9 e 9 b f.6.y.0.w.w.0.B K A D D A D D D D D D D D D D D D D D D A A D D D D D D D D D D D A D A D D D D D A D D D D D D D D D D D D D D D D D D D D D D 5 e 9 e 9 e 9 6.y.y.0.y.0.y.^ B D D A K A D D D D D D D D D D D D D D D D D D D D D D D D D D D D D D D D D D D D D D D D D D D D A D A D D D D D A D D D D A D D D A A D D h 5 t 9 e t 5 A p.w.w.0.y.0.0.D D D D D D D A D D D D D A D D D D D D D D D D A D D D D D D D D D D D D D D D D D D D D D D D D D D D D A A D D D D D D D D D D D D D D D D D D D D A A D A A D D D A D D l 9 e 9 e e 5 B p.0.w.0.w.y.6.D A D D D D D D D D D D D D D D D D D D D D D D D D D D D D D A D A D D D D D D D D D D D D D D D D D D D D D D D D D A D D D A A 9 t 9 e e e e 6.w.y.0.w.0.p.W A D A D D D D D D D D D D D D D D D A A D D D D A A D D D A D D D D D D D D D D D D D D D D D D D D D D D D D D D D D D D D D D A A D D D D D D D D D D A D B 5 e 9 t 9 9 h y.0.y.0.y.0.w.K A D A D A D D A D D D D D D D D D D D D D D D D D D D D D D D D D D D D D D D D D D D D D D D D D D D D A A D D D D A A D D D A D D D D D D K t 9 t 9 e e 1 W p.w.0.y.0.w.:.B D D D A D D D D D D D D D D D D A D D D D D D D D D D D D D D D D D D D D D D D D D D D D D D D D D A D D D D D D D D D D D D D D D D D D D D D D D D D D D D D A A D B K t e 9 t 9 t 1 W y.w.0.y.w.w.<.b K A D D D D D D D D D A D D D D D D D D D D D D D D D D D D D D D D D D D D D D D D ",
"e 9 9 e e e 5 &.y.w.w.y.6.p.' B D D D D D D D D D D D D D D D D D D D D D D D D D D A A D D D D A K l 9 e t 9 e 9 b f.6.y.0.w.w.0.B K A D D A D D D D D D D D D D D A A D D D D D A D D A D D D D D D A D A D D D D D D D D D D D D D D D D D D D D D D D D D D D D 5 e 9 e 9 e 9 6.y.y.0.y.0.y.^ B D D A K A D D D D D D D D D D D A D D D D D D D D D D D D D D D D D D D D D D D D D D D D D D D D A D D D D D D D D D D D D A D D D A A D D h 5 t 9 e t 5 A p.w.w.0.y.0.0.D D D D D D D A A D D D D A D D D D A A D D D D A D D D D D D D D D D D D D D D D D D D D D D D D D D D D D D D D D D D D D D D D A A D D D D A D D D D D D D D D D D A D D l 9 e 9 e e 5 B p.0.w.0.w.y.6.D A D D D D D D D D D D D D D D D D D D D D D D D D D D D D D A D A D D D D D D D D D D D D D D D D D D D A A D D D D A D D D A A 9 t 9 e e e e 6.w.y.0.w.0.p.W A D A D D D D D D D D D D D A A D D D D D D D D D D D D D A D D D D A D D D D D D D D D D D D D D D D D D D D D D D D D D D D D D D D D D D D D D D D D A D B 5 e 9 t 9 9 h y.0.y.0.y.0.w.K A D A D A D D D D D D D A D D D D D D D D D D D D D D D D D D D D D D D D D D D D D D D D D D D A A D D D D D D D D D D D D D A D D D D A D K t 9 t 9 e e 1 W p.w.0.y.0.w.:.B D D D A D D D D D D D D D D D D D D D D D A D D D D D D D D D D D D D D D D D D D D D D D D D D D D A D D D D D D D D D D D D D D D D D D D D D D D D D D D D D A A D B K t e 9 t 9 t 1 W y.w.0.y.w.w.<.b K A D D D D D D D D D D D D D D A D D D D D D D D D D D D D D D D D D D D D D D D D ",
"e 9 9 e e e 5 &.y.w.w.y.6.p.' B D D D D A D D D D D D D D D D D D D D D D A A D D D D D D D D D A K l 5 e t 9 e 9 b f.6.y.0.w.w.0.B K A D D A D A A D D D D D D D D D D D D D D D D D D A D D D D D D D D D D D D D D D D A D D A D D D D D D D A D D D D D D D D D 5 e 9 e 9 e 9 <.y.y.0.y.0.y.^ B D D A K A D D D D D D D D D D D A D D D A D D D D D D D D D D D A A D D D D D D D D D D D D D D D D D D D D D D D D D D D D A D D D A A D D h 5 t 9 e e 5 A p.w.w.0.y.0.0.D D D D D D D D D A D D D D D D D D D D D D D D D D D D D D D D D A A D D D D D D D D D D D D D A D D D D D D D D D D D D A A D D D D D D D D D D D D D D D D D D D D A D D l 9 e 9 e e 5 B p.0.w.0.w.y.6.D A D D D D A A D D D D D D D D D D D D D D D D A D D D D D D D D D D D D D A A D D D D D D D D D D D D D D D D D D D D D D D A A 9 t 9 e e e e 6.0.y.0.w.0.p.W A D A D D D D D D A A D D D D D D D D D D D D D D D D D D D D D D D D D D D D D D D D D A A D D D D D D D D D D D D D A D D D D D D D D D D D D A D D D A D B 5 e 9 t 9 9 h y.0.y.0.y.0.w.K A D A D A D D D D D D D A D D D A D D D D D D D D D A D D D D D D D D D D D D D D D D A A D D D D D D D D D D D D D D D D D D D D D D D D D K t 9 t 9 e e 1 ^ p.w.0.y.0.w.:.B D D D A D D D D D D D D D D D D D D D D D A D D D A D D D D D D D D D A D D D D D D D D D D D D D D D D D D A D D D D A D D D D D A A D D D D D D D D D D D D D A A D B K t e 9 t 9 t 1 W y.w.0.y.w.w.<.b K A D D D D D D D D D D D D D D A D D D A D D D D D D D D D A D D D D D D D D D D D ",
"e 9 9 e e e 5 &.y.w.w.y.6.p.' B D D D D A D D D D D D D D D D D A A D D D D D D D D D D D D D D A K l 5 e t 9 e 9 b f.6.y.0.w.w.0.B K A D D A D D A D D D D D D D D D D D D D D D D D D D D D D D D D D D D D D D D D D D A D D D D D D D D A A D A A D D D D D D D 5 e 9 e 9 e 9 <.y.y.0.w.0.y.^ B D D A K A D A D D D D D D D D D D D D D A D D D A A D D D D D D D D D D D A A D D D D D D D D D D D D D D D D D D D D D D D A D D D A A D D h 5 t 9 e e 5 A p.w.w.0.y.0.0.D D D D D D D D D A D D D D D D D D D D D D D D D D D D D A D D D D A D D D D D D D D A A D D D D D D D D D D D D A D D D D D D D D D D D D D D D D D D D D D D D D D A D D l 9 e 9 e e 5 B p.0.w.0.w.y.6.D A D D D D D D D D D A A D D D D D D D D A A D D D D D D D D D D D D D D D D D D D D A A D D D D D D D D D D D D D D D D D D A A 9 t 9 e 9 e e 6.0.w.0.w.0.p.W A D A D A A D D D D D D D D D D D D D D A D D D D D D D D D D D D D D D D D D D A D D D D A D D D D D D D D A A D D D D D D D D D D D D D D D D A D D D A D B 5 e 9 t 9 9 h y.0.y.0.y.0.w.K A D A D A D D D D D D D D D D D A D D D A A D D D D A D D D D D D D D D D D A A D D D D D D D D D D D D D D A D D D D D D D D D D D D D D D K t 9 t 9 e e 1 ^ p.w.0.y.0.w.:.B D D D A D D D D D D D D A A D D D D D D D D D D D A D D D A A D D D D A D D D D D D D D D D D D D D D D D D A D D D D A D D D D D D D D D D A A D D D D D D D D A A D B K t e 9 t 9 t 1 W y.w.0.y.w.w.<.b K A A D D D D D D D D D D D D D D D D D A D D D A A D D D D A D D D D D D D D D D D ",
"e 9 9 e e e 5 &.y.y.0.6.y.p...l D D D D D D D D D D D D D D D D D D D D D D D D D D D D D D D D A A b e 9 e t e e l p.0.w.p.p.0.0.h W P A b A K D D D D D D D D D D D D D D D D D D D D D D D D D D D D D D D D D D D D D D D D D D D D D D D D D D D D D D D D D D 9 e e e 1 t 9 0.0.y.w.w.w.w.^ K B D D A A D D D D D D D D D D D D D D D D D D D D D D D D D D D K D D D D D D D D D D D D D D D D D D D D D D D D D D D D D D D D D D D D P h 1 t t 9 e 5 D f.0.0.6.6.k.w.A D D D D D D D D D D D D D D D D D D D D D D D D D D D D D D D D D D D D D D D D D D D D D D D D D D D D D D D D D D D D D D D D D D D D D D D D D D D D D D D D A B W A D b t 9 9 e e 5 B p.0.w.0.0.w.w.A B D D D D D D D D D D D D D D D D D D D D D D D D D D D D D D D D D D D D K D D D D D D D D D D D D D D D D D D D D D D D K A D t t 9 e e e e 6.w.w.0.0.w.f.W b W A K D D D D D D D D D D D D D D D D D D D D D D D D D D D D D D D D D D D D D D D D D D D D D D D D D D D D D D D D D D D D D D D D D D D D D D D D P A B e t 5 t t 9 h y.0.y.0.y.0.y.A l P K A D B D D D D D D D D D D D D D D D D D D D D D D D D D D D D D D D D D D D D D D D D D D D D D D D D D D D D D D D D D D D D D D D D A l t 5 5 e e 5 ^ f.0.w.0.w.0.&.D D D D D D D D D D D D D D D D D D D D D D D D D D D D D D D D D D D D D D D D D D D D D D D D D D D D D D D D D D D D D D D D D D K D D D D D D D D D D D D D D D D A A W 9 9 9 t 9 t 1 W y.w.0.y.<.k.<.b D K D D D D D D D D D D D D D D D D D D D D D D D D D D D D D D D D D D D D D D D D ",
"e 9 9 e e e 5 &.w.y.w.0.w.0.' l B B B B B B B B b b b b b b b b b b b b b b b b b b b b b b b b A A l 9 1 5 5 > = B f.v.y.w.p.p.p.D B l A D D b b b b b b b b b b b b b b b b b b b b b b b b b b b b b b b b b b b b b b b b b b b b b b b b b B B B B B B B B A A 5 9 t t 5 e 9 0.0.y.w.w.w.w.W A B A A B B A b b b b b b b b b b b b b b b b b b b b b b b b b b b b b b b b b b b b b b b b b b b b b b b b b b b b b b b b b b b b b l b B l 1 t e e e 9 A f.0.w.w.6.y.:.B b b b b b b b b b b b b b b b b b b b b b b b b b b b b b b b b b b b b b b b b b b b b b b b b b b b b b b b b b b b b b b b b b b b b b b b b b b b b b b b b B l K b A h e 9 9 e e 5 B p.0.w.w.0.0.6.A B A B b b b b b b b b b b b b b b b b b b b b b b b b b b b b b b b b b b b b b b b b b b b b b b b b b b b b b b b b b b A A A 9 e 9 e e e e 6.w.y.0.0.0.y.W b K l B b b b b b b b b b b b b b b b b b b b b b b b b b b b b b b b b b b b b b b b b b b b b b b b b b b b b b b b b b b b b b b b b b b b b b b b b B b b 9 e 9 t e 9 h y.0.y.0.y.0.w.K b D B b A b b b b b b b b b b b b b b b b b b b b b b b b b b b b b b b b b b b b b b b b b b b b b b b b b b b b b b b b b b b b b b b b b B t 5 5 e t e 5 ^ f.0.w.0.y.w.:.b b b b b b b b b b b b b b b b b b b b b b b b b b b b b b b b b b b b b b b b b b b b b b b b b b b b b b b b b b b b b b b b b b b b b b b b b b b b b b b b A B B b B W 9 9 9 t 9 t 1 W y.w.w.y.<.y.&.b A A b b b b b b b b b b b b b b b b b b b b b b b b b b b b b b b b b b b b b b b b ",
"e 9 9 e e e 5 &.0.0.0.w.y.w.&.'  . . . . . . . ................................................. . .' W P W W P P ^ W  .P W ^ W ^  . .' $.' ..' ................................................................................................ . . . . . . . . .' e e t t 5 9 9 0.0.y.w.0.w.w.$. .'  ... .'  ........................................................................................................................... ...$.A 5 t e e t 9 A p.0.w.y.0.y.0.' ..................................................................................................................................................................( $.'  .A e e 9 e e 5 B p.0.w.y.0.w.w.'  ... ................................................................................................................. .'  ...( 9 e e e e e e 6.0.y.0.w.0.y.$.( $.' .................................................................................................................................................. . .W e t e t 9 9 h y.0.y.0.y.0.y...' ..( ' .. ................................................................................................................................. .l 5 e t t 9 1 ^ f.0.w.0.y.y.<................................................................................................................................................................... . .' ' &.h e 9 t 9 t 1 W y.w.0.y.6.y.6.( .. .................................................................................",
"e 9 9 e e e 5 &.y.0.0.w.w.w.y.y.p.p.p.p.p.p.p.p.y.y.y.y.y.y.y.y.y.y.y.y.y.y.y.y.y.y.y.y.y.y.y.y.y.p.p.y.p.f.k.f.k.$.# 9 > 9 e > 9 0.p.p.p.<.p.p.y.y.y.y.y.y.y.y.y.y.y.y.y.y.y.y.y.y.y.y.y.y.y.y.y.y.y.y.y.y.y.y.y.y.y.y.y.y.y.y.y.y.y.y.y.y.y.y.p.p.p.p.p.p.p.p.y.<.t e e e 9 e 9 6.0.y.w.w.w.w.p.y.w.y.p.y.y.y.y.y.y.y.y.y.y.y.y.y.y.y.y.y.y.y.y.y.y.y.y.y.y.y.y.y.y.y.y.y.y.y.y.y.y.y.y.y.y.y.y.y.y.y.y.y.y.y.y.y.y.y.y.y.y.y.y.y.y.y.y.w.y.p.K 9 e e e t 9 A p.0.0.y.w.y.f.y.y.y.y.y.y.y.y.y.y.y.y.y.y.y.y.y.y.y.y.y.y.y.y.y.y.y.y.y.y.y.y.y.y.y.y.y.y.y.y.y.y.y.y.y.y.y.y.y.y.y.y.y.y.y.y.y.y.y.y.y.y.y.y.y.y.y.y.y.y.y.y.y.y.y.y.y.y.y.y.y.f.0.f.p.p.P 9 9 9 e e 5 B p.0.w.y.0.w.p.0.y.p.y.y.y.y.y.y.y.y.y.y.y.y.y.y.y.y.y.y.y.y.y.y.y.y.y.y.y.y.y.y.y.y.y.y.y.y.y.y.y.y.y.y.y.y.y.y.y.y.y.y.y.y.y.y.y.y.y.f.y.w.p.:.e e t e e e e 6.w.y.0.y.0.p.w.w.p.y.f.y.y.y.y.y.y.y.y.y.y.y.y.y.y.y.y.y.y.y.y.y.y.y.y.y.y.y.y.y.y.y.y.y.y.y.y.y.y.y.y.y.y.y.y.y.y.y.y.y.y.y.y.y.y.y.y.y.y.y.y.y.y.y.y.y.y.y.y.y.y.y.y.f.f.$.e e e d 9 9 h y.0.y.0.y.0.y.0.w.p.w.y.p.y.y.y.y.y.y.y.y.y.y.y.y.y.y.y.y.y.y.y.y.y.y.y.y.y.y.y.y.y.y.y.y.y.y.y.y.y.y.y.y.y.y.y.y.y.y.y.y.y.y.y.y.y.y.y.y.y.y.y.y.y.y.y.y.y.p.K 9 e t e 9 1 ^ f.6.w.0.y.y.0.y.y.y.y.y.y.y.y.y.y.y.y.y.y.y.y.y.y.y.y.y.y.y.y.y.y.y.y.y.y.y.y.y.y.y.y.y.y.y.y.y.y.y.y.y.y.y.y.y.y.y.y.y.y.y.y.y.y.y.y.y.y.y.y.y.y.y.y.y.y.y.y.y.y.y.y.y.y.y.y.p.y.p.y.y.p.B e 9 t 9 t 1 W y.w.0.y.0.y.y.0.p.y.y.y.y.y.y.y.y.y.y.y.y.y.y.y.y.y.y.y.y.y.y.y.y.y.y.y.y.y.y.y.y.y.y.y.y.y.y.y.y.y.",
"e 9 9 e e e 5 &.p.y.w.0.0.6.0.y.y.y.y.y.y.y.y.y.w.w.w.w.w.w.w.w.w.w.w.w.w.w.w.w.w.w.w.w.w.w.w.w.6.0.0.6.6.6.6.6.p.:.# d 1 9 e 9 t k.w.6.y.0.p.y.w.w.w.w.w.w.w.w.w.w.w.w.w.w.w.w.w.w.w.w.w.w.w.w.w.w.w.w.w.w.w.w.w.w.w.w.w.w.w.w.w.w.w.w.w.w.w.w.y.y.y.y.y.y.y.y.y.<.9 5 9 9 t t 9 6.0.y.0.0.w.w.y.w.w.y.p.y.y.y.w.w.w.w.w.w.w.w.w.w.w.w.w.w.w.w.w.w.w.w.w.w.w.w.w.w.w.w.w.w.w.w.w.w.w.w.w.w.w.w.w.w.w.w.w.w.w.w.w.w.w.w.w.w.w.w.w.w.w.w.w.0.w.y.W 9 e e t t 5 A f.w.0.w.0.0.w.p.w.w.w.w.w.w.w.w.w.w.w.w.w.w.w.w.w.w.w.w.w.w.w.w.w.w.w.w.w.w.w.w.w.w.w.w.w.w.w.w.w.w.w.w.w.w.w.w.w.w.w.w.w.w.w.w.w.w.w.w.w.w.w.w.w.w.w.w.w.w.w.w.w.w.w.w.w.w.w.w.w.6.y.y.f.P 1 9 9 e e 5 B p.0.w.y.0.0.0.w.w.y.w.w.w.w.w.w.w.w.w.w.w.w.w.w.w.w.w.w.w.w.w.w.w.w.w.w.w.w.w.w.w.w.w.w.w.w.w.w.w.w.w.w.w.w.w.w.w.w.w.w.w.w.w.w.w.w.w.w.w.0.p.:.5 e e e 9 e e 6.w.y.0.w.0.w.0.w.w.0.w.w.w.w.w.w.w.w.w.w.w.w.w.w.w.w.w.w.w.w.w.w.w.w.w.w.w.w.w.w.w.w.w.w.w.w.w.w.w.w.w.w.w.w.w.w.w.w.w.w.w.w.w.w.w.w.w.w.w.w.w.w.w.w.w.w.w.w.w.w.w.w.w.y.f...1 5 e t e 9 h y.0.y.0.y.0.0.w.p.y.w.w.w.0.w.w.w.w.w.w.w.w.w.w.w.w.w.w.w.w.w.w.w.w.w.w.w.w.w.w.w.w.w.w.w.w.w.w.w.w.w.w.w.w.w.w.w.w.w.w.w.w.w.w.w.w.w.w.w.w.w.w.w.w.w.w.w.w.f.A 1 9 e e e 5 ^ f.6.w.0.w.y.w.w.w.w.w.w.w.w.w.w.w.w.w.w.w.w.w.w.w.w.w.w.w.w.w.w.w.w.w.w.w.w.w.w.w.w.w.w.w.w.w.w.w.w.w.w.w.w.w.w.w.w.w.w.w.w.w.w.w.w.w.w.w.w.w.w.w.w.w.w.w.w.w.w.w.w.w.w.w.w.w.0.0.y.y.y.f.B 5 9 t 9 t 1 W y.w.0.y.0.0.w.w.y.0.w.w.w.w.w.w.w.w.w.w.w.w.w.w.w.w.w.w.w.w.w.w.w.w.w.w.w.w.w.w.w.w.w.w.w.w.w.w.w.w.",
"e 9 9 e e e 5 &.y.w.w.w.w.0.6.0.0.0.0.0.0.0.0.0.w.w.w.w.w.w.w.w.w.w.w.w.w.w.w.w.w.w.w.w.w.w.w.w.y.y.y.y.y.y.y.w.0.&.1 l t t e t h k.6.<.w.0.0.0.w.w.w.w.w.w.w.w.w.w.w.w.w.w.w.w.w.w.w.w.w.w.w.w.w.w.w.w.w.w.w.w.w.w.w.w.w.w.w.w.w.w.w.w.w.w.w.w.0.0.0.0.0.0.0.0.0.<.5 e t 9 t 9 9 6.0.y.0.0.w.w.0.0.0.0.0.0.0.w.w.w.w.w.w.w.w.w.w.w.w.w.w.w.w.w.w.w.w.w.w.w.w.w.w.w.w.w.w.w.w.w.w.w.w.w.w.w.w.w.w.w.w.w.w.w.w.w.w.w.w.w.w.w.w.w.w.w.w.w.w.0.w.y.W 9 9 e t t 5 A y.w.w.y.y.0.0.w.w.w.w.w.w.w.w.w.w.w.w.w.w.w.w.w.w.w.w.w.w.w.w.w.w.w.w.w.w.w.w.w.w.w.w.w.w.w.w.w.w.w.w.w.w.w.w.w.w.w.w.w.w.w.w.w.w.w.w.w.w.w.w.w.w.w.w.w.w.w.w.w.w.w.w.w.w.w.w.w.w.6.0.6.p.P 5 t 9 e e 5 B p.0.w.y.w.w.6.y.0.w.0.w.w.w.w.w.w.w.w.w.w.w.w.w.w.w.w.w.w.w.w.w.w.w.w.w.w.w.w.w.w.w.w.w.w.w.w.w.w.w.w.w.w.w.w.w.w.w.w.w.w.w.w.w.w.w.w.6.0.<.p.:.1 t e e e e e 6.w.y.0.w.0.0.0.0.0.6.6.w.w.w.w.w.w.w.w.w.w.w.w.w.w.w.w.w.w.w.w.w.w.w.w.w.w.w.w.w.w.w.w.w.w.w.w.w.w.w.w.w.w.w.w.w.w.w.w.w.w.w.w.w.w.w.w.w.w.w.w.w.w.w.w.w.w.w.w.w.w.w.w.<.y. .1 e e e e 9 h y.0.y.0.y.0.0.w.w.6.6.6.0.w.w.w.w.w.w.w.w.w.w.w.w.w.w.w.w.w.w.w.w.w.w.w.w.w.w.w.w.w.w.w.w.w.w.w.w.w.w.w.w.w.w.w.w.w.w.w.w.w.w.w.w.w.w.w.w.w.w.w.w.w.w.w.w.w.p.b 1 t e e e > ^ f.6.y.0.w.y.w.w.w.w.w.w.w.w.w.w.w.w.w.w.w.w.w.w.w.w.w.w.w.w.w.w.w.w.w.w.w.w.w.w.w.w.w.w.w.w.w.w.w.w.w.w.w.w.w.w.w.w.w.w.w.w.w.w.w.w.w.w.w.w.w.w.w.w.w.w.w.w.w.w.w.w.w.w.w.w.w.0.0.0.6.6.y.b 5 9 t 9 t 1 W y.w.y.y.w.0.0.0.0.6.w.w.w.w.w.w.w.w.w.w.w.w.w.w.w.w.w.w.w.w.w.w.w.w.w.w.w.w.w.w.w.w.w.w.w.w.w.w.w.w.",
"e 9 9 e e e 5 &.0.w.w.w.y.y.w.0.y.y.y.y.y.y.y.y.w.w.w.w.w.w.w.w.w.w.w.w.w.w.w.w.w.w.w.w.w.w.w.w.6.6.6.0.0.0.0.0.p.&.1 9 9 e 5 5 e y.y.y.y.w.6.y.w.w.w.w.w.w.w.w.w.w.w.w.w.w.w.w.w.w.w.w.w.w.w.w.w.w.w.w.w.w.w.w.w.w.w.w.w.w.w.w.w.w.w.w.w.w.w.w.y.y.y.y.y.y.y.y.w.0.e t d 9 t 5 9 6.0.y.0.0.w.0.w.w.w.w.w.w.y.y.w.w.w.w.w.w.w.w.w.w.w.w.w.w.w.w.w.w.w.w.w.w.w.w.w.w.w.w.w.w.w.w.w.w.w.w.w.w.w.w.w.w.w.w.w.w.w.w.w.w.w.w.w.w.w.w.w.0.0.w.w.0.w.y.W 9 9 e t e 5 A w.w.0.w.p.y.w.w.w.w.w.w.w.w.w.w.w.w.w.w.w.w.w.w.w.w.w.w.w.w.w.w.w.w.w.w.w.w.w.w.w.w.w.w.w.w.w.w.w.w.w.w.w.w.w.w.w.w.w.w.w.w.w.w.w.w.w.w.w.w.w.w.w.w.w.w.w.w.w.w.w.w.w.w.w.w.w.w.p.y.y.6.f.W 5 d 9 e e 5 B p.0.w.w.w.y.6.p.0.y.y.w.w.w.w.w.w.w.w.w.w.w.w.w.w.w.w.w.w.w.w.w.w.w.w.w.w.w.w.w.w.w.w.w.w.w.w.w.w.w.w.w.w.w.w.w.w.w.w.w.w.w.w.w.w.w.w.w.p.6.f.<.5 d e e e e e 6.w.y.0.w.y.w.w.w.w.y.w.w.w.w.w.w.w.w.w.w.w.w.w.w.w.w.w.w.w.w.w.w.w.w.w.w.w.w.w.w.w.w.w.w.w.w.w.w.w.w.w.w.w.w.w.w.w.w.w.w.w.w.w.w.w.w.w.w.w.w.w.w.w.w.w.w.w.w.w.w.w.w.w.0.f...9 d t e e 9 h y.0.y.0.y.0.y.y.0.0.w.w.y.p.w.w.w.w.w.w.w.w.w.w.w.w.w.w.w.w.w.w.w.w.w.w.w.w.w.w.w.w.w.w.w.w.w.w.w.w.w.w.w.w.w.w.w.w.w.w.w.w.w.w.w.w.w.w.w.w.w.w.w.w.w.w.w.w.p.B 9 d 9 9 t > ^ p.6.y.w.0.w.w.w.w.w.w.w.w.w.w.w.w.w.w.w.w.w.w.w.w.w.w.w.w.w.w.w.w.w.w.w.w.w.w.w.w.w.w.w.w.w.w.w.w.w.w.w.w.w.w.w.w.w.w.w.w.w.w.w.w.w.w.w.w.w.w.w.w.w.w.w.w.w.w.w.w.w.w.w.w.w.w.p.y.y.0.0.p.B 5 9 t 9 t 1 W y.w.w.w.y.y.y.y.w.y.w.w.w.w.w.w.w.w.w.w.w.w.w.w.w.w.w.w.w.w.w.w.w.w.w.w.w.w.w.w.w.w.w.w.w.w.w.w.w.w.",
"e 9 9 e e e 5 &.y.y.0.6.0.y.w.6.0.0.0.0.0.0.0.0.w.w.w.w.w.w.w.w.w.w.w.w.w.w.w.w.w.w.w.w.w.w.w.w.y.w.w.w.w.w.0.w.w.$.e 5 9 t 5 t d 0.0.w.y.y.<.y.w.w.w.w.w.w.w.w.w.w.w.w.w.w.w.w.w.w.w.w.w.w.w.w.w.w.w.w.w.w.w.w.w.w.w.w.w.w.w.w.w.w.w.w.w.w.w.w.0.0.0.0.0.0.0.0.w.0.9 e t 5 d e 9 6.0.y.0.0.w.0.w.w.w.0.0.w.w.w.w.w.w.w.w.w.w.w.w.w.w.w.w.w.w.w.w.w.w.w.w.w.w.w.w.w.w.w.w.w.w.w.w.w.w.w.w.w.w.w.w.w.w.w.w.w.w.w.w.w.w.w.w.w.w.w.w.w.w.w.w.0.w.y.P 9 e e t e 5 A p.y.6.<.w.w.0.0.w.w.w.w.w.w.w.w.w.w.w.w.w.w.w.w.w.w.w.w.w.w.w.w.w.w.w.w.w.w.w.w.w.w.w.w.w.w.w.w.w.w.w.w.w.w.w.w.w.w.w.w.w.w.w.w.w.w.w.w.w.w.w.w.w.w.w.w.w.w.w.w.w.w.w.w.w.w.w.w.w.w.w.6.f.W 1 9 9 e e 5 B p.0.w.6.0.y.<.y.6.w.y.w.w.w.w.w.w.w.w.w.w.w.w.w.w.w.w.w.w.w.w.w.w.w.w.w.w.w.w.w.w.w.w.w.w.w.w.w.w.w.w.w.w.w.w.w.w.w.w.w.w.w.w.w.w.w.w.0.y.<.y.:.1 t 5 e e e e 6.w.y.0.6.w.0.0.0.0.w.0.w.w.w.w.w.w.w.w.w.w.w.w.w.w.w.w.w.w.w.w.w.w.w.w.w.w.w.w.w.w.w.w.w.w.w.w.w.w.w.w.w.w.w.w.w.w.w.w.w.w.w.w.w.w.w.w.w.w.w.w.w.w.w.w.w.w.w.w.w.w.w.w.0.f. .1 t e 9 t 9 h y.0.y.0.y.0.w.w.0.0.y.w.6.0.w.w.w.w.w.w.w.w.w.w.w.w.w.w.w.w.w.w.w.w.w.w.w.w.w.w.w.w.w.w.w.w.w.w.w.w.w.w.w.w.w.w.w.w.w.w.w.w.w.w.w.w.w.w.w.w.w.w.w.w.w.w.w.w.y.b 5 e 1 9 d 5 ^ p.6.y.w.0.w.w.w.w.w.w.w.w.w.w.w.w.w.w.w.w.w.w.w.w.w.w.w.w.w.w.w.w.w.w.w.w.w.w.w.w.w.w.w.w.w.w.w.w.w.w.w.w.w.w.w.w.w.w.w.w.w.w.w.w.w.w.w.w.w.w.w.w.w.w.w.w.w.w.w.w.w.w.w.w.w.w.6.w.y.0.0.p.B 5 9 t 9 t 1 W y.w.w.6.w.w.w.w.0.w.w.w.w.w.w.w.w.w.w.w.w.w.w.w.w.w.w.w.w.w.w.w.w.w.w.w.w.w.w.w.w.w.w.w.w.w.w.w.w.w.",
"e 5 e 9 h e 1 0.y.y.y.y.y.y.y.y.y.y.y.y.y.y.y.y.y.y.y.y.y.y.y.y.y.y.y.y.y.y.y.y.y.y.y.y.y.y.y.y.y.y.y.y.y.y.y.y.v.$.5 9 t 1 d e 9 f.p.0.f.y.k.p.y.y.y.y.y.y.y.y.y.y.y.y.y.y.y.y.y.y.y.y.y.y.y.y.y.y.y.y.y.y.y.y.y.y.y.y.y.y.y.y.y.y.y.y.y.y.y.y.y.y.y.y.y.y.y.y.p.6.9 9 5 9 d 9 5 0.v.6.f.k.w.p.y.y.y.y.y.y.y.y.y.y.y.y.y.y.y.y.y.y.y.y.y.y.y.y.y.y.y.y.y.y.y.y.y.y.y.y.y.y.y.y.y.y.y.y.y.y.y.y.y.y.y.y.y.y.y.y.y.y.y.y.y.y.y.y.y.y.y.y.y.p.p.p.^ 5 9 t t e > D p.p.p.p.p.p.p.p.y.y.y.y.y.y.y.y.y.y.y.y.y.y.y.y.y.y.y.y.y.y.y.y.y.y.y.y.y.y.y.y.y.y.y.y.y.y.y.y.y.y.y.y.y.y.y.y.y.y.y.y.y.y.y.y.y.y.y.y.y.y.y.y.y.y.y.y.y.y.y.y.y.y.y.y.y.y.y.y.w.f.0.y.k.W = 9 e 9 d > B f.y.6.y.y.y.y.y.y.y.y.y.y.y.y.y.y.y.y.y.y.y.y.y.y.y.y.y.y.y.y.y.y.y.y.y.y.y.y.y.y.y.y.y.y.y.y.y.y.y.y.y.y.y.y.y.y.y.y.y.y.y.y.y.y.y.y.y.w.w.k.6.5 e t e e 9 5 y.y.y.y.y.y.y.y.y.y.y.y.y.y.y.y.y.y.y.y.y.y.y.y.y.y.y.y.y.y.y.y.y.y.y.y.y.y.y.y.y.y.y.y.y.y.y.y.y.y.y.y.y.y.y.y.y.y.y.y.y.y.y.y.y.y.y.y.y.y.y.y.y.y.y.y.y.y.y.y.y.y.y.y.w.A...> 5 d e t 9 h y.y.f.p.0.p.y.y.y.y.y.y.y.y.y.y.y.y.y.y.y.y.y.y.y.y.y.y.y.y.y.y.y.y.y.y.y.y.y.y.y.y.y.y.y.y.y.y.y.y.y.y.y.y.y.y.y.y.y.y.y.y.y.y.y.y.y.y.y.y.y.y.y.y.y.y.y.y.A.l > h t e d 1 ^ p.k.w.p.y.0.p.y.y.y.y.y.y.y.y.y.y.y.y.y.y.y.y.y.y.y.y.y.y.y.y.y.y.y.y.y.y.y.y.y.y.y.y.y.y.y.y.y.y.y.y.y.y.y.y.y.y.y.y.y.y.y.y.y.y.y.y.y.y.y.y.y.y.y.y.y.y.y.y.y.y.y.y.y.y.y.y.y.0.k.w.p.f.B = t 5 t 9 > ( m.p.y.y.y.y.y.y.y.y.y.y.y.y.y.y.y.y.y.y.y.y.y.y.y.y.y.y.y.y.y.y.y.y.y.y.y.y.y.y.y.y.y.y.y.y.y.y.y.y.",
"e 9 t 5 d t > ^ $.$.$.$.$.$.$.$.$.$.$.$.$.$.$.$.$.$.$.$.$.$.$.$.$.$.$.$.$.$.$.$.$.$.$.$.$.$.$.$.$.$.$.$.$.$.$.$.$.^ e d h 1 t 5 h <.....:. .&.$.$.$.$.$.$.$.$.$.$.$.$.$.$.$.$.$.$.$.$.$.$.$.$.$.$.$.$.$.$.$.$.$.$.$.$.$.$.$.$.$.$.$.$.$.$.$.$.$.$.$.$.$.$.$.$.$. ...t d e 9 e 5 d ..:. .&.&. .$.$.$.$.$.$.$.$.$.$.$.$.$.$.$.$.$.$.$.$.$.$.$.$.$.$.$.$.$.$.$.$.$.$.$.$.$.$.$.$.$.$.$.$.$.$.$.$.$.$.$.$.$.$.$.$.$.$.$.$.$.$.$.$.$.$.$.$.$.$.&.&.&.A 5 e 9 e t 1 l &.&.&.&.&.&.&.&.$.$.$.$.$.$.$.$.$.$.$.$.$.$.$.$.$.$.$.$.$.$.$.$.$.$.$.$.$.$.$.$.$.$.$.$.$.$.$.$.$.$.$.$.$.$.$.$.$.$.$.$.$.$.$.$.$.$.$.$.$.$.$.$.$.$.$.$.$.$.$.$.$.$.$.$.$.$.$.$.:.:. . .&.K e h e 9 h e B :.$.&.$.$.$.$.$.$.$.$.$.$.$.$.$.$.$.$.$.$.$.$.$.$.$.$.$.$.$.$.$.$.$.$.$.$.$.$.$.$.$.$.$.$.$.$.$.$.$.$.$.$.$.$.$.$.$.$.$.$.$.$.$.$.$.$.&.:.$.&. .9 d e e t e e $.$.&.:.$.$.$.$.$.$.$.$.$.$.$.$.$.$.$.$.$.$.$.$.$.$.$.$.$.$.$.$.$.$.$.$.$.$.$.$.$.$.$.$.$.$.$.$.$.$.$.$.$.$.$.$.$.$.$.$.$.$.$.$.$.$.$.$.$.$.$.$.$.$.$.$.$.$.$.$.$.$.$.$...6.^ t d d 5 9 h d $. .$.:.$.<.$.$.$.$.$.$.$.$.$.$.$.$.$.$.$.$.$.$.$.$.$.$.$.$.$.$.$.$.$.$.$.$.$.$.$.$.$.$.$.$.$.$.$.$.$.$.$.$.$.$.$.$.$.$.$.$.$.$.$.$.$.$.$.$.$.$.$.$.$.$.$.$...t 5 t 9 e d 5 P &.&. .&.&...&.$.$.$.$.$.$.$.$.$.$.$.$.$.$.$.$.$.$.$.$.$.$.$.$.$.$.$.$.$.$.$.$.$.$.$.$.$.$.$.$.$.$.$.$.$.$.$.$.$.$.$.$.$.$.$.$.$.$.$.$.$.$.$.$.$.$.$.$.$.$.$.$.$.$.$.$.$.$.$.$.&. .:. ...:.A d 9 5 d t 5 D &.' $.$.$.$.$.$.$.$.$.$.$.$.$.$.$.$.$.$.$.$.$.$.$.$.$.$.$.$.$.$.$.$.$.$.$.$.$.$.$.$.$.$.$.$.$.$.$.$.",
"e 9 d 5 e d > t 5 5 5 5 5 5 5 5 5 5 5 5 5 5 5 5 5 5 5 5 5 5 5 5 5 5 5 5 5 5 5 5 5 5 5 5 5 5 5 5 5 5 5 5 5 5 5 5 5 e > e t 5 d 9 = t > 5 e > 9 5 5 5 5 5 5 5 5 5 5 5 5 5 5 5 5 5 5 5 5 5 5 5 5 5 5 5 5 5 5 5 5 5 5 5 5 5 5 5 5 5 5 5 5 5 5 5 5 5 5 5 5 5 5 5 5 5 1 d > e e 9 t t > 5 5 1 9 5 1 9 5 5 5 5 5 5 5 5 5 5 5 5 5 5 5 5 5 5 5 5 5 5 5 5 5 5 5 5 5 5 5 5 5 5 5 5 5 5 5 5 5 5 5 5 5 5 5 5 5 5 5 5 5 5 5 5 5 5 5 5 5 5 5 5 5 5 1 5 5 5 9 9 d 5 t 5 9 d 5 e 5 5 5 5 5 5 5 5 5 5 5 5 5 5 5 5 5 5 5 5 5 5 5 5 5 5 5 5 5 5 5 5 5 5 5 5 5 5 5 5 5 5 5 5 5 5 5 5 5 5 5 5 5 5 5 5 5 5 5 5 5 5 5 5 5 5 5 5 5 5 5 5 5 5 5 5 5 5 5 5 5 5 5 5 5 5 5 5 > > = > 9 5 1 e t 5 t 1 1 9 = 5 5 5 5 5 5 5 5 5 5 5 5 5 5 5 5 5 5 5 5 5 5 5 5 5 5 5 5 5 5 5 5 5 5 5 5 5 5 5 1 5 5 5 5 5 5 5 5 5 5 5 5 5 5 5 5 5 5 5 5 5 5 5 5 5 > 9 1 5 t 1 d 9 9 e 5 1 9 5 1 5 5 5 5 5 5 5 5 5 5 5 5 5 5 5 5 5 5 5 5 5 5 5 5 5 5 5 5 5 5 5 5 5 5 5 5 5 5 5 5 5 5 5 5 5 5 5 5 5 5 5 5 5 5 5 5 5 5 5 5 5 5 5 5 5 5 5 5 5 5 5 5 5 5 5 5 5 5 5 5 5 1 9 5 9 t t 9 t e = t 1 1 5 > > 5 5 5 5 5 5 5 5 5 5 5 5 5 5 5 5 5 5 5 5 5 5 5 5 5 5 5 5 5 5 5 5 5 5 5 5 5 5 5 5 5 5 5 5 5 5 5 5 5 5 5 5 5 5 5 5 5 5 5 5 5 5 5 5 5 5 5 5 5 5 5 5 d e e t 5 9 t 9 > e 1 = 9 9 1 9 5 5 5 5 5 5 5 5 5 5 5 5 5 5 5 5 5 5 5 5 5 5 5 5 5 5 5 5 5 5 5 5 5 5 5 5 5 5 5 5 5 5 5 5 5 5 5 5 5 5 5 5 5 5 5 5 5 5 5 5 5 5 5 5 5 5 5 5 5 5 5 5 5 5 5 5 5 5 5 5 e 1 e 1 1 e = 1 e e d e > 5 9 1 5 5 5 5 5 5 5 5 5 5 5 5 5 5 5 5 5 5 5 5 5 5 5 5 5 5 5 5 5 5 5 5 1 5 5 5 5 5 5 5 5 5 5 5 5 5 5 5 ",
"e 5 t 9 9 d 9 5 e e e e e e e e e e e e e e e e e e e e e e e e e e e e e e e e e e e e e e e e e e e e e e e e 9 d e t e 5 t 9 d t 5 t t 9 d t e e e e e e e e e e e e e e e e e e e e e e e e e e e e e e e e e e e e e e e e e e e e e e e e e e e e e e e e 5 h 9 t t 5 e t d e 9 e e e t t e e e e e e e e e e e e e e e e e e e e e e e e e e e e e e e e e e e e e e e e e e e e e e e e e e e e e e e e e e e e e e e e e e e e e e e e e 5 t 5 9 d 9 9 e e e e e e e e e e e e e e e e e e e e e e e e e e e e e e e e e e e e e e e e e e e e e e e e e e e e e e e e e e e e e e e e e e e e e e e e e e e e e e e e e e e e e e e e t t d t e t t e d e h d t t 5 d e e e e e e e e e e e e e e e e e e e e e e e e e e e e e e e e e e e e e e e e e e e e e e e e e e e e e e e e e e e e e e e e 9 d 9 9 e e h e t d t h 5 e e t e e e e e e e e e e e e e e e e e e e e e e e e e e e e e e e e e e e e e e e e e e e e e e e e e e e e e e e e e e e e e e e e e e e e e e e e e e e e e e e e e 5 9 t e e e e d 5 d e t h e e e e e e e e e e e e e e e e e e e e e e e e e e e e e e e e e e e e e e e e e e e e e e e e e e e e e e e e e e e e e e e e e e e e e e e e e e 1 e d e e e e e t t 9 5 t e 9 t e e e e e e e e e e e e e e e e e e e e e e e e e e e e e e e e e e e e e e e e e e e e e e e e e e e e e e e e e e e e e e e e e e e e e e e e e e e e e e e e t 9 d t e d 9 h e e e e e 9 e t e e e e e e e e e e e e e e e e e e e e e e e e e e e e e e e e e e e e e e e e e e e e e e e e ",
"t 1 e e 9 e e e e e e e e e e e e e e e e e e e e e e e e e e e e e e e e e e e e e e e e e e e e e e e e e e e e d t e e 9 t 9 e e 9 t 9 e d 9 e e e e e e e e e e e e e e e e e e e e e e e e e e e e e e e e e e e e e e e e e e e e e e e e e e e e e e e e t h t e t 9 e e e 9 e e 5 e t 9 e e e e e e e e e e e e e e e e e e e e e e e e e e e e e e e e e e e e e e e e e e e e e e e e e e e e e e e e e e e e e e e e e e e e e e e e e 5 e e e e 9 e e e e e e e e e e e e e e e e e e e e e e e e e e e e e e e e e e e e e e e e e e e e e e e e e e e e e e e e e e e e e e e e e e e e e e e e e e e e e e e e e e e e e e e e e e e d t 5 9 e 1 1 1 e 9 9 t t d e e e e e e e e e e e e e e e e e e e e e e e e e e e e e e e e e e e e e e e e e e e e e e e e e e e e e e e e e e e e e e e e e t 9 t 9 1 1 1 1 5 5 d > t t d e e e e e e e e e e e e e e e e e e e e e e e e e e e e e e e e e e e e e e e e e e e e e e e e e e e e e e e e e e e e e e e e e e e e e e e e e e e e e e e e l d h d 9 e e 5 9 1 e t 9 d e e e e e e e e e e e e e e e e e e e e e e e e e e e e e e e e e e e e e e e e e e e e e e e e e e e e e e e e e e e e e e e e e e e e e e e e e e 9 t e e d e 9 t t e e e t e e d e e e e e e e e e e e e e e e e e e e e e e e e e e e e e e e e e e e e e e e e e e e e e e e e e e e e e e e e e e e e e e e e e e e e e e e e e e e e e e e e e 9 e t e e 9 t e e 9 e d e e l e e e e e e e e e e e e e e e e e e e e e e e e e e e e e e e e e e e e e e e e e e e e e e e e ",
"d 9 e t 9 5 e d e e e e e e e e e e e e e e e e e e e e e e e e e e e e e e e e e e e e e e e e e e e e e e e e > 1 5 5 e e e 9 5 e t t 9 e t 5 e e e e e e e e e e e e e e e e e e e e e e e e e e e e e e e e e e e e e e e e e e e e e e e e e e e e e e e e 1 5 9 1 d e e e 5 9 t e 5 e e 1 e e e e e e e e e e e e e e e e e e e e e e e e e e e e e e e e e e e e e e e e e e e e e e e e e e e e e e e e e e e e e e e e e e 9 9 9 e e e t 9 9 e t 9 9 d e e e e e e e e e e e e e e e e e e e e e e e e e e e e e e e e e e e e e e e e e e e e e e e e e e 9 e e e e e e e e e e e e e e e e e e e e e e e e e e e e e e e e e e e e e 5 5 9 9 5 e d e d h d 9 9 e e 5 e e e e e e e e e e e e e e e e e e e e e e e e e e e e e e e e e e e e e e e e e e e e e e e e e e e e e e e e e e e e e e e e 5 9 9 h t t e h h d e h 5 t 9 9 e e e e e e e e e e e e e e e e e e e e e e e e e e e e e e e e e e e e e e e e e e e e e e e e e e e e e e e e e e e e e e e e e e e e e e e e e e e e e e e e > 5 9 9 5 t t 5 t t e t 1 9 9 9 e e e e e e e e e e e e e e e e e e e e e e e e e e e e e e e e e e e e e e e e e e e e e e e e e e e e e e e e e e e e e e e e e e e e e e e e t e 1 9 d e 9 d e 9 e t e e e t e e e e e e e e e e e e e e e e e e e e e e e e e e e e e e e e e e e e e e e e e e e e e e e e e e e e e e e e e e e e e e e e e e e e e e e e e e e e e e e e t e 9 9 e e e e e e 9 9 e 5 > 5 e e e e e e e e e e e e e e e e e e e e e e e e e e e e e e e e e e e e e e e e e e e e e e e e ",
"t t e t e 9 e t e e e e e e e e e e e e e e e e e e e e e e e e e e e e e e e e e e e e e e e e e e e e e e e e d t d t t e 5 5 9 e t e e t e e e e e e e e e e e e e e e e e e e e e e e e e e e e e e e e e e e e e e e e e e e e e e e e e e e e e e e e e e d d h 9 h e 9 9 9 t t e e e e 9 e e e e e e e e e e e e e e e e e e e e e e e e e e e e e e e e e e e e e e e e e e e e e e e e e e e e e e e e e e e e e e e e e e e 9 9 e e e e e 9 e e 9 e e e e e e e e e e e e e e e e e e e e e e e e e e e e e e e e e e e e e e e e e e e e e e e e e e e e e e e e e e e e e e e e e e e e e e e e e e e e e e e e e e e e e e e e e e d d t 9 9 9 9 9 9 e 5 5 9 9 e 9 e e e e e e e e e e e e e e e e e e e e e e e e e e e e e e e e e e e e e e e e e e e e e e e e e e e e e e e e e e e e e e e e 9 e 9 d 9 t 1 e 9 9 5 e 9 t 9 9 e e e e e e e e e e e e e e e e e e e e e e e e e e e e e e e e e e e e e e e e e e e e e e e e e e e e e e e e e e e e e e e e e e e e e e e e e e e e e e e e 9 t t e e e e 9 9 9 5 d 1 t d d e e e e e e e e e e e e e e e e e e e e e e e e e e e e e e e e e e e e e e e e e e e e e e e e e e e e e e e e e e e e e e e e e e e e e e e e t 9 5 9 e e e e e 9 e e 9 e t 9 e e e e e e e e e e e e e e e e e e e e e e e e e e e e e e e e e e e e e e e e e e e e e e e e e e e e e e e e e e e e e e e e e e e e e e e e e e e e e e e e t t e e e e t t 9 9 e t d d t t e e e e e e e e e e e e e e e e e e e e e e e e e e e e e e e e e e e e e e e e e e e e e e e e ",
"5 d e e t e e 9 9 9 9 9 9 9 9 9 e e e e e e e e e e e e e e e e e e e e e e e e 9 9 9 9 9 9 9 9 e e e e e e e e e 5 9 9 9 9 9 t e 9 9 5 e e 5 t e e e e e e e e e e e e e e e e e e e e e e e e e e e e e e e e 9 9 9 9 9 9 9 9 e e e e e e e e e e e e e e e e 9 5 e > t e e d e e 9 9 t 9 5 e e e e e e e e e e e e e e e e e e e e e e e e e e e e e e e e e e e e e e e e e 9 9 9 9 9 9 9 9 e e e e e e e e e e e e e e e e e e e e 9 e e e 9 t e 9 9 9 e 5 9 9 9 9 9 9 9 9 e e e e e e e e e e e e e e e e e e e e e e e e e e e e e e e e e e e e e e e e e e e e e e e e 9 9 9 9 9 9 9 9 e e e e e e e e e e e e e e e e e e e e e e e e 9 9 9 9 t e 9 e e e 9 t t 9 e e e e e e e e e e e e e e e e e e e e e e e e e e e e e e e e e e e e e e e e e e 9 9 9 9 9 9 9 9 e e e e e e e e e e e e e e e e e t 9 e 1 h 9 e 9 e 9 9 t e 9 e e e e e e e e e e e e e e e e e e e e e e e e e e e e e e e e e e e e e e e e e e e e e e e e e e e e e e e e e 9 9 9 9 9 9 9 9 e e e e e e e e e e e e e e e e e e 9 9 e 9 9 t e e 5 d 1 9 5 1 e e e e e e e e e e e e e e e e e e e e e e e e e e e e e e e e e e e e e e e e 9 9 9 9 9 9 9 9 e e e e e e e e e e e e e e e e e e e e e e e e 9 e t e 5 9 e 5 t e e 9 9 t t 1 e e e e e e e e e e e e e e e e e e e e e e e e e e e e e e e e e e e e e e e e e e e e e e e e 9 9 9 9 9 9 9 9 9 9 9 9 9 9 9 9 e e e e e e e e e e e e e e e e 5 t e e 9 9 e 5 t 9 e e 9 9 e 5 e e e e e e e e e e e e e e e e e e e e e e e e e e e e e e e e e e e e e e e e 9 9 9 9 9 9 9 9 ",
"5 t e 1 5 d # l t t t e 5 h 9 e e e e e e e e e t e e t d > e t 9 t d = b 9 t d l 9 b 9 t d e d e e e e e e e e e e e e e e e e e e e e e e e e e e e e e e e e e e e e e e e e e 9 e 9 t d 5 e t 1 e h > b 9 e d t 9 b 5 9 t e e e e e e e e e e e e e e e e e e e e e e e e e e e e e e e e e e e e e e e e e e e e e e e e e e e e e e e e e t e t e l 5 9 t 9 e b > t h e l t e h h 1 d t e e e e e e e e e e e e e e e e e e e e e e e e e e e e e e e e e e e e e e e e e e e e e e e e e e e e e e e e e e e e e e e e e e e e e e e e e e e e e e e e e 9 d 5 5 t e t e 5 d e 9 h h e t h > d e e 9 t t e e e e e e e e e e e e e e e e e e e e e e e e e e e e e e e e e e e e e e e e e e e e e e e e e e e e e e e e e e e e e t t t d 1 e t e t 9 e h d t d t 5 B e 9 e t t e e e t e e e e e e e e e e e e e e e e e e e e e e e e e e e e e e e e e e e e e e e e e e e e e e e e e e e e e e e e e e e e e e e e e t t e e d t 5 t e t e 5 > B 1 t h t e h 1 t e e e e e e e e e e e e e e e e e e e e e e e e e e e e e e e e e e e e e e e e e e e e e e e e e e e e e e e e e e 9 e 9 t d 5 t t 9 9 h > l e e t t 9 l 5 9 d e e e e e e e e e e e e e e e e e e e e e e e e e e e e e e e e e e e e e e e e e e e e e e e e e e e e e e e e e e e e e e e e e e e e e e e e e e e e e e e e e 9 9 h 1 e 9 9 e h = b d e t t t d 9 e t e e e e e e e e e e e e e e e e e e e e e e e e e e e e e e e e e e e e e e e e e e e e e e e e e e e e e e e e e e e e e e e e e e e e t d 9 t e 5 e e 1 B 5 d d 9 9 d ",
"e 9 9 9 e h 9 ..p.p.y.y.6.y.' P D D D D D D D D D A B B B 1 e 9 9 9 e e 6.0.y.w.w.<.w.W D A l B D D D D D D D D D D D D D D D D D D D D D D D D D D D D D D D D D D D D D D D D P D K A A B e t e 5 9 t 9 6.w.f.f.p.0.y.^ D K D D D D D D D D D D D D D D D D D D D D D D D D D D D D D D D D D D D D D D D D D D D D D D D D D D D D D D D D D P D K A K t e t 9 1 t 9 ' y.0.y.y.0.w.:.A K A B D D D D D D D D D D D D D D D D D D D D D D D D D D D D D D D D D D D D D D D D D D D D D D D D D D D D D D D D D D D D D D D D D D D D D D D D D D D D D D D D B D d e t 9 e 5 e  .y.p.f.w.0.p...A W D K D P D D D D D D D D D D D D D D D D D D D D D D D D D D D D D D D D D D D D D D D D D D D D D D D D D D D D D D D D D D D D D D D D D l 9 t e 9 e 9 e w.w.w.y.p.<.p.' A A D D D D D D D D D D D D D D D D D D D D D D D D D D D D D D D D D D D D D D D D D D D D D D D D D D D D D D D D D D D D D D D D D D D D D D A D D A D D b d e 9 9 9 e B f.y.w.y.w.0.0.^ W K D D D D D D D D D D D D D D D D D D D D D D D D D D D D D D D D D D D D D D D D D D D D D D D D D D D D D D D D K D K A A B e t 9 9 5 e 5 :.y.p.p.f.w.p.( K P D D D D D D D D D D D D D D D D D D D D D D D D D D D D D D D D D D D D D D D D D D D D D D D D D D D D D D D D D D D D D D D D D D D D D D D D D D D D D D D D D A A D e t e 9 e t 9 :.y.p.p.p.y.0.' P D A D K D D D D D D D D D D D D D D D D D D D D D D D D D D D D D D D D D D D D D D D D D D D D D D D D D D D D D D D D D D D D D D D D D B l 9 e t 9 e 9 A y.<.w.y.y.y.y.",
"t 9 9 t e e 9 6.w.w.0.y.0.y.W l D D D D D D D D K D D K D 9 t 9 d e 9 9 0.y.y.6.0.6.p.W A D D P A A A A A A A A A A A A A A A A A A A A A A A A A A A A A A A A A A A A A A A A D A D A A b 5 5 e t t 5 1 w.y.0.<.6.<.w.P b A D A A A A A A A A A A A A A A A A A A A A A A A A A A A A A A A A A A A A A A A A A A A A A A A A A A A A A A A A D A K A K e 5 9 h 9 e 1  .f.w.0.6.6.w.$.l A A K A A A A A A A A A A A A A A A A A A A A A A A A A A A A A A A A A A A A A A A A A A A A A A A A A A A A A A A A A A A A A A A A A A A A A A A A D D D D D D D D K K d e e 9 e 9 . ( p.y.0.<.6.f.:.A K B D D K A A A A A A A A A A A A A A A A A A A A A A A A A A A A A A A A A A A A A A A A A A A A A A A A A A A A A A A A A D A A A A D D D A e t e 9 e 9 t 0.w.0.w.p.6.w.D A A D D A A A D A A A A A A A A A A A A A A A A A A A A A A A A A A A A A A A A A A A A A A A A A A A A A A A A A A A A A A A A A A A A A A A A A D D A D A h 5 e e e 9 1 d w.w.0.0.0.0.0.D b l A A A A A A A A A A A A A A A A A A A A A A A A A A A A A A A A A A A A A A A A A A A A A A A A A A A A A A A A A A D B A B 9 9 9 d e 5 > <.y.0.:.6.6.y.W B D A A A A A A A A A A A A A A A A A A A A A A A A A A A A A A A A A A A A A A A A A A A A A A A A A A A A A A A A A A A A A A A A A A A A A A A A A D D D D D D D D K D K 9 t e 9 t 9 5 :.w.0.<.<.<.f. .D B A D K D A A A A A A A A A A A A A A A A A A A A A A A A A A A A A A A A A A A A A A A A A A A A A A A A A A A A A A A A A A A A A A A A P B 9 9 t e t 5 t w.w.0.6.w.w.6.",
"e 9 e d e 5 > &.y.w.0.w.w.k. .D D D D D D D D D A B A D D 9 t e e 9 e 9 <.0.w.6.6.0.f.P b A A D A A A A A A A A A A A A A A A A A A A A A A A A A A A A A A A A A A A A A A A A B B D A D B 9 e 5 e t e 9 y.w.:.w.p.y.f.^ A K K A A A A A A A A A A A A A A A A A A A A A A A A A A A A A A A A A A A A A A A A A A A A A A A A A A A A A A A A A B D A P t 9 e t 9 t 1 ( y.0.w.y.y.p.:.b D D P A A A A A A A A A A A A A A A A A A A A A A A A A A A A A A A A A A A A A A A A A A A A A A A A A A A A A A A A A A A A A A A A A A A A A A A A D D D D D D D D A D t 9 e 9 t e 9 $.p.0.6.w.y.f.&.B A b A A K A A A A A A A A A A A A A A A A A A A A A A A A A A A A A A A A A A A A A A A A A A A A A A A A A A A A A A A A A A A A A A D D D D e t e 9 e 9 t w.y.w.0.y.w.f.P B A D D A A A D A A A A A A A A A A A A A A A A A A A A A A A A A A A A A A A A A A A A A A A A A A A A A A A A A A A A A A A A A A A A A A A A A A A A K K l 5 9 e t t 9 h 0.6.y.w.w.y.y.P K P A A A A A A A A A A A A A A A A A A A A A A A A A A A A A A A A A A A A A A A A A A A A A A A A A A A A A A A A B B D A D A e e 1 d d t 5 6.w.<.0.p.p.k.( A K D A A A A A A A A A A A A A A A A A A A A A A A A A A A A A A A A A A A A A A A A A A A A A A A A A A A A A A A A A A A A A A A A A A A A A A A A D D D D D D D D A A A 5 e e e t d t 6.y.0.0.y.p.w.^ b B D D D B A A A A A A A A A A A A A A A A A A A A A A A A A A A A A A A A A A A A A A A A A A A A A A A A A A A A A A A A A A A A A A A A K b 5 9 t e t 5 l k.p.w.6.y.y.0.",
"9 9 e d t t 5 &.y.w.0.6.<.y.( A D D D D D D D D D A A D D 5 t e 9 9 e t 0.y.f.p.w.y.k.P B K A A D D D D D D D D D D D D D D D D D D D D D D D D D D D D D D D D D D D D D D D D K D K D K B e t t 9 9 9 e y.p.y.w.y.0.y.W B A B D D D D D D D D D D D D D D D D D D D D D D D D D D D D D D D D D D D D D D D D D D D D D D D D D D D D D D D D K A K A K t 9 e 5 5 d 5 ' p.y.p.w.w.w.$.l A B b D D D D D D D D D D D D D D D D D D D D D D D D D D D D D D D D D D D D D D D D D D D D D D D D D D D D D D D D D D D D D D D D D D D D D D D D D D D D D D D D A D t 9 e 5 e 9 1  .w.6.w.p.w.0.&.A K D K D P K D D D D D D D D D D D D D D D D D D D D D D D D D D D D D D D D D D D D D D D D D D D D D D D D D D D D D D D D D D D D D D K K A 9 e t e e 9 t <.w.0.<.0.6.p.P A D D D D D D D D D D D D D D D D D D D D D D D D D D D D D D D D D D D D D D D D D D D D D D D D D D D D D D D D D D D D D D D D D D D D D D D K D A A K P B e e e e 9 e b f.f.w.0.6.0.0.A B D D D D D D D D D D D D D D D D D D D D D D D D D D D D D D D D D D D D D D D D D D D D D D D D D D D D D D D D D K D K D K D t t 9 t e e 5 6.p.p.w.y.0.p.W B B B D D D D D D D D D D D D D D D D D D D D D D D D D D D D D D D D D D D D D D D D D D D D D D D D D D D D D D D D D D D D D D D D D D D D D D D D D D D D D D D D D D K 9 e e 9 e 1 > &.w.w.w.w.w.y.' D K K K D B D D D D D D D D D D D D D D D D D D D D D D D D D D D D D D D D D D D D D D D D D D D D D D D D D D D D D D D D D D D D D D D D A l 5 9 e 9 t 9 l y.0.0.6.0.w.w.",
"e e e 9 5 t 9 $.y.p.y.w.0.p.( B A A A A A A A A D A A A A 9 t e d e 9 9 6.w.w.<.<.<.y.K B K D A A A A A A A A A A A A A A A A A A A A A A A A A A A A A A A A A A A A A A A A A A B A B A b 5 e h e 9 e 9 6.6.6.6.0.<.y.^ D K D A A A A A A A A A A A A A A A A A A A A A A A A A A A A A A A A A A A A A A A A A A A A A A A A A A A A A A A A D B A B D e 9 e t 9 t 1 ' p.6.:.0.w.y.&.A W P K A A A A A A A A A A A A A A A A A A A A A A A A A A A A A A A A A A A A A A A A A A A A A A A A A A A A A A A A A A A A A A A A A A A A A A A A A A A A A A A A D K d e t e t e 1  .p.w.w.y.w.p.$.B K A D B A A A A A A A A A A A A A A A A A A A A A A A A A A A A A A A A A A A A A A A A A A A A A A A A A A A A A A A A A A A A A A A A A A B 5 9 t e e 9 t 6.y.y.w.y.6.p.K B A A A A A A A A A A A A A A A A A A A A A A A A A A A A A A A A A A A A A A A A A A A A A A A A A A A A A A A A A A A A A A A A A A A A A A A D D B B A D l 5 t e 9 5 5 h 0.6.w.w.w.y.w.D B A A A A A A A A A A A A A A A A A A A A A A A A A A A A A A A A A A A A A A A A A A A A A A A A A A A A A A A A A D A A b A B 9 9 t t 9 e 1 $.6.0.0.0.6.y.( D K K A A A A A A A A A A A A A A A A A A A A A A A A A A A A A A A A A A A A A A A A A A A A A A A A A A A A A A A A A A A A A A A A A A A A A A A A A A A A A A A A A D K 9 t t e e t e :.y.y.w.0.<.y.( A A A A A A A A A A A A A A A A A A A A A A A A A A A A A A A A A A A A A A A A A A A A A A A A A A A A A A A A A A A A A A A A A A A A A A D b e e t 9 e 5 b y.0.p.y.w.0.w.",
"t t e 9 5 9 1 $.w.w.w.w.w.k.' B D D D D D D D D A B B A A 9 t t t 9 9 e 0.y.p.0.p.w.f.W A A B A D D D D D D D D D D D D D D D D D D D D D D D D D D D D D D D D D D D D D D D D A B D A K A e t e 9 t d t y.y.w.y.y.0.y.W B A B D D D D D D D D D D D D D D D D D D D D D D D D D D D D D D D D D D D D D D D D D D D D D D D D D D D D D D D D D A K A P d t d t 9 t 1  .k.y.w.w.y.p.&.l D A b D D D D D D D D D D D D D D D D D D D D D D D D D D D D D D D D D D D D D D D D D D D D D D D D D D D D D D D D D D D D D D D D D D D D D D D D D D D D D D D D A D d 9 e e t t 9 ..p.w.0.0.0.f.&.B K D K B D A D D D D D D D D D D D D D D D D D D D D D D D D D D D D D D D D D D D D D D D D D D D D D D D D D D D D D D D D D D D D D D K K A 5 9 t e e 9 t 0.y.w.w.y.6.y.K A D D D D D D D D D D D D D D D D D D D D D D D D D D D D D D D D D D D D D D D D D D D D D D D D D D D D D D D D D D D D D D D D D D D D D D D K K D A D D l 9 9 9 t t t b y.0.0.w.y.y.w.K D D D D D D D D D D D D D D D D D D D D D D D D D D D D D D D D D D D D D D D D D D D D D D D D D D D D D D D D D D D A D A K D t e 5 e e d e <.w.w.p.y.w.f.( B A A D D D D D D D D D D D D D D D D D D D D D D D D D D D D D D D D D D D D D D D D D D D D D D D D D D D D D D D D D D D D D D D D D D D D D D D D D D D D D D D D B A D 5 e t e e t 9 &.w.0.w.y.y.p.( B A D D K P D D D D D D D D D D D D D D D D D D D D D D D D D D D D D D D D D D D D D D D D D D D D D D D D D D D D D D D D D D D D D D D D D B e e t 9 e 5 b p.w.y.w.0.0.0.",
"9 9 e d e 9 5 <.y.y.0.0.0.k.' B D D D D D D D D D A A D D 5 e 9 9 e t e <.0.w.w.y.0.p.W A A A P D D D D D D D D D D D D D D D D D D D D D D D D D D D D D D D D D D D D D D D D A A K D D b 5 5 e e e 5 1 0.y.w.0.w.0.y.W A D K D D D D D D D D D D D D D D D D D D D D D D D D D D D D D D D D D D D D D D D D D D D D D D D D D D D D D D D D D A D A K e 5 9 9 9 h 5 ( y.w.y.0.w.y.$.l K K K D D D D D D D D D D D D D D D D D D D D D D D D D D D D D D D D D D D D D D D D D D D D D D D D D D D D D D D D D D D D D D D D D D D D D D D D D D D D D D D D D K t 5 9 5 9 9 1 ' y.y.p.y.0.y.:.B D A D A D D D D D D D D D D D D D D D D D D D D D D D D D D D D D D D D D D D D D D D D D D D D D D D D D D D D D D D D D D D D D D D D D D D 9 9 t e e 9 t y.w.0.0.y.6.p.W A A D D D D D D D D D D D D D D D D D D D D D D D D D D D D D D D D D D D D D D D D D D D D D D D D D D D D D D D D D D D D D D D D D D D D D D D D D D K K b e e t t e 9 h y.y.w.y.y.0.6.D A D D D D D D D D D D D D D D D D D D D D D D D D D D D D D D D D D D D D D D D D D D D D D D D D D D D D D D D D D K D D A K A 5 1 9 t 9 9 > :.y.w.0.0.0.f.( A D D D D D D D D D D D D D D D D D D D D D D D D D D D D D D D D D D D D D D D D D D D D D D D D D D D D D D D D D D D D D D D D D D D D D D D D D D D D D D D D D D D K K 5 9 e 9 9 5 5 :.y.w.w.w.w.k.' B A D D A A D D D D D D D D D D D D D D D D D D D D D D D D D D D D D D D D D D D D D D D D D D D D D D D D D D D D D D D D D D D D D D D D K b 5 9 e 9 t 5 h p.w.0.<.0.y.y.",
"e 9 9 e e e 5 &.y.w.w.y.6.p.' B D D D D D D D D D D D A A 9 t 9 e e e e 6.w.w.0.w.0.p.W A D A D D D D D D D D D D D D A A A D D D D D D D D D D D D D A A A D D D D D D D D D D D A D A D B 9 e e e e e 9 w.w.w.w.y.0.y.W A D D D D D D D D D D D D D A A A D D D D D D D D D D D D D D D D D D D D D D D D D D D D D D A A D D D D D D D D D D A D A A K e e e e 5 t 1 ' p.0.w.w.w.y.&.b D A D D A D D D D A D D D D D D D D D D D D D D D D D D D D D D D D D D D D D D D D D D D D A A A D D D A D D D D A D D D D D D D D D D D D D D D D D D D K e d t t d d 9 $.<.:.:.:.:.0.( K W W P P P D A D D D D A D D D D D D D D D D D D D D D D D D D D D D D D D D D D D D D D D D D D D D D D D D D D D D D D D D D D D A A D D D A A A A D D D B 9 e e 9 e 9 t 0.y.w.0.y.0.p.P A A D D D D D D D D D D D D D D D D D A A A D D D A D D D D A D D D D D D D D D D D D D D D D D D D D D D D D D D D D D D D D D D D D A A A D D A A D D A D b 5 e e e e e l y.w.w.w.w.w.0.D A D D D D D D D D D D D D D D D D D D D D D D D D D D D D D D D D D D D D A A A D D D D D D D D D D D D D A A A D D A D A D A D 9 e 9 t e e 5 :.w.w.w.w.0.f.( A D D D D D D D D D D D D D D D D D D D D D A A A D D D D D D D D D D D D D A A A D D D A D D D D A D D D D D D D D D D D D D D D D D D D D D D D D D A K D D e t t d d t e 6.:.:.<.:.:.w.P P P W W P D D D D D A A A D D D D D D D D D D D D A A D D D D D D D D D D D D D D D D D D D D D D D D D D D D D D A A D D D A D D D D A D D D D D D D D D D b 9 e t 9 t 9 l y.0.w.0.w.w.w.",
"e 9 9 e e e 5 &.y.w.w.y.6.p.' B D D D D D D D D D D D A A 9 t 9 e e e e 6.w.y.0.w.0.p.W A D A D D D D D D D D D D D D D D D D D D D D D D D D D D D D D D D D D D D D D D D D D D A D A D B 9 e e e e e 9 w.w.w.w.w.0.y.W A D A D D D D D D D D D D D D D D D D D D D D D D D D D A D D D D D D D D D D D D D D D D D D D D D D D D D D D D D D A D A A K e e e e 5 t 1 ' p.0.w.w.w.y.&.b D A D D A D D D D A D D D D D D D D D D D D D D D D D D D D D D D D D D D D D D D D D D D D D D D D D D A D D D D A D D D D D D D D D D A D D D D D D A A D 9 t e e t t 9 :.w.w.0.w.w.w.( A D D A A A D A D D D D A D D D D D D D D D D D D D D D D D D D D D D D D D D D D D D D D D D A D D D D D D D D D D D D D D D D D D D D D D D A A A A D D D B 9 e e 9 e 9 t 0.y.w.0.y.0.p.P A A D D D D D D D D D D D D D D D D D D D D D D D A D D D D A D D D D D D D D D D D D D D D D D D D D D D D D D D D D D D D D D D D D D D D D D A A D D A D b 5 e e e e e l y.w.w.w.w.w.0.D A D D D D D D D D D D D D D D D D D D D D D D D D D D D D D D D D D D D D D D D D D D D D D D D D D D D D D D D D D A D A D A D 9 e 9 t e e 5 :.w.w.w.w.0.f.( A D D D D D D D D D D D D D D D D D D D D D D D D D D D D D D D D D D D D D D D D D D D A D D D D A D D D D D D D D D D D D D D D D D D D D D D D D D A D A A 9 t e t e e e w.0.w.y.y.0.p.P K D D D B D D D D D D A A D D D D D D D D D D D D D D D D D D D D D D D D D A D D D D D D D D D D D D D D D D D D D D D D D A D D D D A D D D D D D D D D D b 9 e t 9 t 9 l y.0.w.0.w.w.w.",
"e 9 9 e e e 5 &.y.w.w.y.6.p.' B D D D D D D D D D D D A A 9 t 9 e e e e 6.w.y.0.w.0.p.W A D A D D D D D D D A D D D D D D D D D D D D D D D A D D D D D D D D D D A D D D D D D D A D A D B 9 e e e e e 9 0.w.w.w.y.0.y.W A D D D D D D D D A D D D D D D D D D D D D D D D D D D A D D D D D D D D D D D D D D D D D D D D D D D D D D D D D D A D A A K e e e e 5 t 1 ' p.0.w.w.w.y.&.b D A D D D D D D D D D D D D D D D D D D D D D D A D D D D D D D A D D D D D D D D A D D D D D D D D D D D D D D D D D D D D D D D D D D D D D D D D D A A D 9 e 9 9 e e 9 :.y.y.y.y.w.p.' A A A B A A D D D D D D D D D D D D D D D D D D D D D A D D D D D D D A D D D D D D D D D D D A D D D D D D D D D D D D D D D D D D D D D D D A A A A D D D B 9 e e 9 e 9 t 0.y.w.0.y.0.p.P A A D D D D D D D D D D D D A D D D D D D D D D D D D D D D D D D D D D D D D D A D D D D A A D D D D D D D D D D D D D D D A D D D D D D D D D A A D D A D b 5 e e e e e l y.w.w.w.w.w.0.D A D D D D D D D D D A D D D D A A D D D D D D D D D D D D D D D A D D D D D D D D D D D D D D D A D D D D D D D D D A D A D A D 9 e 9 t e e 5 :.w.w.w.w.0.f.( A D D D D D D D D D D D D D D D D A D D D D D D D D D D D D D D D A D D D D D D D D D D D D D D D D D D D D D D D D D A D D D D A A D D D D D D D D D A D A A 9 e e e e e e w.0.w.y.w.0.p.K A B A D A A A D D D D D D D D D D D D D D D D D D D D D D D D D D D D D D D A D D D D D D D D D D D D D D D D D D D D D D D D D D D D D D D D D D D D D D D b 9 e t 9 t 9 l y.0.w.0.w.w.w.",
"e 9 9 e e e 5 &.y.w.w.y.6.p.' B D D D D A D D D D D D A A 9 t 9 e e e e 6.w.y.0.w.0.p.W A D A D D D D D D A A D D D D D D D D D D D D D D A A D D D D D D D D D D D D D D D D D D A D A D B 9 e e e e e 9 w.w.w.w.y.0.y.W A D D D D D D D A A D D D D D D D D D D D D D D D D D D D D D D D A A D D D D D D D D D D D D D D D D D D D D D D D D A D A A K e e e e 5 t 1 ' p.0.w.w.w.y.&.b D A D D D D D D D D D D D D D D D D D A A D D D A D D A D D D D A D D D D D D D A A D D D D D D D D D D D D D D D D D D D D D D D D D D A D D D D A A D A D 9 t e 9 e e 9 :.y.y.w.0.0.f.' A D D D K K D D D D D D D D D D D D D D D D A A D D D A D D A D D D D A D D D D D D D D D D D D D D D D A A D D D D D D D D D D D D D D D D D A A A A D D D B 9 e e 9 e 9 t 0.y.w.0.y.0.p.P A A D D D D D D D D D D D A A D D D D D D D D D D D D D D D D D D D D D D D D D A D D D D D D D D D D D A A D D D D D D D A A D D D D D D D D D A A D D A D b 5 e e e e e l y.w.w.w.w.w.0.D A D D D D D D D D D A D D D D D D D D D D D A A D D D D D D D A A D D D D D D D D D D D D D D A A D D D D D D D D D A D A D A D 9 e 9 t e e 5 :.w.w.w.w.0.f.( A D D D D D D A A D D D D D D D A A D D D D D D D D D D D D D D A A D D D D D D D D D D D D D D D D D D D D D D D D D A D D D D D D D D D D D A A D D A D A A 5 e 9 9 e e t w.0.0.0.6.0.y.K A A D K K A A A D D D D D D D D D D D D D D D D D D D D D D D D D D D D D D D D D D D A A D D D D D D D D D D D D D D D D D D D D D D D D D D D D D D D D D b 9 e t 9 t 9 l y.0.w.0.w.w.w.",
"e 9 9 e e e 5 &.y.w.w.y.6.p.' B A D D D D D D D D D D A A 9 t 9 e 9 e e 6.w.y.0.w.0.p.W A D A D D D D D D A D D D D D D D D D D D D D D D A D D D D D D D D D D D D D D A A A D D A D A D B 9 e e e e e 9 w.w.w.w.y.0.y.W A D D D D D D D A D D D D D D D D D D D D D D A D D D D D D D D D D D D D D D A D D D D D D A D D D D D D D D A D D D A D A A K e e e e 5 t 1 ' p.0.w.w.w.y.&.b D A D D D D D D D D D D D D D D D D D D D D D D D D D A D D D D D D D D D D D D A D D D D D D D D D D D D D D D D D D D D D D D D D D D D D D D D D D D D K 9 t e 9 e t 9 :.y.w.w.w.0.y.( B A D D D D D D D D D D D D D D D D D D D D D D D D D D D D A D D D D D D D D D D D A D D D D D D D D D D D D D D D A D D D D D D A D D D D D A A A A D D D B 9 e e 9 e 9 t 0.y.w.0.y.0.p.P A A D D D D D D D D D D D A D D D D D D D D D D D D D D D D D D D D D D D D D D D D D D D D D D A D D D D D D D D D D D D A D D D D D D D D D D A A D D A D b 5 e e e e e l y.w.w.w.w.w.0.D A D D D D D D D D D D D D D D D D D A D D D D D D D D D D D D A D D D D D D D D D D D D D D D A D D D D D D D D D D A D A D A D 9 e 9 t e e 5 :.w.w.w.w.0.f.( A D D A D D D D D D D D D D D D A D D D D D D D D D D D D D D D A D D D D D D D D D D D D D D D D D D D D D D D D D D D D D D D D D D A D D D D D D D D K A A 9 e 9 9 9 e t y.w.w.y.w.w.p.P D A D D A A A A D D D D D D D D D A D D D D D D A D D D D D D D D A D D D D D D D D D D D D D D D A D D D D D D A D D D D D D D D D D D D D D D D D D D D D b 9 e t 9 t 9 l y.0.w.0.w.w.w.",
"e 9 9 e e e 5 &.y.w.w.y.6.p.' B A A D D D D D D D D D A A 9 t 9 e 9 e e 6.w.y.0.w.0.p.W A D A D D D D D D D D D D D D D D D D D D D D D D D D D D D D D D D D D D D D D A A A D D A D A D B 9 e e e e e 9 w.w.w.w.y.0.y.W A D D D D D D D D D D D D D D D D D D D D D D D D D D D D D D D D D A D D D D D D D D D D D A D D D D D D D D D D D D A D A A K e e e e 5 t 1 ' p.0.w.w.w.y.&.b D A D D D D D D D D D D D D A A D D D D D D D D D D D D D D D D D D D D D D D D D D D D D D D D D D D D D D D D D D D D D D A A D D D D D D D D D D D D A D 9 t 9 9 e e 9 :.w.w.w.w.w.p.( A D D D D A D D D D D D D D D D D A A D D D D D D D D D D D D D D D D D D D D D D D D D D D D D D D D D D A D D D D D D D D D D D A D D D D D A A A A D D D B 9 e e 9 e 9 t 0.y.w.w.y.0.p.P A A D D D D D D D D D D D D D D D D D D D D D D D D D D D D D D D D D A A D D D D D D D D D D D A D D D D D D D D D D D D D D D D D D D D D D D A A D D A D b 5 e e e e e l y.w.w.w.w.w.0.D A D D D D A A D D D D D D D D D D D A D D D D D D D D D D D D D D D D D D D D D D D D D D D D D D D D D D D D D D D A D A D A D 9 e 9 t e e 5 :.w.w.w.w.0.f.( A D D A D D D D D D D D D D D D D D D D D D D D D D D D D D D D D D D D D D D D D D D D D D D D D D D D D D A A D D D D D D D D D D D A D D D D D D D D K D A 9 e 9 e 9 e t y.w.y.y.w.0.p.P D A A A B A A D D D D D D D D D D D D D D D D D A D D D D D D D D D D D D D D D D D D D A D D D D D D D D D D D A D D D D D D D D D D D D D D D A A D D D D b 9 e t 9 t 9 l y.w.w.0.w.w.w.",
"e 9 9 e e e 5 &.y.w.w.y.6.p.' B D D D D D D D D D D D A A 9 t 9 e 9 e e 6.w.y.0.w.0.p.W A D A D D D D D D D D D D A D D D D A D D D D D D D D D D A D D D D A D A D D D D D D D D A D A D B 9 e e e e e 9 w.w.w.w.y.0.y.W A D D D D D D D D D D D A D D D D A D D D A A D D D D A D D D D D D D D D A A D D D D D D D D D D D D D D A A D D D D A D A A K e e e e 5 t 1 ' p.0.w.w.w.y.&.b D A D D D D D D D D D D D A A D D D D D D D D D D A D D D D D D D D D D D D D D D D D D A D D D D A D D D D D D D D D D D A A D D D D D D D D D D D D D A D 9 t 9 9 e 9 5 &.w.w.w.w.w.f.' A D K D D A D D D D D D D D D D A A D D D D D D D D D D A D D D D D D D D D D D A A D D D D A D D D D D D D D D A A D D D D D D D D D D D D D A A A A D D D B 9 e e 9 e 9 t 0.y.w.0.y.0.p.P A A D D D D D D D D D D D D D D D A D D D D A D D D D D D D D D D D A A D D D D D D D D D D A A D D D D D D D D D D D D D D D D D A D D D D A D A A D D A D b 5 e e e e e l y.w.w.w.w.w.0.D A D D D A A D D D D D D D D D D A A D D D D D D D D D D D D D D D D D A D D D D A D D D D D D D D D D A D D D D A D A D A D A D 9 e 9 t e e 5 :.w.w.w.w.0.f.( A A A D D D D D D D D D D D D D D D D D A D D D D A D D D D D D D D D D A D D D D A D D D D D D D D D D D A A D D D D D D D D D D A A D D D D D D D D A K A A 9 e 9 e e e t w.0.0.w.0.6.y.K D A D D A D D D D D D A A D D A A D D D D D D D D D D D D D D A A D D D D A D D D D D D D D D A A D D D D D D D D D D D D D D D D D D D D D D A A D D D D D b 9 e t 9 t 9 b p.w.w.0.w.w.w.",
"e 9 9 e e e 5 &.y.w.w.y.6.p.' B D D D D D D D D D D D A A 9 t 9 e e e e 6.w.y.0.w.0.p.W A D A D D D D D D D D D D A D D D D A D D D D D D D D D D A D D D D A D A D D D D D D D D A D A D B 9 e e e e e 9 w.w.w.w.y.0.y.W A D D D D D D D D D D D A D D D D A D D D A D D D D D A D D D D D D D D D A D D D D D D D D D D D D D D D A D D D D D A D A A K e e e e 5 t 1 ' p.0.w.w.w.y.&.b D A D D D A A A D D D D D D D D D D D D D A D D D A D D D D D D D D D D D D D D D D D D A D D D D A D D D A A A D D D D D D D D D D D D D D D D D D D D A D 9 t e 9 t e 9 :.y.y.w.w.w.p.( B A D D D D D D A A A D D D D D D D D D D D D D A D D D A D D D D D D D D D D D A D D D D D A D D D D D D D D D A D D D D D D D D D D D D D D A A A A D D D B 9 e e 9 e 9 t 0.y.w.0.y.0.p.P A A D D D D D D D D D D D D D D D A D D D D A D D D A A A D D D D D D D D D D D D A D D D D D D D D D D D D D D D D D D D D D D D A D D D D A D A A D D A D b 5 e e e e e l y.w.w.w.w.w.0.D A D D D D D D D D D D A D D D D D D D D D D D D D D D D D D D D D D D A D D D D A D D D D D D D D D D A D D D D A D A D A D A D 9 e 9 t e e 5 :.w.w.w.w.0.f.( A D D D D D D D D D D D D D D D D D D D A D D D D A D D D D D D D D D D A D D D D A D D D A A A D D D D D D D D D D D D A D D D D D D D D D D D D D D A D A A 9 e 9 e e e e w.w.w.y.y.w.f.P D A A D A D D D D D A A A D D A D D D D D D D D D D D D D D D A D D D D D A D D D D D D D D D A D D D D D D D D D D D D D D D A A A D D D D D D D D D D D D b 9 e t 9 t 9 b p.w.w.0.w.w.w.",
"e 9 9 e e e 5 &.p.0.0.w.6.y.' A D D D D D D D D D A B A A 5 t t e e e e 6.w.w.0.w.0.y.^ A b B D D D D D D D D D D D D D D D D D D D D D D D D D D D D D D D D D A D D D D D D D D D K A K B 5 e e e e e 9 w.w.w.w.w.0.p.W b A D D D D D D D D D D D D D D D D D D D D D D D D D D D D D D D D D D D D D D D D D D D D D D D D D D D D D D D D D A D A D K 9 e e t 9 t 1 ' p.0.w.w.y.p.&.l D D A D D D D D D D D D D D D D D D D D D D D D D D D D D D D D D D D D D D D D D D D D D D D D D D D D D D D D D D D D D D D D D D D D D D D D D D D A A D 5 9 e e t e 9 :.y.w.0.w.w.w.' D A D K K A D D D D D D D D D D D D D D D D D D D D D D D D D D D D D D D D D D D D D D D D D D D D D D D D D D D D D D D D D D D D D D D D A A D A A A D D A 9 t d 9 9 9 t w.w.0.w.p.0.p.W A A D D D A D D D D D D D D D D D D D D D D D D D D D D D D D D D D D D D D D D D D D D D D D D D D D D D D D D D D D D D D D D D D D D D D D D A D K D D K B 5 e e e e 9 l y.w.w.w.w.0.6.D A B D D D D D D D D D D D D D D D D D D D D D D D D D D D D D D D D D D D D D D D D D D D D D D D D D D D D D D D D B K D D A D 5 t 9 t e e 5 :.w.w.w.w.w.k.( b B D D D D D D D D D D D D D D D D D D D D D D D D D D D D D D D D D D D D D D D D D D D D D D D D D D D D D D D D D D D D D D D D D D D D D D D D D D B A A 5 e 9 t e e e y.w.w.w.w.w.w.K A D K A A D D D D D D D D D D D D D D D D D D D D D D D D D D D D D D D D D D D D D D D D D D D D D D D D D D D D D D D D D D D D D D D D D D D D D D D D K b 5 e e 5 e 9 l y.0.w.0.w.w.w.",
"e 9 9 e e e 5 &.y.w.y.y.6.p.' B D D D D D D D D D D K D A 5 e 9 e e e e 6.w.y.0.0.0.y.^ D A D K D D D D D D D D D D D D D D D D D D D D D D D D D D D D D D D D D D D D D D D D D A A B K A 9 t e e e e 9 w.w.w.w.w.6.p.^ A D K D D D D D D D D D D D D D D D D D D D D D D D D D D D D D D D D D D D D D D D D D D D D D D D D D D D D D D D D D K D A K 9 e e t 9 t 1 ' p.0.w.0.w.y.&.b P D D D D D D D D D D D D D D D D D D D D D D D D D D D D D D D D D D D D D D D D D D D D D D D D D D D D D D D D D D D D D D D D D D D D D D D D D D D D K e t e 9 9 e 9 :.y.w.0.w.w.y.' A A A A D D D D D D D D D D D D D D D D D D D D D D D D D D D D D D D D D D D D D D D D D D D D D D D D D D D D D D D D D D D D D D D D D D D D D D D D D K A 5 e e 5 e e e 0.y.w.0.y.6.y.P A D D D D D D D D D D D D D D D D D D D D D D D D D D D D D D D D D D D D D D D D D D D D D D D D D D D D D D D D D D D D D D D D D D D D D D D D A A A A K B 9 e e e e 9 l y.w.6.0.w.y.w.K D A D D D D D D D D D D D D D D D D D D D D D D D D D D D D D D D D D D D D D D D D D D D D D D D D D D D D D D D D A K B A A K 9 d 9 t e e 5 :.w.w.w.w.0.f.( A D K D D D D D D D D D D D D D D D D D D D D D D D D D D D D D D D D D D D D D D D D D D D D D D D D D D D D D D D D D D D D D D D D D D D D D D D D K A K D 5 e 9 e e e e y.w.w.w.w.y.y.P A B D B D D D D D D D D D D D D D D D D D D D D D D D D D D D D D D D D D D D D D D D D D D D D D D D D D D D D D D D D D D D D D D D D D D D D D D D D D D b 5 e t 9 e 5 l y.0.w.0.w.w.w.",
"e 9 9 e e e 5 &.y.y.y.y.6.p. .B A A A A A A A A B D K D A 5 t 9 e e e e 6.0.y.0.w.w.y.W D D D A A A A A A A A A A A A A A A A A A A A A A A A A A A A A A A A A A A A A A A A A D D A B K A 9 e e e e e 9 0.w.w.w.w.0.p.^ B A A A A A A A A A A A A A A A A A A A A A A A A A A A A A A A A A A A A A A A A A A A A A A A A A A A A A A A A A A B D D A K e t e e 5 t 1 ' p.0.w.w.w.y.&.b K D B A A A A A A A A A A A A A A A A A A A A A A A A A A A A A A A A A A A A A A A A A A A A A A A A A A A A A A A A A A A A A A A A A A A A A A A A D B A e d e 9 e e 9 :.y.w.0.w.w.y.( A D D A A D A A A A A A A A A A A A A A A A A A A A A A A A A A A A A A A A A A A A A A A A A A A A A A A A A A A A A A A A A A A A A A A A A A A A A A D D A 9 9 9 5 t t e 6.y.y.0.w.6.p.P A A D D A A A D A A A A A A A A A A A A A A A A A A A A A A A A A A A A A A A A A A A A A A A A A A A A A A A A A A A A A A A A A A A A A A A A D B A D D D b 9 e e e e 9 l y.w.0.0.w.y.w.D B A A A A A A A A A A A A A A A A A A A A A A A A A A A A A A A A A A A A A A A A A A A A A A A A A A A A A A A A A A K B A D K 9 t 9 t e e 5 :.w.w.y.w.6.p.( B D D A A A A A A A A A A A A A A A A A A A A A A A A A A A A A A A A A A A A A A A A A A A A A A A A A A A A A A A A A A A A A A A A A A A A A A A A A B D D 5 t 9 e e e e y.w.w.w.w.w.y.P D B D B D A A A A A A A A A A A A A A A A A A A A A A A A A A A A A A A A A A A A A A A A A A A A A A A A A A A A A A A A A A A A A A A A A A A A A A A A D B 9 9 t e t 5 b y.0.w.0.w.w.w.",
"e 9 9 e e e 5 &.p.y.w.0.<.f...B D D D D D D D D B D K A A 9 t 9 e e e e 6.w.y.0.w.w.y.P A A D A D D D D D D D D D D D D D D D D D D D D D D D D D D D D D D D D D D D D D D D D D K K D P A 5 e e e e e 9 w.w.w.0.w.w.p.W b A A D D D D D D D D D D D D D D D D D D D D D D D D D D D D D D D D D D D D D D D D D D D D D D D D D D D D D D D D b D K D P t t 9 e 5 t 1 ' p.0.w.w.w.y.&.b K D A D D D D D D D D D D D D D D D D D D D D D D D D D D D D D D D D D D D D D D D D D D D D D D D D D D D D D D D D D D D D D D D D D D D D D D D D P A B 9 t e 9 t e 9 :.y.w.0.w.w.p.( A K P D D D D D D D D D D D D D D D D D D D D D D D D D D D D D D D D D D D D D D D D D D D D D D D D D D D D D D D D D D D D D D D D D D D A A D A A A D D A e t e 5 t t 9 6.y.y.0.w.0.f.P A A D D D A D D D D D D D D D D D D D D D D D D D D D D D D D D D D D D D D D D D D D D D D D D D D D D D D D D D D D D D D D D D D D D D D D D D A K P K D b e e e e e 9 l y.w.w.w.w.y.0.A B K D D D D D D D D D D D D D D D D D D D D D D D D D D D D D D D D D D D D D D D D D D D D D D D D D D D D D D D D D P D K K K 5 e 9 t e e 5 :.w.w.w.w.0.p.^ B A D D D D D D D D D D D D D D D D D D D D D D D D D D D D D D D D D D D D D D D D D D D D D D D D D D D D D D D D D D D D D D D D D D D D D D D D D A b A A 5 t 9 9 e e e y.w.w.w.w.0.w.P D D P A D D D D D D D D D D D D D D D D D D D D D D D D D D D D D D D D D D D D D D D D D D D D D D D D D D D D D D D D D D D D D D D D D D D D D D D D D D A e 9 9 9 t 9 b p.w.w.0.w.w.w.",
"e 9 9 e e e 5 &.y.w.w.w.6.f.' l D D D D D D D D D D D B A 9 t 5 e e e e 6.w.w.0.0.w.y.P B B D K D D D D D D D D D D D D D D D D D D D D D D D D D D D D D D D D D D D D D D D D A D K A K B 9 d e e e e 9 w.w.w.6.w.w.p.P b D D D D D D D D D D D D D D D D D D D D D D D D D D D D D D D D D D D D D D D D D D D D D D D D D D D D D D D D D D A K K A D e e 5 e 5 t 1 ' y.0.w.w.w.y.&.b D D K D D D D D D D D D D D D D D D D D D D D D D D D D D D D D D D D D D D D D D D D D D D D D D D D D D D D D D D D D D D D D D D D D D D D D D D D P D D 9 t e 9 t e 9 :.y.w.0.w.w.f.( B A D D A A D D D D D D D D D D D D D D D D D D D D D D D D D D D D D D D D D D D D D D D D D D D D D D D D D D D D D D D D D D D D D D D D A A D A A A D D B 9 t e 5 e e e 6.w.w.0.y.0.p.K A A D D D A D D D D D D D D D D D D D D D D D D D D D D D D D D D D D D D D D D D D D D D D D D D D D D D D D D D D D D D D D D D D D D D D D D A A D D A A b t e e e e 9 l y.w.w.w.w.y.w.D A K D D D D D D D D D D D D D D D D D D D D D D D D D D D D D D D D D D D D D D D D D D D D D D D D D D D D D D D D B K A A A D 5 t 9 t e e 5 :.w.w.6.w.w.f.( A D D D D D D D D D D D D D D D D D D D D D D D D D D D D D D D D D D D D D D D D D D D D D D D D D D D D D D D D D D D D D D D D D D D D D D D D D D K B D B 5 d 9 5 e e e y.w.w.w.w.y.w.K A A K A A D D D D D D D D D D D D D D D D D D D D D D D D D D D D D D D D D D D D D D D D D D D D D D D D D D D D D D D D D D D D D D D D D D D D D D D D B b e e 9 5 t 9 l y.0.w.0.w.w.w.",
"e 9 9 e e e 5 &.w.0.w.p.0.p.( l A A A A A A A A A B A A D 9 e 9 e e e e 6.w.y.0.w.0.w.W A b B A A A A A A A A A A A A A A A A A A A A A A A A A A A A A A A A A A A A A A A A A A A A b D B 9 d e e e e 9 w.w.w.w.y.w.y.P B D A A A A A A A A A A A A A A A A A A A A A A A A A A A A A A A A A A A A A A A A A A A A A A A A A A A A A A A A A D D A B D 9 e t e 5 t 1 ' y.0.w.y.w.w.&.b D A D A A A A A A A A A A A A A A A A A A A A A A A A A A A A A A A A A A A A A A A A A A A A A A A A A A A A A A A A A A A A A A A A A A A A A A A A B A D 9 t t e e e 9 :.y.w.0.w.w.p.' B b B A D A A A A A A A A A A A A A A A A A A A A A A A A A A A A A A A A A A A A A A A A A A A A A A A A A A A A A A A A A A A A A A A A A A A A A A A A D A 5 9 e 5 e e t 0.w.0.0.w.6.y.P B A A A A A A A A A A A A A A A A A A A A A A A A A A A A A A A A A A A A A A A A A A A A A A A A A A A A A A A A A A A A A A A A A A A A A A A D A A B b A B 9 e e e e 9 l y.w.w.w.w.w.w.K A B A A A A A A A A A A A A A A A A A A A A A A A A A A A A A A A A A A A A A A A A A A A A A A A A A A A A A A A A A D b B B D 9 d 9 t e e 5 :.w.w.0.w.w.f.^ A A A A A A A A A A A A A A A A A A A A A A A A A A A A A A A A A A A A A A A A A A A A A A A A A A A A A A A A A A A A A A A A A A A A A A A A A A A A B D B 1 t e e e e e y.w.w.w.w.y.w.K B B D B A A A A A A A A A A A A A A A A A A A A A A A A A A A A A A A A A A A A A A A A A A A A A A A A A A A A A A A A A A A A A A A A A A A A A A A A A A l 9 t t 9 9 5 l y.0.w.0.w.w.w.",
"e 9 9 e e e 5 &.y.0.y.p.6.y.$.' ( ( ( ( ( ( ( ( ^ ^ '  .^ 9 e t e 9 e e 6.w.w.0.p.0.y... .( ^ ^ ( ( ( ( ( ( ( ( ( ( ( ( ( ( ( ( ( ( ( ( ( ( ( ( ( ( ( ( ( ( ( ( ( ( ( ( ( ( ( ( ' ' ( ^  .W e 9 e e e e 9 w.w.w.y.y.6.y.' ( ' ^ ( ( ( ( ( ( ( ( ( ( ( ( ( ( ( ( ( ( ( ( ( ( ( ( ( ( ( ( ( ( ( ( ( ( ( ( ( ( ( ( ( ( ( ( ( ( ( ( ( ( ( ( ( ( ( ( ( ( ^ ' ' t e t e 5 t 1 ' p.0.w.p.w.w.6.W  .( ^ ( ( ( ( ( ( ( ( ( ( ( ( ( ( ( ( ( ( ( ( ( ( ( ( ( ( ( ( ( ( ( ( ( ( ( ( ( ( ( ( ( ( ( ( ( ( ( ( ( ( ( ( ( ( ( ( ( ( ( ( ( ( ( ( ( ( ( ( ( ( ( ( W ( ( e e e t t e 9 :.y.w.0.w.w.w.$.' ( ^ (  .' ( ( ( ( ( ( ( ( ( ( ( ( ( ( ( ( ( ( ( ( ( ( ( ( ( ( ( ( ( ( ( ( ( ( ( ( ( ( ( ( ( ( ( ( ( ( ( ( ( ( ( ( ( ( ( ( ( ( ( ( ( ( ( ( ( ( ' ( ( ( ' ' ^ 9 5 e e e e t w.w.w.w.w.:.f...( ( ' ' ' ( ' ' ( ( ( ( ( ( ( ( ( ( ( ( ( ( ( ( ( ( ( ( ( ( ( ( ( ( ( ( ( ( ( ( ( ( ( ( ( ( ( ( ( ( ( ( ( ( ( ( ( ( ( ( ( ( ( ( ( ( ( ( ( ( ( ( ' ' ' ^ (  .K 1 e e e e 9 l y.w.w.y.w.0.w.' ( W ( ( ( ( ( ( ( ( ( ( ( ( ( ( ( ( ( ( ( ( ( ( ( ( ( ( ( ( ( ( ( ( ( ( ( ( ( ( ( ( ( ( ( ( ( ( ( ( ( ( ( ( ( ( ( ( '  .^ ( ' ' e 9 9 t e e 5 :.w.w.y.y.0.f...( ' ^ ( ( ( ( ( ( ( ( ( ( ( ( ( ( ( ( ( ( ( ( ( ( ( ( ( ( ( ( ( ( ( ( ( ( ( ( ( ( ( ( ( ( ( ( ( ( ( ( ( ( ( ( ( ( ( ( ( ( ( ( ( ( ( ( ( ( ( ( ( ( ( ( ^ (  .P 1 e e t e e e y.w.w.w.w.0.y.' ( ( ' ^ ' ( ( ( ( ( ( ( ( ( ( ( ( ( ( ( ( ( ( ( ( ( ( ( ( ( ( ( ( ( ( ( ( ( ( ( ( ( ( ( ( ( ( ( ( ( ( ( ( ( ( ( ( ( ( ( ( ( ( ( ( ( ( ( ( ( ( ( ( ( ( ( ( ..D 5 e d 9 e 5 l y.0.w.0.w.w.w.",
"e 9 9 e e e 5 &.p.w.y.p.<.y.w.p.p.p.p.p.p.p.p.p.p.y.f.p.&.e 9 e e e e e 6.w.w.0.y.6.y.0.f.p.p.p.p.p.p.p.p.p.p.p.p.p.p.p.p.p.p.p.p.p.p.p.p.p.p.p.p.p.p.p.p.p.p.p.p.p.p.p.p.p.p.p.y.y.y.y.f.:.d 1 e e e e 9 w.w.w.w.0.<.f.0.y.k.y.p.p.p.p.p.p.p.p.p.p.p.p.p.p.p.p.p.p.p.p.p.p.p.p.p.p.p.p.p.p.p.p.p.p.p.p.p.p.p.p.p.p.p.p.p.p.p.p.p.p.p.p.p.p.p.p.y.w.y.f.y.b 9 1 e 5 t 1 ' p.0.w.w.6.y.f.6.k.p.y.p.p.p.p.p.p.p.p.p.p.p.p.p.p.p.p.p.p.p.p.p.p.p.p.p.p.p.p.p.p.p.p.p.p.p.p.p.p.p.p.p.p.p.p.p.p.p.p.p.p.p.p.p.p.p.p.p.p.p.p.p.p.p.p.p.p.p.p.p.p.p.p.p.f.0.h 9 9 e e e 9 :.y.w.0.w.w.w.w.p.f.y.y.p.y.p.p.p.p.p.p.p.p.p.p.p.p.p.p.p.p.p.p.p.p.p.p.p.p.p.p.p.p.p.p.p.p.p.p.p.p.p.p.p.p.p.p.p.p.p.p.p.p.p.p.p.p.p.p.p.p.p.p.p.p.p.p.p.p.y.p.p.p.y.y.p.p.&.d 5 t t t 9 e w.w.w.y.w.:.m.w.y.y.p.p.p.p.p.p.p.p.p.p.p.p.p.p.p.p.p.p.p.p.p.p.p.p.p.p.p.p.p.p.p.p.p.p.p.p.p.p.p.p.p.p.p.p.p.p.p.p.p.p.p.p.p.p.p.p.p.p.p.p.p.p.p.p.p.p.p.p.p.p.y.p.p.y.f.k. .1 e e e e 9 l y.w.0.y.0.6.f.0.f.p.p.p.p.p.p.p.p.p.p.p.p.p.p.p.p.p.p.p.p.p.p.p.p.p.p.p.p.p.p.p.p.p.p.p.p.p.p.p.p.p.p.p.p.p.p.p.p.p.p.p.p.p.p.p.p.p.p.f.y.f.f.0.h 1 9 t e e 5 :.w.w.w.0.6.k.0.y.f.p.p.p.p.p.p.p.p.p.p.p.p.p.p.p.p.p.p.p.p.p.p.p.p.p.p.p.p.p.p.p.p.p.p.p.p.p.p.p.p.p.p.p.p.p.p.p.p.p.p.p.p.p.p.p.p.p.p.p.p.p.p.p.p.p.p.p.p.p.p.p.p.p.y.p.f.&.9 9 5 e e e e y.w.w.w.w.:.f.0.p.p.p.w.y.p.p.p.p.p.p.p.p.p.p.p.p.p.p.p.p.p.p.p.p.p.p.p.p.p.p.p.p.p.p.p.p.p.p.p.p.p.p.p.p.p.p.p.p.p.p.p.p.p.p.p.p.p.p.p.p.p.p.p.p.p.p.p.p.p.p.p.p.p.p.p.p.k.( 5 9 d 9 e e l y.0.w.0.w.w.w.",
"t 1 d 9 1 t 1 &.w.w.0.0.w.w.w.0.w.w.w.w.w.w.w.w.0.y.0.w.6.5 l 9 e 9 e e <.0.p.w.w.w.w.w.w.w.w.w.w.0.w.w.w.w.w.w.w.w.w.w.w.w.w.w.w.0.w.w.w.w.w.w.w.w.w.w.w.w.w.w.w.w.w.w.w.w.w.w.y.<.y.w.0.:.5 h e 9 t t d y.6.w.w.w.w.w.w.w.w.w.w.0.w.w.w.w.w.w.w.w.w.w.w.w.w.w.w.w.w.w.w.w.w.w.w.w.w.w.w.w.w.w.w.w.w.w.w.w.w.w.w.w.w.w.w.w.w.w.w.w.w.w.w.w.w.w.w.p.y.<.f.l e d d 5 d 5  .f.0.0.w.w.w.w.w.w.w.w.w.w.w.w.w.w.w.w.w.w.w.w.w.w.w.w.w.w.w.w.w.w.w.w.w.w.w.w.w.w.w.w.w.0.w.w.w.w.w.w.w.w.w.w.w.w.w.w.w.w.w.w.w.w.w.w.w.w.w.w.w.w.w.w.w.w.w.w.w.w.w.w.w.6.y.d t t 9 e d 5 :.0.w.y.<.p.w.w.w.w.w.w.w.w.w.w.w.w.w.w.w.w.w.w.w.w.w.w.w.w.w.w.w.w.w.w.w.w.w.w.w.w.w.w.w.w.w.w.w.w.w.w.w.w.w.w.w.w.w.w.w.w.w.w.w.w.w.w.w.w.w.w.w.w.w.w.w.w.0.w.w.w.0.0.w.w.$.> t 1 e d 5 t 0.0.0.w.w.0.0.0.w.w.w.w.w.w.w.w.w.0.w.w.w.w.w.w.w.w.w.w.w.w.w.w.w.w.w.w.w.w.w.w.w.w.w.w.w.w.w.w.w.w.w.w.w.w.w.w.w.w.w.w.w.w.w.w.w.0.w.w.w.w.w.w.w.w.w.w.w.w.w.w.w.w.0.0.w.w.( 9 5 h 9 e d l p.6.w.w.w.w.w.w.w.w.w.w.w.w.w.w.w.w.w.w.w.w.w.w.w.w.w.w.w.w.w.w.w.w.w.0.w.w.w.w.w.w.w.w.w.w.w.w.w.w.w.0.w.w.w.w.w.w.w.w.w.w.w.w.w.w.w.0.w.y.<.w.9 e e 5 9 h 5 <.y.6.w.w.w.w.w.w.w.w.w.w.w.w.w.w.w.w.w.0.w.w.w.w.w.w.w.w.w.w.w.w.w.w.w.0.w.w.w.w.w.w.w.w.w.w.w.w.w.w.w.w.w.w.w.w.w.w.w.w.w.w.w.w.w.w.w.w.w.w.w.w.w.w.w.w.w.w.w.w.w.w.6.y.y.&.1 t 5 t e h t w.w.w.y.0.w.w.w.w.w.w.w.w.w.w.w.w.w.w.w.w.w.w.w.w.w.w.w.w.w.w.w.w.w.w.w.w.w.w.w.w.w.w.w.w.w.w.w.w.w.w.w.w.w.w.w.w.w.w.w.w.w.w.w.w.w.w.w.w.w.w.w.w.w.w.w.w.w.w.w.0.0.0.0.0.p. .9 t e e 5 5 l p.6.p.w.<.p.6.",
"e 1 t e 9 h 5 <.y.y.w.w.y.y.y.w.y.y.y.y.y.y.y.y.6.0.<.0.:.> d 5 t e t 9 6.6.w.0.y.y.y.y.y.y.y.y.y.y.y.y.y.y.y.y.y.y.y.y.y.y.y.y.y.y.y.y.y.y.y.y.y.y.y.y.y.y.y.y.y.y.y.y.y.y.y.y.0.<.y.p.p.6.1 e t e 5 5 5 w.6.y.y.y.y.y.y.y.y.y.y.y.y.y.y.y.y.y.y.y.y.y.y.y.y.y.y.y.y.y.y.y.y.y.y.y.y.y.y.y.y.y.y.y.y.y.y.y.y.y.y.y.y.y.y.y.y.y.y.y.y.y.y.y.y.y.:.0.w.6.f.h 1 5 e 9 t > ' p.<.0.y.y.y.y.y.y.y.y.y.y.y.y.y.y.y.y.y.y.y.y.y.y.y.y.y.y.y.y.y.y.y.y.y.y.y.y.y.y.y.y.y.y.y.y.y.y.y.y.y.y.y.y.y.y.y.y.y.y.y.y.y.y.y.y.y.y.y.y.y.y.y.y.y.y.y.y.y.y.y.y.y.6.w.5 5 5 e t e > 6.p.p.y.<.0.y.y.y.y.y.y.y.y.y.y.y.y.y.y.y.y.y.y.y.y.y.y.y.y.y.y.y.y.y.y.y.y.y.y.y.y.y.y.y.y.y.y.y.y.y.y.y.y.y.y.y.y.y.y.y.y.y.y.y.y.y.y.y.y.y.y.y.y.y.y.y.y.w.y.y.y.w.w.y.y.:.5 h e e t 5 e w.w.w.y.y.w.w.w.y.y.y.y.y.y.y.y.y.y.y.y.y.y.y.y.y.y.y.y.y.y.y.y.y.y.y.y.y.y.y.y.y.y.y.y.y.y.y.y.y.y.y.y.y.y.y.y.y.y.y.y.y.y.y.y.y.y.y.y.y.y.y.y.y.y.y.y.y.y.y.y.6.0.y.y.p.y.( > t h 5 5 5 d f.w.y.y.y.y.y.y.y.y.y.y.y.y.y.y.y.y.y.y.y.y.y.y.y.y.y.y.y.y.y.y.y.y.y.y.y.y.y.y.y.y.y.y.y.y.y.y.y.y.y.y.y.y.y.y.y.y.y.y.y.y.y.y.y.y.<.0.y.f.w.y.5 9 d 9 5 e = &.p.w.y.y.y.y.y.y.y.y.y.y.y.y.y.y.y.y.y.y.y.y.y.y.y.y.y.y.y.y.y.y.y.y.y.y.y.y.y.y.y.y.y.y.y.y.y.y.y.y.y.y.y.y.y.y.y.y.y.y.y.y.y.y.y.y.y.y.y.y.y.y.y.y.y.y.y.y.y.y.y.y.0.w.w.&.1 t e e 9 t 5 0.6.0.6.6.y.y.y.y.y.y.y.y.y.y.y.y.y.y.y.y.y.y.y.y.y.y.y.y.y.y.y.y.y.y.y.y.y.y.y.y.y.y.y.y.y.y.y.y.y.y.y.y.y.y.y.y.y.y.y.y.y.y.y.y.y.y.y.y.y.y.y.y.y.y.y.y.y.y.y.w.w.w.w.w.p.( 1 9 9 e t d h p.<.w.w.w.f.w.",
"t 9 e e e t > &.w.0.0.0.0.0.0.0.0.0.0.0.0.0.0.0.f.p.y.f.6.5 d e e 9 t 1 w.0.p.y.0.0.0.0.0.0.0.0.0.0.0.0.0.0.0.0.0.0.0.0.0.0.0.0.0.0.0.0.0.0.0.0.0.0.0.0.0.0.0.0.0.0.0.0.0.0.0.0.y.w.w.0.y.:.> e 9 e 5 t e f.w.p.0.0.0.0.0.0.0.0.0.0.0.0.0.0.0.0.0.0.0.0.0.0.0.0.0.0.0.0.0.0.0.0.0.0.0.0.0.0.0.0.0.0.0.0.0.0.0.0.0.0.0.0.0.0.0.0.0.0.0.0.0.0.0.0.f.f.p.w.f.l 9 t 9 t t =  .f.w.p.0.0.0.0.0.0.0.0.0.0.0.0.0.0.0.0.0.0.0.0.0.0.0.0.0.0.0.0.0.0.0.0.0.0.0.0.0.0.0.0.0.0.0.0.0.0.0.0.0.0.0.0.0.0.0.0.0.0.0.0.0.0.0.0.0.0.0.0.0.0.0.0.0.0.0.0.0.0.0.0.p.w.f.e t 5 e 9 e > :.y.0.y.w.y.0.0.0.0.0.0.0.0.0.0.0.0.0.0.0.0.0.0.0.0.0.0.0.0.0.0.0.0.0.0.0.0.0.0.0.0.0.0.0.0.0.0.0.0.0.0.0.0.0.0.0.0.0.0.0.0.0.0.0.0.0.0.0.0.0.0.0.0.0.0.0.0.0.0.0.0.0.0.0.w.&.> t e e e 9 t 0.0.0.0.0.0.0.0.0.0.0.0.0.0.0.0.0.0.0.0.0.0.0.0.0.0.0.0.0.0.0.0.0.0.0.0.0.0.0.0.0.0.0.0.0.0.0.0.0.0.0.0.0.0.0.0.0.0.0.0.0.0.0.0.0.0.0.0.0.0.0.0.0.0.0.0.0.0.0.0.6.0.w.0.w.y. .9 9 e e t 9 l k.w.0.0.0.0.0.0.0.0.0.0.0.0.0.0.0.0.0.0.0.0.0.0.0.0.0.0.0.0.0.0.0.0.0.0.0.0.0.0.0.0.0.0.0.0.0.0.0.0.0.0.0.0.0.0.0.0.0.0.0.0.0.0.0.0.w.p.y.w.0.0.1 e 9 9 e t 9 6.f.y.0.0.0.0.0.0.0.0.0.0.0.0.0.0.0.0.0.0.0.0.0.0.0.0.0.0.0.0.0.0.0.0.0.0.0.0.0.0.0.0.0.0.0.0.0.0.0.0.0.0.0.0.0.0.0.0.0.0.0.0.0.0.0.0.0.0.0.0.0.0.0.0.0.0.0.0.0.0.0.0.p.y.y.:.1 t e 9 e d 9 p.y.k.y.f.0.0.0.0.0.0.0.0.0.0.0.0.0.0.0.0.0.0.0.0.0.0.0.0.0.0.0.0.0.0.0.0.0.0.0.0.0.0.0.0.0.0.0.0.0.0.0.0.0.0.0.0.0.0.0.0.0.0.0.0.0.0.0.0.0.0.0.0.0.0.0.0.0.0.0.0.0.0.0.0.p.( 1 t e 9 1 5 l f.<.6.0.0.w.6.",
"e e e e e e = &.y.w.w.w.w.w.w.w.w.w.w.w.w.w.w.w.6.6.<.y.:.9 t e t e t > w.6.w.6.w.w.w.w.w.w.w.w.w.w.w.w.w.w.w.w.w.w.w.w.w.w.w.w.w.w.w.w.w.w.w.w.w.w.w.w.w.w.w.w.w.w.w.w.w.w.w.w.0.w.0.6.y.<.9 h 9 d 5 d 9 y.6.6.w.w.w.w.w.w.w.w.w.w.w.w.w.w.w.w.w.w.w.w.w.w.w.w.w.w.w.w.w.w.w.w.w.w.w.w.w.w.w.w.w.w.w.w.w.w.w.w.w.w.w.w.w.w.w.w.w.w.w.w.w.w.w.w.w.6.<.6.w.l 9 t e h t =  .y.6.0.w.w.w.w.w.w.w.w.w.w.w.w.w.w.w.w.w.w.w.w.w.w.w.w.w.w.w.w.w.w.w.w.w.w.w.w.w.w.w.w.w.w.w.w.w.w.w.w.w.w.w.w.w.w.w.w.w.w.w.w.w.w.w.w.w.w.w.w.w.w.w.w.w.w.w.w.w.w.w.w.6.6.y.9 d 5 d 9 h 9 <.y.6.0.w.0.w.w.w.w.w.w.w.w.w.w.w.w.w.w.w.w.w.w.w.w.w.w.w.w.w.w.w.w.w.w.w.w.w.w.w.w.w.w.w.w.w.w.w.w.w.w.w.w.w.w.w.w.w.w.w.w.w.w.w.w.w.w.w.w.w.w.w.w.w.w.w.w.w.w.w.w.w.w.w.y.:.> 9 e 9 e t t w.w.w.w.w.w.w.w.w.w.w.w.w.w.w.w.w.w.w.w.w.w.w.w.w.w.w.w.w.w.w.w.w.w.w.w.w.w.w.w.w.w.w.w.w.w.w.w.w.w.w.w.w.w.w.w.w.w.w.w.w.w.w.w.w.w.w.w.w.w.w.w.w.w.w.w.w.w.w.w.y.y.w.6.w.p. .9 t e t t 5 d w.:.w.w.w.w.w.w.w.w.w.w.w.w.w.w.w.w.w.w.w.w.w.w.w.w.w.w.w.w.w.w.w.w.w.w.w.w.w.w.w.w.w.w.w.w.w.w.w.w.w.w.w.w.w.w.w.w.w.w.w.w.w.w.w.w.0.y.0.6.y.w.t h 9 e t e 9 &.0.:.w.w.w.w.w.w.w.w.w.w.w.w.w.w.w.w.w.w.w.w.w.w.w.w.w.w.w.w.w.w.w.w.w.w.w.w.w.w.w.w.w.w.w.w.w.w.w.w.w.w.w.w.w.w.w.w.w.w.w.w.w.w.w.w.w.w.w.w.w.w.w.w.w.w.w.w.w.w.w.w.0.<.w.$.1 e t e e t 9 y.6.y.:.6.w.w.w.w.w.w.w.w.w.w.w.w.w.w.w.w.w.w.w.w.w.w.w.w.w.w.w.w.w.w.w.w.w.w.w.w.w.w.w.w.w.w.w.w.w.w.w.w.w.w.w.w.w.w.w.w.w.w.w.w.w.w.w.w.w.w.w.w.w.w.w.w.w.w.w.w.w.w.w.w.w.W > t d t 9 9 b k.w.0.w.w.w.0.",
"9 e e t e t 9 <.p.y.y.y.y.y.y.y.y.y.y.y.y.y.y.y.p.y.w.p.:.t e 9 e 9 t 9 p.p.k.p.y.y.y.y.y.y.y.y.y.y.y.y.y.y.y.y.y.y.y.y.y.y.y.y.y.y.y.y.y.y.y.y.y.y.y.y.y.y.y.y.y.y.y.y.y.y.y.y.0.y.y.y.y.$.> 1 t h 1 t 9 w.p.k.y.y.y.y.y.y.y.y.y.y.y.y.y.y.y.y.y.y.y.y.y.y.y.y.y.y.y.y.y.y.y.y.y.y.y.y.y.y.y.y.y.y.y.y.y.y.y.y.y.y.y.y.y.y.y.y.y.y.y.y.y.y.y.y.y.y.y.f.y.B 5 1 9 t e 1 $.f.p.p.y.y.y.y.y.y.y.y.y.y.y.y.y.y.y.y.y.y.y.y.y.y.y.y.y.y.y.y.y.y.y.y.y.y.y.y.y.y.y.y.y.y.y.y.y.y.y.y.y.y.y.y.y.y.y.y.y.y.y.y.y.y.y.y.y.y.y.y.y.y.y.y.y.y.y.y.y.y.y.y.k.p.w.9 t 1 h t 1 > $.y.y.y.y.0.y.y.y.y.y.y.y.y.y.y.y.y.y.y.y.y.y.y.y.y.y.y.y.y.y.y.y.y.y.y.y.y.y.y.y.y.y.y.y.y.y.y.y.y.y.y.y.y.y.y.y.y.y.y.y.y.y.y.y.y.y.y.y.y.y.y.y.y.y.y.y.y.y.y.y.y.y.y.y.p.6.e e e e e t 9 w.y.y.y.y.y.y.w.y.y.y.y.y.y.y.y.y.y.y.y.y.y.y.y.y.y.y.y.y.y.y.y.y.y.y.y.y.y.y.y.y.y.y.y.y.y.y.y.y.y.y.y.y.y.y.y.y.y.y.y.y.y.y.y.y.y.y.y.y.y.y.y.y.y.y.y.y.y.y.y.y.y.y.w.y.y.^ = d 9 e 9 9 B k.f.y.y.y.y.y.y.y.y.y.y.y.y.y.y.y.y.y.y.y.y.y.y.y.y.y.y.y.y.y.y.y.y.y.y.y.y.y.y.y.y.y.y.y.y.y.y.y.y.y.y.y.y.y.y.y.y.y.y.y.y.y.y.y.y.w.y.w.0.p.<.9 > t e e 5 e &.f.f.y.y.y.y.y.y.y.y.y.y.y.y.y.y.y.y.y.y.y.y.y.y.y.y.y.y.y.y.y.y.y.y.y.y.y.y.y.y.y.y.y.y.y.y.y.y.y.y.y.y.y.y.y.y.y.y.y.y.y.y.y.y.y.y.y.y.y.y.y.y.y.y.y.y.y.y.y.y.y.y.f.y.f.:.e 9 e e 9 e t y.0.k.0.p.y.y.y.y.y.y.y.y.y.y.y.y.y.y.y.y.y.y.y.y.y.y.y.y.y.y.y.y.y.y.y.y.y.y.y.y.y.y.y.y.y.y.y.y.y.y.y.y.y.y.y.y.y.y.y.y.y.y.y.y.y.y.y.y.y.y.y.y.y.y.y.y.y.y.y.y.y.y.w.w.k. .1 e e t e e l y.w.w.w.y.w.y.",
"e e e t 5 e e ( <.:.:.:.:.:.:.:.:.:.:.:.:.:.:.:.:.&.$.:.' d t e e 5 e e ..$.:...:.:.:.:.:.:.:.:.:.:.:.:.:.:.:.:.:.:.:.:.:.:.:.:.:.:.:.:.:.:.:.:.:.:.:.:.:.:.:.:.:.:.:.:.:.:.:.:.<.6.<.<.&. .t t 9 t 5 t e  .&.&.:.:.:.:.:.:.:.:.:.:.:.:.:.:.:.:.:.:.:.:.:.:.:.:.:.:.:.:.:.:.:.:.:.:.:.:.:.:.:.:.:.:.:.:.:.:.:.:.:.:.:.:.:.:.:.:.:.:.:.:.:.:.:.:.:.:.$.:...b e 9 9 9 9 9 ( $.:.$.:.:.:.:.:.:.:.:.:.:.:.:.:.:.:.:.:.:.:.:.:.:.:.:.:.:.:.:.:.:.:.:.:.:.:.:.:.:.:.:.:.:.:.:.:.:.:.:.:.:.:.:.:.:.:.:.:.:.:.:.:.:.:.:.:.:.:.:.:.:.:.:.:.:.:.:.:.:.:.:.&.&. .e t 5 t 9 t t ' &.<.<.6.<.:.:.:.:.:.:.:.:.:.:.:.:.:.:.:.:.:.:.:.:.:.:.:.:.:.:.:.:.:.:.:.:.:.:.:.:.:.:.:.:.:.:.:.:.:.:.:.:.:.:.:.:.:.:.:.:.:.:.:.:.:.:.:.:.:.:.:.:.:.:.:.:.:.:.:.:.:.:.:.<.' e e 5 t e e e :.:.:.:.:.:.:.:.:.:.:.:.:.:.:.:.:.:.:.:.:.:.:.:.:.:.:.:.:.:.:.:.:.:.:.:.:.:.:.:.:.:.:.:.:.:.:.:.:.:.:.:.:.:.:.:.:.:.:.:.:.:.:.:.:.:.:.:.:.:.:.:.:.:.:.:.:.:.:.:.<.:.:.:.<.<.( d e 9 e e d b :.&.:.:.:.:.:.:.:.:.:.:.:.:.:.:.:.:.:.:.:.:.:.:.:.:.:.:.:.:.:.:.:.:.:.:.:.:.:.:.:.:.:.:.:.:.:.:.:.:.:.:.:.:.:.:.:.:.:.:.:.:.:.:.:.:.6.<.:.&.<.$.h e e 9 t 9 d ' &.:.:.:.:.:.:.:.:.:.:.:.:.:.:.:.:.:.:.:.:.:.:.:.:.:.:.:.:.:.:.:.:.:.:.:.:.:.:.:.:.:.:.:.:.:.:.:.:.:.:.:.:.:.:.:.:.:.:.:.:.:.:.:.:.:.:.:.:.:.:.:.:.:.:.:.:.:.:.:.:.:.&.$.:.^ e 9 5 9 e e d $...<.$.:.:.:.:.:.:.:.:.:.:.:.:.:.:.:.:.:.:.:.:.:.:.:.:.:.:.:.:.:.:.:.:.:.:.:.:.:.:.:.:.:.:.:.:.:.:.:.:.:.:.:.:.:.:.:.:.:.:.:.:.:.:.:.:.:.:.:.:.:.:.:.:.:.:.:.:.:.:.:.:.:.&.W 5 e 9 e 9 1 B :.:.<.&.:.:.:.",
"d e 9 t > 9 5 d 9 5 5 5 5 5 5 5 5 5 5 5 5 5 5 5 > 1 1 e e 5 e e t e e 5 9 5 9 > 5 5 5 5 5 5 5 5 5 5 5 5 5 5 5 5 5 5 5 5 5 5 5 5 5 5 5 5 5 5 5 5 5 5 5 5 5 5 5 5 5 5 5 5 5 5 5 5 1 = = 5 > t 9 t e t e t 5 9 9 > 5 5 5 5 5 5 5 5 5 5 5 5 5 5 5 5 5 5 5 5 5 5 5 5 5 5 5 5 5 5 5 5 5 5 5 5 5 5 5 5 5 5 5 5 5 5 5 5 5 5 5 5 5 5 5 5 5 5 5 5 5 5 5 5 5 5 > 9 e 5 t t h e e 9 t 5 e 1 5 5 5 5 5 5 5 5 5 5 5 5 5 5 5 5 5 5 5 5 5 5 5 5 5 5 5 5 5 5 5 5 5 5 5 5 5 5 5 5 5 5 5 5 5 5 5 5 5 5 5 5 5 5 5 5 5 5 5 5 5 5 5 5 5 5 5 5 5 5 5 5 5 5 5 5 5 5 5 5 > 9 9 5 t e t e e 5 t > 5 > > 1 5 5 5 5 5 5 5 5 5 5 5 5 5 5 5 5 5 5 5 5 5 5 5 5 5 5 5 5 5 5 5 5 5 5 5 5 5 5 5 5 5 5 5 5 5 5 5 5 5 5 5 5 5 5 5 5 5 5 5 5 5 5 5 5 5 5 5 5 5 5 5 5 5 5 5 5 5 5 5 9 d 5 9 1 t 9 9 t 5 5 5 5 5 5 5 5 5 5 5 5 5 5 5 5 5 5 5 5 5 5 5 5 5 5 5 5 5 5 5 5 5 5 5 5 5 5 5 5 5 5 5 5 5 5 5 5 5 5 5 5 5 5 5 5 5 5 5 5 5 5 5 5 5 5 5 5 5 5 5 5 5 5 5 5 5 5 5 5 e 5 5 5 5 9 e 5 e t t 5 t > 5 > 5 5 5 5 5 5 5 5 5 5 5 5 5 5 5 5 5 5 5 5 5 5 5 5 5 5 5 5 5 5 5 5 5 5 5 5 5 5 5 5 5 5 5 5 5 5 5 5 5 5 5 5 5 5 5 5 5 5 5 5 5 5 5 5 1 # > 1 5 t e 9 e e d 9 5 e 1 > 5 5 5 5 5 5 5 5 5 5 5 5 5 5 5 5 5 5 5 5 5 5 5 5 5 5 5 5 5 5 5 5 5 5 5 5 5 5 5 5 5 5 5 5 5 5 5 5 5 5 5 5 5 5 5 5 5 5 5 5 5 5 5 5 5 5 5 5 5 5 5 5 5 5 5 5 5 5 5 5 1 5 e 5 5 e 9 d e 5 9 d 9 9 > > 5 5 5 5 5 5 5 5 5 5 5 5 5 5 5 5 5 5 5 5 5 5 5 5 5 5 5 5 5 5 5 5 5 5 5 5 5 5 5 5 5 5 5 5 5 5 5 5 5 5 5 5 5 5 5 5 5 5 5 5 5 5 5 5 5 5 5 5 5 5 5 5 5 5 5 5 5 5 5 5 5 e > t e h d e > e 5 t 1 9 5 > ",
"t 5 5 d 1 d e 5 t t e e e e e e e e e e e e e e t t 9 e 9 9 e e 5 9 t d 1 9 d t e e e e e e e e e e e e e e e e e e e e e e e e e e e e e e e e e e e e e e e e e e e e e e e e d e e h 1 t e e 9 9 e t e 9 d e e e e e e e e e e e e e e e e e e e e e e e e e e e e e e e e e e e e e e e e e e e e e e e e e e e e e e e e e e e e e e e e e t d 9 t e 9 e 9 e 1 t d t > d 9 e e e e e e e e e e e e e e e e e e e e e e e e e e e e e e e e e e e e e e e e e e e e e e e e e e e e e e e e e e e e e e e e e e e e e e e e e e e e e e e e e d 9 e t e 9 9 9 e e 1 h e e h e e e e e e e e e e e e e e e e e e e e e e e e e e e e e e e e e e e e e e e e e e e e e e e e e e e e e e e e e e e e e e e e e e e e e e e e e e e e e e t t 1 e d 5 d 5 5 t e e e e e e e e e e e e e e e e e e e e e e e e e e e e e e e e e e e e e e e e e e e e e e e e e e e e e e e e e e e e e e e e e e e e e e e e e e e e e e e e 9 9 t d 9 5 t d 5 e e 1 h e t t e e e e e e e e e e e e e e e e e e e e e e e e e e e e e e e e e e e e e e e e e e e e e e e e e e e e e e e e e e e e e e e e t 9 h d 5 9 e 9 9 5 e 9 e t 9 t e e e e e e e e e e e e e e e e e e e e e e e e e e e e e e e e e e e e e e e e e e e e e e e e e e e e e e e e e e e e e e e e e e e e e e e e e e e e e e e e t t t 5 d h 5 e e 5 t 9 9 e d d e e e e e e e e e e e e e e e e e e e e e e e e e e e e e e e e e e e e e e e e e e e e e e e e e e e e e e e e e e e e e e e e e e e e e e e e e e e e e e e e 5 h e d 1 9 e e d e 1 d 5 d t 5 ",
"e e e e e e e e e e e e e e e e e e e e e e e e e e e e e e e e e e e e e e e e e e e e e e e e e e e e e e e e e e e e e e e e e e e e e e e e e e e e e e e e e e e e e e e e e e e e e e e e e e e e e e e e e e e e e e e e e e e e e e e e e e e e e e e e e e e e e e e e e e e e e e e e e e e e e e e e e e e e e e e e e e e e e e e e e e e e e e e e e e e e e e e e e e e e e e e e e e e e e e e e e e e e e e e e e e e e e e e e e e e e e e e e e e e e e e e e e e e e e e e e e e e e e e e e e e e e e e e e e e e e e e e e e e e e e e e e e e e e e e e e e e e e e e e e e e e e e e e e e e e e e e e e e e e e e e e e e e e e e e e e e e e e e e e e e e e e e e e e e e e e e e e e e e e e e e e e e e e e e e e e e e e e e e e e e e e e e e e e e e e e e e e e e e e e e e e e e e e e e e e e e e e e e e e e e e e e e e e e e e e e e e e e e e e e e e e e e e e e e e e e e e e e e e e e e e e e e e e e e e e e e e e e e e e e e e e e e e e e e e e e e e e e e e e e e e e e e e e e e e e e e e e e e e e e e e e e e e e e e e e e e e e e e e e e e e e e e e e e e e e e e e e e e e e e e e e e e e e e e e e e e e e e e e e e e e e e e e e e e e e e e e e e e e e e e e e e e e e e e e e e e e e e e e e e e e e e e e e e e e e e e e e e e e e e e e e e e e e e e e e e e e e e e e e e e e e e e e e e e e e e e e e e e e e e e e e e e e e e e e e e e e e e e e e e e e e e e e e e e e e e e e e e e e e e e e e e e e e e e e e e e e e e e e e e e e e e e e e e ",
"e e e e e e e e e e e e e e e e e e e e e e e e e e e e e e e e e e e e e e e e e e e e e e e e e e e e e e e e e e e e e e e e e e e e e e e e e e e e e e e e e e e e e e e e e e e e e e e e e e e e e e e e e e e e e e e e e e e e e e e e e e e e e e e e e e e e e e e e e e e e e e e e e e e e e e e e e e e e e e e e e e e e e e e e e e e e e e e e e e e e e e e e e e e e e e e e e e e e e e e e e e e e e e e e e e e e e e e e e e e e e e e e e e e e e e e e e e e e e e e e e e e e e e e e e e e e e e e e e e e e e e e e e e e e e e e e e e e e e e e e e e e e e e e e e e e e e e e e e e e e e e e e e e e e e e e e e e e e e e e e e e e e e e e e e e e e e e e e e e e e e e e e e e e e e e e e e e e e e e e e e e e e e e e e e e e e e e e e e e e e e e e e e e e e e e e e e e e e e e e e e e e e e e e e e e e e e e e e e e e e e e e e e e e e e e e e e e e e e e e e e e e e e e e e e e e e e e e e e e e e e e e e e e e e e e e e e e e e e e e e e e e e e e e e e e e e e e e e e e e e e e e e e e e e e e e e e e e e e e e e e e e e e e e e e e e e e e e e e e e e e e e e e e e e e e e e e e e e e e e e e e e e e e e e e e e e e e e e e e e e e e e e e e e e e e e e e e e e e e e e e e e e e e e e e e e e e e e e e e e e e e e e e e e e e e e e e e e e e e e e e e e e e e e e e e e e e e e e e e e e e e e e e e e e e e e e e e e e e e e e e e e e e e e e e e e e e e e e e e e e e e e e e e e e e e e e e e e e e e e e e e e e e e e e e e e e e e e e ",
"e e e e e e e e e e e e e e e e e e e e e e e e e e e e e e e e e e e e e e e e e e e e e e e e e e e e e e e e e e e e e e e e e e e e e e e e e e e e e e e e e e e e e e e e e e e e e e e e e e e e e e e e e e e e e e e e e e e e e e e e e e e e e e e e e e e e e e e e e e e e e e e e e e e e e e e e e e e e e e e e e e e e e e e e e e e e e e e e e e e e e e e e e e e e e e e e e e e e e e e e e e e e e e e e e e e e e e e e e e e e e e e e e e e e e e e e e e e e e e e e e e e e e e e e e e e e e e e e e e e e e e e e e e e e e e e e e e e e e e e e e e e e e e e e e e e e e e e e e e e e e e e e e e e e e e e e e e e e e e e e e e e e e e e e e e e e e e e e e e e e e e e e e e e e e e e e e e e e e e e e e e e e e e e e e e e e e e e e e e e e e e e e e e e e e e e e e e e e e e e e e e e e e e e e e e e e e e e e e e e e e e e e e e e e e e e e e e e e e e e e e e e e e e e e e e e e e e e e e e e e e e e e e e e e e e e e e e e e e e e e e e e e e e e e e e e e e e e e e e e e e e e e e e e e e e e e e e e e e e e e e e e e e e e e e e e e e e e e e e e e e e e e e e e e e e e e e e e e e e e e e e e e e e e e e e e e e e e e e e e e e e e e e e e e e e e e e e e e e e e e e e e e e e e e e e e e e e e e e e e e e e e e e e e e e e e e e e e e e e e e e e e e e e e e e e e e e e e e e e e e e e e e e e e e e e e e e e e e e e e e e e e e e e e e e e e e e e e e e e e e e e e e e e e e e e e e e e e e e e e e e e e e e e e e e e e e e e e e ",
"e e e e e e e e e e e e e e e e e e e e e e e e e e e e e e e e e e e e e e e e e e e e e e e e e e e e e e e e e e e e e e e e e e e e e e e e e e e e e e e e e e e e e e e e e e e e e e e e e e e e e e e e e e e e e e e e e e e e e e e e e e e e e e e e e e e e e e e e e e e e e e e e e e e e e e e e e e e e e e e e e e e e e e e e e e e e e e e e e e e e e e e e e e e e e e e e e e e e e e e e e e e e e e e e e e e e e e e e e e e e e e e e e e e e e e e e e e e e e e e e e e e e e e e e e e e e e e e e e e e e e e e e e e e e e e e e e e e e e e e e e e e e e e e e e e e e e e e e e e e e e e e e e e e e e e e e e e e e e e e e e e e e e e e e e e e e e e e e e e e e e e e e e e e e e e e e e e e e e e e e e e e e e e e e e e e e e e e e e e e e e e e e e e e e e e e e e e e e e e e e e e e e e e e e e e e e e e e e e e e e e e e e e e e e e e e e e e e e e e e e e e e e e e e e e e e e e e e e e e e e e e e e e e e e e e e e e e e e e e e e e e e e e e e e e e e e e e e e e e e e e e e e e e e e e e e e e e e e e e e e e e e e e e e e e e e e e e e e e e e e e e e e e e e e e e e e e e e e e e e e e e e e e e e e e e e e e e e e e e e e e e e e e e e e e e e e e e e e e e e e e e e e e e e e e e e e e e e e e e e e e e e e e e e e e e e e e e e e e e e e e e e e e e e e e e e e e e e e e e e e e e e e e e e e e e e e e e e e e e e e e e e e e e e e e e e e e e e e e e e e e e e e e e e e e e e e e e e e e e e e e e e e e e e e e e e e e e e e ",
"e e e e e e e e e e e e e e e e e e e e e e e e e e e e e e e e e e e e e e e e e e e e e e e e e e e e e e e e e e e e e e e e e e e e e e e e e e e e e e e e e e e e e e e e e e e e e e e e e e e e e e e e e e e e e e e e e e e e e e e e e e e e e e e e e e e e e e e e e e e e e e e e e e e e e e e e e e e e e e e e e e e e e e e e e e e e e e e e e e e e e e e e e e e e e e e e e e e e e e e e e e e e e e e e e e e e e e e e e e e e e e e e e e e e e e e e e e e e e e e e e e e e e e e e e e e e e e e e e e e e e e e e e e e e e e e e e e e e e e e e e e e e e e e e e e e e e e e e e e e e e e e e e e e e e e e e e e e e e e e e e e e e e e e e e e e e e e e e e e e e e e e e e e e e e e e e e e e e e e e e e e e e e e e e e e e e e e e e e e e e e e e e e e e e e e e e e e e e e e e e e e e e e e e e e e e e e e e e e e e e e e e e e e e e e e e e e e e e e e e e e e e e e e e e e e e e e e e e e e e e e e e e e e e e e e e e e e e e e e e e e e e e e e e e e e e e e e e e e e e e e e e e e e e e e e e e e e e e e e e e e e e e e e e e e e e e e e e e e e e e e e e e e e e e e e e e e e e e e e e e e e e e e e e e e e e e e e e e e e e e e e e e e e e e e e e e e e e e e e e e e e e e e e e e e e e e e e e e e e e e e e e e e e e e e e e e e e e e e e e e e e e e e e e e e e e e e e e e e e e e e e e e e e e e e e e e e e e e e e e e e e e e e e e e e e e e e e e e e e e e e e e e e e e e e e e e e e e e e e e e e e e e e e e e e e e e e e e e "
};
